ncols        51
nrows        45
xllcorner    -63.500000000000
yllcorner    -7.500000000000
cellsize     0.166666666667
NODATA_value -99
220.243743896484 207.262496948242 201.456253051758 200.787506103516 197.693756103516 198.243743896484 199.043746948242 198.018753051758 202.337493896484 208.537506103516 211.012496948242 213.356246948242 214.550003051758 218.899993896484 223.850006103516 226.350006103516 228.243743896484 224.175003051758 221.712493896484 222.28125 223.399993896484 218.681243896484 215.481246948242 212.743743896484 212.449996948242 208.21875 206.449996948242 205.056259155273 202.018753051758 207.412506103516 204.893753051758 207.143753051758 214.731246948242 217.768753051758 219.893753051758 218.006256103516 211.5625 216.043746948242 209 203.443756103516 205.237503051758 207.4375 203.012496948242 201.412506103516 199.706253051758 200.425003051758 198.043746948242 193.431243896484 191.78125 195.012496948242 196.762496948242 
210.862503051758 197.587493896484 191.574996948242 190.962493896484 189.637496948242 190.59375 191.09375 191.774993896484 196.568740844727 200.793746948242 203.225006103516 204.34375 205.600006103516 207.975006103516 209.706253051758 211.78125 212.462493896484 209.762496948242 208.931243896484 208.587493896484 203.893753051758 203.368743896484 202.243743896484 204.131256103516 199.387496948242 197.074996948242 196.793746948242 196.918746948242 193.056243896484 193.774993896484 195.506256103516 202.856246948242 208.03125 214.199996948242 216.618743896484 210.581253051758 204.050003051758 204.237503051758 196.331253051758 192.981246948242 196.274993896484 194.550003051758 191.987503051758 187.15625 188.137496948242 189.856246948242 188.53125 186.612503051758 183.243743896484 188.368743896484 189.306243896484 
194.774993896484 188.149993896484 187.5625 186.131256103516 183.912506103516 183.050003051758 184.149993896484 187.668746948242 192.631256103516 195.868743896484 197.375 196.106246948242 198.362503051758 196.393753051758 196.181243896484 196.256256103516 196.925003051758 194.175003051758 192.037506103516 193.100006103516 189.625 190.643753051758 191.824996948242 193.25 191.731246948242 187.693756103516 192.831253051758 191.981246948242 189.731246948242 192.050003051758 194.143753051758 194.262496948242 200.362503051758 209.643753051758 205.356246948242 197.9375 196.143753051758 198.643753051758 189.943756103516 187.181243896484 188.831253051758 188.131256103516 183.418746948242 180.375 182.787506103516 180.649993896484 178.118743896484 179.643753051758 175.243743896484 178.987503051758 184.231246948242 
181.331253051758 173.774993896484 177.731246948242 181.65625 179.649993896484 176.862503051758 176.399993896484 181.774993896484 188.712493896484 192.493743896484 189.662506103516 187.412506103516 187.25 188.262496948242 185.162506103516 182.137496948242 180.1875 178.362503051758 178.612503051758 183.675003051758 182.493743896484 179.46875 180.612503051758 184.65625 185.643753051758 184.268753051758 185.737503051758 181.399993896484 182.762496948242 190.475006103516 193.074996948242 192.368743896484 192.537506103516 193.856246948242 191.762496948242 194.675003051758 195.912506103516 190.262496948242 184.581253051758 180.606246948242 184.606246948242 186.018753051758 181.181259155273 176.881256103516 175.675003051758 171.574996948242 170.162506103516 170.975006103516 170.425003051758 171.774993896484 175.818756103516 
187.15625 173.506256103516 166.112503051758 170.975006103516 176.087493896484 172.287506103516 173.206253051758 177.425003051758 182.475006103516 184.137496948242 185.300003051758 181.206253051758 179.9375 178.725006103516 174.506256103516 171 167.556243896484 167.037506103516 164.212493896484 167.693756103516 170.043746948242 168.024993896484 168.53125 177.762496948242 178.918746948242 177.75 176.668746948242 178.743743896484 179.199996948242 181.681259155273 186.28125 188.918746948242 192.25 191.875 189.637496948242 185.574996948242 186.337493896484 185.100006103516 178.168746948242 176.462493896484 178.787506103516 175.418746948242 174.668746948242 172.887496948242 168.912506103516 164.856246948242 163.862503051758 162.3125 159.550003051758 161.84375 164.268753051758 
182.462493896484 175.581253051758 170.65625 157.643753051758 165.375 173.518753051758 173.949996948242 175.643753051758 181.693756103516 181.962493896484 180.318756103516 176.887496948242 175.456253051758 169.431243896484 167.350006103516 163.574996948242 157.568756103516 154.037490844727 154.012496948242 158.399993896484 160.706253051758 161.550003051758 165.068756103516 168.118743896484 172.743743896484 173.943756103516 173.21875 174.024993896484 172.868743896484 175.087493896484 178.943756103516 185.475006103516 185.774993896484 188.543746948242 184.456253051758 182.46875 175.493759155273 174.537506103516 174.037506103516 175.550003051758 171.043746948242 170.774993896484 167.668746948242 163.943756103516 163.662506103516 160.268753051758 154.28125 153.568756103516 150.293746948242 151.212493896484 152.725006103516 
180.456253051758 175.731246948242 172.356246948242 167.512496948242 164.018753051758 161.168746948242 166.675003051758 172.0625 174.081253051758 175.837493896484 175.9375 169.112503051758 169.012496948242 164.412506103516 159.03125 156.268753051758 152.506256103516 145.84375 141.731246948242 148.762496948242 151.300003051758 152.574996948242 155.106246948242 161.706253051758 165.862503051758 170.59375 173.668746948242 169.337493896484 165.862503051758 172.268753051758 174.381256103516 174.65625 174.6875 179.78125 181.118743896484 176.356246948242 169.03125 165.675003051758 167.024993896484 169.956253051758 165.012496948242 161.175003051758 160.212493896484 156.324996948242 156.256256103516 155.918746948242 151.487503051758 143.625 138.050003051758 140.0625 143.65625 
181.181243896484 174.949996948242 173.831253051758 172.649993896484 172.131256103516 175.206253051758 170.324996948242 160.806243896484 159.131256103516 161.262496948242 162.581253051758 160.962493896484 159.831253051758 154.943756103516 152 148.643753051758 143.481246948242 138.206253051758 135.056243896484 135.006256103516 142.837493896484 147.893753051758 149.949996948242 156.268753051758 163.462493896484 164.112503051758 166.318756103516 160.887496948242 161.743743896484 163.149993896484 169.824996948242 170.106246948242 171.5 171.949996948242 170.856246948242 163.899993896484 157.943756103516 155.287506103516 152.949996948242 151.574996948242 149.237503051758 148.618743896484 147.143753051758 142.875 141.493743896484 137.668746948242 133.618743896484 126.324996948242 124.424995422363 125.900001525879 132.15625 
180.943756103516 176.431243896484 174.125 175.762496948242 177.487503051758 176.606246948242 173.631256103516 169.137496948242 162.09375 154.606246948242 152.606246948242 148.475006103516 152.356246948242 147.612503051758 144.306243896484 140.618743896484 138.106246948242 137.074996948242 138.856246948242 133.40625 135.5625 144.662506103516 147.743743896484 156.274993896484 162.3125 159.237503051758 157.287506103516 160.143753051758 161.850006103516 161.90625 169.162506103516 165.300003051758 159.606246948242 157.199996948242 157.675003051758 158 156.131256103516 155.0625 149.693756103516 144.556243896484 140.606246948242 138.5625 137.975006103516 132.681243896484 128.893753051758 124.59375 121.90625 114.681251525879 112.587501525879 113.943748474121 118.362503051758 
178.037506103516 175.96875 176.043746948242 177.956253051758 179.737503051758 181.40625 178.125 173.862503051758 168.643753051758 164.162506103516 156.181243896484 145.824996948242 145.943756103516 142.987503051758 140.237503051758 138.037506103516 133.181243896484 136.231246948242 139 138.287506103516 139.90625 140.681243896484 141.300003051758 149.693756103516 154.181243896484 157.418746948242 155.34375 156.550003051758 155.737503051758 156.8125 160.931243896484 157.131256103516 154.875 151.824996948242 149.856246948242 151.306243896484 150.975006103516 150.4375 145.65625 143.993743896484 142.262496948242 137.6875 131.387496948242 123.243751525879 116.912498474121 116.806251525879 115.193748474121 106.568748474121 102.568748474121 101.087501525879 100.981246948242 
178.5 177.787506103516 177.256256103516 180.487503051758 181.737503051758 183.506256103516 181.5 173.381256103516 164.693756103516 160.231246948242 156.137496948242 148.4375 139.231246948242 137.712493896484 132.475006103516 129.6875 128.993743896484 132.425003051758 135.412506103516 141.087493896484 147.462493896484 146.737503051758 141.8125 138.356246948242 149.506256103516 161.306243896484 160.243743896484 157.824996948242 151.34375 152.012496948242 153.550003051758 154.175003051758 153.162506103516 148.774993896484 148.743743896484 147.899993896484 147.53125 143.181243896484 145.09375 141.368743896484 135.868743896484 130.256256103516 127.387496948242 116.449996948242 108.050003051758 107.481246948242 105.0625 100.456253051758 97.2937469482422 91.78125 89.34375 
177.618743896484 175.46875 175.75 179.606246948242 182.206253051758 184.112503051758 183.71875 176.125 164.818756103516 155.268753051758 149.475006103516 145.850006103516 134.524993896484 129.993743896484 129.962493896484 125.074996948242 124.393753051758 127.825004577637 131.649993896484 139.581253051758 151.050003051758 153.112503051758 153.368743896484 146.881256103516 148.649993896484 147.550003051758 147.4375 149.043746948242 146.350006103516 145.84375 143.256256103516 143.800003051758 144.931243896484 144.3125 146.574996948242 147.981246948242 145.4375 145.737503051758 138.693756103516 135.024993896484 128.65625 125.949996948242 117.668746948242 105.643753051758 96.15625 90.1062469482422 85.5687484741211 88.5187530517578 88.5999984741211 84.4499969482422 75.9437484741211 
171.118743896484 171.987503051758 174.274993896484 175.699996948242 176.481246948242 178.712493896484 176.331253051758 167.893753051758 157.875 152.037506103516 147.612503051758 141.006256103516 135.681243896484 122.668746948242 118.668746948242 119.699996948242 119.262496948242 123.875 128.28125 133.675003051758 142.443756103516 145.662506103516 149.524993896484 145.993743896484 139.981246948242 138.850006103516 140.449996948242 142.974990844727 141.737503051758 139.706253051758 136.712493896484 133.081253051758 137.006256103516 138.15625 140.118743896484 142.881256103516 145.943756103516 149.631256103516 148.381256103516 137.637496948242 125.643753051758 119.606246948242 107.637496948242 99.2874984741211 97.6062469482422 93.6062469482422 85.5999984741211 80.9499969482422 79.5687484741211 79.3375015258789 75.4937515258789 
166.118743896484 166.637496948242 169.206253051758 169.71875 169.350006103516 168.887496948242 165.84375 159.243743896484 154.606246948242 146.637496948242 141.543746948242 136.412506103516 128.3125 119.099998474121 108.162498474121 111.462501525879 110.368751525879 115.849998474121 118.849998474121 124.78125 131.774993896484 137.9375 142.574996948242 141.862503051758 136.699996948242 133.806243896484 133.043746948242 131.493743896484 130.268753051758 128.912506103516 131.462493896484 130.15625 129.618743896484 130.956253051758 133.931243896484 141.881256103516 151.056243896484 159.925003051758 161.3125 148.493743896484 124.143753051758 110.5 107.96875 113.3125 115.837501525879 105.837501525879 98.34375 94.7125015258789 87.4562530517578 87.5 81.84375 
162.462493896484 160.768753051758 161.381256103516 162.800003051758 160.643753051758 158.612503051758 159.15625 152.9375 146.837493896484 139.618743896484 134.393753051758 128.081253051758 122.349998474121 115.793746948242 101.637496948242 101.175003051758 101.199996948242 105.518753051758 109.15625 115.568748474121 124.581253051758 130.28125 135.3125 138.65625 138.337493896484 137.318756103516 135.737503051758 131.912506103516 131.4375 131.337493896484 127.256248474121 127.34375 132.024993896484 131.162506103516 127.793746948242 134 151.518753051758 169.649993896484 173.987503051758 160.393753051758 143.375 131.050003051758 133.818756103516 127.5 121.8125 115.887496948242 115.681251525879 112.9375 109.806251525879 94.8375015258789 86.1750030517578 
154.9375 153.618743896484 154.793746948242 154.106246948242 152.987503051758 153.831253051758 149.481246948242 144.1875 139.237503051758 134.993743896484 128.449996948242 123.056251525879 118.125 111.981246948242 100.943748474121 87.6125030517578 90.1812515258789 96.0625 99 105.662498474121 113.28125 121.893753051758 129.331253051758 139.243743896484 141.65625 140.125 135.543746948242 128.787506103516 128.75 129.25 133.100006103516 127.793746948242 125.400001525879 123 121.706245422363 139.768753051758 154.993743896484 171.556243896484 182.306243896484 183.181243896484 174.574996948242 160.743743896484 149.481246948242 134.975006103516 122.237503051758 115.5625 110.293746948242 108.318748474121 107.28125 99.6500015258789 90.5250015258789 
147.774993896484 146.731246948242 148.543746948242 149.337493896484 149.262496948242 145.993743896484 143.887496948242 139.225006103516 134.75 130.6875 125.199996948242 118.662498474121 112.412498474121 108.28125 104.393753051758 94.9187469482422 85.34375 86.2375030517578 93.7375030517578 99.3312530517578 106.006248474121 115.050003051758 126.53125 139.787506103516 147.050003051758 136.643753051758 127.050003051758 121.581253051758 124.393753051758 128.699996948242 133.193756103516 136.087509155273 132.943756103516 131.725006103516 144.4375 155.493743896484 175.087493896484 199.8125 217.443756103516 203.237503051758 190.1875 170.34375 149.75 137.381256103516 124.731246948242 114.106246948242 111.125 112.606246948242 110.618751525879 98.7125015258789 94.5500030517578 
140.731246948242 141.768753051758 142.09375 144.331253051758 144.168746948242 139.574996948242 136.524993896484 133.543746948242 129.431243896484 122.268753051758 117.568748474121 114.65625 109.362503051758 105.5625 104.125 99.7874984741211 91.6125030517578 81.375 90.0875015258789 94.4625015258789 100.393753051758 108.0625 122.675003051758 134.237503051758 139.762496948242 129.618743896484 119.724998474121 117.356246948242 121.668746948242 123.162498474121 121.143753051758 122.400001525879 142.293746948242 151.5 153.300003051758 171.881256103516 196.46875 212.493743896484 220.53125 209.649993896484 185.443756103516 166.15625 147.118743896484 135.237503051758 123.125 114.699996948242 114.818748474121 110.800003051758 106.956253051758 95.2062530517578 93.9250030517578 
134.162506103516 135.125 134.225006103516 135.337493896484 137.0625 134.399993896484 129.862503051758 128.293746948242 125.5 119.324996948242 114.5625 109.162498474121 105.618751525879 104.118751525879 99.5374984741211 98.2624969482422 94.3375015258789 87.2687530517578 83.1374969482422 85.5 95.15625 109.75 104.662498474121 117.199996948242 123.818748474121 124.337501525879 119.46875 115.318748474121 120.15625 123.368751525879 124.074996948242 128.175003051758 143.318756103516 149.193756103516 156.100006103516 171.618743896484 184.6875 194.862503051758 202.268753051758 188.512496948242 174.181243896484 154.943756103516 141.037506103516 130.581253051758 121.587501525879 113.987503051758 114.668746948242 112.3125 102.856246948242 88.5500030517578 92.6687469482422 
124.46875 127.318748474121 127.875 128.381256103516 127.875 130.40625 126.400001525879 125.106246948242 123.262496948242 117.912498474121 113.737503051758 113.456253051758 109.868751525879 106.09375 98.7937469482422 90.3062515258789 85.2125015258789 92.1437530517578 87.0687484741211 85.1374969482422 81.7125015258789 88.6312484741211 99.8312530517578 107.731246948242 111.168746948242 108.543746948242 108.90625 114.112503051758 114.912498474121 114.1875 120.800003051758 135.787506103516 142.793746948242 149.46875 158.287506103516 170.337493896484 177.412506103516 180.368743896484 179.9375 171.643753051758 155.675003051758 140.631240844727 134.024993896484 125.137496948242 117.287498474121 112.925003051758 112.256248474121 107.887496948242 97.875 87.7562484741211 91.7125015258789 
113.193748474121 122.550003051758 128.318756103516 126.393753051758 123.90625 126.131248474121 124.306251525879 123.59375 120.693748474121 116.868751525879 111.53125 111.050003051758 109 104.231246948242 97.2874984741211 90.6875 87.0749969482422 87.09375 89.0500030517578 84.1125030517578 89.3312530517578 95.6750030517578 103.775001525879 112.918746948242 115.96875 111.912498474121 106.012496948242 109.881248474121 115 117.287498474121 126.40625 136.175003051758 137.412506103516 145.125 154.15625 163.3125 170.425003051758 169.887496948242 165.243743896484 156.774993896484 146.462493896484 138.018753051758 129.199996948242 122.087501525879 115.587501525879 111.193748474121 107.949996948242 103.525001525879 91.8625030517578 88.7125015258789 87.5749969482422 
110.400001525879 112.581253051758 119.912498474121 122.506248474121 122.96875 120.318748474121 119.337501525879 118.71875 117.393753051758 114.074996948242 111.175003051758 107.25 103.900001525879 103.900001525879 101.293746948242 94.9000015258789 94.0187530517578 91.8812484741211 91.7375030517578 90.3874969482422 90.46875 95.7937469482422 103.418754577637 106.806251525879 106.912498474121 105.400001525879 109.418746948242 108.9375 117.587501525879 124.362503051758 128.112503051758 131.59375 133.837493896484 138.787506103516 143.3125 153.53125 159.774993896484 160.193756103516 156.443756103516 150.125 142.09375 135.506256103516 128.675003051758 121.625 114.650001525879 109.787498474121 104.625 96.7374954223633 87.1125030517578 88.4937515258789 83.7562484741211 
107.381248474121 114.631248474121 119.400001525879 120.375 120.037498474121 119 112.224998474121 111.5 112.03125 113.818748474121 112.512496948242 108.693748474121 107.856246948242 106.03125 105.518753051758 103.118751525879 98.0625 93.6125030517578 91.8499984741211 92.5625 97.4749984741211 98.9312515258789 102.25 104.762496948242 108.318748474121 105.387496948242 105.112503051758 109.506248474121 113.831253051758 117.337501525879 120.612503051758 125.550003051758 126.731246948242 128.012496948242 134.118743896484 138.481246948242 146.212493896484 145.543746948242 146.206253051758 143.962493896484 138.356246948242 130.056243896484 124.537498474121 117.96875 108.949996948242 106.043746948242 98.9749984741211 93.2375030517578 88.8249969482422 87.7562484741211 82.2624969482422 
101.28125 111.15625 118.956253051758 119.131248474121 118.512496948242 115.056251525879 114.25 111.287498474121 108.525001525879 106.518753051758 106.574996948242 109.949996948242 109.118751525879 108.981246948242 105.518753051758 103.068748474121 97.4937515258789 96.5062484741211 94.09375 96.4375 97.53125 101.993751525879 104.293746948242 109.650001525879 111.675003051758 107.668746948242 109.487503051758 107.287498474121 108.868751525879 110.96875 114.025001525879 117.099998474121 116.012496948242 115.237503051758 123.637496948242 124.931251525879 133.262496948242 137.699996948242 138.556243896484 136.018753051758 132.631256103516 125.568748474121 121.118751525879 114.256248474121 107.893753051758 101.03125 92.9312515258789 86.3499984741211 85.6062469482422 84.375 78.0500030517578 
98.2624969482422 109.087501525879 118.418746948242 119.9375 119.987503051758 114.556251525879 112.550003051758 109.806251525879 107.125 107.5 107.612503051758 104.949996948242 108.224998474121 107.237503051758 103.381248474121 98.8312530517578 96.15625 96.3687515258789 95.9437484741211 96.6187515258789 99.5 102.337501525879 108.931251525879 111.206253051758 109.5 111.15625 106.550003051758 103.96875 102.762496948242 104.025001525879 101.925003051758 101.387496948242 104.137496948242 104.96875 108.237503051758 113.631248474121 122.606246948242 126.0625 128.850006103516 128.774993896484 124.599998474121 120.643753051758 117.287498474121 110.356246948242 99.625 94.6750030517578 84.5062484741211 84.4187469482422 82.1687469482422 79.8874969482422 75.96875 
100.90625 111.231246948242 114.543746948242 117.762496948242 117.512496948242 113.381248474121 110.675003051758 107.400001525879 103.675003051758 99.9875030517578 104.675003051758 104.40625 102.412498474121 102.28125 100.125 97.4437484741211 94.3062515258789 94.5250015258789 95.2874984741211 95.1062469482422 100.587501525879 104.206253051758 110.043746948242 112.337501525879 109.699996948242 107.268753051758 104.431251525879 99.7312469482422 95.5500030517578 93.1312484741211 90.4812469482422 88.1500015258789 88.8562469482422 91.8625030517578 98.34375 104.431251525879 112.206253051758 118.449996948242 120.893753051758 121.28125 121.237503051758 115.224998474121 110.962501525879 104.212501525879 96.2312469482422 85.6999969482422 83.1875 80.8937530517578 79.6687469482422 78.5625 74.2562484741211 
98.4375 104.412498474121 110.125 113.599998474121 112.962501525879 110.381248474121 108.5 104.65625 99.125 101.012496948242 103.525001525879 102.974998474121 101.481246948242 98.7437515258789 95.8312530517578 95.6937484741211 93.0625 91.5 93.03125 94.4312515258789 96.7062530517578 100.631248474121 107.300003051758 112 107.056251525879 100.806251525879 97.2937469482422 93.75 89.96875 84.0062484741211 82.0500030517578 76.7874984741211 76.9000015258789 84.2375030517578 89.4124984741211 97.1812515258789 101.675003051758 107.831253051758 111.543746948242 113.912498474121 116.412498474121 112.199996948242 106.550003051758 99.3687515258789 89.65625 83.0250015258789 81.21875 76.0437469482422 74.8499984741211 71.0749969482422 67.0437469482422 
96.3249969482422 98.3249969482422 103 107.974998474121 107.700004577637 106.012504577637 104.324996948242 100.631248474121 98.2375030517578 98.6812515258789 99.2375030517578 97.1500015258789 96.09375 94.2062530517578 91.125 89.8249969482422 88.59375 88.2249984741211 87.15625 89.4499969482422 94.1125030517578 96.4187469482422 98.3312530517578 102.106246948242 100.349998474121 95.2312469482422 91.5250015258789 87.90625 84.0749969482422 80.2687530517578 76.5437469482422 73.4187469482422 73.8312530517578 76.96875 82.5437469482422 89.1812515258789 93.3499984741211 99.6437530517578 104.318748474121 109.506248474121 111.756248474121 111.368751525879 103.443748474121 97.4937515258789 85.8125 78.6750030517578 74.6125030517578 72.0500030517578 68.1750030517578 62.4187507629395 59.1437492370605 
92.6187515258789 94.4312515258789 99.5374984741211 99.3125 100.762496948242 97.9000015258789 95.8812484741211 95.1750030517578 93.1875 94.4499969482422 94.1999969482422 92.2437515258789 91.4937515258789 90.8125 88.2874984741211 86.6125030517578 86.4875030517578 83.7249984741211 83.8812484741211 85.7125015258789 88.3812484741211 90.09375 92.4875030517578 93.5625 92.3874969482422 88.8625030517578 85.4187469482422 82.0625 80.7249984741211 77.1812515258789 72.6687469482422 70.0625 69.9562530517578 71.9499969482422 76.6624984741211 82.4937515258789 86.8625030517578 92.5999984741211 96.8125 99.2437515258789 104.168746948242 101.043746948242 96.5 91.3062515258789 81.9375 72.1312484741211 69.5 66.8812484741211 60.9937477111816 56.6812515258789 50.1062507629395 
86.21875 90.1999969482422 93.1125030517578 93.0250015258789 92.0999984741211 90.875 88.59375 89.8874969482422 89.9124984741211 89.5 89.3937530517578 89.5124969482422 88.59375 86.4000015258789 84.28125 82.75 81.03125 80.21875 79.0187454223633 79.4124984741211 82.2874984741211 83.1999969482422 85.09375 84.1937484741211 83.6374969482422 81.53125 78.15625 75.8312530517578 74.8125 71.5625 68.5124969482422 65.8312530517578 65.5999984741211 67.6999969482422 70.7937469482422 75.0250015258789 81.4124984741211 84.9000015258789 86.2687530517578 89.0812530517578 94.2249984741211 92.7687530517578 88.9749984741211 83.5500030517578 76.3125 71.7312469482422 67.8187484741211 62.25 56.3375015258789 53.2625007629395 47.4500007629395 
81.4812469482422 84.3687515258789 83.3937530517578 86.0250015258789 86.7624969482422 86.625 84.6999969482422 84.4250030517578 84.7687530517578 85.0500030517578 85.7750015258789 84.9312515258789 86.15625 82.2562484741211 79.4187469482422 78.5749969482422 78.8687515258789 75.4625015258789 72.6624984741211 74.5437469482422 77.2125015258789 77.6687469482422 77.96875 75.7125015258789 74.15625 74.7624969482422 72.1125030517578 68.9437484741211 66.6312484741211 65.3625030517578 63.46875 62.4124984741211 62.8499984741211 65.03125 67.2874984741211 69.5812530517578 73.8000030517578 78.8187484741211 78.28125 77.7937469482422 81.0062484741211 82.4312515258789 79.9437484741211 74.8562469482422 70.6187515258789 68.3062515258789 63.2000007629395 57.7000007629395 52.8562507629395 49.6749992370605 45.5499992370605 
76.59375 75.7874984741211 74.8874969482422 75.7874984741211 77.9937515258789 79.2437515258789 79.7937469482422 79.2937469482422 80.4437484741211 79.6937484741211 80.8812484741211 82.0187530517578 81.15625 80.5875015258789 78.2312469482422 76.5374984741211 75.1875 71.8375015258789 68.3249969482422 70.0812530517578 70.3812484741211 70.9875030517578 70.125 67.9375 67.9375 66.7062530517578 64.875 63.5437507629395 60.3312492370605 59.7750015258789 59.7249984741211 59.0062484741211 59.0499992370605 60.9312515258789 63.5562515258789 64.7375030517578 68.6500015258789 69.1374969482422 69.03125 70.7937469482422 73.1750030517578 72.5875015258789 70.4749984741211 68.9250030517578 65.9875030517578 64.65625 62.5875015258789 56.9187507629395 50.2687492370605 46.3125 42.4625015258789 
70.1875 68.5750045776367 66.7375030517578 66.9875030517578 68.9875030517578 70.1750030517578 71.6937484741211 72.3187484741211 71.8312530517578 74.1812515258789 77.1937484741211 76.5250015258789 76.9437484741211 77.9937515258789 76.3312530517578 72.9812469482422 69.7687530517578 69.0437469482422 67.1312484741211 67.65625 66.8125 65.3687515258789 63.2625007629395 62.1437492370605 62.5437507629395 60.8812484741211 60.1624984741211 57.8875007629395 56.4312515258789 55.3499984741211 55.1687507629395 54.4937515258789 53.875 55.7000007629395 58.9375 61.3499984741211 61.7437515258789 62.0187492370605 62.3312492370605 65.4749984741211 67.3375015258789 67.4499969482422 63.7374992370605 63.1437492370605 61.15625 60.53125 61.46875 55.2000007629395 50.3687515258789 44.9500007629395 41.7249984741211 
63.96875 62.5062484741211 61.875 62.0125007629395 62.21875 61.5250015258789 62.6624984741211 62.1937484741211 64.78125 65.9875030517578 69.34375 71.3687515258789 73.3499984741211 73.3937530517578 71.78125 68.1312484741211 66.0812530517578 64.8000030517578 63.09375 62.8312492370605 62.5625 59.65625 58.7999992370605 57.9187507629395 56.4749984741211 54.6812515258789 53.9375 53.1812515258789 51.8687515258789 51.4312515258789 51.3499984741211 50.5437507629395 50 52.2062492370605 54.6687507629395 55.7437515258789 55.0250015258789 55.71875 57.6375007629395 59.3812484741211 61.4749984741211 62.5187492370605 61.8937492370605 60.1437492370605 59.3375015258789 56.8812484741211 54.9437484741211 50.6062507629395 46.5812492370605 43.7062492370605 39.71875 
58.875 55.8187484741211 56.625 56.2750015258789 56.9249992370605 56.3375015258789 55.8125 55.4124984741211 55.7625007629395 57.59375 61.8500022888184 66.15625 71.0500030517578 72.5187530517578 68.9250030517578 65.5187530517578 62.8687515258789 60.9312515258789 60.2125015258789 58.625 57.9625015258789 56.7874984741211 54.9187507629395 53.5687484741211 51.8812484741211 49.7687492370605 49.15625 48.4937515258789 47.2874984741211 44.96875 45.2125015258789 46.3250007629395 46.7750015258789 48.2999992370605 49.1875 49.9562492370605 50.4249992370605 52.125 52.9000015258789 53.3562507629395 54.40625 54.3562507629395 56.4437484741211 55.9562492370605 54.6437492370605 53.3499984741211 51.1937484741211 48.0812492370605 44.4124984741211 40.9562492370605 37.1812515258789 
53.1500015258789 51.5250015258789 52.6937484741211 51.3687515258789 51.4812507629395 50.5125007629395 50.0999984741211 49.4375 49.4249992370605 50.0812492370605 53.7374992370605 59.2687492370605 66.0374984741211 66.2437515258789 64.7562484741211 62.0750007629395 60.0437507629395 57.625 55.5999984741211 54.4124984741211 51.5625 51.7374992370605 49.4874992370605 47.8187484741211 45.5062484741211 45.2125015258789 44.6875 44.0875015258789 42.8937492370605 41.21875 41.4000015258789 42.8687515258789 43.0812492370605 44.5437507629395 45.4749984741211 45.2937507629395 46.2062492370605 47.1624984741211 48.9500007629395 49.4500007629395 49.03125 49.6500015258789 49.28125 49.46875 48.9812507629395 47.5250015258789 45.3875007629395 43.875 41.3499984741211 37.4249992370605 34.2874984741211 
47.40625 47.1500015258789 47.6187515258789 46.1500015258789 46.1187515258789 46.0812492370605 45.5437507629395 44.6687507629395 43.7625007629395 42.5374984741211 46.3937492370605 52.8125 58.1937484741211 59.3187484741211 59.3375015258789 57.7999992370605 55.7125015258789 52.8624992370605 50.7874984741211 49.8125 46.9812507629395 45.4249992370605 43.8187484741211 43.0499992370605 41.0125007629395 40.2562484741211 39.9312515258789 39.0875015258789 38.2000007629395 38.0499992370605 38.0374984741211 38.4812507629395 38.5812492370605 39.90625 40.7625007629395 40.1687507629395 40.7312507629395 43.0625 45.0999984741211 44.875 43.9812507629395 44.4625015258789 44.0499992370605 45.375 45.1500015258789 42.5 42.2374992370605 39.9874992370605 38.0562515258789 35.1812515258789 31.8125 
41.4874992370605 42.125 41.5187492370605 41.7249984741211 41.7249984741211 41.6124992370605 41.21875 40.3875007629395 39.6749992370605 37.84375 44.1124992370605 49.625 52.4937515258789 54.0062484741211 54.7562484741211 53.8062515258789 50.6062507629395 49.5437507629395 46.8250007629395 45.5250015258789 43.5812492370605 41.6375007629395 39.3375015258789 38.7062492370605 37.5625 36.65625 35.9562492370605 35.2750015258789 34.6062507629395 34.09375 32.8250007629395 33.8062515258789 34.0062484741211 35.4124984741211 35.3375015258789 34.5437507629395 36.5875015258789 38.2750015258789 39.9312515258789 40.15625 39.6624984741211 41.1312484741211 40.5374984741211 38.5 38.4500007629395 37.3562507629395 37.1312484741211 36.90625 33.3312492370605 31.1062507629395 29.7562503814697 
37.2000007629395 36.7750015258789 35.90625 37.0437507629395 37.1875 36.9749984741211 35.84375 37.0062484741211 38.2312507629395 40.8687515258789 46.5625 47.9937515258789 48.8250007629395 50.5374984741211 51.0499992370605 49.1312484741211 46.7874984741211 45.25 42.3375015258789 41.125 39.3562507629395 37.2437515258789 36.0437507629395 35.3499984741211 33.7062492370605 32.8250007629395 32.6187515258789 31.5750007629395 31.1875 31.25 30.4125003814697 29.875 30.0062503814697 31.1124992370605 31.5687503814697 31.6749992370605 33.5 35.4500007629395 36.1687507629395 34.7562484741211 35.7874984741211 37.8125 35.8937492370605 34.75 34.1312484741211 33.1437492370605 31.6375007629395 30.5 28.8937492370605 28.125 26.6625003814697 
33.4812507629395 33.3375015258789 32.2625007629395 33.5187492370605 33.2750015258789 33.8062515258789 33.6124992370605 34.5625 36.2687492370605 38.5499992370605 41.8687515258789 44.0062484741211 44.8250007629395 45.3125 46.1124992370605 45.9124984741211 43.1500015258789 42.28125 39.7874984741211 37.5374984741211 34.5750007629395 33.1749992370605 31.7875003814697 31.1437511444092 29.9312496185303 29.1187496185303 28.6437492370605 28.1062507629395 27.34375 27.9624996185303 28.1312503814697 27.6375007629395 27.53125 28.125 29.5187492370605 29.40625 29.8937492370605 31.3249988555908 33.3312492370605 32.7687492370605 33.4000015258789 34.4625015258789 32.90625 31.1812496185303 29.4812507629395 28.1875 27.78125 26.4375 25.6312503814697 24.9875011444092 23.5750007629395 
28.7937507629395 29.0562496185303 29.4249992370605 29.8999996185303 30.1124992370605 30.2937507629395 30.9187507629395 32.5062484741211 32.7000007629395 35.71875 38.4874992370605 40.5999984741211 41.6124992370605 40.8499984741211 40.7374992370605 40.7249984741211 39.7874984741211 38.28125 35.84375 33.7562484741211 31.0562496185303 29.71875 28.0875015258789 27.375 27.375 26.5 25.9437503814697 25.7000007629395 25.375 24.6499996185303 24.7875003814697 26.0562496185303 25.9187507629395 26.4375 27 27.1687507629395 27.75 28.6124992370605 30.125 30.8125 30.4624996185303 30.6062488555908 29.84375 28.2937507629395 26.8999996185303 25.4750003814697 24.3187503814697 22.71875 22.7687492370605 21.7687492370605 20.8500003814697 
25.3374996185303 25.7562503814697 26.4312496185303 26.8062496185303 27.6375007629395 28.03125 29.1437492370605 29.4812507629395 29.9812507629395 32.0499992370605 34.2625007629395 36.5750007629395 37.3875007629395 36.0499992370605 35.9437484741211 36.6812515258789 36.1937484741211 35.25 32.9375 31.2625007629395 28.6625003814697 26.9750003814697 25.2250003814697 23.8500003814697 23.9125003814697 23.2687511444092 23.1625003814697 23.0187511444092 23.15625 23.2937507629395 21.9750003814697 22.6499996185303 23.3062496185303 25.1499996185303 25.4937496185303 24.4249992370605 25.1000003814697 26.4437503814697 27.6937503814697 28.375 27.7124996185303 27.2000007629395 25.8374996185303 24.8374996185303 23.6875 22.7999992370605 21.1000003814697 19.2062492370605 19.5562496185303 18.71875 17.5499992370605 
21.6875 22.5499992370605 23.03125 23.3062496185303 23.2437496185303 24.3125 25.0187492370605 25.2999992370605 26.4812507629395 28.1625003814697 29.7437496185303 31.1625003814697 31.6312503814697 31.5625 32.0562515258789 32.7062492370605 32.4312515258789 32.1375007629395 30.4375 27.8999996185303 25.4375 23.4375 22.3937492370605 22.1875 22.25 21.0625 21.1000003814697 20.8250007629395 20.3500003814697 20.3875007629395 19.9125003814697 19.1937503814697 19.2999992370605 21.2062492370605 24.0874996185303 24.3624992370605 23.1375007629395 24.0062503814697 24.78125 24.0812492370605 23.7000007629395 23.7374992370605 23.28125 22 21.875 20.03125 18.0750007629395 17.0187492370605 17.875 16.6312503814697 14.8249998092651 
18.8812503814697 19.3500003814697 19.6875 19.8687496185303 20.3250007629395 21.0562496185303 21.2749996185303 21.7937507629395 22.7437496185303 24.21875 25.3812503814697 26.7250003814697 27.1812496185303 28.0625 28.5375003814697 28.4750003814697 29.2999992370605 29.5750007629395 27.8937492370605 26.0625 23.71875 21.6875 19.875 19.9375 19.5625 18.875 18.5 18.25 17.8812503814697 18.1000003814697 17.4250011444092 17.0062503814697 17.2625007629395 18.3562507629395 21.6375007629395 23.7000007629395 21.8624992370605 21.875 22.2062492370605 21.0125007629395 20.7000007629395 20.7374992370605 19.8374996185303 19.1499996185303 18.7562503814697 17.4937496185303 16.5750007629395 14.9875001907349 14.2124996185303 14.4312496185303 12.7375001907349 
15.9875001907349 16.2124996185303 16.8687496185303 17.1437492370605 18.15625 18.8562507629395 18.8062496185303 18.7250003814697 19.7749996185303 20.8624992370605 21.6124992370605 22.40625 23.6187496185303 24.9187507629395 25.7437496185303 25.1812496185303 25.5187492370605 26.3125 25.4125003814697 23.5125007629395 21.2749996185303 19.8562507629395 17.75 17.4375 17.375 17.125 16.1875 16.125 15.9375 16.0375003814697 15.5375003814697 15.1937503814697 15.5062494277954 17.1000003814697 18.875 21.1687507629395 20.09375 19.7312507629395 19.4812507629395 19.4187507629395 18.4750003814697 18.2000007629395 18.0687503814697 17.1749992370605 16.5187492370605 15.4187498092651 14.7312498092651 13.2562503814697 11.9750003814697 12.1812496185303 11.5749998092651 
