ncols        51
nrows        45
xllcorner    -63.500000000000
yllcorner    -7.500000000000
cellsize     0.166666666667
NODATA_value -99
248.550003051758 244.800003051758 243.462493896484 250.381256103516 254.131256103516 262.149993896484 265.518737792969 267.424987792969 266.125 274.137512207031 284.618743896484 291.043762207031 297.862487792969 300.981262207031 301.4375 303.368743896484 302.274993896484 298.762512207031 294.456237792969 293.618743896484 297.34375 291.856262207031 287.5 277.006256103516 268.375 261.012512207031 255.399993896484 251.649993896484 240.737503051758 228.84375 212.425003051758 202.418746948242 195.606246948242 185.03125 175.550003051758 168.837493896484 162.018753051758 156.875 149.875 145.006256103516 142.425003051758 143.112503051758 138.681243896484 136.256256103516 133.893753051758 134.037506103516 136.21875 135.699996948242 134.393753051758 135.4375 138.768753051758 
244.481246948242 240.237503051758 243.631256103516 248.1875 255.331253051758 263.225006103516 266.5625 268.268737792969 274.368743896484 282.637481689453 290.65625 295.162506103516 294.21875 295.024993896484 293.225006103516 292.862487792969 289.149993896484 282.3125 277.118743896484 277.237487792969 278.668762207031 274.087493896484 272.125 264.956237792969 256.756256103516 248.612503051758 243.568756103516 237.175003051758 227.387496948242 212.493743896484 200.774993896484 195.199996948242 186.818756103516 178.356246948242 170.643753051758 161.568756103516 155.850006103516 149.956253051758 144.068756103516 140.418746948242 140.268753051758 135.231246948242 135.293746948242 133.28125 134.59375 134.693756103516 136.8125 134.425003051758 130.649993896484 131.350006103516 133.206253051758 
239.381240844727 242.237503051758 246.193756103516 247.606246948242 255.956253051758 266.462493896484 272.350006103516 281.475006103516 288.418762207031 295.831237792969 300.125 299.037506103516 298.25 290.975006103516 285.743743896484 282.481262207031 275.475006103516 269.28125 264.850006103516 262.856231689453 264.737518310547 266.1875 263.350006103516 260.450012207031 248.46875 238.625 237.274993896484 228.481246948242 215.487503051758 206.524993896484 193.21875 184.199996948242 174.800003051758 167.056243896484 156.768753051758 143.981246948242 138.912506103516 134.425003051758 129.225006103516 126.118751525879 126.918746948242 124.512496948242 123.512496948242 121.412498474121 123.881248474121 122.65625 126.137496948242 125.393753051758 120.5625 119.675003051758 120.125 
233.28125 232.40625 241.837493896484 248.875 254.837493896484 265.206237792969 276.181243896484 287.293762207031 298.487487792969 307.612487792969 307.631256103516 301.524993896484 294.399993896484 284.556243896484 278.462493896484 272.9375 261.587493896484 257.037506103516 253.1875 258.9375 258.625 253.912506103516 253.068756103516 251.818740844727 239.368743896484 229.675003051758 224.918746948242 213.793746948242 204.987503051758 196.925003051758 185.943756103516 174.350006103516 163.987503051758 151.543746948242 140.787506103516 134.59375 128.475006103516 120.96875 115.287498474121 112 111.356246948242 112.431251525879 112 110.256248474121 113.525001525879 110.962501525879 113.699996948242 111.993751525879 108.962501525879 105.412498474121 107.75 
245.21875 241.756256103516 236.943756103516 246.518753051758 259.674987792969 266.206237792969 277.649993896484 294.231262207031 311.137512207031 321.181243896484 319.09375 301.306243896484 291.862487792969 281.9375 270.731262207031 262.65625 253.162506103516 243.362503051758 239.387496948242 242.90625 242.337493896484 242.012496948242 242.4375 239.387496948242 227.431243896484 219.181243896484 211.387496948242 206.243743896484 197.931243896484 186.012496948242 178.168746948242 168.925003051758 156.181243896484 144.418746948242 135.143753051758 124.474998474121 116.650001525879 109.856246948242 103.1875 98.34375 97.5250015258789 98.7750015258789 99.9812469482422 101.018753051758 102.300003051758 101.318748474121 100.449996948242 98.1750030517578 95.1937484741211 93.4124984741211 94.0812530517578 
244.662506103516 246.0625 242.850006103516 235.856246948242 252.368743896484 270.3125 278.981262207031 292.368743896484 313.081237792969 324.712493896484 315.737487792969 298.125 288.3125 277.75 263.462493896484 254.518753051758 243.274993896484 234.462493896484 234.100006103516 235.106246948242 237.1875 235.462493896484 233.893753051758 225.318756103516 218.462493896484 211.606246948242 201.962493896484 196.899993896484 189.65625 178.824996948242 173.493743896484 165.0625 154.668746948242 141.40625 128.256256103516 121.081253051758 109.981246948242 98.2937469482422 93.5062484741211 91.1812515258789 87.4124984741211 89.0812530517578 88.9499969482422 89.5374984741211 93.2750015258789 91.3375015258789 89.6875 87.7874984741211 83.6999969482422 81.4437484741211 82.8937530517578 
249.90625 248.824996948242 246.918746948242 244.743743896484 244.712493896484 251.537506103516 260.431243896484 280.25 290.418762207031 300.375 298.631256103516 285.756256103516 280.03125 272.637512207031 259.543762207031 248.943756103516 240.34375 232.537506103516 226.8125 228.856246948242 224.274993896484 223.03125 219.731246948242 215.106246948242 213.225006103516 206.481246948242 196.331253051758 188.800003051758 181.606246948242 178.100006103516 168.431243896484 157.762496948242 146.231246948242 136.5625 127.431251525879 115.650001525879 101.15625 90.5625 84.5374984741211 81.7937469482422 77.2125015258789 77.5250015258789 78.4875030517578 79 80.4812469482422 82.5124969482422 79.9875030517578 74.5437469482422 72.6437530517578 72.0250015258789 73.90625 
251.84375 246.15625 245.25 250.106246948242 250.84375 261.018737792969 257.15625 254.524993896484 252.84375 266.024993896484 274.049987792969 271.293762207031 269.28125 262.725006103516 256.143737792969 246.293746948242 233.912506103516 227.78125 221.887496948242 216.643753051758 223.324996948242 218.112503051758 212.75 207.375 205.356246948242 196.5 188.068756103516 180.787506103516 174.087493896484 166.800003051758 164.675003051758 154.03125 143.375 132.206253051758 119.293746948242 106.5625 93.9875030517578 82.78125 74.53125 68.9562530517578 65.0749969482422 66.4124984741211 65.4562530517578 64.5749969482422 65.3687515258789 65.5749969482422 64.8125 63.3125 61.9249992370605 61.0187492370605 64.0250015258789 
249.90625 247.081253051758 243.337493896484 245.206253051758 248.331253051758 251.568756103516 257.112487792969 259.387512207031 247.981246948242 242.899993896484 246.90625 249.699996948242 256.375 253.074996948242 249.149993896484 239.681243896484 237.074996948242 234.181243896484 230.625 221.431243896484 212.512496948242 216.25 205.212493896484 205.837493896484 198.556243896484 190.956253051758 182.743743896484 177.574996948242 174.793746948242 166.506256103516 164.556243896484 147.668746948242 131.824996948242 120.199996948242 111.681251525879 103.318748474121 92.4499969482422 82.1999969482422 73.2375030517578 65.21875 59.0250015258789 57.1062507629395 58.3250007629395 57.03125 55.3125 55.0687484741211 55.7874984741211 54.0812492370605 52.2625007629395 52.9812507629395 54.7249984741211 
248.100006103516 246.443756103516 243.625 245.018753051758 247.050003051758 248.637496948242 252.162506103516 249.925003051758 248.137496948242 244.931243896484 240.862503051758 231.856246948242 240.899993896484 242.737503051758 242.75 239.756256103516 235.09375 239.881256103516 237.449996948242 232.962493896484 218.981246948242 211.118743896484 197.737503051758 194.793746948242 186.25 182.96875 176.149993896484 169.475006103516 163.449996948242 159.949996948242 155.518753051758 142.612503051758 130.806243896484 120 108.53125 98.8625030517578 89.625 80.5687484741211 72.15625 65.6687469482422 59.4562492370605 56.7562484741211 52.9812507629395 49.1375007629395 47.9000015258789 48.7125015258789 49.4000015258789 48.6937484741211 47.9937515258789 46.7874984741211 45.9749984741211 
249.225006103516 245.649993896484 242.574996948242 242.024993896484 241.306243896484 245.762496948242 243.131256103516 241.056243896484 242.356246948242 242.037506103516 241.081253051758 233.4375 228.987503051758 232.274993896484 233.131256103516 233.850006103516 232.4375 231.943756103516 235.081253051758 238.875 237.462493896484 222.050003051758 199.550003051758 177.143753051758 176.493743896484 182.34375 177.287506103516 167.149993896484 157.431243896484 151.856246948242 146.725006103516 137.043746948242 127.443748474121 117.762496948242 107.59375 95.8874969482422 86.8812484741211 76.9625015258789 71.1812515258789 63.28125 56.0750007629395 51.96875 49.2249984741211 43.7750015258789 41.2437515258789 41.2125015258789 43.875 44.1687507629395 43.6312484741211 42.9375 41.4124984741211 
243.768753051758 241.456253051758 242.018753051758 237.96875 238.018753051758 237.887496948242 241.3125 241.225006103516 241.074996948242 233.987503051758 236.212493896484 232.831253051758 219.881256103516 223.199996948242 230.881256103516 230.774993896484 229.612503051758 231.162506103516 236.756256103516 249.418746948242 249.143753051758 235.637496948242 210.318756103516 181.375 172.993743896484 169.931243896484 162.268753051758 156.493743896484 151.475006103516 144.21875 133.631256103516 128.293746948242 120.662498474121 109.981246948242 102.987503051758 95.4562530517578 88.1500015258789 79.1750030517578 69.3499984741211 62.96875 55.7000007629395 50.8312492370605 44.3937492370605 36.7625007629395 33.5437507629395 32.8499984741211 34.3687515258789 38.7374992370605 39.5625 38.3624992370605 36.2249984741211 
242.774993896484 238.868743896484 237.337493896484 233.524993896484 234.737503051758 232.1875 233.399993896484 233.84375 230.262496948242 227.256256103516 227.443756103516 227.881256103516 223.868743896484 212.443756103516 215.100006103516 220.125 221.637496948242 226.487503051758 224.5625 234.693756103516 239.03125 227.368743896484 208.443756103516 184.168746948242 164.1875 157.899993896484 154.462493896484 150.162506103516 146.581253051758 141.887496948242 130.34375 120.387496948242 115.856246948242 104.6875 97.8874969482422 92.5250015258789 88.3937530517578 81.4000015258789 75.71875 66.2562484741211 55.4437484741211 49.4625015258789 40.6500015258789 34.0999984741211 32.7125015258789 32.90625 33.7437515258789 33.875 34.0562515258789 34.2062492370605 34.3499984741211 
239.28125 235.831253051758 232.625 229.662506103516 226.637496948242 226.006256103516 224.568756103516 226.675003051758 225.65625 220.662506103516 219.40625 216.03125 215.581253051758 210.518753051758 199.368743896484 208.268753051758 208.818756103516 210.143753051758 211.512496948242 218.737503051758 220.712493896484 210.993743896484 196.418746948242 181.506256103516 166.912506103516 154.868743896484 146.581253051758 139.84375 135.53125 130.268753051758 124.75 116.981246948242 110.150001525879 103.650001525879 94.6937484741211 93.71875 92.4749984741211 88.125 81.8499984741211 69.8687515258789 53.3312492370605 44.8875007629395 40.4625015258789 38.2937507629395 38.15625 36.4375 35.9562492370605 35.8562507629395 35.1875 36.03125 35.2937507629395 
230.175003051758 227.350006103516 227 225.787506103516 222.3125 221.1875 221.425003051758 220.762496948242 218.862503051758 215.762496948242 212.337493896484 210.34375 208.975006103516 202.03125 188.212493896484 193.975006103516 196.318756103516 201.78125 198.574996948242 202.824996948242 206.162506103516 199.024993896484 191.087493896484 180.774993896484 172.987503051758 162.037506103516 153.256256103516 144.418746948242 140.137496948242 129.662506103516 118.856246948242 113.65625 111.650001525879 101.175003051758 89.6999969482422 84.8499984741211 89.2937469482422 91.375 83.3375015258789 69.1875 56.2750015258789 49.8312492370605 46.5437507629395 40.75 38.7625007629395 38.6937484741211 39.6187515258789 39.9312515258789 39.1937484741211 36.5374984741211 34.1875 
224.0625 219.125 219.03125 215.818756103516 216.881256103516 216.875 215.449996948242 213.056243896484 214.3125 215.59375 211.893753051758 208.756256103516 207.268753051758 200.975006103516 189.6875 174.425003051758 180.918746948242 190.175003051758 187.637496948242 190.75 191.862503051758 188.306243896484 185.662506103516 181.537506103516 174.506256103516 164.243743896484 152.768753051758 145.362503051758 138.306243896484 133.425003051758 124.543746948242 114.65625 103.131248474121 91.9124984741211 82.0374984741211 88.3062515258789 86.40625 85.5374984741211 81.0437469482422 72.3062515258789 62.3125 55.7625007629395 48.6375007629395 40.9937515258789 38.0687484741211 37.0875015258789 37.3562507629395 36.4124984741211 36.4874992370605 35.2625007629395 33.4000015258789 
216.012496948242 213.09375 210.456253051758 211.381256103516 212.03125 213.106246948242 211.631256103516 210.793746948242 207.350006103516 206.493743896484 207.300003051758 206.449996948242 201.65625 195.931243896484 192.112503051758 178.71875 162.231246948242 169.256256103516 175.024993896484 176.5 175.162506103516 176.600006103516 175.59375 178.375 171.837493896484 156.743759155273 146.087493896484 138.331253051758 136.256256103516 132.643753051758 127.206245422363 120.262496948242 108.506248474121 100.71875 99.3937530517578 96.6374969482422 95.7562484741211 92.4187469482422 86.7750015258789 73.0250015258789 62.8499984741211 54.59375 46.03125 39.9562492370605 37.28125 36.2312507629395 36.3250007629395 36.28125 35.4874992370605 32.4249992370605 30.8812503814697 
206.21875 204.59375 206.262496948242 207.550003051758 209.175003051758 212.850006103516 210.524993896484 208.875 205.412506103516 200.662506103516 198.331253051758 200.731246948242 194.787506103516 190.506256103516 189.581253051758 180.949996948242 165.293746948242 149.931243896484 165.806243896484 162.162506103516 160.612503051758 161.931243896484 166.9375 168.15625 165.706253051758 151.243743896484 138.287490844727 136.574996948242 133.543746948242 127.231246948242 116.487503051758 106.831253051758 114.09375 109.824996948242 104.256248474121 111.431251525879 107.381248474121 94.5625 84.7562484741211 72.7625045776367 57.5875015258789 48.90625 41.8312492370605 37.1375007629395 35.3562507629395 35.125 35.4375 34.9437484741211 33.8125 30.2437496185303 30.0687503814697 
197.637496948242 198.949996948242 201.037506103516 203.850006103516 206.96875 207.631256103516 206.875 204.856246948242 203.475006103516 201.112503051758 196.981246948242 189.574996948242 185.40625 183.774993896484 179.556243896484 174.125 170.149993896484 151.6875 144.6875 144.543746948242 149.081253051758 156.018753051758 145.324996948242 151.362503051758 149.65625 148.081253051758 140.96875 131.881256103516 131.462493896484 124.974998474121 116.387496948242 112.512496948242 112.949996948242 107.162498474121 105.606246948242 107.875 99.71875 86.8312530517578 77.6687469482422 64.875 52.0875015258789 43.0499992370605 38.1500015258789 34.9124984741211 34.0750007629395 34.0812492370605 34.7125015258789 34.0812492370605 31.9499988555908 28.1499996185303 29.5750007629395 
192.168746948242 194.268753051758 195.03125 193.649993896484 195.675003051758 201.862503051758 202.4375 199.943756103516 202.625 201.806243896484 198.90625 195.612503051758 189.550003051758 182.3125 175.518753051758 160.368743896484 151.256256103516 154.125 146.568756103516 147.987503051758 135.28125 135.350006103516 143.46875 143.443756103516 135.856246948242 129.149993896484 124.268753051758 126.643753051758 119.131248474121 111.681251525879 107.993751525879 114.943748474121 111.662498474121 104.974998474121 99.4499969482422 97.2750015258789 91.4625015258789 80.1875 69.2937469482422 58.2125015258789 46.2062492370605 37.7125015258789 35.03125 32.71875 31.9249992370605 32.1437492370605 32.6124992370605 31.8250007629395 29.9437503814697 28.15625 29.625 
176.074996948242 187.393753051758 193.668746948242 194.087493896484 190.237503051758 192.756256103516 197.824996948242 198.943756103516 199.675003051758 197.3125 196.800003051758 192.850006103516 186.412506103516 176.1875 166.393753051758 160.193756103516 150.300003051758 147.149993896484 151.581253051758 149.25 153.043746948242 153.899993896484 157.100006103516 159.850006103516 153.262496948242 140.774993896484 124.800003051758 119.606246948242 115.206253051758 113.53125 111.837501525879 114.118751525879 103.712501525879 96.6062469482422 90.5562515258789 88.5437469482422 84.4250030517578 75.9499969482422 64.4000015258789 53.7312507629395 44.1187515258789 36.9562492370605 33.6187515258789 31.5062503814697 30.7999992370605 30.9750003814697 31.28125 30.125 28.0062503814697 28.7437496185303 29.0437488555908 
171.568756103516 173.46875 183.53125 190.0625 189.712493896484 189.537506103516 192.868743896484 193.712493896484 193.793746948242 195.818756103516 194.881256103516 187.90625 180.71875 176.481246948242 172.256256103516 161.018753051758 165.399993896484 159.112503051758 163.831253051758 163.09375 157.71875 164.34375 167.475006103516 160.399993896484 149.631256103516 138.256256103516 132.143753051758 121.518753051758 119.875 118.043746948242 112.006248474121 104.993751525879 97.5687484741211 93.65625 86.3937530517578 81.3187484741211 76.8187484741211 70.9874954223633 61.8562507629395 52.4187507629395 43.1500015258789 37.1500015258789 33.59375 31.4874992370605 30.2437496185303 29.7625007629395 29.5125007629395 28.375 26.6937503814697 28.65625 28.96875 
167.699996948242 179.587493896484 189.03125 194.581253051758 194.737503051758 192.137496948242 185.056243896484 183.975006103516 190.71875 191.831253051758 190.181243896484 189.100006103516 190.125 188.643753051758 183.481246948242 176.443756103516 168.856246948242 164.762496948242 167.550003051758 171.399993896484 174.481246948242 171.806243896484 167.28125 160.949996948242 156.46875 144.175003051758 131.931243896484 123.775001525879 118.96875 111.0625 104.71875 100.356246948242 92.1125030517578 85.15625 81.8874969482422 74.8499984741211 68.8312530517578 64.1875 58.3687515258789 50.8875007629395 42.3562507629395 37.1187515258789 33.2625007629395 30.3125 29.6749992370605 29.0812492370605 27.53125 26.21875 26.5249996185303 28.3812503814697 29.1437492370605 
160.381256103516 174.287506103516 190.0625 191.643753051758 190.050003051758 187.274993896484 189.09375 187.100006103516 184.862503051758 181.65625 187.637496948242 194.274993896484 191.774993896484 193.412506103516 183.9375 178.100006103516 173.256256103516 175.550003051758 177.006256103516 178.4375 179.725006103516 181.787506103516 175.387496948242 174.150009155273 161.987503051758 146.21875 138.856246948242 122.581253051758 112.481246948242 106.518753051758 99.8687515258789 94.9000015258789 88.4812469482422 80.3375015258789 76.25 68.8937530517578 64.3249969482422 59.8624992370605 53.8062515258789 46.8562507629395 39.9437484741211 35.7625007629395 32.4375 29.9437503814697 29.71875 27.9249992370605 25.5062503814697 24.4937496185303 25.4249992370605 26.9812507629395 27.7437496185303 
151.231246948242 167.868743896484 181.431243896484 191.0625 192.8125 189.8125 188.418746948242 189.125 185.487503051758 187.850006103516 187.806243896484 188.9375 192.337493896484 186.806243896484 178.793746948242 174.662506103516 173.837493896484 173.212509155273 177.550003051758 183.881256103516 185.118743896484 183.481246948242 186.237503051758 181.1875 162.793746948242 146.662490844727 133.756256103516 120.71875 109.074996948242 103.018753051758 93.5062484741211 86.1312484741211 80.1312484741211 75.4562530517578 70.6187515258789 65.1500015258789 60.15625 54.4562492370605 49.9874992370605 44.0437507629395 37.90625 34.625 32.0999984741211 29 27.7875003814697 25.8374996185303 23.1812496185303 22.5874996185303 22.5375003814697 24.7687492370605 26.6499996185303 
148.53125 168.181243896484 173.362503051758 183.25 184.800003051758 184.131256103516 181.4375 182.731246948242 175.262496948242 172.481246948242 178.90625 180.25 182.649993896484 179.96875 176.899993896484 170.168746948242 170.262496948242 174.962509155273 180.425003051758 181.6875 184.793746948242 185.993743896484 187.193756103516 179.03125 164.96875 145.881256103516 132.162506103516 118.787498474121 104.349998474121 96.6999969482422 87.4187469482422 79.9937515258789 74.3812484741211 69.4124984741211 64.7437515258789 61.2874984741211 56.6624984741211 50.4000015258789 45.3187484741211 41.0374984741211 35.5812492370605 30.9812488555908 28.7250003814697 27.0750007629395 26.4187507629395 24.8187503814697 23.1499996185303 21.6312503814697 22.2625007629395 24.5874996185303 25.6437492370605 
142.425003051758 151.543746948242 162.21875 169.350006103516 171.162490844727 171.96875 170.774993896484 164.612503051758 161.524993896484 167.925003051758 174.668746948242 175.168746948242 173.506256103516 173.03125 172.649993896484 171.850006103516 169.193756103516 168.1875 175.199996948242 177.087493896484 177.074996948242 179.856246948242 183.600006103516 182.024993896484 161.587493896484 143.306243896484 129.756256103516 114.400001525879 100.381248474121 91.53125 84.2062530517578 74.7562484741211 68.6125030517578 64.1500015258789 59.9812507629395 55.9625015258789 52.5187492370605 46.8125 41.4000015258789 37.9249992370605 33.65625 30.0687503814697 27.0437488555908 25.1437492370605 24.5874996185303 24.3312492370605 23.9187507629395 21.8624992370605 21.5375003814697 22.5125007629395 22.8562507629395 
137.337493896484 140.350006103516 148.231246948242 150.943756103516 152.875 156.699996948242 157.774993896484 154.4375 154.550003051758 161.006256103516 164.331253051758 165.918746948242 163.556243896484 161.587493896484 161.181243896484 161.106246948242 159.862503051758 163.199996948242 163.993743896484 169.5 172.350006103516 171.774993896484 178.318756103516 170.893753051758 155.050003051758 137.09375 123.662498474121 108.78125 98 90.5437469482422 81.9562530517578 73.9562530517578 66.59375 59.5437507629395 56.6749992370605 52.5437507629395 49.2000007629395 43.5 39.2437515258789 35.53125 31.6625003814697 29.3187503814697 25.3875007629395 24.1062507629395 23.1312503814697 23.0625 22.5249996185303 21.6812496185303 20.8125 19.5062503814697 19.7625007629395 
128.65625 134.53125 134.337493896484 134.40625 138.043746948242 136.868743896484 140.03125 143.600006103516 147.75 150.625 154.78125 155.068756103516 155.21875 154.199996948242 154.03125 154.587493896484 156.006256103516 156.368743896484 160.625 165.762496948242 164.712493896484 163.712493896484 164.800003051758 156.9375 144.106246948242 127.668746948242 118.081253051758 107.074996948242 95.3499984741211 85.7437515258789 76.8499984741211 70.2937469482422 62.8125 57.7312507629395 52.9124984741211 48.7249984741211 46.1375007629395 39.96875 36.2374992370605 32.34375 28.40625 25.9562492370605 23.8187503814697 23.4375 22.8500003814697 21.7749996185303 21.7250003814697 20.5375003814697 19.4562492370605 18.1937503814697 17.2374992370605 
119.587501525879 121.537498474121 121.775001525879 120.643753051758 122.168746948242 125.193748474121 127.8125 134.912506103516 137.643753051758 141.90625 145.6875 147.71875 148.774993896484 148.793746948242 146.899993896484 145.199996948242 144.987503051758 148.975006103516 147.443756103516 146.78125 150.662506103516 151.225006103516 152.137496948242 145.337493896484 132.143753051758 122.525001525879 112.168746948242 100.949996948242 90.6125030517578 80.8874969482422 72.875 66.0250015258789 60.1875 55.3812484741211 51.3250007629395 46.0999984741211 43.9874992370605 38.0812492370605 32.8187484741211 30.5375003814697 26.6499996185303 24.3562507629395 23.1937503814697 21.7374992370605 21.1187496185303 21.1812496185303 19.8812503814697 19.2312507629395 18.40625 17.28125 16.21875 
112.599998474121 112.012496948242 110.650001525879 110.612503051758 111.918746948242 114.456253051758 119.293746948242 124.46875 127.237503051758 132.800003051758 137.53125 137.818756103516 141.3125 135.787506103516 135.743743896484 138.881256103516 139.71875 138.768753051758 137.962493896484 138.831253051758 139.475006103516 137.706253051758 138.75 133.912506103516 123.775001525879 115.756248474121 105.443748474121 95.8062515258789 85.7312469482422 77.0562515258789 71.5999984741211 65.0374984741211 58.3062515258789 52.2062492370605 47.8562507629395 43.125 40.3062515258789 35.6312484741211 30.8874988555908 26.6124992370605 23.8624992370605 22.0750007629395 21.0375003814697 20.1437492370605 20.0437507629395 19.3875007629395 18.1312503814697 17.4937496185303 16.8125 16.3374996185303 15.9937496185303 
104.912498474121 103.756248474121 101.074996948242 102.21875 105.893753051758 108.262496948242 111.568748474121 115.443748474121 119.381248474121 122.268753051758 123.993751525879 126.006248474121 125.474998474121 126.606246948242 128.768753051758 129.693756103516 126.53125 125.443748474121 125.756248474121 127.118751525879 127.306251525879 127.506248474121 125.337501525879 120.275001525879 114.806251525879 106.962501525879 99.1187515258789 90.6125030517578 81.1750030517578 76.4437484741211 69.6624984741211 62.7562484741211 56.6437492370605 50.2374992370605 45.2437515258789 40.1312484741211 36.4187507629395 31.2999992370605 28.0125007629395 24.59375 22.2374992370605 20.8687496185303 19.7437496185303 18.9249992370605 18.6875 18.4187507629395 17.8875007629395 16.9624996185303 16.1437492370605 15.6875 15.3874998092651 
96.9437484741211 96.0562515258789 95.7687530517578 96.9812469482422 97.3312530517578 99.8375015258789 103.012496948242 107.112503051758 109.131248474121 112.131248474121 117.981246948242 118.481246948242 119.237503051758 122.793746948242 124.643745422363 121.018753051758 116.962501525879 118.431251525879 118.387496948242 118.5625 115.800003051758 114.3125 114.056251525879 110.449996948242 104.918746948242 99.2750015258789 92.0124969482422 84.21875 77.2562484741211 72.9187469482422 67.3687515258789 59.78125 54.1437492370605 49.1812515258789 43.46875 38.34375 33.5499992370605 28.78125 25.9624996185303 24.0562496185303 21.9500007629395 20.5375003814697 19.0562496185303 18.0687503814697 17.3937492370605 17.3875007629395 17.75 16.7562503814697 16.2875003814697 14.9750003814697 15.03125 
89.03125 89.6187515258789 91.65625 91.9749984741211 91.5749969482422 92.9000015258789 96.5437469482422 97.96875 99.3812484741211 101.556251525879 107.393753051758 111.78125 113.550003051758 114.112503051758 113.587501525879 113.306251525879 112.099998474121 110.525001525879 107.724998474121 107.606246948242 106.375 104.137496948242 104.993751525879 100.043746948242 96.7312469482422 90.7375030517578 86.2249984741211 79.71875 74.9499969482422 70.1812515258789 65.6187515258789 59.875 52.0062484741211 46.1749992370605 41.40625 36.53125 31.6124992370605 26.9874992370605 24.6749992370605 22.8125 20.5874996185303 19.7625007629395 18.7000007629395 16.8312492370605 16.8374996185303 16.9937496185303 16.5437507629395 15.6187496185303 15.1937503814697 15.125 15.3874998092651 
83.5374984741211 82.5 85.5187530517578 87.7750015258789 87.3937530517578 86 86.5875015258789 88.9312515258789 90.8249969482422 92.8937530517578 101.21875 106.756248474121 109.65625 114.40625 113.443748474121 109.637496948242 105.287498474121 100.724998474121 97.7437515258789 93.7874984741211 95.8249969482422 92.6124954223633 91.6312484741211 88.3499984741211 88.65625 85.2312469482422 80.5875015258789 74.2437515258789 69.6687469482422 65.1624984741211 61.6312484741211 57.2625007629395 49.3375015258789 43.5 38.0625 34.0374984741211 28.9562492370605 25.9624996185303 23.3187503814697 21.7437496185303 19.90625 18.625 17.8187503814697 16.4937496185303 16.2687492370605 15.9750003814697 15.53125 15.5500001907349 14.8999996185303 15.1937503814697 15.2687501907349 
78.6999969482422 77.5187530517578 79.0749969482422 81.1062469482422 81.7062530517578 81.1437530517578 81.375 81.5687484741211 82.0687484741211 83.625 88.5124969482422 98.71875 105.21875 108.425003051758 107.71875 104.306251525879 98.9124984741211 92.1999969482422 88.1187515258789 83.3687515258789 82.5687484741211 83.5374984741211 81.7375030517578 79.2750015258789 79.59375 77.0500030517578 73.25 68.3687515258789 65.6374969482422 61.2312507629395 56.8562507629395 53.0562515258789 46.96875 40.9812507629395 35.2937507629395 31.9437503814697 28.9750003814697 25.2562503814697 23.28125 22.0375003814697 20.375 18.8687496185303 17.9249992370605 17.1625003814697 16.5125007629395 15.7875003814697 15.8062496185303 15.5062503814697 15.5124998092651 15.1437501907349 15.5437498092651 
71.8874969482422 73.5687484741211 73.0625 75.0812530517578 76.8000030517578 76.3000030517578 76.0437469482422 77.1500015258789 76.9000015258789 74.3125 81.8375015258789 94.8687515258789 102.193748474121 102.768753051758 101.775001525879 98.0562515258789 93.3874969482422 87.78125 82.90625 75.8000030517578 73.4812469482422 74.9937515258789 73.2125015258789 71.9875030517578 70.4937515258789 68.9375 67.8499984741211 63.9500007629395 60.2249984741211 55.4375 53.125 48.6312484741211 43.8687515258789 39.0250015258789 33.7999992370605 30.8125 28.3812503814697 25.9249992370605 23.5812492370605 21.7749996185303 20.1625003814697 19.3312492370605 17.8624992370605 18.2875003814697 17.5062503814697 16.3562507629395 16.8500003814697 15.9250001907349 15.7875003814697 15.7875003814697 15.8500003814697 
65.8625030517578 67.6937484741211 68.8125 71.375 72.2062530517578 72.3812484741211 73.1750030517578 73.9124984741211 74.7125015258789 71.6687469482422 83.9562530517578 95.5187530517578 98.6500015258789 99.8062515258789 95.7437515258789 91.5812530517578 86.5500030517578 82.1624984741211 78.2437515258789 72.7125015258789 68.9124984741211 67.9375 65.2624969482422 64.6937484741211 63.1624984741211 63.4749984741211 62.7312507629395 59.4375 56.2312507629395 51.2937507629395 47.9000015258789 45.7312507629395 41.8624992370605 36.7562484741211 32.2625007629395 29.9500007629395 27.7374992370605 25.3250007629395 24.6000003814697 22.4500007629395 20.6062507629395 19.9874992370605 18.3062496185303 17.5437507629395 17.2875003814697 16.8062496185303 17.0562496185303 16.6062507629395 15.5124998092651 15.78125 16.2000007629395 
62.1500015258789 62.6500015258789 64.2874984741211 66.3375015258789 67.9312515258789 70.09375 70.6999969482422 72.9000015258789 76.0374984741211 85.28125 100.118751525879 100.293746948242 95.7687530517578 92.9124984741211 88.8249969482422 83.7687530517578 80.4937515258789 76.3687515258789 72.4625015258789 68.75 64.2687530517578 61.9249992370605 59.5999984741211 58.6500015258789 57.96875 59.0499992370605 57.5062484741211 54.4312515258789 51.9249992370605 49.0499992370605 46.5562515258789 43.5 39.6749992370605 36.21875 33.5750007629395 30.6124992370605 28.6062507629395 26.2937507629395 24.1625003814697 22.2937507629395 21.5375003814697 21.1062507629395 19.9249992370605 19.15625 18.4874992370605 17.9624996185303 17.4312496185303 16.6875 16.3250007629395 16.71875 17.3812503814697 
57.1124992370605 58.6437492370605 60.7374992370605 61.7000007629395 65.1125030517578 68.21875 68.0562515258789 72.8000030517578 77.5062484741211 85.46875 90.6624984741211 93.1750030517578 90.3562469482422 87.2874984741211 83.84375 80.9875030517578 76.2062530517578 71.71875 67.2125015258789 63.9937515258789 60.1437492370605 57.8187484741211 53.7999992370605 53.5999984741211 52.0374984741211 51.8062515258789 51.7937507629395 49.8687515258789 47.7437515258789 44.8687515258789 42.4312515258789 40.7125015258789 37.1124992370605 35.375 32.1812515258789 30.1687488555908 28.2999992370605 26.9500007629395 25.0375003814697 23.3062496185303 22.8374996185303 22.1937503814697 20.5499992370605 19.5125007629395 18.6062507629395 18.6187496185303 18.03125 18.125 18.0062503814697 18.3374996185303 18.4812507629395 
54.4124984741211 54.8937492370605 56.6624984741211 58.9375 61.0812492370605 62.5187492370605 64.1187515258789 69.3249969482422 73.2562484741211 78.8312530517578 82.09375 83.125 83.0124969482422 79.15625 77.8937530517578 73.8312530517578 71.4749984741211 67.9124984741211 62.2874984741211 58.7125015258789 56.1312484741211 52.9187507629395 50.34375 49.8312492370605 48.2750015258789 46.3499984741211 46.4312515258789 46.34375 45.2437515258789 41.6187515258789 41.0250015258789 39.7374992370605 35.4187507629395 33.84375 31.7437496185303 29.8250007629395 27.7437496185303 27.1749992370605 25.2937507629395 23.5187492370605 23.5375003814697 22.3937492370605 20.78125 19.7124996185303 20.0812492370605 19.7000007629395 18.8687496185303 18.6187496185303 20.0562496185303 20.3125 19.96875 
52.53125 53.5499992370605 53.375 56.2999992370605 57.3624992370605 60.1124992370605 61.1687507629395 65.2249984741211 69.1937484741211 71.2750015258789 74.0999984741211 74.1750030517578 74.4937515258789 72.4000015258789 70.6437530517578 68.1624984741211 66.4625015258789 62.3687515258789 59.0125007629395 55.1187515258789 51.4249992370605 48.21875 45.75 44.9187507629395 43.8875007629395 41.7562484741211 41.4312515258789 41.7999992370605 41.6687507629395 38.5062484741211 36.8937492370605 36.9562492370605 35.4000015258789 34.7687492370605 31.7250003814697 29.2124996185303 27.6437492370605 26.5874996185303 25.1937503814697 24.4500007629395 23.8374996185303 22.8937492370605 22.1687507629395 21.40625 20.7937507629395 20.2562503814697 19.03125 18.4937496185303 19.3624992370605 20.3312492370605 20.65625 
49.8937492370605 50.6312484741211 52.3375015258789 52.5750007629395 54.8937492370605 57.2125015258789 59.9874992370605 61.8375015258789 62.8499984741211 64.2249984741211 66.1062469482422 67.5687484741211 66.3874969482422 64.3812484741211 63.6937484741211 62.3499984741211 59.75 58.3812484741211 55.4249992370605 51.3312492370605 46.6624984741211 42.0999984741211 39.0999984741211 39.4812507629395 39.8250007629395 39.2625007629395 38.4874992370605 38.4375 38.1937484741211 35.8375015258789 34.7562484741211 33.875 33.2874984741211 33.8499984741211 33.4625015258789 29.8624992370605 27.2437496185303 25.8875007629395 25.1000003814697 24.2625007629395 23.6687507629395 23.3875007629395 22.7749996185303 22.0687503814697 20.8812503814697 19.9187507629395 19.09375 18.9437503814697 20.2749996185303 19.65625 20.6812496185303 
47.3375015258789 49.1437492370605 50.9000015258789 51.3187484741211 54.5062484741211 55.4874992370605 57.0750007629395 59.6749992370605 60.9000015258789 60.1312484741211 59.4749984741211 59.8937492370605 58.3187484741211 57.4187507629395 56.84375 54.9812507629395 54.4124984741211 53.9937515258789 53.1812515258789 48.5125007629395 42.6312484741211 38.3375015258789 35.2750015258789 36.5875015258789 35.9000015258789 34.9000015258789 34.3125 35.8687515258789 35.8624992370605 33.7562484741211 32.6437492370605 32.5 32.1749992370605 32.15625 33.8812484741211 31.2000007629395 27.3687496185303 25.6187496185303 25.0750007629395 24.3187503814697 23.2687492370605 22.5812492370605 22.6499996185303 21.9875011444092 20.9750003814697 20.3062496185303 19.53125 18.4750003814697 18.6687507629395 19.9562511444092 20.6062507629395 
45.1312484741211 45.9000015258789 47.1062507629395 49.1375007629395 51.7312507629395 54.0499992370605 54.6124992370605 55.6749992370605 56.9500007629395 56.2625007629395 53.96875 52.0625 51.5999984741211 51.0999984741211 49.6812515258789 50.0187492370605 49.4312515258789 48.90625 48.6187515258789 45.2875022888184 40.46875 37.1187515258789 34 33.1875 32.9375 32.5625 31.6875 33.4375 33.8499984741211 31.3374996185303 29.6375007629395 29.7312507629395 29.1812496185303 28.5812492370605 29.6875 28.6625003814697 26.1937503814697 25.1687507629395 25.1875 24.8187503814697 23.7875003814697 23.1875 22.0812492370605 21.4750003814697 20.9187507629395 20.3875007629395 19.6499996185303 18.1000003814697 17.4750003814697 18.3187503814697 19.9312496185303 
