ncols        51
nrows        45
xllcorner    -63.500000000000
yllcorner    -7.500000000000
cellsize     0.166666666667
NODATA_value -99
66.0687484741211 61.78125 58.03125 55.3499984741211 52.4562492370605 51.2874984741211 50.0625 48.6437492370605 48.5437507629395 48.7437515258789 49.8812484741211 52.1062507629395 54.8562507629395 57.2125015258789 60.84375 64.71875 68.7874984741211 71.9187469482422 75.78125 79.4937515258789 82.3375015258789 84.7312469482422 87.28125 90.4187469482422 93.6687469482422 96.9124984741211 101.606246948242 106.743751525879 111.65625 114.012496948242 115.324996948242 117.368751525879 119.043746948242 120.474998474121 121.75 124.599998474121 126.362503051758 127.893753051758 128.412506103516 129.225006103516 129.568756103516 128.787506103516 127.875 126.25 125.974998474121 123.956253051758 122.474998474121 119.643745422363 117.6875 115.300003051758 112.9375 
67.7937469482422 63.0999984741211 59.9312515258789 57.3687515258789 54.9249992370605 53.4937515258789 51.9749984741211 51.2687492370605 51.8312492370605 52.4312515258789 53.4500007629395 55.4562492370605 58.1500015258789 60.7874984741211 64.3875045776367 68.3375015258789 72.5812530517578 77.2375030517578 82.25 87.75 90.6312484741211 92.9562530517578 95.8687515258789 98.6062469482422 101.349998474121 104.137496948242 108.324996948242 112.6875 116.912498474121 119.324996948242 120.525001525879 122.5 123.512496948242 125.162498474121 127.28125 129.09375 132.868743896484 135.53125 135.931243896484 136.743743896484 137.106246948242 136.068756103516 134.90625 131.931243896484 130.550003051758 128.037506103516 126.375 122.643753051758 119.71875 115.987503051758 112.806251525879 
71.28125 66.9312515258789 63.7750015258789 60.96875 58.4812507629395 57.0562515258789 56.1437492370605 55.8937492370605 56.78125 57.5437507629395 58.3375015258789 60.3250007629395 63.0499992370605 65.7249984741211 69.5625 73.3937530517578 77.8062515258789 82.1374969482422 87.0562515258789 92 94.7125015258789 97.2874984741211 100.106246948242 102.456253051758 104.962501525879 108.206253051758 112.193748474121 116.162498474121 120.318748474121 121.400001525879 122.300003051758 123.78125 126.050003051758 127 128.925003051758 132.375 135.774993896484 138.75 140.206253051758 141.3125 141.706253051758 140.381256103516 138.262496948242 136.306243896484 133.587493896484 129.737503051758 127.456253051758 123.712501525879 119.243751525879 114.412498474121 110.849998474121 
74.4312515258789 70.8249969482422 68.1312484741211 64.7624969482422 62.3062515258789 61.2125015258789 60.7562484741211 60.8624992370605 61.9749984741211 63.2374992370605 64.09375 66.1125030517578 68.4937515258789 71.1999969482422 74.96875 79.1875 83.5374984741211 86.8625030517578 91.0875015258789 96.1374969482422 98.8062515258789 101 102.856246948242 105.275001525879 107.418746948242 110.824996948242 114.75 118.118751525879 122.25 123.362503051758 123.368751525879 123.59375 126.224998474121 128.40625 130.1875 133.881256103516 137.206253051758 140.925003051758 143.550003051758 144.887496948242 144.943756103516 143.512496948242 141.287506103516 139.550003051758 136.024993896484 131.912506103516 128.118743896484 123.587501525879 118.724998474121 113.087501525879 108.275001525879 
80.8562469482422 75.8000030517578 71.5437469482422 68.5 66.1999969482422 65.6374969482422 65.3499984741211 65.71875 67.5500030517578 69.21875 69.8812484741211 71.59375 74.2375030517578 77.0562515258789 80.8375015258789 85.0749969482422 89.1999969482422 91.8562469482422 95.5187530517578 100.25 102.699996948242 103.962501525879 105.318748474121 107.525001525879 109.612503051758 112.993751525879 115.875 119.106246948242 122.875 123.831253051758 123.650001525879 123.056251525879 125.306251525879 127.768753051758 129.962493896484 134.5 139.237503051758 143.287506103516 146.3125 147.824996948242 148.018753051758 146.350006103516 144.399993896484 141.524993896484 138.018753051758 133.324996948242 128.018753051758 122.793746948242 117.137504577637 111.862495422363 105.637496948242 
86.5 81.5187530517578 76.4250030517578 71.875 69.7687530517578 69.9812469482422 70.1750030517578 70.4437484741211 72.1750030517578 73.9312515258789 74.7375030517578 76.84375 79.96875 82.9875030517578 87.2062530517578 91.4124984741211 95.5875015258789 97.1312484741211 100.712501525879 104.099998474121 105.34375 106.662498474121 107.543746948242 109.40625 111.34375 113.837501525879 117.324996948242 120.337501525879 123.287498474121 123.849998474121 123.737503051758 123.731246948242 124.775001525879 126.5 130.237503051758 135.356246948242 140.318756103516 146.137496948242 149.762496948242 150.556243896484 149.012496948242 147.181243896484 144.006256103516 141.612503051758 138.518753051758 133.024993896484 126.662498474121 119.925003051758 115.125 109.324996948242 103.356246948242 
93.1937484741211 87.8499984741211 82.59375 77.4812469482422 74.1624984741211 73.9000015258789 74.2750015258789 74.4437484741211 75.6374969482422 76.7062530517578 78.7375030517578 81.6875 85.7937469482422 89.2687530517578 93.4874954223633 97.9875030517578 102.6875 105.25 107.887496948242 109.087501525879 108.831253051758 109.4375 109.493751525879 110.599998474121 112.675003051758 114.449996948242 117.206253051758 120.943748474121 123.65625 123.59375 123.206253051758 122.956253051758 124.693748474121 126.262496948242 129.09375 134.28125 140.368743896484 146.574996948242 152.1875 152.162506103516 149.46875 146.381256103516 143.550003051758 140.381256103516 136.387496948242 131.631256103516 125.96875 118.40625 112.318748474121 106.506248474121 101.368751525879 
100.118751525879 94.2437515258789 88.9437484741211 84.4187469482422 80.9625015258789 79.8875045776367 78.8687515258789 77.5437469482422 77.5999984741211 79.3375015258789 82.7125015258789 87.21875 91.6937484741211 96.3312530517578 100.275001525879 104.775001525879 109.237503051758 112.168746948242 114.137504577637 112.512496948242 111.137496948242 110.412498474121 109.943748474121 110.4375 112.581253051758 114.631248474121 116.8125 119.949996948242 123.46875 123.662498474121 122.175003051758 121.699996948242 123.706253051758 125.231246948242 128.475006103516 132.762496948242 138.856246948242 144.65625 148.75 149.393753051758 147.9375 144.743743896484 141.762496948242 138.25 133.068756103516 129.824996948242 125.306251525879 117.506248474121 110.431251525879 104.387496948242 98.0187530517578 
106.981246948242 100.943748474121 95.9312515258789 91.5374984741211 87.7750015258789 86.7687530517578 85.4937515258789 83.5187530517578 82.3312530517578 83.3874969482422 87.8312530517578 93.34375 98.6187515258789 103.237503051758 106.231246948242 109.3125 112.53125 115 116.525001525879 114.224998474121 111.46875 110.40625 109.993751525879 111.4375 113.006248474121 114.587501525879 116.581253051758 119.675003051758 122.518753051758 122.512496948242 122.368751525879 121.5625 123.1875 125.262496948242 127.806251525879 132.212493896484 137.043746948242 141.518753051758 144.5 145.949996948242 144.600006103516 141.887496948242 139.762496948242 136.918746948242 132.737503051758 128.393753051758 124.5 116.625 109.099998474121 102.8125 98.0625 
113.243751525879 107.34375 102.737503051758 98.8874969482422 95.1999969482422 94.125 92.9187469482422 91.2874984741211 91.4375 92.8125 96.1937484741211 100.762496948242 106.537498474121 110.5 112.199996948242 113.268753051758 114.293746948242 114.974998474121 115.037498474121 113.362503051758 111.03125 109.824996948242 109.53125 111.306251525879 112.518753051758 113.775001525879 115.706253051758 118.368751525879 121.275001525879 121.599998474121 121.137496948242 120.75 122.143753051758 123.662498474121 126.331253051758 131.337493896484 135.456253051758 139.212493896484 140.925003051758 142.056243896484 141.78125 140.056243896484 137.318756103516 134.737503051758 131.418746948242 128.324996948242 122.699996948242 114.675003051758 107.300003051758 101.256248474121 95.0250015258789 
120.5 114.356246948242 109.662498474121 105.599998474121 102.650001525879 102.224998474121 101.368751525879 99.65625 100.21875 102.21875 105.393753051758 109.925003051758 114.681251525879 118.337501525879 117.800003051758 116.724998474121 115.393753051758 114.731246948242 113.518753051758 111.668746948242 110.393745422363 109.318748474121 109.1875 109.668754577637 112.268753051758 113.5625 114.8125 116.324996948242 118.012496948242 118.675003051758 118.768753051758 119.262496948242 120.724998474121 122.243751525879 124.568748474121 128.774993896484 132.84375 136.375 138.856246948242 139.712493896484 139.631256103516 137.837493896484 135.912506103516 133.931243896484 130.375 128.449996948242 121.050003051758 111.775001525879 103.987503051758 96.6187515258789 90.6125030517578 
127.487503051758 121.012496948242 116.5 113.006248474121 110.162498474121 110.056251525879 109.893753051758 108.706253051758 109.662498474121 112.34375 115.712501525879 119.275001525879 121.481246948242 123.206253051758 122.037498474121 119.75 117.5625 115.599998474121 113.762496948242 111.943748474121 110.150001525879 109.506248474121 110.21875 111.081253051758 113.118751525879 114.181251525879 114.543746948242 115.025001525879 115.6875 116.431251525879 116.775001525879 117.612503051758 119.068748474121 120.918746948242 123.381248474121 127.618751525879 131.512496948242 135.1875 137.381256103516 138.550003051758 138.706253051758 137.043746948242 135.056243896484 132.824996948242 128.3125 122.862503051758 116.03125 108.637496948242 101.699996948242 95.7062530517578 88.8625030517578 
134.40625 128.012496948242 123.818748474121 120.175003051758 117.643753051758 117.4375 117.275001525879 117.018753051758 118.662498474121 122.087501525879 125.78125 127.856246948242 128.09375 127.068748474121 125.443748474121 122.756248474121 119.912498474121 117.818748474121 115.462501525879 112.84375 109.78125 109.599998474121 111.368751525879 112.543746948242 113.212501525879 113.199996948242 113.224998474121 113.474998474121 113.837501525879 113.793746948242 114.199996948242 115 116.368751525879 118.5 121.212501525879 126.0625 130.587493896484 134.412506103516 136.606246948242 137.3125 137.256256103516 136.3125 133.518753051758 128.75 124.168746948242 120.3125 113.706253051758 105.625 98.5062484741211 93.9562530517578 88.8499984741211 
140.393753051758 133.962493896484 129.800003051758 126.456253051758 123.787498474121 123.724998474121 123.78125 124.643753051758 127.599998474121 131.012496948242 133.868743896484 134.100006103516 133.137496948242 130.993743896484 128.149993896484 126 122.84375 120.099998474121 117.356246948242 114.650001525879 112.275001525879 111.756248474121 112.59375 112.868751525879 112.887496948242 112.637496948242 112.625 111.625 111.012496948242 110.699996948242 111.09375 111.6875 113.493751525879 115.550003051758 118.862503051758 123.918746948242 129.09375 134.168746948242 137.25 139.006256103516 137.131256103516 133.012496948242 129.425003051758 126.5 123.3125 118.162498474121 113.724998474121 106.756248474121 98.7687530517578 93.0250015258789 89.4187469482422 
144.774993896484 138.25 134.625 131.387496948242 129.056243896484 129.149993896484 130.1875 131.475006103516 134.449996948242 137.512496948242 140.074996948242 139.731246948242 137.75 135.425003051758 132.387496948242 130.231246948242 126.662498474121 123.668746948242 120.775001525879 118.824996948242 116.425003051758 115.34375 114.9375 114.381248474121 113.993743896484 113.175003051758 112.568748474121 111.224998474121 109.756248474121 108.287498474121 107.762496948242 108.487503051758 110.28125 112.71875 116.300003051758 120.743751525879 126.943748474121 133.893753051758 139.006256103516 139.837493896484 136.243743896484 132.237503051758 129.162506103516 126.643753051758 121.806251525879 116.837501525879 111.606246948242 106.293754577637 100.456253051758 94.0625 89.0124969482422 
147.912506103516 141.731246948242 138.481246948242 135.943756103516 133.862503051758 134.600006103516 135.981246948242 137.068756103516 140.074996948242 143.762496948242 145.981246948242 144.837493896484 142.481246948242 139.662506103516 136.981246948242 133.681243896484 130.15625 127.75 124.84375 122.712501525879 120.65625 118.800003051758 117.65625 116.300003051758 115.493751525879 114.90625 113.681251525879 111.568748474121 108.818748474121 105.943748474121 104.59375 104.362503051758 105.300003051758 107.506248474121 110.506248474121 115.506248474121 123 132.03125 139.225006103516 140.037506103516 135.774993896484 131.643753051758 128.337493896484 124.15625 120.199996948242 115.981246948242 111.84375 106.637496948242 100.356246948242 94.3687515258789 88.9499969482422 
150.449996948242 144.681243896484 141.018753051758 139.131256103516 137.793746948242 138.587493896484 140.587493896484 142.75 146.300003051758 149.550003051758 151.706253051758 149.737503051758 146.868743896484 143.662506103516 141.15625 137.649993896484 133.106246948242 130.787506103516 128.806243896484 126.65625 124.431251525879 122.256248474121 120.587501525879 118.512496948242 117.40625 116.949996948242 115.71875 112.356246948242 107.287498474121 103.206253051758 101.03125 100.737503051758 100.456253051758 100.425003051758 102.0625 107.675003051758 117.206253051758 130.393753051758 143.375 141.056243896484 134.300003051758 129.706253051758 125.231246948242 122.356246948242 118.650001525879 114.962501525879 111.587501525879 106.5 101.412498474121 95.9500045776367 91.3312530517578 
151.231246948242 145.6875 142.331253051758 140.762496948242 139.65625 141.324996948242 143.393753051758 145.381256103516 149.149993896484 153.350006103516 156.25 154.46875 151.212493896484 148.168746948242 145.381256103516 141.681243896484 137.21875 133.125 132.5 130.568740844727 128.524993896484 125.918746948242 123.506248474121 121.431251525879 120.112503051758 119.587501525879 119.043746948242 113.712501525879 106.393753051758 100.456253051758 97.0250015258789 96.1500015258789 96.5250015258789 96.9000015258789 96.2249984741211 97.4124984741211 110.637496948242 126.112503051758 136.712493896484 137.456253051758 131.324996948242 126.806251525879 123.474998474121 121.175003051758 117.949996948242 115.400001525879 112.612503051758 108.150001525879 103.381248474121 98.8687515258789 95.3562469482422 
150.975006103516 145.537506103516 142.862503051758 141.518753051758 140.756256103516 142.818756103516 145.056243896484 147.949996948242 152.318756103516 157.006256103516 159.681243896484 157.625 155.274993896484 152.981246948242 149.800003051758 145.800003051758 141.449996948242 137.381256103516 134.71875 133.412506103516 131.993743896484 130.324996948242 125.893753051758 124.050003051758 123.018753051758 122.09375 120.34375 115.043746948242 106.90625 99.15625 93.625 94.9812469482422 97.0124969482422 96.9562530517578 95.6062469482422 98.3812484741211 108.856246948242 120.362503051758 128.912506103516 130.362503051758 126.881248474121 123.443748474121 120.912498474121 119.5 117.681251525879 116.043746948242 113.512496948242 110.162498474121 106.349998474121 101.699996948242 99.8000030517578 
150.118743896484 145.068756103516 142.34375 141.318756103516 141.149993896484 144.043746948242 147.087493896484 150.387496948242 155.506256103516 159.862503051758 163.168746948242 162.431243896484 160.693756103516 157.96875 153.943756103516 148.774993896484 143.868743896484 140.90625 138.59375 136.96875 133.962493896484 130.668746948242 128.100006103516 126.537498474121 125.300003051758 123.831253051758 121.506248474121 117.212501525879 109.787498474121 102.15625 97.8125 99.4625015258789 100.637496948242 101.324996948242 102.106254577637 104.84375 111.599998474121 119.268753051758 124.78125 126.237503051758 123.824996948242 119.84375 118.868751525879 118.543746948242 117.6875 116.856246948242 115.637496948242 113.206253051758 110.15625 106.449996948242 104.300003051758 
149.4375 145.456253051758 143.600006103516 142.793746948242 142.981246948242 146.537506103516 150.243759155273 153.987503051758 159.412506103516 163.96875 166.668746948242 166.100006103516 164.53125 161.612503051758 157.175003051758 151.725006103516 146.456253051758 142.487503051758 140.324996948242 138.0625 135.493743896484 132.725006103516 130.199996948242 129.024993896484 128.712493896484 127.949996948242 126.162498474121 121.449996948242 115.21875 110.856246948242 108.256248474121 108.668746948242 108.068748474121 108.175003051758 108.931251525879 111.806251525879 116.474998474121 121.493751525879 125.025001525879 125.675003051758 123.699996948242 120.925003051758 119.493751525879 118.574996948242 118.1875 118.21875 118.162498474121 116.6875 114.125 112.5 109.974998474121 
148.949996948242 144.518753051758 143.612503051758 144.268753051758 145.28125 149.212493896484 153.787506103516 158.293746948242 163.481246948242 167.662506103516 169.587493896484 168.756256103516 167.131256103516 164.100006103516 159.875 154.743743896484 149.793746948242 145.84375 142.774993896484 139.824996948242 135.912506103516 133.137496948242 131.449996948242 130.268753051758 130.15625 131.056243896484 131.899993896484 128.199996948242 122.837501525879 120.21875 118.824996948242 118.856246948242 116.643753051758 115.568748474121 114.831253051758 116.875 121.087501525879 126 128.46875 127.618751525879 125.487503051758 122.931251525879 121.131248474121 119.943748474121 119.893753051758 120.699996948242 121.193748474121 120.59375 119.949996948242 119.875 117.09375 
149.137496948242 145.78125 144.706253051758 145.456253051758 147.262496948242 152.331253051758 157.212493896484 162.574996948242 168.462493896484 171.637496948242 172.737503051758 171.137496948242 169.893753051758 167.306243896484 162.856246948242 157.6875 152.506256103516 148.03125 144.487503051758 140.556243896484 136.3125 133.006256103516 130.649993896484 129.618743896484 130.21875 132.693756103516 135.899993896484 133.5625 129.181243896484 128.375 128.637496948242 129.112503051758 126.074996948242 122.931251525879 120.612503051758 120.637496948242 124.599998474121 131.21875 133.056243896484 130.800003051758 127.787498474121 124.875 122.887496948242 121.474998474121 121.34375 122.925003051758 124.118751525879 125.318748474121 126.793754577637 127.625 125.275001525879 
151.293746948242 148.1875 146.724990844727 147.449996948242 149.693756103516 155.175003051758 161.012496948242 166.324996948242 171.668746948242 174.050003051758 174.850006103516 174.050003051758 173.168746948242 171.268753051758 166.387496948242 160.774993896484 155.4375 150.756256103516 146.475006103516 141.956253051758 136.681243896484 132.668746948242 129.362503051758 128.59375 129.162506103516 131.487503051758 135.012496948242 135.600006103516 134.762496948242 135.893753051758 138.043746948242 138.949996948242 135.800003051758 131.543746948242 128.050003051758 125.824996948242 128.28125 133.78125 135.28125 132.762496948242 129.237503051758 126.40625 123.962501525879 122.300003051758 123.5 125.849998474121 128.631256103516 129.78125 134.356246948242 137.231246948242 135.612503051758 
155.743743896484 152.456253051758 150.106246948242 151.856246948242 154.90625 159.925003051758 165.25 169.606246948242 173.706253051758 176.350006103516 177.375 176.8125 176.256256103516 174.681243896484 169.824996948242 164.074996948242 158.350006103516 153.443756103516 148.581253051758 143.40625 137.3125 131.9375 127.9375 126.550003051758 127.4375 130.362503051758 134.543746948242 137.306243896484 139.018753051758 142.681243896484 146.78125 148.893753051758 145.6875 140.831253051758 135.912506103516 133.418746948242 134.149993896484 135.506256103516 136.081253051758 134.337493896484 130.856246948242 127.974998474121 125.087501525879 124.006248474121 124.787498474121 128.362503051758 131.106246948242 135.5 139.737503051758 146.875 146.199996948242 
163.231246948242 162.0625 159.412506103516 160.15625 161.112503051758 165.25 169.300003051758 172.693756103516 176.018753051758 177.981246948242 178.75 179.168746948242 179 177.912506103516 173.306243896484 167.518753051758 161.368743896484 156.168746948242 150.918746948242 145.199996948242 139.137496948242 132.287506103516 126.46875 123.818748474121 126.037498474121 130.074996948242 135.693756103516 140.0625 143.699996948242 149.125 154.737503051758 159.237503051758 156.262496948242 150.162506103516 144.537506103516 140.868743896484 139.537506103516 138.699996948242 138.493743896484 137.018753051758 133.681243896484 129.743743896484 125.912498474121 124.03125 126.125 129.712493896484 138.431243896484 143.643753051758 146.368743896484 150.449996948242 148.925003051758 
167.737503051758 167.137496948242 166.774993896484 167.71875 168.418746948242 171.393753051758 173.668746948242 175.643753051758 177.574996948242 179.537506103516 181.149993896484 182.106246948242 182.306243896484 181.993743896484 177.618743896484 172.28125 166.412506103516 161.15625 155.756256103516 149.387496948242 142.831253051758 135.493743896484 128.612503051758 124.787498474121 128.199996948242 132.824996948242 139.193756103516 144.631256103516 149.9375 156.206253051758 163.181243896484 168.831253051758 165.931243896484 158.475006103516 151.481246948242 147.337493896484 144.318756103516 142.131256103516 141.649993896484 140.6875 137.824996948242 133.03125 127.599998474121 125.212501525879 130.449996948242 139.274993896484 148.53125 151.862503051758 154 154.350006103516 151.693756103516 
172.350006103516 172.375 173.90625 175.649993896484 176.393753051758 178.181259155273 179.068756103516 179.112503051758 179.956253051758 181.068756103516 182.118743896484 183.737503051758 185.53125 186.1875 182.199996948242 176.831253051758 171.618743896484 166.21875 160.987503051758 154.71875 148.381256103516 141.625 136.262496948242 133.506256103516 135.056243896484 138.725006103516 144.606246948242 150.193756103516 155.949996948242 162.6875 169.762496948242 175.143753051758 171.1875 163.918746948242 156.518753051758 151.9375 148.4375 145.768753051758 145.78125 145.75 143.962493896484 139.024993896484 130.399993896484 127.518753051758 137.556243896484 149.443756103516 159.518753051758 162.34375 162.381256103516 160.868743896484 157.175003051758 
175.943756103516 176.962493896484 180.518753051758 184.199996948242 185.068756103516 184.6875 183.606246948242 182.350006103516 182.21875 182.231246948242 183.362503051758 186 188.574996948242 190.350006103516 186.618743896484 182.399993896484 177.681243896484 172.631256103516 167.418746948242 161.412506103516 155.550003051758 149.699996948242 145.587493896484 143.012496948242 143.662506103516 146.306243896484 151.637496948242 157.199996948242 163.112503051758 169.293746948242 175.725006103516 180.300003051758 175.487503051758 167.743743896484 160.362503051758 155.881256103516 152.393753051758 149.287506103516 149.256256103516 150.137496948242 150.306243896484 144.893753051758 136.762496948242 136.475006103516 146.912506103516 158.668746948242 169.34375 171.618743896484 171.449996948242 168.706253051758 163.493743896484 
179.356246948242 181.287506103516 186.59375 192.206253051758 194.362503051758 190.912506103516 187.431243896484 185.106246948242 184.018753051758 183.399993896484 184.418746948242 187.143753051758 191.050003051758 194.181243896484 191.887496948242 188.506256103516 185.162506103516 181.649993896484 176.787506103516 170.6875 164.887496948242 159.706253051758 155.5625 153.518753051758 153.9375 156.125 160.168746948242 165.71875 171.037506103516 176.181243896484 181.331253051758 184.662506103516 180.15625 172.737503051758 165.65625 160.65625 156.662506103516 152.925003051758 152.543746948242 152.618743896484 151.612503051758 149.649993896484 145.574996948242 146.518753051758 152.550003051758 165.4375 177.118743896484 181.506256103516 180.743743896484 176.806243896484 170.6875 
181.112503051758 183.84375 189.293746948242 195.637496948242 197.731246948242 192.9375 188.743743896484 185.443756103516 183.756256103516 183.800003051758 184.96875 188.418746948242 193.256256103516 197.081253051758 196.043746948242 194.543746948242 193.381256103516 189.943756103516 186.262496948242 180.443756103516 174.668746948242 169.71875 166.068756103516 164.181243896484 164.162506103516 165.793746948242 169.518753051758 174.537506103516 179.350006103516 183.587493896484 187.231246948242 189.300003051758 184.418746948242 177.706253051758 170.768753051758 165.524993896484 161.143753051758 156.850006103516 155.524993896484 154.081253051758 153.212493896484 153.850006103516 153.518753051758 153.800003051758 158.193756103516 174.768753051758 188.75 193.65625 192.012496948242 186.625 179.050003051758 
182.106246948242 184.368743896484 188.837493896484 192.331253051758 192.762496948242 190.162506103516 186.881256103516 183.449996948242 182.412506103516 182.481246948242 184.3125 189.012496948242 194.918746948242 199.75 200.90625 201.149993896484 200.137496948242 196.912506103516 193.300003051758 188.212493896484 183.481246948242 179.081253051758 175.462493896484 173.78125 174.581253051758 175.824996948242 178.875 183.556243896484 188.106246948242 191.287506103516 193.53125 194.462493896484 188.699996948242 182.212493896484 175.837493896484 170.868743896484 165.481246948242 160.375 158.449996948242 156.725006103516 156.949996948242 160.100006103516 163.1875 166.375 173.206253051758 193.368743896484 207.818756103516 209.4375 204.518753051758 196.556243896484 187.306243896484 
185.199996948242 185.662506103516 187.59375 189.649993896484 189.462493896484 187.256256103516 183.875 180.53125 179.71875 180.6875 184.862503051758 190.600006103516 198.006256103516 205.175003051758 207.506256103516 208.487503051758 207.981246948242 205.574996948242 200.887496948242 196.237503051758 192.15625 188.625 185.375 183.787506103516 184.568756103516 186.306243896484 189.231246948242 192.837493896484 197.387496948242 199.262496948242 200.737503051758 200.8125 195.337493896484 189.125 183.112503051758 177.931243896484 172.550003051758 167.418746948242 164.918746948242 164.493743896484 164.518753051758 168.84375 174.881256103516 183.206253051758 198.268753051758 223.100006103516 232.399993896484 225.087493896484 215.043746948242 205.006256103516 194.550003051758 
187.90625 186.806243896484 187.443756103516 187.481246948242 185.712493896484 183.381256103516 180.449996948242 177.25 176.506256103516 177.949996948242 182.693756103516 191.625 201.40625 209.412506103516 213.518753051758 215.543746948242 216.456253051758 214.131256103516 209.043746948242 204.443756103516 200.831253051758 197.399993896484 194.175003051758 193.100006103516 193.743743896484 195.493743896484 198.856246948242 202.699996948242 207.21875 207.649993896484 207.850006103516 207.449996948242 202.199996948242 196.412506103516 190.375 185.018753051758 179.987503051758 174.168746948242 172.368743896484 172.012496948242 172.25 177.25 184.743743896484 195.793746948242 213.6875 237.625 244.543746948242 234.293746948242 223.318756103516 211.59375 200.487503051758 
190.268753051758 188.399993896484 187.681243896484 185.925003051758 183.443756103516 180.53125 177.087493896484 173.6875 172.1875 174.106246948242 180.693756103516 192.081253051758 205.162506103516 216.037506103516 221.362503051758 224.412506103516 225.625 222.743743896484 218.03125 212.399993896484 209.518753051758 205.706253051758 203.318756103516 202.199996948242 202.543746948242 204.475006103516 207.818756103516 212.074996948242 216.34375 215.912506103516 215.175003051758 213.912506103516 209.118743896484 203.975006103516 198.181243896484 192.237503051758 186.643753051758 181.981246948242 180.375 179.125 179.34375 184.068756103516 191.293746948242 201.606246948242 216.912506103516 230.600006103516 237.043746948242 232.693756103516 224.050003051758 214.943756103516 205.268753051758 
195.106246948242 192.362503051758 190.368743896484 187.743743896484 184.206253051758 180.912506103516 176.456253051758 171.881256103516 169.143753051758 169.681243896484 177.96875 193.175003051758 210.118743896484 223.043746948242 229.899993896484 233.887496948242 235.431243896484 232.324996948242 226.6875 220.550003051758 217.368743896484 214.487503051758 211.40625 210.356246948242 211.125 212.725006103516 216.15625 220.143753051758 224.006256103516 223.556243896484 222.806243896484 220.943756103516 216.893753051758 211.881256103516 206.456253051758 200.443756103516 196.318756103516 192.043746948242 190.287506103516 189.324996948242 189.568756103516 194.131256103516 199.818756103516 208.024993896484 218.987503051758 228.181243896484 232.28125 230.112503051758 224.493743896484 217.225006103516 209.524993896484 
199.987503051758 196.643753051758 194.012496948242 190.981246948242 187.243743896484 183.699996948242 179.337493896484 173.493743896484 168.181243896484 164.537506103516 176.612503051758 199.731246948242 218.037506103516 230.90625 238.824996948242 243.518753051758 245.818756103516 241.981246948242 236.300003051758 229.762496948242 225.893753051758 222.337493896484 219.118743896484 218.106246948242 218.487503051758 220.25 223.206253051758 227.856246948242 232.074996948242 231.543746948242 230.268753051758 228.15625 224.493743896484 220.368743896484 215.199996948242 210.662506103516 206.693756103516 202.631256103516 200.162506103516 198.987503051758 198.84375 202.237503051758 206.600006103516 212.756256103516 219.6875 224.981246948242 228.356246948242 227.212493896484 223.925003051758 218.087493896484 213 
203.5 200.199996948242 197.737503051758 194.668746948242 191.5 187.987503051758 184.568756103516 179.581253051758 174.912506103516 169.293746948242 191.793746948242 217.331253051758 231.59375 242.181243896484 249.475006103516 254.393753051758 256.337493896484 252.481246948242 245.712493896484 239.068756103516 233.662506103516 229.274993896484 226.09375 224.943756103516 225.006256103516 226.699996948242 230.556243896484 235.074996948242 239.175003051758 239.006256103516 237.106246948242 235.175003051758 232.081253051758 228.65625 224.125 220.131256103516 216.293746948242 212.100006103516 209.856246948242 208.118743896484 207.100006103516 209.125 211.581253051758 215.618759155273 220.850006103516 224.125 226.568740844727 226.806243896484 223.574996948242 220.324996948242 217.212493896484 
201.100006103516 198.637496948242 197.574996948242 196.137496948242 194.09375 192.40625 191.125 190.46875 193.112503051758 204.399993896484 232.074996948242 241.862503051758 248.1875 255.637496948242 261.274993896484 265.368743896484 266.787506103516 261.643737792969 254.506256103516 247.125 240.443756103516 234.606246948242 230.743743896484 229.600006103516 229.975006103516 231.631256103516 234.837493896484 239.34375 243.399993896484 243.96875 243.568756103516 241.318756103516 238.762496948242 235.768753051758 232.925003051758 229.324996948242 225.543746948242 221.675003051758 219.012496948242 216.743743896484 215.768753051758 216.706253051758 218.125 220.768753051758 224.6875 227.756256103516 228.912506103516 230.5 230 228.106246948242 226.612503051758 
198.681243896484 197.231246948242 197.456253051758 197.524993896484 197.40625 198.5625 200.362503051758 204.418746948242 212.081253051758 225.987503051758 245.181243896484 256.762512207031 262.868743896484 269.293762207031 274.299987792969 277.15625 277.587493896484 272.456237792969 264.0625 255.649993896484 246.225006103516 238.412506103516 233.306243896484 231.606246948242 232.912506103516 235.40625 239.125 243.693756103516 247.46875 249.068756103516 248.881256103516 248.506256103516 246.981246948242 244.375 241.524993896484 237.481246948242 234.331253051758 230.506256103516 227.518753051758 224.524993896484 222.53125 223.0625 224.21875 226.024993896484 229.581253051758 231.862503051758 233.456253051758 235.824996948242 236.331253051758 236.231246948242 236.181243896484 
195.824996948242 195.581253051758 197.03125 198.331253051758 200.024993896484 203.256256103516 207.887496948242 214.987503051758 225.262496948242 238.65625 253.599990844727 265.256256103516 273.887512207031 281.193756103516 285.418762207031 288.243743896484 288.293762207031 282.837493896484 273.84375 263.274993896484 250.943756103516 240.662506103516 234.293746948242 232.881256103516 235.318756103516 238.524993896484 242.899993896484 247.931243896484 252.306243896484 254.231246948242 256.012512207031 257.056243896484 255.637496948242 253.731246948242 250.543746948242 246.206253051758 242.293746948242 238.412506103516 235.574996948242 232.0625 229.524993896484 229.03125 228.893753051758 230.5 234.074996948242 237.106246948242 238.837493896484 241.693756103516 243.856246948242 243.862503051758 245.40625 
190.381256103516 190.606246948242 192.356246948242 194.125 196.112503051758 200.524993896484 206.856246948242 214.981246948242 226.3125 238.856246948242 252.206253051758 264.200012207031 275.237487792969 283.868743896484 289.012512207031 293.399993896484 295.481262207031 291.118743896484 282.712493896484 268.787506103516 251.5625 238.518753051758 231.625 231.287506103516 235.112503051758 238.981246948242 243.90625 249.125 255.387496948242 259.293762207031 261.462493896484 263.931243896484 263.193756103516 261.831237792969 258.799987792969 253.587493896484 249.543746948242 245.625 242.525009155273 238.587493896484 235.600006103516 233.050003051758 232.4375 235.262496948242 239.787506103516 242.725006103516 244.587493896484 247.412506103516 250.943756103516 252.925003051758 255.712493896484 
184.387496948242 184.587493896484 186.712493896484 188.462493896484 191.268753051758 196.668746948242 203.768753051758 212.199996948242 223.324996948242 235.606246948242 249.050003051758 261.631256103516 273.762512207031 284.024993896484 291.96875 298.462493896484 301.84375 300.681243896484 294.46875 276.100006103516 251.875 232.393753051758 227.09375 230.337493896484 235.337493896484 240.28125 245.0625 251.25 257.612487792969 262.875 267.3125 270.225006103516 270.662506103516 269 265.912506103516 261.381256103516 256.737487792969 252.943756103516 249.456253051758 246.25 242.8125 240.743743896484 239.9375 241.925003051758 246.043746948242 248.287506103516 249.881256103516 252.96875 256.774993896484 259.399993896484 265.0625 
179.381256103516 179.393753051758 181.081253051758 182.712493896484 186.725006103516 192.631256103516 199.78125 208.743743896484 219.774993896484 232.006256103516 245.037506103516 258.924987792969 272.243743896484 284.743743896484 294.3125 301.131256103516 306.674987792969 307.393737792969 305.475006103516 285.243743896484 257.28125 233.487503051758 228.368743896484 232.074996948242 237.425003051758 242.4375 247.4375 253.375 259.700012207031 266.475006103516 272.231262207031 276.512512207031 277.412506103516 275.518737792969 272.174987792969 268.987487792969 263.899993896484 259.850006103516 257.59375 254.287506103516 251.8125 249.862503051758 249.5 250.725006103516 252.925003051758 254.662506103516 256.206237792969 258.012512207031 260.850006103516 265.5 272.274993896484 
176.162506103516 176.074996948242 177.399993896484 179.243743896484 183.012496948242 189.362503051758 196.3125 204.806243896484 215.693756103516 228.512496948242 241.993743896484 256.631256103516 271.412506103516 284.518737792969 294.193756103516 301.618743896484 306.6875 306.868743896484 302.768737792969 286.793762207031 264.274993896484 246.943756103516 237.837493896484 237.5625 241.1875 245.5 249.875 255.25 261.299987792969 267.756256103516 273.549987792969 278.5625 279.693756103516 277.600006103516 275.731262207031 272.981262207031 268.475006103516 265.225006103516 263.018737792969 260.737487792969 258.731231689453 257.506256103516 257.262512207031 258.049987792969 259.59375 260.456237792969 261.424987792969 262.674987792969 262.918762207031 266.475006103516 275.012512207031 
