ncols        51
nrows        45
xllcorner    -63.500000000000
yllcorner    -7.500000000000
cellsize     0.166666666667
NODATA_value -99
363.631256103516 383.012512207031 385.556243896484 395.274993896484 406.056243896484 412.40625 405.743743896484 403.206237792969 397.65625 387.168762207031 365.662506103516 348.975006103516 336.6875 318.106262207031 300.975006103516 278.162506103516 260.606262207031 243.393753051758 226.675003051758 216.981246948242 209.712509155273 200.581253051758 192.237503051758 184.918746948242 176.181243896484 168.181243896484 164.268753051758 162.412506103516 153.199996948242 148.393753051758 138.6875 133.993743896484 129.9375 123.387496948242 118.956253051758 117.681251525879 115.449996948242 114.974998474121 116.84375 117.9375 119.737503051758 123.300003051758 124.175003051758 124.78125 127.443748474121 128.043746948242 128.443756103516 127.775001525879 128.649993896484 125.75 126.5 
348.293762207031 366.350006103516 381.243743896484 396.850006103516 415.450012207031 420.487487792969 409.356262207031 406.487487792969 403.475006103516 393.868743896484 376.681243896484 363.024993896484 343.612487792969 321.8125 301.793762207031 284.456237792969 263.181243896484 244.068756103516 227.237503051758 214.600006103516 207.018753051758 198.143753051758 190.375 185.293746948242 176.818756103516 167.84375 166.637496948242 162.706253051758 153.868743896484 147.125 140.875 134.943756103516 130 125.40625 119.831253051758 117.025001525879 112.362503051758 113.168746948242 113.862503051758 114.981246948242 119.493751525879 121.618751525879 124.618751525879 126.768753051758 129.856246948242 129.824996948242 130.756256103516 128.743743896484 128.274993896484 126.631248474121 127.006248474121 
316.387512207031 338.40625 358.181243896484 380.725006103516 402.143737792969 408.15625 405.799987792969 404.049987792969 397.993743896484 388.450012207031 378.424987792969 365.137512207031 345.231262207031 320.0625 298.956237792969 280.225006103516 261.475006103516 243.324996948242 227.587493896484 213.074996948242 208.618743896484 204.293746948242 197.743743896484 194.050003051758 183.5 176.125 175.868743896484 168.693756103516 159.074996948242 152.59375 143.5 136.731246948242 131.387496948242 127.1875 119.818748474121 113.65625 110.237503051758 110.0625 110.618751525879 114.131248474121 120.75 124.662498474121 130.237503051758 132.337493896484 134.981246948242 133.6875 131.925003051758 132.4375 129.712493896484 127.637496948242 127.418746948242 
286.131256103516 302.299987792969 327.787506103516 354.293762207031 374.393737792969 382.493743896484 387.587493896484 390.96875 393.862487792969 386.487487792969 373.356262207031 356.674987792969 339.456237792969 315.693756103516 294.518737792969 274.643737792969 257.793762207031 242.631256103516 228.981246948242 221.9375 216.90625 210.862503051758 204.456253051758 201.1875 191.96875 183.918746948242 181.4375 170.15625 161.037506103516 154.324996948242 145.425003051758 136.225006103516 128.256256103516 121.71875 115.118751525879 110.668746948242 109.387496948242 107.387496948242 107.337501525879 113.40625 119.456253051758 127.237503051758 133.693756103516 139.168746948242 140.90625 138.456253051758 135.324996948242 133.706253051758 130.362503051758 128.606246948242 125.181251525879 
284.537506103516 291.831237792969 299.293762207031 319.950012207031 346.549987792969 355.987487792969 361.918762207031 376.412506103516 386.325012207031 381.524993896484 366.5 348.331237792969 331.299987792969 311.537506103516 289.387512207031 270.881256103516 252.5625 237.793746948242 226.3125 222.612503051758 223.518753051758 215.256256103516 210.625 210.237503051758 198.4375 188.768753051758 181.287506103516 174.637496948242 164.931243896484 153.706253051758 147.300003051758 136.350006103516 129.168746948242 122.831245422363 115.775001525879 109.368751525879 105.65625 103.650001525879 104.4375 109.493751525879 119.431251525879 128.006256103516 138.612503051758 145.381256103516 147.112503051758 144.318756103516 138.774993896484 133.212493896484 128.981246948242 125.900001525879 121.243751525879 
276.125 282.375 285.712493896484 286.575012207031 308.899993896484 332.168762207031 342.731262207031 352.024993896484 363.756256103516 360.59375 342.506256103516 326.5 313.943756103516 298.068756103516 278.262512207031 262.787506103516 244.512496948242 230.600006103516 224.806243896484 223.21875 224.506256103516 220.956253051758 217.368759155273 208.625 200.824996948242 192.456253051758 184.393753051758 175.618743896484 167.006256103516 154.15625 146.975006103516 139.143753051758 129.793746948242 123.856246948242 115.037498474121 110.824996948242 105.512496948242 101.224998474121 104.581253051758 112.737503051758 121.056251525879 131.84375 143.831253051758 155.362503051758 161.8125 155.475006103516 143.0625 133.5 128.324996948242 122.418746948242 119.362503051758 
269.731262207031 278.068756103516 281.762512207031 284.25 294.143737792969 303.043762207031 311.78125 320.087493896484 316.856262207031 316.606262207031 309.65625 300.543762207031 295.081237792969 282.993743896484 269.337493896484 255.831253051758 239.987503051758 230.356246948242 224.4375 226.831253051758 226.512496948242 224.931243896484 221.53125 213.975006103516 204.574996948242 196.8125 187.356246948242 176.581253051758 164 155.581253051758 146.712493896484 137.293746948242 130.524993896484 124.143753051758 116.287498474121 110.487503051758 103.868751525879 100.106246948242 105.324996948242 114.568748474121 123.493751525879 134.756256103516 149.106246948242 164.181243896484 173.962493896484 167.931243896484 149.962493896484 130.856246948242 122.900001525879 117.4375 117.75 
265.268737792969 270.112487792969 278.412506103516 283.893737792969 295.418762207031 303.418762207031 296.981262207031 280.149993896484 268.393737792969 270.287506103516 279.106262207031 276.325012207031 272.831237792969 265.950012207031 257.6875 246.8125 236.125 229.300003051758 224.800003051758 226.581253051758 229.556243896484 228.949996948242 223.274993896484 214.46875 208.300003051758 197.53125 186.112503051758 175.831253051758 164.637496948242 152.462493896484 146.65625 137.162506103516 128.65625 123.400001525879 113.849998474121 107.525001525879 101.224998474121 96.875 101.331253051758 109.40625 119.731246948242 132.225006103516 146.399993896484 160.149993896484 165.418746948242 158.837493896484 143.681243896484 127.625 116.612503051758 110.462501525879 111.09375 
262.524993896484 267.78125 277.274993896484 280.15625 287.825012207031 290.424987792969 286.768737792969 274.625 251.962493896484 241.637496948242 247.75 248.168746948242 253.431243896484 249.087493896484 244.181243896484 237.487503051758 234.318756103516 230.75 232.356246948242 229.300003051758 229.300003051758 230.15625 223.625 220.831253051758 212.193756103516 198.112503051758 182.868743896484 175.231246948242 164.743743896484 153.237503051758 147.512496948242 135.706253051758 125.306251525879 116.28125 108.71875 105.418746948242 101.162498474121 98.0500030517578 101.581253051758 108.993751525879 117.681251525879 126.90625 137.625 148.362503051758 148.368743896484 143.425003051758 131.725006103516 118.875 108.4375 103.775001525879 107.431251525879 
257.762512207031 263.431243896484 270.131256103516 275.956237792969 282.512512207031 283.9375 285.299987792969 273.381256103516 254.731246948242 248.137496948242 244.762496948242 236.631256103516 239.668746948242 237.949996948242 233.21875 231.431243896484 228.975006103516 231.3125 233.53125 234.574996948242 234.118743896484 229.925003051758 222.493743896484 219.012496948242 209.0625 195.006256103516 180.925003051758 171.699996948242 159.46875 148.399993896484 139.518753051758 129.837493896484 123.025001525879 116.199996948242 109.974998474121 106.53125 101.793746948242 98.375 103.037498474121 109.587501525879 116.275001525879 122 128.731246948242 133.524993896484 131.612503051758 127.137496948242 118.724998474121 104.849998474121 95.2874984741211 92.1999969482422 91.96875 
257.518737792969 262.362487792969 265.212493896484 269.162506103516 276.9375 282.943756103516 283.399993896484 268.34375 253.175003051758 243.306243896484 241.443756103516 234.106246948242 229.800003051758 225.525009155273 220.5625 219.100006103516 220.762496948242 226.737503051758 230.162506103516 235.512496948242 242.21875 237.681243896484 228.212493896484 216.731246948242 211.318756103516 198.018753051758 184.425003051758 171.612503051758 155.637496948242 142.9375 136.65625 128.287506103516 123.824996948242 117.550003051758 109.525001525879 105.34375 101.006248474121 99.0812530517578 102.331253051758 106.737503051758 111 115.356254577637 121.612503051758 123.337501525879 118.018753051758 112.737503051758 102.5 90.2312469482422 81.6937484741211 77.3562469482422 74.7249984741211 
253 258.506256103516 261.03125 266.543762207031 274.693756103516 280.081237792969 282.043762207031 270.274993896484 253.556243896484 241.668746948242 236.425003051758 229.706253051758 221.84375 213.837493896484 216.081253051758 214.618743896484 214.53125 217.1875 223.743743896484 233.625 241.731246948242 238.824996948242 231.300003051758 221.71875 210.800003051758 188.131256103516 174.4375 164.206253051758 150.693756103516 140.199996948242 132.524993896484 127.518753051758 120.34375 113.931251525879 108.412498474121 106.925003051758 104.0625 101.481246948242 101.150001525879 101.5 104.46875 107.900001525879 111.293746948242 107.28125 100.125 93.3562469482422 81.1937484741211 71.5250015258789 68.8187484741211 67.3375015258789 61.2999992370605 
246.175003051758 248.524993896484 252.368743896484 254.856246948242 264.262512207031 267.018737792969 262.96875 256.087493896484 241.162506103516 231.637496948242 226.543746948242 222.53125 213.949996948242 202.631256103516 200.1875 201.350006103516 200.012496948242 206.443756103516 212.600006103516 218.831253051758 229.137496948242 228.96875 223.737503051758 209.137496948242 188.8125 170.600006103516 164.068756103516 156.46875 149.443756103516 140.4375 131.831253051758 125.28125 120.606246948242 111.181251525879 106.824996948242 108.737503051758 111.487503051758 108.981246948242 109.193748474121 104.09375 98.3187484741211 102.974998474121 103.96875 98.0562515258789 95.3812484741211 89.40625 76.8625030517578 66.46875 62.0499992370605 61.3875007629395 58.2062492370605 
237.412506103516 236.806243896484 238.59375 243.806243896484 249.456253051758 248.899993896484 245.118743896484 241.78125 228.243759155273 219.574996948242 212.181243896484 205.8125 200.774993896484 192.350006103516 181.212493896484 184.475006103516 185.524993896484 190.899993896484 191.3125 195.600006103516 205.787506103516 206.71875 203.193756103516 193.431243896484 178.912506103516 166.006256103516 159.975006103516 154.181243896484 147.96875 141.199996948242 134.90625 125.887496948242 120.137496948242 112.212501525879 110.393753051758 116.71875 121.71875 125.893753051758 127.150001525879 118.181251525879 100.587501525879 95.9499969482422 101.03125 108.918746948242 109.125 97.6062469482422 86.9937515258789 77.4437484741211 70.2312469482422 68.4937515258789 65.2249984741211 
226.912506103516 228.6875 228.056243896484 229.612503051758 234.925003051758 233.456253051758 229.25 223.40625 211.46875 203.875 193.925003051758 190.274993896484 185.581253051758 176.087493896484 164.856246948242 161.831253051758 162.59375 164.4375 166.550003051758 171.756256103516 181.125 184.456253051758 184.581253051758 182.993743896484 177.524993896484 171.243743896484 163.850006103516 156.46875 148.506256103516 141.143753051758 133.056243896484 126.368751525879 121.012496948242 115.775001525879 112.400001525879 120.912498474121 131.981246948242 147.768753051758 153.112503051758 139.806243896484 127.943748474121 121.856246948242 126.106246948242 125.806251525879 118.368751525879 111.050003051758 104.462501525879 97.2437515258789 91.7937469482422 80.4312515258789 72.3000030517578 
213.59375 216.443756103516 217.399993896484 218.337493896484 220.40625 220.381256103516 216.53125 207.262496948242 197.356246948242 189.131256103516 180.274993896484 174.368743896484 168.087493896484 160.043746948242 150.493743896484 140.418746948242 139.96875 142.03125 143.737503051758 149.487503051758 157.78125 164.512496948242 171.368743896484 178.012496948242 179.162506103516 175.356246948242 168.681243896484 158.831253051758 149.831253051758 143.331253051758 137.368743896484 130.237503051758 122.712501525879 117.449996948242 116.150001525879 134.431243896484 151.612503051758 169.493759155273 179.256256103516 175.331253051758 168.59375 158.756256103516 150.043746948242 139.887496948242 128.862503051758 119.931251525879 114.28125 104.712501525879 100.206245422363 91.4812469482422 81.4875030517578 
205.175003051758 208.243743896484 207.462493896484 208.75 207.449996948242 207.887496948242 205.581253051758 198.662506103516 186.337493896484 178.862503051758 170.643753051758 162.231246948242 155.6875 147.65625 137.9375 128.243743896484 118.943748474121 119.037498474121 123.768753051758 130.431243896484 135.84375 145.993743896484 158.40625 174.743743896484 183.412506103516 180.324996948242 169.337493896484 160.018753051758 149.106246948242 141.368743896484 138.356246948242 136.287506103516 132.09375 128.3125 140.300003051758 160.268753051758 180.34375 206.931243896484 224.168746948242 211.512496948242 197.037506103516 178.8125 161.8125 152.168746948242 140.050003051758 130.774993896484 126.293746948242 119.806251525879 115.21875 103.287498474121 95.5687484741211 
192.106246948242 197.193756103516 198.15625 200.737503051758 200.068756103516 200.643753051758 194.96875 189.168746948242 178.337493896484 169.53125 161.431243896484 153.956253051758 143.84375 134.112503051758 124.912498474121 115.275001525879 106.125 99.4250030517578 105.981246948242 109.306251525879 116.956253051758 127.487503051758 143.15625 161.09375 176.506256103516 178.699996948242 171.96875 161.993743896484 149.212509155273 139.306243896484 129.831253051758 126.03125 139.681243896484 153.456253051758 162.024993896484 186.712493896484 212.949996948242 234.712493896484 241.21875 232.256256103516 206.393753051758 188.9375 172.412506103516 162.337493896484 148.012496948242 141.206253051758 137.837493896484 129.631256103516 120.693748474121 108.96875 104.71875 
179.46875 185.268753051758 188.100006103516 191.712493896484 194.118743896484 192.550003051758 188.649993896484 182.1875 175.631256103516 168.125 158.59375 145.293746948242 135.268753051758 125.912498474121 114.224998474121 106.456253051758 97.09375 88.7375030517578 88.5062484741211 93.0687484741211 106.006248474121 127.125 124.300003051758 143.912506103516 161.087493896484 174.399993896484 172.943756103516 162.393753051758 154.143753051758 137.943756103516 126.775001525879 130.949996948242 149.5625 162.149993896484 175.581253051758 200.612503051758 218.875 229.600006103516 236.787506103516 225.912506103516 209.912506103516 193.631256103516 178.024993896484 165.881256103516 154.462493896484 148.612503051758 144.15625 137.350006103516 128.737503051758 112.150001525879 111.5 
168.481246948242 174.193756103516 176.868743896484 180.706253051758 182.15625 181.649993896484 178.787506103516 174.425003051758 171.518753051758 165.268753051758 157.743743896484 149.024993896484 135.268753051758 121.393753051758 110.4375 99.3249969482422 85.9000015258789 82.8249969482422 83.6500015258789 89.4124984741211 92.6624984741211 100.962501525879 117.831253051758 135.418746948242 150.306243896484 159.262496948242 162.024993896484 158.981246948242 150.612503051758 134.012496948242 127.243751525879 142.612503051758 154.506256103516 168.975006103516 185.8125 203.274993896484 218.3125 231.787506103516 233.056243896484 224.9375 207.693756103516 193.024993896484 182.175003051758 171.699996948242 160.993743896484 157.449996948242 149.993743896484 142.368743896484 133.650009155273 119.287498474121 120.237503051758 
152.5 161.975006103516 168.243743896484 172.71875 172.574996948242 172.256256103516 171.824996948242 169.818756103516 168.168746948242 162.631256103516 156.981246948242 150.631256103516 136.675003051758 122.293746948242 109.568748474121 98.4250030517578 87.4000015258789 81.125 83.7750015258789 87.34375 96.0500030517578 107.474998474121 121.112503051758 139.087493896484 157.862503051758 164.449996948242 159.84375 156.543746948242 152.71875 147.837493896484 146.868743896484 154.693756103516 160.774993896484 169.4375 185.6875 201.506256103516 219.612503051758 232.318756103516 230.568756103516 224 208.681243896484 196.6875 186.918746948242 174.768753051758 165.300003051758 160.643753051758 156.175003051758 147.956253051758 136.962493896484 129.412506103516 126.943748474121 
142.25 149.274993896484 156.65625 163.71875 166.737503051758 165.612503051758 167.349990844727 164.512496948242 164.581253051758 159.71875 157.850006103516 156.518753051758 151.1875 137.793746948242 123.09375 107.275001525879 99.0187530517578 93.3000030517578 93.3499984741211 96.2624969482422 99.2437515258789 108.306251525879 121.650001525879 137.662506103516 151.918746948242 161.131256103516 169.34375 165.600006103516 164.225006103516 159.03125 156.318756103516 157.706253051758 162.512496948242 170.949996948242 178.543746948242 193.949996948242 214.96875 231.949996948242 232.387496948242 224.268753051758 210.25 197.887496948242 185.125 177.649993896484 165.137496948242 160.862503051758 159.274993896484 152.918746948242 143.3125 140.818756103516 132.287506103516 
132.699996948242 143.918746948242 153 158.350006103516 162.8125 162.649993896484 160.375 157.431243896484 160.225006103516 161.90625 164.899993896484 167.59375 167.981246948242 156.275009155273 137.912506103516 120.581253051758 108.037498474121 102.231246948242 100.862503051758 101.425003051758 104.96875 113.256248474121 124.231246948242 132.762496948242 148.9375 162.731246948242 170.556243896484 173.037506103516 169.65625 160.899993896484 156.856246948242 158.350006103516 162.456253051758 166.199996948242 170.481246948242 177.337493896484 197.25 223.5625 230.162506103516 221 210.206253051758 196.162506103516 183.837493896484 175.59375 164.768753051758 161.306243896484 159.524993896484 157.243743896484 151.831253051758 148.112503051758 140.100006103516 
125.699996948242 137.956253051758 148.431243896484 151.018753051758 154.074996948242 155.21875 156.362503051758 157.149993896484 155.668746948242 160.03125 165.09375 174.837493896484 179.087493896484 166.337493896484 148.462493896484 131.612503051758 119.262496948242 112.143753051758 109 109.331253051758 112.543746948242 119.043746948242 125.949996948242 136.3125 148.462493896484 157.887496948242 168.731246948242 167.481246948242 166.574996948242 161.09375 158.0625 157.462493896484 161.425003051758 161.418746948242 163.818756103516 166.887496948242 183.0625 208.487503051758 217.625 211.28125 201.512496948242 190.256256103516 178.393753051758 169.018753051758 165.793746948242 159.875 161.618743896484 161 162.024993896484 156.899993896484 147.643753051758 
121.387496948242 132.1875 141.699996948242 147.868743896484 152.262496948242 152.637496948242 152.537506103516 154.143753051758 155.831253051758 160.337493896484 163.606246948242 169.506256103516 172.675003051758 164.212493896484 150.806243896484 137.96875 127.400001525879 119.887496948242 115.925003051758 115.618751525879 118.612503051758 122.806251525879 128.462493896484 137.21875 144.987503051758 155.774993896484 160.162490844727 160.443756103516 160.362503051758 157.287506103516 153.887496948242 152.431243896484 156.71875 160.59375 162.612503051758 165.206253051758 178.956253051758 192.71875 199.956253051758 198.831253051758 191.899993896484 184.074996948242 174.550003051758 166.993743896484 161.893753051758 161.431243896484 156.024993896484 166.481246948242 170.225006103516 163.449996948242 154 
120.543746948242 130.012496948242 135.475006103516 143.5 146.149993896484 147.09375 147.756256103516 151.34375 150.96875 153 156.737503051758 160.837493896484 162.46875 155.274993896484 147.831253051758 137.600006103516 129.881256103516 124.368751525879 119.4375 119.868751525879 122.875 125.275001525879 130.856246948242 135.606246948242 141.275009155273 148.743743896484 153.331253051758 154.006256103516 155.212493896484 153.706253051758 150.087493896484 149.09375 152.243743896484 156.225006103516 158.949996948242 165.21875 174.743743896484 181.84375 188.59375 185.918746948242 182.162506103516 176 170.050003051758 165.224990844727 160.100006103516 145.412506103516 156.356246948242 165.006256103516 169.881256103516 161.693756103516 150.28125 
122.074996948242 127.987503051758 133.65625 138.850006103516 141.456253051758 142.274993896484 144.837493896484 145.862503051758 144.300003051758 148.518753051758 152.71875 152.537506103516 152.456253051758 148.143753051758 143.774993896484 136.324996948242 130.931259155273 125.481246948242 122.331253051758 120.081253051758 120.300003051758 123.462501525879 126.431251525879 132.21875 136.625 139.231246948242 144.756256103516 146.074996948242 146.243743896484 143.931243896484 143.081253051758 140.981246948242 146.293746948242 151.481246948242 153.931243896484 160.206253051758 165.293746948242 171.993743896484 174.53125 172.443756103516 169.443756103516 165.762496948242 165.225006103516 159.53125 155.387496948242 155.149993896484 160.981246948242 158.931243896484 160.149993896484 151.518753051758 138.018753051758 
126.09375 125.981246948242 130.59375 134.712493896484 137.59375 136.893753051758 138.793746948242 140.212493896484 140.712493896484 143.487503051758 144.162506103516 143.481246948242 143.350006103516 142.100006103516 137.543746948242 133.100006103516 130.21875 125.487503051758 122.493751525879 119.5625 119.599998474121 118.737503051758 122.943748474121 127.025001525879 129.462493896484 129.943756103516 134.537506103516 137.068756103516 138.181243896484 136.887496948242 134.725006103516 132.787506103516 138.6875 143.25 149.712493896484 153.550003051758 156.387496948242 161.350006103516 164.8125 164.987503051758 162.125 161.46875 161.5625 162.668746948242 162.543746948242 162.868743896484 162.693756103516 157.287506103516 150.618743896484 139.15625 129.368743896484 
126.125 127.662498474121 128.875 131.456253051758 130.606246948242 130.268753051758 130.381256103516 130.225006103516 134.237503051758 135.143753051758 135.931243896484 135.0625 134.793746948242 134.912506103516 132.4375 129.381256103516 128.587493896484 125.193748474121 121.993751525879 119.556251525879 118.431251525879 117.018753051758 118.993751525879 120.431251525879 122.681251525879 121.662498474121 125.881248474121 127.46875 128.018753051758 127.193748474121 125.287498474121 124.962501525879 129.268753051758 133.5 140.787506103516 147.574996948242 152.0625 156.943756103516 160.337493896484 158.975006103516 153.774993896484 154.306243896484 157.268753051758 162.662506103516 162.949996948242 161.6875 160.074996948242 152.612503051758 140.487503051758 127.868751525879 113.931251525879 
126.318748474121 127.65625 127.231246948242 125.518753051758 124.800003051758 124.612503051758 123.681251525879 125.256248474121 126.787498474121 126.662498474121 128.037506103516 128.268753051758 127.962501525879 127.443748474121 126.0625 124.150001525879 122.506248474121 122.043746948242 121.856246948242 117.375 115.256248474121 115.099998474121 116.206253051758 115.78125 115.337501525879 115.943748474121 116.53125 117.056251525879 115.025001525879 114.581253051758 114.568748474121 115.974998474121 120.556251525879 126.25 133.631256103516 138.75 147.587493896484 154.175003051758 155.981246948242 158.981246948242 158.381256103516 157.481246948242 155.274993896484 157.806243896484 158.84375 156.256256103516 152.487503051758 145.868743896484 131.356246948242 118.568748474121 105.193748474121 
126.125 125.018753051758 121.431251525879 120.606246948242 122.181251525879 120.5 119.78125 118.768753051758 118.856246948242 118.637496948242 118.75 121.474998474121 123.400001525879 122.981246948242 119.887496948242 118.462501525879 119.456253051758 119.53125 120.337501525879 117.643753051758 114.443748474121 110.518753051758 110.006248474121 108.806251525879 107.193748474121 107.537498474121 105.793746948242 106.21875 105.268753051758 105.956253051758 107.34375 108.418746948242 112.474998474121 118.756248474121 128.149993896484 133.087493896484 141.418746948242 148.831253051758 154.850006103516 161.637496948242 161.774993896484 155.268753051758 150.4375 154.581253051758 152.800003051758 148.8125 140.649993896484 133.5625 123.518753051758 110.612503051758 99.5875015258789 
124.8125 123.0625 118.556251525879 116.431251525879 117.71875 115.756248474121 113.943748474121 111.193748474121 111.5 111.762496948242 111.84375 113.587501525879 114.168746948242 115.362503051758 114.175003051758 116.068748474121 116.131248474121 115.643753051758 114.862503051758 113.481246948242 110.712501525879 108.974998474121 105.668746948242 101.34375 99.6875 98.7312469482422 96.8125 96.7312469482422 95.1374969482422 95.8312530517578 98.5875015258789 99.7624969482422 104.53125 111.84375 117.762496948242 122.537498474121 130.912506103516 139.456253051758 146.71875 153.806243896484 154.493743896484 148.206253051758 146.056259155273 145.662506103516 145.331253051758 142.006240844727 131.8125 123.806251525879 114.78125 106.018745422363 95.6062469482422 
120.0625 117.150001525879 113.75 112.481246948242 111.0625 108.443748474121 107.675003051758 105.893753051758 104.556251525879 105.181251525879 107.224998474121 106.837501525879 106.724998474121 109.106246948242 108.375 110.4375 110.550003051758 110.693748474121 109.368751525879 107.699996948242 104.75 102.112503051758 99.3312530517578 97.6937484741211 95.8125 93.1437530517578 91.3125 88.2375030517578 87.15625 87.1937484741211 89.5124969482422 90.3187484741211 94.8937530517578 100.90625 106.868751525879 111.625 119.262496948242 126.425003051758 132.806243896484 138.993743896484 139.168746948242 136.1875 134.168746948242 132.462493896484 131.293746948242 128.418746948242 124.599998474121 115.012496948242 106.40625 99.5875015258789 90.6062469482422 
114.862503051758 113.387496948242 109.949996948242 109.675003051758 104.59375 103.025001525879 102.96875 101.268753051758 99.1500015258789 98.1937484741211 98.3874969482422 99.3937530517578 101.056251525879 99.8312530517578 101.125 101.712501525879 103.512496948242 102.518753051758 100.724998474121 100.037498474121 97.9187469482422 95.5062484741211 93.625 91.1624984741211 90.2437515258789 88.3562469482422 85.9187469482422 82.15625 81.6750030517578 81.84375 82.6312484741211 82.5812530517578 85.5500030517578 89.7937469482422 95.9375 100.587501525879 107.387496948242 113.112503051758 118.612503051758 121.875 125.28125 124.587501525879 122.462501525879 119.949996948242 117.525001525879 115.4375 112.125 106.431251525879 99.9187469482422 92.7750015258789 86.4875030517578 
111.025001525879 108.824996948242 106.34375 103.568748474121 100.53125 98.8499984741211 97.9375 96.4187469482422 92.3499984741211 91.6875 91.2437515258789 93.3249969482422 93.4312515258789 94.3874969482422 95.2874984741211 96.6687469482422 97.8562469482422 96.40625 94.5187530517578 93.7062530517578 92.0374984741211 89.3312530517578 86.5999984741211 85.2687530517578 83.7624969482422 82.7375030517578 80.0687484741211 76.7062530517578 76.1812515258789 76.2249984741211 74.9499969482422 73.7062530517578 76.4812469482422 79.6999969482422 84.4812469482422 88.6875 93.1437530517578 99.5062484741211 104.6875 107.543746948242 109.131248474121 109.056251525879 109.09375 107.668746948242 106.381248474121 103.650001525879 102.068748474121 98.2125015258789 91.90625 85.03125 80.0374984741211 
106.712501525879 105.537498474121 102.543746948242 99.7687530517578 97.6374969482422 94.5 92.4625015258789 89.5999984741211 86.5124969482422 86.0562515258789 87.09375 87.7125015258789 89.1187515258789 89.6062469482422 90.3499984741211 91.8625030517578 91.4562530517578 90.9375 87.9250030517578 86.4937515258789 85.4375 84.7562484741211 81.8562469482422 80.5999984741211 78.3812484741211 76.3874969482422 73.6812515258789 72.7062530517578 70.5999984741211 69.1999969482422 67.4312515258789 65.9812469482422 66.4437484741211 69.9937515258789 73.1500015258789 75.4375 80.9000015258789 86.4562530517578 89.4375 93.3125 95.0812530517578 97.1500015258789 95.625 95.3062515258789 93.7624969482422 90.4499969482422 88.6062469482422 87.2437515258789 82.8562469482422 77.8062515258789 73.6875 
99.59375 98.9499969482422 96.4375 95.0500030517578 93.59375 91.0562515258789 88.8375015258789 86.7687530517578 82.7687530517578 80.4375 83.8562469482422 87.0187530517578 88.2562484741211 87.2437515258789 87.9187469482422 87 85.8562469482422 84.3249969482422 82.125 79.7062530517578 78.8937530517578 78.4499969482422 76.40625 75.4749984741211 73.8937530517578 70.6812515258789 69.0562515258789 67.7312469482422 64.5 62.7000007629395 61.03125 58.625 59.3937492370605 61.03125 63.4000015258789 65.9250030517578 70.5187530517578 75.9375 78.2249984741211 81.6312484741211 82.9124984741211 84.8812484741211 83.78125 84.1937484741211 81.9312515258789 80.3187484741211 80.03125 78.59375 75.3874969482422 71.625 67.5 
94.5 94.6999969482422 92 92.28125 91.7062530517578 88.6312484741211 86.1812515258789 83.625 81.2750015258789 78.5625 86.1687469482422 89.2750015258789 87.0374984741211 86.3937530517578 86.4937515258789 84.2125015258789 81.1187515258789 78.2937469482422 77.4124984741211 74.8375015258789 73.8687515258789 72.5250015258789 71 70.0625 68.6937484741211 66.7062530517578 65.3874969482422 64.2375030517578 61.8624992370605 58.9812507629395 55.7874984741211 54.0374984741211 55.0062484741211 54.4937515258789 55.3687515258789 57 62.4124984741211 67.7624969482422 70.4499969482422 73.4499969482422 72.0562515258789 72.28125 72.1500015258789 72.2999954223633 72.0437469482422 72.03125 73.8874969482422 73.71875 68.9437484741211 66.6500015258789 64.34375 
91.9375 90.1937484741211 89.0062484741211 88.3000030517578 88.8062515258789 86.4562530517578 84.71875 82.7125015258789 82.3812484741211 86.4375 94.2249984741211 90.7937469482422 85.3562469482422 83.5187530517578 81.4312515258789 78.8874969482422 76.8375015258789 74.8062515258789 71.5999984741211 71.1812515258789 69.5250015258789 67.6062469482422 66.6125030517578 65.125 63.8125 61.7750015258789 60.8624992370605 60.4437484741211 58.5999984741211 55.7062492370605 52.9124984741211 51.2999992370605 51.7374992370605 50.0375022888184 50.40625 53.625 57.2062492370605 61.4500007629395 64.3499984741211 64.3499984741211 63.7750015258789 63.6375007629395 63.0687484741211 62.8875007629395 63.9125022888184 64.78125 63.9249992370605 65.2624969482422 63.09375 62.46875 60.5812492370605 
88.8187484741211 87.1937484741211 85.7937469482422 85.3249969482422 84.8687515258789 83.5187530517578 81.1312484741211 80.6062469482422 81.7062530517578 85.4812469482422 88.0812530517578 87.4625015258789 84.0562515258789 80.5812530517578 78.2312469482422 75.96875 72.3249969482422 69.5374984741211 66.53125 66.71875 66.0875015258789 63.3499984741211 62.4562492370605 60.8499984741211 59.4812507629395 57.6500015258789 56.7937507629395 56.0562515258789 53.8562507629395 52.5 50.75 50.2874984741211 49.8375015258789 48.6062507629395 49.5875015258789 51.6687507629395 53.25 57.0250015258789 58.6812515258789 57.1375007629395 56.1437492370605 56.2625007629395 55.7000007629395 54.7437515258789 56.78125 56.1749992370605 55.6375007629395 57.6062507629395 57.6124992370605 58.3937492370605 56.8937492370605 
86.9250030517578 85.9000015258789 84.4124984741211 84.1312484741211 82.5187530517578 79.9187469482422 78.1687469482422 76.8687515258789 76.5875015258789 80.0187530517578 81.96875 81.2874984741211 79.9375 76.5062484741211 73.9375 71.1312484741211 67.8312530517578 65.53125 63.7062492370605 62.6875 62.71875 60.2125015258789 58.2874984741211 56.8375015258789 55.78125 53.7562484741211 53.6437492370605 52.0062484741211 50.4187507629395 49.1937484741211 48.1500015258789 47.9437484741211 48.1500015258789 47.6312484741211 49.3562507629395 49.9812507629395 50.6937484741211 52.6375007629395 54.3375015258789 51.9812507629395 49.4187507629395 49.84375 49.2437515258789 49.1875 49.2562522888184 50.0875015258789 50.4500007629395 52.1062507629395 55.3312492370605 53.4749984741211 51.9187507629395 
88.3249969482422 86.7687530517578 84.46875 82.5749969482422 79.375 75.0749969482422 72.65625 72.0062484741211 72.03125 73.7312469482422 74.5812530517578 74.7249984741211 74.8062515258789 72.3000030517578 70.1437530517578 68.2750015258789 65.2062530517578 63.7125015258789 61.1937484741211 59.8187484741211 58.9187507629395 58.9437484741211 55.8375015258789 54.1500015258789 53.2625007629395 51.5125007629395 49.7374992370605 48.6062507629395 48.84375 48.6749992370605 47.0687484741211 46.2750015258789 46.7437515258789 49.3875007629395 50.8312492370605 49.3375015258789 48.1062507629395 49.7625007629395 49.0499992370605 47.6437492370605 45.3125 43.3062515258789 41.7937507629395 42.9187507629395 44.2687492370605 46.0687484741211 46.4437484741211 47.4000015258789 51.40625 48.2937507629395 47.53125 
90 88.53125 84.65625 80.2624969482422 75.2312469482422 70.1312484741211 67.5187530517578 66.4000015258789 65.21875 66.4562530517578 67.78125 68.4312515258789 67.6812515258789 66.9250030517578 66.9187469482422 64.7937469482422 62.7687492370605 60.8624992370605 59.0625 57.2625007629395 56.3312492370605 57.2249984741211 54.9000015258789 53.0750007629395 51.2999992370605 48.84375 47.8499984741211 47.7687492370605 46.6749992370605 46.5999984741211 45.96875 45.2937507629395 45.8250007629395 47.1687507629395 49.7937507629395 50.3375015258789 46.6624984741211 46.3812484741211 45.3687515258789 44.3312492370605 41.78125 39.4874992370605 38.3062515258789 38.7062492370605 40.4562492370605 41.53125 42.8125 43.5999984741211 47.7312507629395 45.6749992370605 43.6124992370605 
91.8812484741211 90.8625030517578 86.6937484741211 78.4250030517578 71.1125030517578 65.0812530517578 60.6812515258789 59.1687507629395 58.8187484741211 59.84375 61.8499984741211 63.8687515258789 63.2437515258789 63.9124984741211 64 62.90625 60.8062477111816 58.7625007629395 57.3187484741211 55.5437507629395 54.7374992370605 54.9500007629395 51.8250007629395 50.34375 49.8250007629395 48.6749992370605 47.4187507629395 46.3624992370605 45.4812507629395 44.8562507629395 45.4562492370605 45.3375015258789 45.2312507629395 45.1375007629395 48.25 52.1812515258789 47.375 44.8937492370605 44.34375 41.28125 39.1500015258789 38.0187492370605 36.6812515258789 37.1624984741211 36.9937515258789 37.9249992370605 38.4187507629395 38.75 41.3062515258789 42.2062492370605 39.3562507629395 
92.8499984741211 92.8249969482422 90.7624969482422 80.75 69.6687469482422 61.2562484741211 53.6124992370605 51.2062492370605 51.8499984741211 54.2687492370605 56.5 58.4812507629395 60.4937515258789 62.0374984741211 61.7937507629395 60.3937492370605 59.0499992370605 57.1375007629395 56.0562515258789 54.8062515258789 53.2999992370605 52.4000015258789 50.1124992370605 49.6499977111816 49.0812492370605 47.8875007629395 46.1749992370605 45.4874992370605 44.9187507629395 44.6687507629395 44.2000007629395 44.4375 44.1687507629395 43.7937507629395 45.9500007629395 47.8812484741211 45.7374992370605 43.2125015258789 41.0750007629395 39.4749984741211 37.7874984741211 36.75 35.1187515258789 35.4000015258789 35.5687484741211 35.7625007629395 35.8375015258789 36.1749992370605 36.53125 37.3375015258789 35.3312492370605 
