ncols        51
nrows        45
xllcorner    -63.500000000000
yllcorner    -7.500000000000
cellsize     0.166666666667
NODATA_value -99
484.412506103516 492.100006103516 492.162506103516 499.918762207031 502.512512207031 497.375 485.131256103516 475.6875 463.325012207031 454.412506103516 442.456237792969 424.825012207031 409.712493896484 395.71875 380.274993896484 367.356262207031 353.606262207031 341.1875 332.337493896484 326.512512207031 322.543762207031 318.368743896484 317.90625 314.493743896484 312.625 313.037506103516 314.481262207031 318.081237792969 318.524993896484 317.649993896484 311.962493896484 308.799987792969 307.806243896484 305.331237792969 303.262512207031 304.799987792969 305.331268310547 303.299987792969 302.168762207031 302.799987792969 300.9375 299.875 296.137512207031 296.493743896484 295.875 293.993743896484 293.46875 289.912506103516 289.068756103516 291.293762207031 292.412506103516 
480.643737792969 486.700012207031 493.9375 505.881256103516 516.724975585938 513.193725585938 500.75 491.28125 480.168762207031 465.512512207031 452.024993896484 432.143737792969 412.481262207031 394.006256103516 375.524993896484 358.487487792969 342.524993896484 328.706237792969 321.331237792969 315.46875 311.731262207031 309.037506103516 306.537506103516 305.762512207031 303.631256103516 302.118743896484 305.962493896484 310 312.193756103516 309.337493896484 303.887481689453 304.006256103516 301.668762207031 302.450012207031 300.887512207031 299.0625 302.024993896484 301.443756103516 302.75 299.106262207031 297.350006103516 299.856262207031 296.306243896484 292.337493896484 292.549987792969 289.943756103516 289.556243896484 287.306243896484 287.387512207031 288.668762207031 290.168762207031 
461.625 471.481262207031 482.625 492.75 500.424987792969 499.956237792969 495.3125 491.556243896484 482.024993896484 467.612487792969 452 429.174987792969 406.350006103516 382.962493896484 363.793762207031 347.200012207031 329.162506103516 314.043762207031 305.762512207031 300.056243896484 295.793731689453 294.149993896484 291.0625 288.549987792969 285.481262207031 285.725006103516 291.549987792969 295.162506103516 296.393737792969 293.831237792969 289.28125 287.756256103516 289.443756103516 288.71875 289.568756103516 287.762512207031 289.725006103516 290.71875 290.612487792969 289.46875 290.65625 288.831237792969 288.237487792969 285.237487792969 283.931243896484 283 281.818756103516 280.556243896484 276.887512207031 278.700012207031 280.868743896484 
435.875 441.975006103516 461.137512207031 469.924987792969 478.037506103516 478.200012207031 477.931243896484 480.46875 478.65625 467.143737792969 447.787506103516 422.524993896484 394.693756103516 370.006256103516 350.100006103516 331.806243896484 312.774993896484 298.393737792969 289.524993896484 285.725006103516 284.868743896484 280.618743896484 274.924987792969 272.075012207031 268.225006103516 265.881256103516 272.71875 275.568756103516 277.606262207031 277.918762207031 274.618743896484 273.012512207031 273.34375 272.543762207031 271.518737792969 275.21875 278.918762207031 280.1875 280.84375 280.787506103516 280.4375 282.3125 278.806243896484 275.681243896484 276.606262207031 273.412506103516 271.637512207031 270.956237792969 266.431243896484 264.481262207031 267.881256103516 
437.731262207031 438.09375 433.28125 440.518737792969 451.21875 451.75 455.825012207031 462.893737792969 468.737487792969 463.518737792969 438.831237792969 407.368743896484 382.237487792969 358.462493896484 337.962493896484 317.96875 297.931243896484 284.068756103516 274.862487792969 272.0625 270.46875 264.524993896484 256.931243896484 256.087493896484 250.306243896484 247.143753051758 249.956253051758 256.712493896484 260.725006103516 260.287506103516 259.200012207031 256.668762207031 256.506256103516 258.681243896484 259.6875 261.787506103516 267.100006103516 271 272.918762207031 272.587493896484 273.975006103516 272.756256103516 270.512512207031 269.506256103516 267.65625 264.84375 260.674987792969 257.731262207031 253.1875 253.75 258.4375 
430.893737792969 431.193756103516 423.4375 412.1875 422.825012207031 429.96875 433.556243896484 436.475006103516 443.818756103516 441.681243896484 420.475006103516 389.206237792969 368.618743896484 348.493743896484 326.662506103516 310.5625 289.918762207031 274.231262207031 265.243743896484 262.518737792969 257.975006103516 252.21875 246.137496948242 240.149993896484 234.956253051758 231.324996948242 234.824996948242 240.125 245.850006103516 246.5625 246.050003051758 245.65625 245.537506103516 247.09375 247.831253051758 251.899993896484 256.443756103516 260.431243896484 266.012512207031 266.512512207031 265.618743896484 265.118743896484 262.131256103516 260.75 259.649993896484 254.487503051758 248.637496948242 246.412506103516 242.962493896484 240.899993896484 242.837493896484 
427.399993896484 424.481262207031 415.262512207031 404.793762207031 401.274993896484 399.081237792969 399.981262207031 401.081237792969 394.28125 393.5 383.637512207031 364.8125 350.518737792969 335.287506103516 318.024993896484 301.831237792969 287.131256103516 273.268737792969 261.84375 257.262512207031 248.837493896484 239.893753051758 229.90625 225.306243896484 220.762496948242 218.725006103516 221.287506103516 226.175003051758 229.5625 231.300003051758 232.262496948242 230.96875 230.268753051758 231.862503051758 233.875 239.9375 244.137496948242 248.856246948242 255.268753051758 258.606262207031 256.993743896484 254.375 251.59375 251.550003051758 248.71875 246.806243896484 239.40625 231.068756103516 226.493743896484 228.3125 230.175003051758 
422.306243896484 416.943756103516 406.731262207031 399.1875 394.231262207031 390.256256103516 376.981262207031 356.443756103516 339.299987792969 342.306243896484 347.756256103516 341.049987792969 335.068756103516 323.268737792969 310.056243896484 297.893737792969 284.868743896484 272.868743896484 260.356262207031 249.725006103516 241.59375 229.65625 218.387496948242 210.318756103516 206.762496948242 200.612503051758 205.731246948242 209.931243896484 214.024993896484 216.399993896484 217.675003051758 216.943756103516 217.543746948242 217.40625 217.643753051758 222.868743896484 228.962493896484 235.768753051758 240.25 240.681243896484 242.699996948242 240.699996948242 239.21875 237 233.425003051758 228.387496948242 221.643753051758 216.0625 212.649993896484 210.118743896484 211.506256103516 
416.875 410.887512207031 402.799987792969 393.100006103516 385.643737792969 378.350006103516 364.612487792969 346.6875 322.806243896484 311.756256103516 318.15625 321.15625 322.899993896484 313.993743896484 302.825012207031 293.631256103516 282.587493896484 272.087493896484 261.875 245.331253051758 230.21875 219.737503051758 204.725006103516 201.274993896484 193.65625 186.943756103516 189.787506103516 196.556243896484 203.493743896484 204.800003051758 207.831253051758 206.518753051758 203.074996948242 201.037506103516 202.793746948242 208.918746948242 215.699996948242 222.949996948242 229.193756103516 229.268753051758 228.931243896484 227.012496948242 228.125 228.875 220.768753051758 215.706253051758 209.837493896484 202.224990844727 196.181243896484 193.993743896484 195.256256103516 
410.056243896484 405.637512207031 397.549987792969 389.681243896484 378.174987792969 370.487487792969 358.706237792969 343.9375 328.881256103516 320.549987792969 318.131256103516 311.506256103516 314.875 307.03125 298.700012207031 287.606262207031 276.862487792969 266.09375 256.268737792969 243.425003051758 224.956253051758 207.625 192.975006103516 187.662506103516 178.793746948242 172.556243896484 175.262496948242 181.90625 189.987503051758 194.256256103516 194.706253051758 192.962493896484 191.762496948242 190.324996948242 189.800003051758 195.431243896484 201.481246948242 209.112503051758 215.837509155273 220.537506103516 223.868743896484 224.600006103516 220.237503051758 216.581253051758 211.850006103516 209.681243896484 202.268753051758 192.287506103516 185.53125 180.149993896484 176.131256103516 
403.012512207031 400.200012207031 390.8125 383.481262207031 372.181243896484 365.993743896484 355.893737792969 340.162506103516 328.212493896484 323.143737792969 321.106262207031 317.856262207031 307.956237792969 302.537506103516 291.643737792969 279.831237792969 269.418762207031 259.362487792969 248.681243896484 237.943756103516 225.556243896484 203.78125 184.456253051758 169.356246948242 165.350006103516 161.875 164.725006103516 170.887496948242 176.081253051758 178.481246948242 180.743743896484 181.024993896484 179.475006103516 177.774993896484 176.6875 180.425003051758 186.331253051758 194.71875 203.962493896484 210.787506103516 215.762496948242 215.3125 215.40625 209.21875 202.850006103516 197.899993896484 192.34375 181.412506103516 174.912506103516 169.550003051758 162.975006103516 
398.662506103516 393.806243896484 385.568756103516 378.293762207031 369.450012207031 359.537506103516 353.09375 342.587493896484 334.331237792969 325.043762207031 321.924987792969 321.106262207031 305.181243896484 296.456237792969 287.362487792969 273.231262207031 262.162506103516 251.762496948242 241.850006103516 233.893753051758 223.175003051758 204.0625 182.512496948242 165.824996948242 154.949996948242 148.09375 150.006256103516 155.96875 162.75 165.162506103516 165.475006103516 166.0625 164.881256103516 163.375 164.243743896484 170.068756103516 177.231246948242 184.225006103516 192.056243896484 199.899993896484 207.100006103516 207.050003051758 203.493759155273 191.456253051758 183.774993896484 175.387496948242 167.212493896484 165.793746948242 163.243743896484 159.237503051758 149.625 
395.456237792969 387.462493896484 378.450012207031 371.637512207031 362.318756103516 355.662506103516 346.575012207031 335.737487792969 329.381256103516 325.143737792969 321.181243896484 317.075012207031 305.587493896484 285.087493896484 273.112487792969 263.856262207031 252.587509155273 242.443756103516 232.256256103516 224.03125 215.268753051758 195.074996948242 173.987503051758 158.143753051758 140.625 132.199996948242 138.143753051758 144.675003051758 151.887496948242 155.137496948242 154.543746948242 152.943756103516 151.237503051758 149.393753051758 150.925003051758 158.46875 166.587493896484 175.706253051758 185.543746948242 193.387496948242 199.143753051758 199.524993896484 190.050003051758 180.881256103516 177.337493896484 171.881256103516 163.225006103516 155.037506103516 149.975006103516 151.443756103516 150.606246948242 
384.0625 377.125 370.0625 362.756256103516 355.712493896484 347.368743896484 337.78125 328.862487792969 325.268737792969 320.831237792969 311.162506103516 303.162506103516 291.75 276.881256103516 255.75 249.306243896484 238.34375 227.106246948242 218.868743896484 211.106246948242 199.787506103516 181.34375 162.3125 149.868743896484 136.25 127.462501525879 130.074996948242 134.125 139.96875 141.806243896484 143.78125 141.893753051758 140.193756103516 138.699996948242 139.399993896484 148.462493896484 158.981246948242 170.012496948242 181 187.03125 185.756256103516 180.106246948242 178.875 179.606246948242 181.449996948242 173.662506103516 166.037490844727 160.574996948242 155.1875 159.362503051758 162.024993896484 
373.381256103516 368.700012207031 362.831237792969 355.006256103516 346.924987792969 339.331237792969 333.293762207031 326.581237792969 320.018737792969 311.549987792969 300.762512207031 290.556243896484 276.424987792969 261.081237792969 236.850006103516 229.006256103516 220.53125 213.03125 205.137496948242 196.743743896484 186.162506103516 170.5 154.818756103516 148.006256103516 140.15625 133.381256103516 132.993743896484 135.087493896484 137.78125 138.118759155273 135.574996948242 133.081253051758 133.118743896484 129.418746948242 127.237503051758 134.206253051758 150.28125 164.600006103516 173.449996948242 176.09375 173.699996948242 173.375 178.375 178.662506103516 177.300003051758 175.5 172.487503051758 171.118743896484 169.237503051758 167.4375 168.425003051758 
361.956237792969 356.768737792969 353.125 347.118743896484 338.40625 333.181243896484 328.049987792969 320.725006103516 311.668762207031 303.587493896484 291.237487792969 278.793762207031 264.018737792969 250.056243896484 229.181243896484 208.34375 203.518753051758 201.106246948242 191.875 183.774993896484 173.862503051758 162.762496948242 151.131256103516 148.15625 142.612503051758 136.018753051758 134.512496948242 134.262496948242 135.524993896484 136.268753051758 135.774993896484 132.418746948242 126.175003051758 120.012496948242 116.949996948242 130.368743896484 141.949996948242 154.324996948242 163.975006103516 169.681243896484 170.4375 170.699996948242 172.993743896484 170.318756103516 169.100006103516 169.5 167.293746948242 165.681243896484 167.556243896484 167.3125 170.518753051758 
352.856262207031 348.556243896484 342.625 338.337493896484 333.325012207031 325.706237792969 318.725006103516 310.549987792969 303.475006103516 294.818756103516 283.893737792969 272.450012207031 256.581237792969 240.993759155273 223.293746948242 205.699996948242 187.5 184.118743896484 179.006256103516 172.287506103516 163.425003051758 153.399993896484 145.449996948242 146.693756103516 145.168746948242 135.318756103516 132.106246948242 131.78125 132.600006103516 133.287506103516 133.731246948242 132.850006103516 127.431251525879 122.293746948242 125.5 132.324996948242 143.28125 154.868743896484 166.587493896484 167.481246948242 166.65625 165.481246948242 163.618743896484 163.831253051758 163.893753051758 165.199996948242 164.600006103516 166.8125 168.524993896484 165.693756103516 168.181243896484 
342.231262207031 340.518737792969 336.393737792969 330.850006103516 325.737487792969 321.1875 312.200012207031 302.225006103516 293.256256103516 285.331237792969 274.825012207031 265.868743896484 247.925003051758 234.212493896484 217.5625 201.731246948242 184.643753051758 168.412506103516 169.90625 162.662506103516 153.887496948242 145.475006103516 138.550003051758 140.6875 140.84375 133.625 128.506256103516 129.443756103516 130.78125 129.856246948242 126.268753051758 123.368751525879 128.0625 128.818756103516 129.324996948242 141.293746948242 151.800003051758 157.712493896484 164.5 166.425003051758 161.112503051758 159.050003051758 157.350006103516 158.006256103516 157.800003051758 160.556243896484 161.337493896484 162.425003051758 165.956253051758 161.25 167.0625 
331.706237792969 331.043762207031 326.331237792969 323.737487792969 320.21875 313.193756103516 305.237487792969 296.643737792969 287.512512207031 280.674987792969 268.449981689453 252.28125 236.887496948242 224.462493896484 209.0625 195.956253051758 182.550003051758 164.65625 155.15625 149.956253051758 142.9375 137.6875 124.706245422363 128.300003051758 129.381256103516 128.518753051758 127.675003051758 126.056251525879 127.400001525879 126.71875 125.300003051758 126.449996948242 129.762496948242 130.3125 132.393753051758 141.631256103516 147.493743896484 151.143753051758 157.8125 157.606246948242 153.943756103516 150.949996948242 151.3125 153.743743896484 153.768753051758 154.668746948242 157.84375 159.768753051758 161.581253051758 153.956253051758 165.15625 
319.756256103516 320.399993896484 317.231262207031 312.03125 309.487487792969 307.799987792969 301.381256103516 292.293762207031 283.018737792969 272.862487792969 263.206237792969 251.762496948242 239.881256103516 223.606246948242 206.318756103516 186.118743896484 168.956253051758 161 150.856246948242 143.668746948242 132.625 125.056251525879 120.231246948242 120.324996948242 119.556251525879 116.868751525879 118.449996948242 121.40625 120.712501525879 119.400001525879 121.425003051758 129.556243896484 130.418746948242 129.512496948242 132.6875 139.349990844727 144.100006103516 147.462493896484 149.96875 150.643753051758 146 143.056243896484 145.774993896484 148.418746948242 150.606246948242 152.493743896484 153.5625 155.518753051758 156.100006103516 150.975006103516 162.506256103516 
300.03125 310.868743896484 311.581237792969 305.831268310547 299.518737792969 300.8125 297.53125 290.100006103516 281.5625 269.649993896484 258.987487792969 248.637496948242 234.143753051758 219.381256103516 200.818756103516 184.956253051758 167.043746948242 155.53125 148.800003051758 139.431243896484 134.756256103516 128.193756103516 121.59375 120.724998474121 119.993751525879 116.981254577637 115.28125 116.912498474121 118.9375 121.875 126.518753051758 132.274993896484 129.931243896484 128.399993896484 130.012496948242 135.831253051758 141.068756103516 144.53125 145.712493896484 144.875 143.949996948242 141.449996948242 141.287506103516 144.568756103516 146.543746948242 148.862503051758 151.418746948242 152.168746948242 148.75 152.574996948242 158.774993896484 
290.375 291.5 296.787506103516 298.774993896484 293.100006103516 290.637512207031 290.143737792969 286.612487792969 279.475006103516 268.862487792969 257.337493896484 244.6875 230.28125 215.337493896484 201.274993896484 183.918746948242 175.112503051758 161.506256103516 153.15625 142.3125 132.487503051758 126.056251525879 120.262496948242 117.099998474121 113.462501525879 112.150001525879 115.325004577637 117.025001525879 122.256248474121 126.900001525879 130.006256103516 132.481246948242 132.28125 132.09375 130.824996948242 133.793746948242 138.693756103516 141.731246948242 142.431243896484 141.837493896484 141.668746948242 139.71875 139.199996948242 140.949996948242 142.4375 144.568756103516 146.800003051758 148.84375 147.050003051758 153.868743896484 155.987503051758 
281.262512207031 291.399993896484 294.106262207031 294.962493896484 288.731262207031 284.931243896484 275.712493896484 274.15625 274.450012207031 265.700012207031 252.787506103516 239.956253051758 230.012496948242 216.293746948242 202.431243896484 187.487503051758 175.34375 163.268753051758 152.568756103516 142.168746948242 134.15625 124.662498474121 118.181251525879 114.231246948242 112.381248474121 110.03125 111.693748474121 116.574996948242 122.356246948242 126.956253051758 129.875 134.725006103516 136.012496948242 134.675003051758 133.893753051758 132.368743896484 134.274993896484 138.112503051758 141.231246948242 140.449996948242 139.0625 137.6875 136.787506103516 137.800003051758 138.787506103516 139.493743896484 140.881240844727 142.53125 146.837493896484 154.03125 155.875 
268.1875 280.975006103516 287.168762207031 284.993743896484 277.962493896484 272.131256103516 273.493743896484 270.125 264.612487792969 255.668746948242 246.431243896484 240.03125 229.706253051758 219.1875 203.743743896484 189 176.59375 165.881256103516 155.725006103516 145.899993896484 135.131256103516 126.056251525879 117.862503051758 115.631248474121 112.106246948242 107.862503051758 111.087501525879 116.587501525879 123.587501525879 131.25 138.175003051758 144.212493896484 145.199996948242 142.418746948242 139.731246948242 135.037506103516 137.350006103516 138.4375 139.449996948242 139.03125 136.987503051758 136.693756103516 136.418746948242 135.912506103516 136.1875 136.206253051758 136.806243896484 135.318756103516 143.5 150.850006103516 155.612503051758 
261.456237792969 274.693756103516 277.993743896484 279.456237792969 274.600006103516 270.8125 265.09375 262.806243896484 256.668762207031 250.381256103516 241.399993896484 233.699996948242 227.887496948242 217.918746948242 202.581253051758 189.868743896484 179.881256103516 168.487503051758 157.087493896484 147.181243896484 138.106246948242 127.5625 120.074996948242 116.625 112.675003051758 111.537498474121 115.068748474121 121.40625 128.418746948242 138.793746948242 147.024993896484 157.100006103516 156.806243896484 152.600006103516 145.643753051758 140.993743896484 140.34375 137.262496948242 137.243743896484 136.774993896484 135.59375 134.393753051758 134.212493896484 132.399993896484 130.012496948242 129.693756103516 126.618751525879 132.393753051758 137.125 145.793746948242 151.262496948242 
261.850006103516 276.131256103516 271.725006103516 271.168762207031 262.743743896484 258.537506103516 253.275009155273 250.8125 242.725006103516 234.487503051758 232.962493896484 229.043746948242 221.481246948242 213.6875 203.8125 191.512496948242 181.768753051758 170.493743896484 158.993743896484 148.231246948242 139.256256103516 128.912506103516 121.400001525879 116.53125 114.275001525879 112.925003051758 119.762496948242 126.662498474121 133.850006103516 145.175003051758 157.306243896484 172.356246948242 171.875 162.106246948242 152.393753051758 147 141.931243896484 138.068756103516 134.53125 133.40625 132.75 130.574996948242 128.899993896484 128.806243896484 127.606254577637 123.581253051758 128.024993896484 130.368743896484 134.237503051758 141.21875 143.587493896484 
260.868743896484 265.512512207031 265.506256103516 262.681243896484 255.074996948242 251.125 245.40625 238.850006103516 233.006256103516 232.268753051758 229.118743896484 223.337493896484 219.137496948242 213.675003051758 204.293746948242 194.46875 183.431243896484 171.024993896484 162.831253051758 151.487503051758 140.768753051758 131.168746948242 123.481246948242 120.90625 118.793746948242 118.025001525879 125.099998474121 132.5625 140.931243896484 150.949996948242 165.487503051758 180.493743896484 181.925003051758 167.731246948242 154.574996948242 147.331253051758 143.4375 137.449996948242 133.762496948242 132.387496948242 130.862503051758 128.768753051758 127.206253051758 125.537498474121 124.40625 125.143753051758 127.318748474121 127.793746948242 130.975006103516 131.487503051758 132.556259155273 
261.806243896484 261.149993896484 258.993743896484 252.693756103516 247.21875 244.462493896484 239.668746948242 231.300003051758 227.737503051758 226.662506103516 222.6875 217.881256103516 215.112503051758 210.449996948242 203.493743896484 192.537506103516 184.487503051758 175.818756103516 167.34375 156.631256103516 145.550003051758 134.487503051758 127.90625 124.837501525879 123.381248474121 122.125 129.875 137.787506103516 147 157.287506103516 170.131256103516 182.425003051758 179.706253051758 166.681243896484 155.524993896484 147.975006103516 141.90625 137.53125 134.931243896484 131.675003051758 128.943756103516 128.068756103516 126.650001525879 125.6875 122.618751525879 120.712501525879 121.824996948242 125.175003051758 125.243751525879 122.931251525879 122.362503051758 
257.962493896484 256.09375 250.512496948242 244.706253051758 239.125 231.831253051758 225.574996948242 222.693756103516 223.256256103516 219.418746948242 216.275009155273 214.112503051758 211.506256103516 210.168746948242 205.556259155273 198.643753051758 190.618743896484 180.487503051758 170.881256103516 160.649993896484 149.712493896484 138.3125 130.5625 127.650001525879 126.262496948242 124.331253051758 132.524993896484 142.09375 151.412506103516 160.15625 171.237503051758 179.231246948242 173.59375 162.418746948242 153.774993896484 146.75 141.381256103516 135.768753051758 133.112503051758 129.768753051758 125.037498474121 122.881248474121 124.074996948242 126.0625 124.4375 121.71875 122.668746948242 124.631248474121 121.662498474121 118.25 114.587501525879 
253.712493896484 250 241.743743896484 232.443756103516 226.037506103516 222.981246948242 218.231246948242 218.181243896484 217.081253051758 212.399993896484 210.918746948242 210.149993896484 209.237503051758 209.487503051758 206.037506103516 200.762496948242 193.850006103516 187.081253051758 176.649993896484 164.75 154.231246948242 144.262496948242 136.087493896484 132.643753051758 129.862503051758 130.856246948242 137.037506103516 144.087493896484 152.731246948242 160.193756103516 168.887496948242 173.53125 167.75 159.34375 151.75 144.262496948242 141.662506103516 136.606246948242 132.868743896484 132.03125 129.21875 126.131248474121 124.237503051758 123.462501525879 122.493751525879 122.9375 122.831253051758 124.337501525879 121.943748474121 117.699996948242 112.375 
248.856246948242 243.068756103516 232.800003051758 225.668746948242 220.550003051758 217.056243896484 215.418746948242 212.693756103516 211.681259155273 209.381256103516 207.925003051758 206.40625 208.831253051758 206.768753051758 204.6875 202.59375 198.40625 190.262496948242 181.393753051758 171.612503051758 159.081253051758 148.212493896484 140.237503051758 135.699996948242 133.287506103516 135.625 140.806243896484 146.4375 154.324996948242 159.1875 166.068756103516 167.518753051758 161.793746948242 154.9375 147.78125 140.550003051758 137.962493896484 135.350006103516 133.818756103516 131.762496948242 131.199996948242 127.462501525879 124.724998474121 121.631248474121 121.650001525879 123.75 124.793746948242 124.375 121.462501525879 118.256248474121 113.143753051758 
238.006256103516 231.4375 223.162506103516 218.006256103516 215.25 210.574996948242 211.71875 206.600006103516 205.287506103516 202.856246948242 201.618743896484 199.931243896484 202.193756103516 203.975006103516 202.6875 202.824996948242 197.262496948242 189.418746948242 181.368743896484 172.856246948242 160.306243896484 150.293746948242 142.143753051758 138.96875 139.162506103516 139.5 144.337493896484 148.568756103516 153.46875 157.4375 159.300003051758 160.368743896484 154.462493896484 148.387496948242 143.037506103516 137.175003051758 134.018753051758 132.28125 130.4375 131.337493896484 130.556243896484 127.724998474121 125.3125 124.1875 123.925003051758 129.756256103516 132.606246948242 129.1875 123.831253051758 119.637496948242 114.900001525879 
222.925003051758 218.543746948242 211.787506103516 209.287506103516 205.237503051758 201.350006103516 201.243743896484 198.318756103516 197.449996948242 197.425003051758 200.287506103516 199.449996948242 201.268753051758 204.449996948242 202.856246948242 200.524993896484 196.143753051758 191.306243896484 181.675003051758 173.481246948242 161.512496948242 153.193756103516 144.849990844727 143.4375 143.418746948242 144.324996948242 147.337509155273 151.256256103516 153.731246948242 154.84375 155.5625 154.368743896484 147.75 144.40625 139.018753051758 135.824996948242 131.175003051758 129.4375 127.537498474121 129.475006103516 128.206253051758 127.112503051758 125.481246948242 125.581253051758 129.456253051758 135.956253051758 137.53125 132.181243896484 125.65625 120.912498474121 116.237503051758 
208.53125 204.125 201.850006103516 199.987503051758 198.699996948242 194.3125 192.387496948242 189.243743896484 188.262496948242 188.893753051758 191.712493896484 195.568756103516 196.96875 198.475006103516 199.350006103516 199.8125 197.237503051758 191.574996948242 180.943756103516 171.681243896484 163.1875 156 148.493743896484 146.03125 146.493743896484 146.524993896484 148.28125 150.762496948242 153.793746948242 152.887496948242 151.587493896484 148.831253051758 143.356246948242 138.375 134.512496948242 131.043746948242 128.125 124.324996948242 124.21875 124.59375 123.162498474121 123.956253051758 124.824996948242 125.449996948242 131.5 137.837493896484 137.675003051758 129.631256103516 124.03125 119.993751525879 116.1875 
193.381256103516 190.287506103516 190.293746948242 191.131256103516 191.231246948242 187.412506103516 182.46875 180.274993896484 176.862503051758 178.662506103516 183.71875 188.818756103516 194.625 199.112503051758 199.643753051758 199.331253051758 196.4375 190.925003051758 180.993743896484 170.149993896484 162.712493896484 155.087493896484 149.737503051758 147.399993896484 147.324996948242 147.449996948242 150.418746948242 152.893753051758 154.543746948242 152.574996948242 148.456253051758 144.162506103516 137.375 133.324996948242 126.268745422363 124.012496948242 120.1875 120.393753051758 119.887496948242 118.993751525879 117.762496948242 117.337501525879 118.412498474121 120.487503051758 125.625 129.762496948242 130.431243896484 126.762496948242 121.412498474121 117.712501525879 115.78125 
182.09375 180.975006103516 179.65625 179.756240844727 179.0625 175.90625 171 169.649993896484 167.212493896484 166.574996948242 170.818756103516 181.056243896484 190.931243896484 195.387496948242 197.800003051758 197.074996948242 194.393753051758 186.824996948242 179.481246948242 169.21875 162.831253051758 156.287506103516 151.050003051758 149.556243896484 148.737503051758 148.181243896484 152.287506103516 154.587493896484 153.774993896484 150.268753051758 145.831253051758 140.587493896484 133.662506103516 126.887496948242 121.150001525879 118.087501525879 118.393753051758 115.612503051758 115.125 116.131248474121 114.412498474121 115.53125 115.462501525879 117.118751525879 118.793746948242 121.875 123.056251525879 121.21875 119.606246948242 116.212501525879 114.418746948242 
172.431243896484 172.643753051758 171.231246948242 171.03125 171.168746948242 167.225006103516 163.6875 160.256256103516 157.243743896484 152.706253051758 163.4375 182.206253051758 191.193756103516 194.581253051758 195.862503051758 195.012496948242 190.9375 183.268753051758 176.393753051758 166 161.306243896484 156.0625 150.481246948242 149.106246948242 148.743743896484 149.800003051758 152.03125 153.256256103516 152.212493896484 148.5 143.981246948242 138.868743896484 131.268753051758 122.831253051758 117.650001525879 116.112503051758 115.037498474121 113.581253051758 112.15625 111.431251525879 109.800003051758 109.362503051758 111.900001525879 113.925003051758 115.025001525879 115.224998474121 119.393753051758 116.193748474121 114.162498474121 112.837501525879 112.243751525879 
163.850006103516 163.887496948242 164.387496948242 163.649993896484 164.837493896484 162.5 159.8125 156 153.574996948242 149.5 170.600006103516 190.056243896484 194.875 197.03125 196.1875 194.0625 189.175003051758 182.5625 173.962493896484 165.768753051758 159.206253051758 154.731246948242 150.118743896484 148.743743896484 148.199996948242 148.71875 148.856246948242 152.824996948242 152.618743896484 146.90625 140.65625 135.28125 128.78125 119.756248474121 112.71875 111.549995422363 111.737503051758 109.956253051758 110.368751525879 108.287498474121 106.918746948242 106.824996948242 105.868751525879 105.893753051758 107.668746948242 109.881248474121 111.806251525879 112.368751525879 109.618751525879 108.71875 109.356246948242 
154.131256103516 154.381256103516 155.012496948242 155.793746948242 155.024993896484 154.456253051758 155.024993896484 156.412506103516 160.693756103516 172.587493896484 197.712493896484 201.6875 198.024993896484 197.8125 195.787506103516 192.774993896484 188.506240844727 181.487503051758 173.762496948242 164.818756103516 156.9375 150.768753051758 147.643753051758 147.512496948242 145.725006103516 145.550003051758 147.518753051758 150.65625 148.912506103516 145.225006103516 137.993743896484 129.899993896484 125 119.425003051758 115.693748474121 113.474998474121 111.65625 111.487503051758 109.006248474121 105.59375 105.612503051758 105.056251525879 103.143753051758 104.025001525879 104.518753051758 106.4375 106.40625 107.206253051758 107.931251525879 107.787498474121 107.868751525879 
147.050003051758 146.856246948242 148.693756103516 149.59375 150.387496948242 150.831253051758 151.456253051758 158.237503051758 166.568756103516 178.918746948242 191.587493896484 198.274993896484 196.225006103516 194.78125 194.71875 190.043746948242 184.712493896484 177.681243896484 169.537506103516 162.40625 153.662506103516 148.125 142.881256103516 142.456253051758 142.225006103516 142.90625 143.71875 145.550003051758 144.287490844727 140.887496948242 136.28125 132.006256103516 126.96875 122.768753051758 119.256248474121 116.074996948242 113.34375 112.631248474121 109.737503051758 104.381248474121 103.056251525879 102.381248474121 99.6125030517578 98.5187530517578 100.800003051758 101.775001525879 103.0625 104.625 106.106246948242 105.887496948242 106.993751525879 
138.96875 140.131256103516 142.268753051758 144.237503051758 144.34375 144.381256103516 148.087493896484 157.25 164.46875 173.71875 183.675003051758 188.112503051758 190.9375 190.268753051758 189.762496948242 186.149993896484 180.962493896484 173.550003051758 166.012496948242 158.918746948242 150.537506103516 143.5 137.71875 136.925003051758 138.15625 138.699996948242 139.287506103516 140.956253051758 140.543746948242 136.949996948242 136.137496948242 134.318756103516 131.774993896484 128.256256103516 122.981246948242 120.893753051758 119.181251525879 116.925003051758 110.743751525879 105.574996948242 101.068748474121 96.9625015258789 94.8125 95.8249969482422 98.0374984741211 100.068748474121 100.681251525879 101.293746948242 105.400001525879 106.449996948242 107.068748474121 
128.675003051758 129.868743896484 132.806243896484 134.793746948242 135.100006103516 138.012496948242 142.475006103516 148.537506103516 155.925003051758 161.574996948242 169.21875 174.137496948242 179.100006103516 179.137496948242 177.887496948242 177.100006103516 173.481246948242 168.587493896484 163.34375 154.493743896484 145.768753051758 137.762496948242 129.931243896484 129.675003051758 130.681243896484 131.293746948242 132.506256103516 135.925003051758 138.375 135.956253051758 132.943756103516 134.100006103516 132.649993896484 134.287506103516 129.993743896484 124.981246948242 121.337501525879 117.006248474121 112.743751525879 106.78125 100.724998474121 94.03125 90.84375 93.8499984741211 97.8062515258789 99.1812515258789 99.5437469482422 100.650001525879 103.393753051758 104.268753051758 105.462501525879 
118.087501525879 120.587501525879 124.025001525879 123.199996948242 126.525001525879 129.887496948242 132.837493896484 137.318756103516 143.131256103516 148.381256103516 155.274993896484 160.493743896484 164.65625 167.449996948242 168.143753051758 167.59375 164.431243896484 163.875 159.612503051758 148.212493896484 137.5 127.893745422363 122.762496948242 125.043746948242 125.800003051758 127.087501525879 128.625 131.956253051758 133.712493896484 134.131256103516 133.449996948242 132.487503051758 133.956253051758 137.206253051758 138.71875 135.012496948242 126.699996948242 122.125 115.631248474121 109.837501525879 103.393753051758 96.8375015258789 92.1624984741211 94.2062530517578 97.4250030517578 98.6500015258789 99.25 100.71875 104.59375 103.4375 104.831253051758 
109.949996948242 111.893753051758 115.349998474121 115.349998474121 118.46875 121.337501525879 123.1875 127.918746948242 133.399993896484 138.668746948242 143.850006103516 149.387496948242 154.5 158.018753051758 160.831253051758 160.8125 159.556243896484 159.537506103516 158.774993896484 148.4375 134.487503051758 121.71875 117.537498474121 120.0625 121.875 122.462501525879 123.712501525879 126.712501525879 128.568756103516 128.887496948242 130.412506103516 130.443756103516 133.206253051758 138.987503051758 143.631256103516 145.149993896484 137.268753051758 128.481246948242 121.75 113.481254577637 105.674995422363 100.699996948242 98.2874984741211 98.8062515258789 99.3062515258789 99.8249969482422 101.400001525879 101.050003051758 101.837501525879 104.09375 104.018753051758 
101.099998474121 104.59375 106.875 108.46875 110.506248474121 112.787498474121 112.974998474121 116.706253051758 120.943748474121 126.668746948242 131.962493896484 138.425003051758 144.287506103516 148.375 152 154.118743896484 153.287506103516 151.5 150.425003051758 141.75 130.706253051758 119.03125 114.543746948242 115.5 117.875 119.1875 121.0625 122.25 124.324996948242 125.856246948242 127.887496948242 128.662506103516 131.787490844727 135.362503051758 141.600006103516 146.300003051758 139.268753051758 130.59375 123.775001525879 116.9375 109.087501525879 105.525001525879 102.181251525879 101.887496948242 102.043746948242 101.106246948242 102.025001525879 102.0625 101.412498474121 104.393753051758 104.237503051758 
