ncols        51
nrows        45
xllcorner    -63.500000000000
yllcorner    -7.500000000000
cellsize     0.166666666667
NODATA_value -99
187.862503051758 189.824996948242 185.768753051758 184.012496948242 180.3125 180.03125 177.40625 171.962493896484 166.612503051758 163.543746948242 161.962493896484 159.399993896484 155.425003051758 147.612503051758 141.418746948242 137.15625 133.21875 127.518745422363 127.699996948242 128.018753051758 131.074996948242 135.856246948242 140.706253051758 144.925003051758 150.850006103516 155.856246948242 160.806243896484 166.84375 173.899993896484 181.193756103516 189.475006103516 198.28125 207.006240844727 218.087493896484 227.743743896484 237.975006103516 245.168746948242 250.675003051758 255.237503051758 258.899993896484 261.325012207031 262.768737792969 262.637512207031 262.862487792969 262.84375 258.618743896484 255.15625 250.262496948242 245.918746948242 244.175003051758 243.550003051758 
196.050003051758 197.3125 195.074996948242 192.975006103516 191.706253051758 192.056243896484 189.793746948242 187.487503051758 184.793746948242 182.262496948242 178.518753051758 173.037506103516 166.274993896484 159.806243896484 152.625 146.225006103516 140.256256103516 135.356246948242 133.5625 133.9375 138.068756103516 142.800003051758 148.362503051758 154.431243896484 159.612503051758 164.712493896484 170.862503051758 177.181243896484 183.912506103516 193.475006103516 202.84375 212.106246948242 221.899993896484 235.587493896484 245.975006103516 254.143753051758 264.649993896484 270.787506103516 273.993743896484 276.8125 279.674987792969 280.368743896484 278.137512207031 277.362487792969 276.075012207031 271.850006103516 268.350006103516 263.043762207031 258.068756103516 254.118743896484 251.925003051758 
202.193756103516 204.34375 203.243743896484 202.875 203.418746948242 204.168746948242 203.943756103516 204.03125 202.375 199.987503051758 195.574996948242 188.350006103516 180.925003051758 172.524993896484 164.09375 155.475006103516 148.693756103516 144.225006103516 142.068756103516 143.84375 149.306243896484 156.1875 162.474990844727 168.037506103516 173.206253051758 178.175003051758 184.762496948242 191.324996948242 197.106246948242 206.081253051758 217.356246948242 228.306243896484 240.53125 250.725006103516 263.668762207031 272.049987792969 281.837493896484 289.8125 292.681243896484 294 297.112487792969 296.068756103516 293.4375 291.006256103516 286.975006103516 282.9375 279.237487792969 274.487487792969 267.78125 263.612487792969 259.393737792969 
205.993743896484 209.149993896484 212.3125 213.9375 217.568756103516 215.368743896484 217.131256103516 220.206253051758 221.181243896484 220.375 213.90625 204.449996948242 195.081253051758 185.481246948242 176.162506103516 166.362503051758 157.550003051758 151.912506103516 151.206253051758 155.84375 164.337493896484 172.381256103516 177.381256103516 183.699996948242 189.375 194.587493896484 201.649993896484 206.243743896484 211.893753051758 221.793746948242 233.162506103516 246.418746948242 258.287506103516 269.1875 280.274993896484 291.137512207031 299.71875 308.25 311.674987792969 314.193756103516 314.200012207031 313.299987792969 309.606262207031 304.512512207031 299.631256103516 295.137512207031 291.8125 284.637512207031 278.243743896484 271.912506103516 265.350006103516 
216.78125 217.712493896484 219.831253051758 224.34375 229.012496948242 229.162506103516 229.681243896484 234.387496948242 238.818756103516 240.125 231.175003051758 219.987503051758 210.5 200.925003051758 190.512496948242 179.393753051758 168.756256103516 160.6875 162.818756103516 171.131256103516 182.068756103516 190.024993896484 195.59375 201.181243896484 206.412506103516 213.068756103516 217.143753051758 221.5625 229.6875 239.581253051758 251.387496948242 261.506256103516 275.325012207031 288.543762207031 300.274993896484 310.643737792969 321.024993896484 326.918762207031 330.299987792969 331.756256103516 333.975006103516 330.28125 326.006256103516 318.78125 312.431243896484 308.59375 303.756256103516 295.606262207031 287.200012207031 279.90625 270.71875 
226.256256103516 229.243743896484 231.868743896484 235.056243896484 239.71875 240.556243896484 242.056243896484 245.34375 249.818756103516 252.606246948242 243.375 234.081253051758 225.118743896484 216.762496948242 206.306243896484 197.962493896484 187.350006103516 179.449996948242 184.493743896484 193.90625 203.3125 209.862503051758 216.050003051758 220.006256103516 225.368743896484 231.356246948242 235.993743896484 240.018753051758 247.181243896484 258.34375 268.950012207031 279.462493896484 290.106262207031 303.40625 318.174987792969 327.387481689453 336.399993896484 343.21875 346.550018310547 349.287506103516 347.943756103516 344.53125 338.462493896484 331.049987792969 324.262512207031 318 312.53125 304.125 296.006256103516 286.350006103516 272.631256103516 
235.90625 240.25 243.925003051758 245.556243896484 247.987503051758 246.456253051758 247.181243896484 248.837493896484 250 249.037506103516 247.543746948242 243.375 239.387496948242 233.756256103516 226.4375 220.662506103516 215.631256103516 215.90625 221.268753051758 225.568756103516 227.631256103516 232.193756103516 234.737503051758 238.649993896484 244.649993896484 249.518753051758 254.181243896484 258.924987792969 264.506256103516 274.918762207031 287.412506103516 297.912506103516 307.331237792969 318.368743896484 330.881256103516 341.96875 350.475006103516 358.231262207031 364.25 364.049987792969 360.787506103516 356.325012207031 349.918762207031 342.475006103516 335.131256103516 330.700012207031 324.287506103516 313.043762207031 302.056243896484 290.981262207031 279.943756103516 
247.143753051758 249.40625 252.681243896484 255.543746948242 257.274993896484 255.818756103516 252.96875 247.443756103516 242.743743896484 245.212493896484 251.037506103516 253.21875 253.90625 250.368743896484 247.324996948242 244.96875 245.256256103516 251.649993896484 261.393737792969 258.875 253.337493896484 253.349990844727 254.193756103516 258.256256103516 264.681243896484 268.756256103516 272.362487792969 276.568756103516 283.787506103516 294.493743896484 304.668762207031 315.1875 323.662506103516 333.493743896484 344.350006103516 354.556243896484 363.356262207031 371.131256103516 375.424987792969 377.075012207031 375.231262207031 370.649993896484 364.168762207031 355.674987792969 350.237487792969 346.556243896484 339.28125 324.362487792969 310.6875 298.412506103516 282.131256103516 
257.84375 260.331237792969 263.78125 265.231262207031 267.537506103516 264.481262207031 260.575012207031 254.856246948242 246.899993896484 246.662506103516 259.143737792969 265.71875 270.212493896484 269.112487792969 268.34375 267.799987792969 269.306243896484 276.143737792969 284.225006103516 279.34375 270.506256103516 269.90625 269.756256103516 276.84375 282.693756103516 286.15625 289.59375 292.262512207031 299.368743896484 310.3125 321.006256103516 328.637512207031 336.649993896484 344.524993896484 353.862487792969 362.331237792969 371.9375 379.40625 383.587493896484 385.868743896484 383.9375 379.393737792969 376.4375 371.118743896484 365.475006103516 360.868743896484 352.881256103516 336.393768310547 318.293762207031 301.950012207031 287.481262207031 
268.387512207031 271.131256103516 272.825012207031 274.743743896484 277.399993896484 275.550018310547 272.356262207031 269.399993896484 266.3125 269.825012207031 278.625 284.962493896484 289.068756103516 289.068756103516 289.337493896484 289.831237792969 289.887512207031 291.899993896484 292.5 288.78125 281.787506103516 281.6875 283.587493896484 293.5625 297.96875 300.1875 303.475006103516 306.862487792969 312.362487792969 322.381256103516 331.556243896484 339.243743896484 347.368743896484 355.46875 364.274993896484 370.956237792969 378.668731689453 386.149993896484 390.075012207031 392.59375 393.774993896484 390.631256103516 387.793762207031 381.600006103516 378.293762207031 377.912506103516 367.399993896484 348.112487792969 327.956237792969 310.931243896484 291.950012207031 
280.181243896484 283.34375 283.556243896484 284.706237792969 286.256256103516 286.162506103516 285.375 287.09375 288.225006103516 293.53125 303.53125 309.637481689453 310.40625 308.993743896484 308.643737792969 308.075012207031 305.743743896484 302.756256103516 298.112487792969 292.299987792969 289.356262207031 289.84375 296.131256103516 304.4375 312.943756103516 313.274993896484 315.350006103516 318.743743896484 323.59375 330.443756103516 338.725006103516 347.049987792969 355.637512207031 363.943756103516 371.75 379.125 385.625 390.712493896484 395.962493896484 399.893737792969 401.46875 397.325012207031 395.225006103516 390.575012207031 388.231262207031 392.9375 378.106262207031 351.700012207031 332.024993896484 315.924987792969 297.462493896484 
288.774993896484 291.625 292.537506103516 295.424987792969 297.90625 297.868743896484 299.443756103516 305.556243896484 309.6875 315.693756103516 326.743743896484 336.606262207031 335.237487792969 331.393737792969 329.212493896484 324.981262207031 320.662506103516 312.056243896484 304.587493896484 295.456237792969 290.887512207031 292.837493896484 303.118743896484 317.168762207031 323.618743896484 319.637512207031 321.274993896484 324.362487792969 330.056243896484 338.456237792969 346.262512207031 353.193756103516 361.568756103516 369.493743896484 377.181243896484 384.318756103516 390.643768310547 394.96875 399.768737792969 404.399993896484 406.056243896484 401.743743896484 395.118743896484 388.024993896484 382.931243896484 376.137512207031 359.674987792969 343.768737792969 328.506256103516 319.424987792969 300.081237792969 
298.5 302.012512207031 303.787506103516 306.318756103516 309.112487792969 312.306243896484 315.449981689453 321.15625 326.987487792969 334.793762207031 345.943756103516 357.450012207031 357.975006103516 350.424987792969 346.556243896484 340.881256103516 333.431243896484 324.462493896484 314.168762207031 302.268737792969 290.40625 294.375 307.774993896484 318.5625 318.03125 315.712493896484 322.918762207031 330.331237792969 336.731262207031 345.524993896484 353.112487792969 359 365.737487792969 372.862487792969 379.931243896484 386.556243896484 391.712493896484 395.556243896484 399.200012207031 403.318756103516 406.737487792969 400.962493896484 386.637512207031 372.987487792969 365.793762207031 362.450012207031 351.587493896484 333.481262207031 322.418762207031 317.131256103516 306.362487792969 
306.043762207031 310.662506103516 312.881256103516 316.0625 320.0625 322.3125 326.993743896484 335.90625 342.574981689453 350.862487792969 359.024993896484 368.637512207031 369.431243896484 366.356262207031 359.618743896484 354.5 345.375 336.393737792969 324.5625 313.068756103516 304.524993896484 306.287506103516 312.487487792969 319.368743896484 318.1875 319.075012207031 326.831237792969 334.78125 343.899993896484 351.918762207031 359.024993896484 364.331237792969 369.462493896484 374.412506103516 381.362487792969 386.743743896484 391.943756103516 396.631256103516 398.106262207031 398.956237792969 397.431243896484 381.431243896484 369.068756103516 361.806243896484 359.181243896484 353.024993896484 345.9375 336.637512207031 324.743743896484 318.774993896484 312.237487792969 
312.725006103516 317.806243896484 321.3125 325.15625 331.137512207031 334.84375 341.418762207031 349.443756103516 355.643737792969 362.024993896484 370.081237792969 377.899993896484 380.637512207031 379.5 372.293762207031 365.59375 355.987487792969 344.918762207031 334.1875 325.581237792969 319.568756103516 317.424987792969 320.6875 324.081237792969 326.65625 329.193756103516 335.549987792969 343.881256103516 351.912506103516 360.350006103516 365.681243896484 367.956237792969 373.768737792969 376.71875 381.424987792969 384.912506103516 390.662506103516 396.681243896484 396.774993896484 386.712493896484 371.731262207031 361.75 358.912506103516 356.21875 350.956237792969 346.40625 339.837493896484 334.612487792969 330.193756103516 320.850006103516 310.037506103516 
317.881256103516 322.918762207031 327.4375 332.143737792969 339.293762207031 344.106262207031 351.5625 359.387512207031 364.46875 371.462493896484 379.325012207031 387.412506103516 391.53125 391.399993896484 385.181243896484 373.8125 364.856262207031 354.28125 343.037506103516 335.40625 333.0625 331.40625 332.231262207031 334.043762207031 335.943756103516 338.5625 343.443756103516 352.893737792969 362.143737792969 370.899993896484 375.237487792969 374.987487792969 374.612487792969 375.631256103516 377.537506103516 383.75 389.84375 393.793762207031 391.28125 376.71875 355.475006103516 348.193756103516 349.325012207031 346.431243896484 342.768737792969 339.556243896484 335.450012207031 330.512512207031 324.131256103516 318.006256103516 306.456237792969 
320.387512207031 326.318756103516 330.600006103516 336.799987792969 345.625 351.237487792969 359.568756103516 367.5 372.893737792969 378.8125 387.375 397.15625 402.25 402.924987792969 396.993743896484 386.174987792969 369.143737792969 358.024993896484 349.84375 346.043762207031 344.193756103516 343.962493896484 343.84375 343.600006103516 346.193756103516 347.112487792969 350.456237792969 359.799987792969 371.581268310547 381.493743896484 386.549987792969 384.368743896484 379.399993896484 375.03125 378.612487792969 384.768737792969 388.856262207031 394.712493896484 397.381256103516 377.78125 356.537506103516 346.956237792969 342.243743896484 338.987487792969 335.875 333.506256103516 329.243743896484 324.768737792969 321.15625 315.043762207031 306.149993896484 
323.212493896484 329.868743896484 334.78125 342.637512207031 351.412506103516 358.71875 367.637512207031 375.875 380.681243896484 386.625 392.587493896484 405.081237792969 411.90625 413.09375 406.34375 393.0625 375.137512207031 358.893737792969 355.9375 353.631256103516 354.768737792969 354.712493896484 354.006256103516 352.856262207031 353.393737792969 354.612487792969 355.25 366.668762207031 381.662506103516 393.337493896484 395.543762207031 382.862487792969 375.78125 373.018737792969 373.512512207031 378.743743896484 387.274993896484 393.381256103516 391.362487792969 379.700012207031 359.40625 346.243743896484 338.943756103516 334.875 331.606262207031 329.09375 325.693756103516 322.125 319.881256103516 312.325012207031 306.268737792969 
322.225006103516 330.056243896484 336.462493896484 346.318756103516 356.943756103516 365.225006103516 372.662506103516 382.456237792969 387.681243896484 393.024993896484 398.024993896484 407.337493896484 416.700012207031 423.549987792969 414.318756103516 396.362487792969 375.831237792969 359.143737792969 351.8125 353.712493896484 360.293762207031 363.899993896484 357.28125 358.512512207031 359.237487792969 361.799987792969 366.162506103516 374.756256103516 389.887512207031 402.075012207031 404.931243896484 386.206237792969 373.318756103516 361.556243896484 358.137512207031 367.65625 379.174987792969 385.087493896484 386.837493896484 377.225006103516 360.587493896484 345.462493896484 336.231262207031 332.037506103516 328.243743896484 324.8125 322.912506103516 321.53125 318.799987792969 308.606262207031 308.25 
319.950012207031 328.368743896484 335.931243896484 345.100006103516 357.4375 368.625 377.637512207031 386.087493896484 390.756256103516 395.293762207031 398.662506103516 407.9375 421.512512207031 434.337493896484 418.881256103516 392.137512207031 368.306243896484 357.5 352 352.943756103516 356.662506103516 356.837493896484 358.012512207031 359.46875 361.774993896484 367.049987792969 371.787506103516 380.881256103516 389.862487792969 395.174987792969 393.362487792969 377.787506103516 361.412506103516 344.1875 336.850006103516 349.256256103516 369.612487792969 384.387512207031 387.518737792969 379.993743896484 363.825012207031 345.356262207031 337.162506103516 332.087493896484 327.306243896484 324.243743896484 321.537506103516 319.362487792969 316.931243896484 309.443756103516 310.350006103516 
312.8125 322.706237792969 332.424987792969 344.337493896484 356.40625 368.112487792969 380.399993896484 389.193756103516 393.21875 393.643737792969 393.331237792969 397.631256103516 406.356262207031 415.956237792969 403.625 378.837493896484 360.831237792969 350.149993896484 347.737487792969 345.693756103516 351.09375 355.299987792969 357.956237792969 362.018737792969 367.106262207031 372.5625 375.799987792969 379.518737792969 382.350006103516 383.075012207031 375.28125 362.393737792969 347.350006103516 332.074981689453 318.90625 338.950012207031 370.537506103516 392.600006103516 398.387512207031 390.325012207031 373.418762207031 356.21875 344.100006103516 334.931243896484 329.09375 325.481262207031 322.868743896484 321.450012207031 315.943756103516 312.518737792969 312.037506103516 
306.799987792969 315.21875 325.006256103516 338.631256103516 353.887512207031 366.53125 378.806243896484 390.46875 394.993743896484 390.362487792969 383.212493896484 376.206237792969 373.975006103516 376.21875 372.787506103516 361.856262207031 354.018737792969 347.875 344.737487792969 343.612487792969 344.90625 348.606262207031 353.399993896484 358.40625 364.462493896484 371.549987792969 378.418762207031 379.649993896484 378.306243896484 373.3125 360.556243896484 346.924987792969 338.543762207031 334.78125 334.8125 353.543762207031 385.831237792969 412.350006103516 418.075012207031 405.96875 385.587493896484 366.03125 351.424987792969 340.037506103516 332.256256103516 327.75 323.993743896484 322.743743896484 317.943756103516 318.318756103516 315.6875 
301.056243896484 309.450012207031 317.28125 330.881256103516 348.399993896484 363.993743896484 377.09375 390.006256103516 397.837493896484 387.4375 369.943756103516 351.231262207031 338.96875 339.037506103516 344.799987792969 346.200012207031 343.9375 341.431243896484 339.362487792969 338.043762207031 339.693756103516 341.899993896484 344.78125 349.53125 358.274993896484 368.84375 377.243743896484 377.662506103516 373.431243896484 362.862487792969 348.212493896484 336.206237792969 338.3125 343.162506103516 352.756256103516 370.84375 403.268737792969 440.225006103516 442.774993896484 419.287506103516 394.399993896484 373.956237792969 355.225006103516 342.068756103516 333.612487792969 328.893737792969 326.287506103516 323.993743896484 322.03125 323.5 320.831237792969 
294.981262207031 300.337493896484 307 322.168762207031 342.737487792969 358.21875 372.53125 385.193756103516 390.193756103516 376.568756103516 355.512512207031 334.21875 311.53125 314.806243896484 327.493743896484 333.837493896484 335.293762207031 334.725006103516 333.799987792969 333.274993896484 332.831268310547 333.5625 335.331237792969 339.268737792969 349.231262207031 359.918762207031 370.15625 369.84375 365.393737792969 357.693756103516 346.912506103516 339.431243896484 344.84375 353.78125 366.350006103516 384.706237792969 412.587493896484 444.481262207031 445.725006103516 422.693756103516 397.299987792969 375.200012207031 356.106262207031 342.212493896484 334.893737792969 331.15625 328.512512207031 324.575012207031 328.575012207031 328.875 327.125 
290.462493896484 293.637512207031 298.918762207031 318.075012207031 343.25 356.950012207031 368.050018310547 377.137512207031 376.931243896484 366.243743896484 348.950012207031 330.712493896484 315.424987792969 314.006256103516 320.981262207031 327.568756103516 330.793762207031 332.143737792969 330.818756103516 327.875 326.106262207031 323.993743896484 323.799987792969 326.5625 335.5 347.918762207031 356.40625 361.181243896484 360.231231689453 357.40625 351.912506103516 349.637512207031 354.868743896484 364.65625 377.068756103516 391.143737792969 412.018737792969 427.649993896484 427.600006103516 413.712493896484 392.481262207031 372 353.918762207031 342.0625 332.174987792969 330.4375 326.350006103516 331.543762207031 333.356262207031 336.34375 334.03125 
293.693756103516 299.462493896484 307.162506103516 326.0625 346.581237792969 357.9375 365.424987792969 369.162506103516 366.462493896484 357.524993896484 345.743743896484 333.931243896484 323.100006103516 318.96875 321.4375 325.9375 329.706237792969 331.09375 329.568756103516 325.237487792969 322.381256103516 316.100006103516 312.825012207031 312.25 321.862487792969 336.0625 348.006256103516 354.600006103516 357.975006103516 356.137512207031 357.28125 359.143737792969 366.424987792969 373.837493896484 384.587493896484 394.587493896484 407.306243896484 414.71875 412.556243896484 401.368743896484 384.649993896484 365.524993896484 347.193756103516 336.793762207031 331.268737792969 328.262481689453 338.631256103516 344.693756103516 343.03125 343.287506103516 339.34375 
306.331237792969 313.606262207031 323.793731689453 338.518737792969 352.90625 360.556243896484 365.493743896484 365.125 361.068756103516 355.412506103516 347.28125 338.762512207031 330.581237792969 326.03125 326.337493896484 329.512512207031 332.299987792969 333.081237792969 332.21875 326.162506103516 319.756256103516 313.487487792969 305.237487792969 302.512481689453 314.856262207031 328.462493896484 340.125 348.368743896484 354.243743896484 355.837493896484 360.337493896484 364.362487792969 374.243743896484 381.712493896484 389.068756103516 397.168762207031 405.262512207031 407.21875 401.587493896484 392.168762207031 376.768737792969 357.331237792969 340.475006103516 331.450012207031 335.568756103516 347 357.768737792969 358.306243896484 356.731262207031 349.768737792969 344 
323.112487792969 330.5 340.943756103516 352.287506103516 362.518737792969 365.475006103516 366.512512207031 364.018737792969 360.131256103516 354.637512207031 348.5625 342.475006103516 335.318756103516 330.712493896484 330.668762207031 333.181243896484 335.068756103516 338.09375 334.881256103516 329.981262207031 324.693756103516 315.868743896484 311.743743896484 309.825012207031 317.206237792969 327.09375 336.987487792969 344.237487792969 350.850006103516 356.068756103516 360.325012207031 365.206237792969 375.368743896484 382.818756103516 390.674987792969 397.049987792969 401.118743896484 402.174987792969 397.09375 386.506256103516 373.293762207031 355.368743896484 337.125 330.193756103516 348.6875 367.112487792969 377.993743896484 374.9375 368.375 358.512512207031 348.518737792969 
338.149993896484 347.024993896484 355.931243896484 365.693756103516 372.643737792969 371.543762207031 367.243743896484 364.193756103516 359.274993896484 354.743743896484 350.418762207031 344.831237792969 338.956237792969 336.487487792969 336.912506103516 339.950012207031 344.34375 345.15625 342.787506103516 337.837493896484 331.274993896484 322.862487792969 318.924987792969 318.006256103516 322 328.149993896484 336.256256103516 342.637512207031 349.818756103516 355.518737792969 359.050018310547 363.575012207031 373.674987792969 383.287506103516 392.268768310547 396.700012207031 400.712493896484 400.868743896484 396.493743896484 386.174987792969 370.96875 355.037506103516 342.768737792969 344.556243896484 364.868743896484 382.231262207031 393.600006103516 387.174987792969 378.924987792969 367.649993896484 353.337493896484 
350.768737792969 358.712493896484 368.181243896484 377.737487792969 382.043762207031 376.337493896484 368.793762207031 364.375 358.975006103516 353.75 350.962493896484 348.037506103516 344.337493896484 342.78125 344.78125 347.193756103516 349.96875 351.96875 351.631256103516 345.456237792969 337.856262207031 331.418762207031 326.256256103516 324.09375 326.512512207031 330.856262207031 336.618743896484 341.512512207031 347.712493896484 352.868743896484 358 363.068756103516 371.975006103516 382.931243896484 391.612487792969 396.356262207031 399.487487792969 402 397.643737792969 389.8125 379.78125 368.993743896484 362.112487792969 365.450012207031 374.862487792969 391.193756103516 399.78125 397.350006103516 388.287506103516 375.256256103516 360.612487792969 
360.006256103516 366.818756103516 372.943756103516 380.993743896484 385.493743896484 375.46875 367.868743896484 361.918762207031 356.668762207031 352.899993896484 351.674987792969 350.462493896484 348.831237792969 347.456237792969 350.431243896484 352.731262207031 356.068756103516 359.15625 359.299987792969 353.581237792969 344.799987792969 337.037506103516 332.6875 329.375 329.337493896484 333.3125 337.649993896484 341.056243896484 346.881256103516 351.475006103516 357.15625 363.081237792969 371.399993896484 382.024993896484 390.850006103516 395.837493896484 398.918762207031 403.375 401.899993896484 396.362487792969 390.793762207031 384.100006103516 380.450012207031 379.993743896484 386.418762207031 402.368743896484 410.837493896484 408.850006103516 398.393737792969 382.649993896484 366.84375 
365.037506103516 369.412506103516 372.606262207031 376.25 376.568756103516 368.925018310547 363.981262207031 357.34375 352.987487792969 350.162506103516 349.856262207031 350.168762207031 350.5625 351.962493896484 355.5 357.575012207031 358.668762207031 360.975006103516 359.756256103516 355.975006103516 347.118743896484 339.537506103516 335.618743896484 331.643737792969 332.193756103516 334.325012207031 336.71875 339.84375 343.368743896484 349.8125 355.981262207031 362.287506103516 371.068756103516 381.4375 390.53125 394.962493896484 400.65625 403.4375 402.006256103516 399.893737792969 401.131256103516 398.25 397.049987792969 400.668762207031 406.712493896484 423.84375 431.399993896484 423.912506103516 408.481262207031 391.049987792969 373.84375 
363.143737792969 366.081237792969 368.356262207031 369.756256103516 367.225006103516 360.649993896484 354.40625 348.6875 343.537506103516 343.737487792969 347.112487792969 349.537506103516 354.081237792969 358.831237792969 360.568756103516 360.868743896484 359.84375 359.412506103516 357.243743896484 354.268737792969 346.756256103516 339.962493896484 335.537506103516 333.612487792969 333.237487792969 334.975006103516 336.34375 336.799987792969 339.674987792969 348.112487792969 354.506256103516 359.9375 369.243743896484 380.137512207031 388.299987792969 394.018737792969 399.112487792969 402.475006103516 400.575012207031 404.518737792969 407.21875 407.456237792969 410.043762207031 417.293762207031 430.975006103516 452.424987792969 454.181243896484 435.875 415.875 395.5 377.112487792969 
359.137512207031 361.068756103516 361.706237792969 361.71875 357.162506103516 351.106262207031 345.274993896484 339.049987792969 334.75 334.212493896484 339.40625 348.399993896484 357.556243896484 363.287506103516 364.193756103516 362.193756103516 360.731262207031 359.587493896484 355.4375 351.081237792969 344.806243896484 339.181243896484 335.274993896484 333.03125 332.46875 332.96875 333.087493896484 334.075012207031 337.424987792969 344.712493896484 352.78125 359.350006103516 367.96875 378.993743896484 387.325012207031 392.756256103516 396.868743896484 398.762512207031 400.637512207031 405.3125 408.424987792969 411.693756103516 417.524993896484 427.106262207031 442.256256103516 460.875 460.28125 439.831237792969 418.5 397.325012207031 378.981262207031 
356.731262207031 356.450012207031 355.793762207031 353.237487792969 348.787506103516 342.975006103516 335.581237792969 328.78125 322.0625 322.787506103516 332.043762207031 345.631256103516 361.399993896484 370.5625 369.556243896484 364.5 360.381256103516 357.024993896484 352.431243896484 345.993743896484 341.381256103516 336.700012207031 333.331237792969 330.71875 330.231262207031 328.981262207031 329.774993896484 331.237487792969 334.081237792969 341.049987792969 349.756256103516 358.387512207031 367.40625 376.693756103516 384.306243896484 389.106262207031 391.706237792969 396.818756103516 399.65625 402.631256103516 406.5625 409.725006103516 416.625 425.618743896484 436.799987792969 444.65625 444.912506103516 430.568756103516 411.950012207031 394.475006103516 378.5 
354.024993896484 352.356262207031 350.337493896484 346.6875 341.6875 333.731262207031 326.137512207031 317.037506103516 308.3125 307.1875 318.950012207031 338.956237792969 359.543762207031 371.137481689453 370.262512207031 364.725006103516 358.200012207031 353.668762207031 348.168731689453 341.193756103516 335.975006103516 332.481262207031 328.787506103516 325.831237792969 325.256256103516 325.412506103516 326.0625 327.831237792969 331.193756103516 338.143737792969 347.631256103516 356.043762207031 365.725006103516 374.831237792969 381.637512207031 384.268737792969 389.518737792969 392.643737792969 392.693756103516 395.206237792969 398.90625 402.556243896484 407.662506103516 415.549987792969 422.350006103516 425.450012207031 425.168762207031 415.543762207031 404.012512207031 390.34375 377.206237792969 
351.037506103516 348.818756103516 344.975006103516 340.612487792969 335.106262207031 327.262512207031 320.068756103516 309.518737792969 297.075012207031 289 306.3125 338.306243896484 360.012512207031 368.568756103516 368.331237792969 362.962493896484 355.625 350.03125 343.5625 335.631256103516 330.918762207031 325.956237792969 322.75 320.193756103516 320.25 321.481262207031 322.618743896484 325.287506103516 328.793762207031 336.181243896484 345.387512207031 353.912506103516 363.899993896484 372.981231689453 379.106262207031 381.631256103516 384.462493896484 385.350006103516 385.325012207031 385.643737792969 386.34375 389.243743896484 395.125 401.09375 405.068756103516 406.643737792969 408.09375 401.987518310547 393.931243896484 383.924987792969 373.612487792969 
349 346.075012207031 341.299987792969 337.137512207031 332.006256103516 325.856262207031 318.506256103516 309.087493896484 298.018737792969 287.331237792969 320.162506103516 352.84375 365.725006103516 369.268737792969 367.587493896484 361.293731689453 352.481262207031 346.956237792969 340.431243896484 331.96875 325.943756103516 319.712493896484 315.731262207031 313.762512207031 314.368743896484 316.71875 317.924987792969 320.987487792969 325.21875 333.712493896484 342.362487792969 349.8125 359.4375 368.774993896484 374.387512207031 376.231262207031 376.243743896484 376.575012207031 376.106262207031 374.774993896484 373.293762207031 376.481262207031 379.756256103516 382.46875 386.331237792969 388.5625 390.918762207031 389.568756103516 382.78125 377.768737792969 370.899993896484 
354.693756103516 348.206237792969 343.350006103516 338.375 333.331237792969 327.475006103516 320.837493896484 316.887512207031 317.431243896484 332.200012207031 370.181243896484 374.912506103516 373.056243896484 371.693756103516 368.268737792969 361.006256103516 353.100006103516 345.600006103516 337.46875 328.59375 319.862487792969 312.956237792969 308.825012207031 307.368743896484 308.049987792969 310.674987792969 313.59375 318.006256103516 323.737487792969 333.268737792969 341.325012207031 348.012512207031 355.462493896484 361.481262207031 368.700012207031 369.431243896484 367.712493896484 367.274993896484 365.018737792969 361.21875 359.237487792969 360.6875 362.168762207031 365.587493896484 369.037506103516 371.856262207031 373 373.28125 371.168762207031 369.299987792969 365.206237792969 
362.081237792969 354.131256103516 347.381256103516 340.325012207031 336.556243896484 332.100006103516 327.881256103516 328.837493896484 335.731262207031 351.524993896484 370.34375 377.799987792969 376.25 373.731262207031 368.875 362.331268310547 354.46875 346.424987792969 335.493743896484 324.631256103516 312.443756103516 305.149993896484 300.787506103516 299.59375 301.318756103516 304.231262207031 308.831237792969 315.3125 321.893737792969 330.799987792969 338 345.837493896484 353.424987792969 357.90625 360.837493896484 360.40625 357.881256103516 355.831237792969 352.200012207031 347.21875 344.806243896484 345.193756103516 345.143737792969 347.350006103516 351.024993896484 354.731262207031 357.381256103516 359.206237792969 361.450012207031 362.118743896484 360.362487792969 
369.962493896484 360.743743896484 351.756256103516 344.293762207031 339.306243896484 335.831268310547 334.875 338.225006103516 346.375 356.643737792969 367.34375 375.287506103516 377.09375 375.162506103516 371.53125 366.125 357.837493896484 348.331237792969 335.1875 321.006256103516 306.087493896484 295.793762207031 290.387512207031 290.256256103516 294.381256103516 298.71875 304.637512207031 312.693756103516 319.793762207031 328.456237792969 337.356262207031 345.362487792969 350.712493896484 354.1875 354.524993896484 351.774993896484 348.225006103516 345 340.912506103516 334.84375 331.306243896484 329.075012207031 327.887512207031 330.512512207031 336.037506103516 340.174987792969 343.056243896484 347.037506103516 351.306243896484 354.362518310547 355.556243896484 
381.443756103516 369.65625 359.006256103516 351.418762207031 347.006256103516 344.756256103516 345.90625 350.943756103516 358.993743896484 367.887512207031 375.131256103516 381.575012207031 385.0625 384.40625 380.268737792969 374.381256103516 366.487487792969 356.462493896484 341.543762207031 322.075012207031 301.981262207031 287.625 280.931243896484 282.668762207031 289.362487792969 295.237487792969 302.137512207031 311.262512207031 319.693756103516 329.96875 337.0625 345.418762207031 350.112487792969 352.018737792969 350.787506103516 344 340 336.225006103516 331.162506103516 324.875 319.78125 313.462493896484 310.950012207031 316.21875 322.856262207031 328.200012207031 331.424987792969 334.962493896484 340.893737792969 344.668762207031 350.40625 
392.625 377.674987792969 365.774993896484 357.581237792969 353.956237792969 354.549987792969 356.65625 362.331237792969 369.181243896484 377.962493896484 385.4375 390.881256103516 393.975006103516 393.950012207031 390.256256103516 383.024993896484 373.912506103516 365.962493896484 351.193756103516 325.243743896484 297.431243896484 275.924987792969 271.881256103516 277.850006103516 286.393737792969 292.993743896484 300.899993896484 310.4375 319.78125 329.606262207031 338.668762207031 345.893737792969 349.037506103516 347.668762207031 344.681243896484 338.325012207031 331.206237792969 327.15625 321.956237792969 317.231262207031 311.981262207031 306.862487792969 305 307.350006103516 312.381256103516 316.3125 319.368743896484 322.981262207031 328.818756103516 335.231262207031 344.318756103516 
402.443756103516 384.681243896484 370.09375 361.012512207031 359.731262207031 361.618743896484 364.950012207031 371.162506103516 378.674987792969 386.5 394.6875 401.25 403.356262207031 403.293762207031 400.15625 392.71875 383.881256103516 374.243743896484 361.431243896484 332.018737792969 299.850006103516 273.65625 270.53125 277 285.806243896484 293.850006103516 301.475006103516 310.287506103516 320.8125 329.881256103516 338.75 347.649993896484 349.493743896484 344.918762207031 339.450012207031 333.549987792969 325.774993896484 321.262512207031 316.387512207031 312.125 307.981262207031 304.71875 302.493743896484 303.131256103516 306.049987792969 307.5 310.462493896484 311.950012207031 315.100006103516 322.587493896484 335.743743896484 
409.931243896484 390.09375 371.825012207031 362.306243896484 365.612487792969 368.506256103516 371.53125 378.581237792969 385.893737792969 394.331237792969 402.931243896484 409.887512207031 413.631256103516 414.212493896484 410.100006103516 401.200012207031 390.299987792969 377.350006103516 361.299987792969 334.924987792969 308.862487792969 290.075012207031 280.600006103516 282.6875 289.8125 296.5 302.9375 311.875 320.9375 329.325012207031 337.975006103516 346.806243896484 347.125 341.631256103516 336.368743896484 329.1875 320.706237792969 316.143737792969 312.962493896484 309.418762207031 305.924987792969 303.181243896484 301.46875 301.168762207031 303.206237792969 303.643737792969 304.325012207031 303.537506103516 302.40625 307.856262207031 324.993743896484 
