ncols        51
nrows        45
xllcorner    -63.500000000000
yllcorner    -7.500000000000
cellsize     0.166666666667
NODATA_value -99
224.256256103516 224 229.1875 241.943756103516 252.756256103516 265.943756103516 274.5 281.331237792969 284.356231689453 291.706237792969 303.956237792969 312.693756103516 321.03125 324.3125 324.075012207031 322.756256103516 325.100006103516 320.462493896484 319.931243896484 319.3125 324.075012207031 327.987487792969 332.443756103516 330.106262207031 330.225006103516 328.993743896484 321.143737792969 316.024993896484 308.737487792969 296.899993896484 289.081237792969 278.5 275.537506103516 275.537506103516 275.212493896484 280.143737792969 284.725006103516 289.918762207031 296.918762207031 302.618743896484 308.618743896484 314.106262207031 317.931243896484 322.8125 324.118743896484 327.756256103516 329.943756103516 332.012512207031 334.125 338.975006103516 340.956237792969 
227.818756103516 225.512496948242 233.756256103516 244.856246948242 255.887496948242 267.837493896484 276.0625 284.543762207031 292.612487792969 301.40625 312.875 319.274993896484 325.106262207031 328.231262207031 327.225006103516 326.350006103516 326.856262207031 321.256256103516 314.712493896484 309.418762207031 311.1875 313.556243896484 316.856262207031 315.556243896484 314.493743896484 313.287506103516 306.568756103516 303 296.625 288.075012207031 281.068756103516 275.981262207031 275.643768310547 280.962493896484 282.75 289.487487792969 296.443756103516 302.3125 309.112487792969 314.237487792969 320.837493896484 325.837493896484 329.243743896484 333.193756103516 334.637512207031 337.299987792969 337.8125 337.956237792969 339.84375 343.125 343.293731689453 
233.46875 232.512496948242 241.149993896484 251.449996948242 260.274993896484 269.649993896484 279.3125 289.1875 297.681243896484 307.174987792969 314.149993896484 317.362487792969 321.768737792969 324.34375 323.225006103516 323.837493896484 324.106262207031 320.631256103516 315.118743896484 311 313.15625 316.262512207031 317.612487792969 316.462493896484 315.0625 311.387512207031 306.049987792969 302.950012207031 296.743743896484 289.981262207031 286.46875 283.649993896484 285.4375 288.78125 294.212493896484 299.393737792969 307.306243896484 315.887512207031 322.962493896484 330.162506103516 337.174987792969 341.487487792969 344.462493896484 347.037506103516 349.731262207031 350.918762207031 351.581237792969 350.306243896484 350.818756103516 352.8125 352.412506103516 
237.212493896484 238.881256103516 249.449996948242 257.96875 265.306243896484 271.225006103516 279.0625 288.287506103516 298.512512207031 307.0625 310.956237792969 310.625 311.53125 312.806243896484 312.956237792969 313.887512207031 316.956237792969 317.299987792969 315.981262207031 314.393737792969 318.174987792969 319.962493896484 319.200012207031 316.924987792969 314.412506103516 310.024993896484 305.6875 300.90625 295.993743896484 293.081237792969 290.6875 292.262512207031 294.200012207031 297.375 302.256256103516 310.287506103516 319.606262207031 329.393737792969 339.181243896484 346.899993896484 352.9375 357.975006103516 361.043762207031 362.424987792969 364.825012207031 364.768737792969 365.412506103516 364.143737792969 360.9375 361.799987792969 361.137512207031 
247.737503051758 248.175003051758 254.25 262.53125 268.59375 271.731262207031 275.25 282.375 293.787506103516 303.375 303.6875 299.625 299.193756103516 301.875 301.631256103516 304.331237792969 307.956237792969 312.78125 313.84375 314.287506103516 318.90625 319.78125 320.325012207031 317.950012207031 314.068756103516 309.443756103516 303.9375 299.887512207031 298.856262207031 296.181243896484 297.662506103516 299.375 304.012512207031 308.393737792969 313.487487792969 322.84375 332.875 343.149993896484 354.943756103516 363.087493896484 371.34375 374.606262207031 376.768737792969 378.975006103516 379.506256103516 378.918762207031 378.981262207031 375.393737792969 371.137512207031 369.856262207031 369.912506103516 
256.493743896484 258.1875 266.043762207031 271.487487792969 274.006256103516 276.887512207031 279.649993896484 284.799987792969 295.393737792969 305.462493896484 301.706237792969 296.668762207031 297.393737792969 298.725006103516 299.962493896484 303.024993896484 307.481262207031 312.818756103516 316.387512207031 317.556243896484 321.393737792969 323.924987792969 325.5 323.306243896484 320.59375 318.46875 314.237487792969 309.96875 307.631256103516 306.762512207031 307.256256103516 309.737487792969 312.90625 320.537506103516 327.975006103516 337.512512207031 350.443756103516 362.181243896484 375.481262207031 386.75 393.868743896484 397.725006103516 399.912506103516 401.443756103516 400.612487792969 397.881256103516 396.081237792969 391.674987792969 386.924987792969 382.075012207031 376.5625 
263.174987792969 264.912506103516 272.181243896484 275.774993896484 276.237487792969 277.350006103516 278.799987792969 279.975006103516 283.100006103516 286.399993896484 288.862487792969 288.993743896484 291.481262207031 294.131256103516 296.931243896484 300.543762207031 305.387512207031 310.0625 313.875 319.131256103516 322.625 327.006256103516 329.143737792969 328.96875 328.625 327.412506103516 324.581237792969 320.806243896484 317.03125 314.75 317.6875 319.575012207031 323.431243896484 329.549987792969 338.274993896484 350.6875 363.962493896484 377.662506103516 396.231262207031 407.362487792969 412.087493896484 416.71875 419.131256103516 420.975006103516 422.537506103516 416.462493896484 412.006256103516 406.475006103516 396.231262207031 392.149993896484 387.924987792969 
266.131256103516 267.587493896484 272.899993896484 276.924987792969 278.950012207031 278.731262207031 275.362487792969 269.225006103516 263.71875 265.212493896484 273.131256103516 278.856262207031 284.912506103516 289.737487792969 293.481262207031 297.987487792969 301.393737792969 305.456237792969 310.693756103516 317.362487792969 323.3125 328.950012207031 333.081237792969 334.193756103516 337.462493896484 336.59375 333.106262207031 329.768737792969 325.268737792969 322.799987792969 323.818756103516 328.668762207031 332.162506103516 338.581237792969 347.568756103516 360.631256103516 375.287506103516 390.018737792969 408.587493896484 420.262512207031 427.193756103516 432.106262207031 435.018737792969 436.912506103516 437.0625 430.918762207031 420.75 409.96875 403.756256103516 396.75 391.325012207031 
268.850006103516 270.09375 275.756256103516 280.068756103516 281.600006103516 280.537506103516 276.006256103516 267.53125 255.581253051758 253.418746948242 265.987487792969 275.912506103516 285.1875 290.393737792969 295.881256103516 301.8125 306.09375 310.350006103516 317.4375 324.356262207031 328.293762207031 336.118743896484 341.231262207031 348.25 351.881256103516 349.875 343.325012207031 337.693756103516 334.381256103516 330.993743896484 332.693756103516 337.700012207031 341.462493896484 347.068756103516 354.693756103516 368.856262207031 385.643737792969 400.40625 419.21875 431.674987792969 440.043762207031 445.106262207031 449.118743896484 450.987487792969 447.53125 440.662506103516 430.168762207031 416.293762207031 405.46875 396.0625 389.856262207031 
271.606262207031 272.6875 277.799987792969 282.075012207031 284.674987792969 284.068756103516 280.799987792969 273.943756103516 265.706237792969 264.424987792969 272.018737792969 278.71875 287.46875 293.762512207031 299.90625 306.918762207031 312.96875 317.40625 323.600006103516 330.299987792969 334.799987792969 343.674987792969 352.993743896484 363.875 365.600006103516 362.793762207031 355.46875 348.100006103516 342.331237792969 337.756256103516 338.443756103516 345.387512207031 350.506256103516 357.125 364.325012207031 377.700012207031 393.556243896484 409.5 429.350006103516 444.512512207031 455.262512207031 461.475006103516 462.768737792969 459.287506103516 456.181243896484 451.737487792969 441.418762207031 425.537506103516 409.368743896484 397.662506103516 388.6875 
274.037506103516 275.587493896484 279.881256103516 284.581237792969 288.53125 289.693756103516 288.068756103516 282.712493896484 278.149993896484 278.143737792969 281.987487792969 287.068756103516 292.881256103516 299.487487792969 306.075012207031 312.787506103516 319.018737792969 323.537506103516 328.100006103516 334.21875 341.412506103516 351.443756103516 365.087493896484 374.65625 381.306243896484 374.943756103516 366.174987792969 360.293762207031 352.825012207031 346.274993896484 347.881256103516 353.581237792969 358.112487792969 364.456237792969 372.125 384.700012207031 399.681243896484 415.75 436.581237792969 455.200012207031 467.649993896484 472.125 470.881256103516 465.743743896484 461.03125 456.056243896484 443.125 422.700012207031 406.993743896484 399.725006103516 387.362487792969 
276.043762207031 278.212493896484 282.743743896484 288.399993896484 292.03125 295.199981689453 296.15625 293.243743896484 290.512512207031 290.043762207031 292.299987792969 295.943756103516 300.168762207031 305.993743896484 314.625 321.243743896484 324.912506103516 327.950012207031 331.943756103516 336.762512207031 341.787506103516 353.40625 370.862487792969 387.543762207031 392.231262207031 379.575012207031 370.21875 365.21875 362.206237792969 360.068756103516 358.475006103516 361.5625 364.53125 369.3125 375.4375 390.15625 406.556243896484 423.075012207031 443 463.293762207031 477.256256103516 479.09375 472.268737792969 458.475006103516 447.518737792969 436.818756103516 421.012512207031 407.100006103516 399.09375 396.143737792969 383.96875 
277.856262207031 280.21875 285.481262207031 290.5625 295.325012207031 299.924987792969 301.71875 301.481262207031 299.75 300.668762207031 303.868743896484 307.043762207031 311.787506103516 315.112487792969 322.5 328.362487792969 331.043762207031 334.0625 338.231262207031 340.700012207031 341.831237792969 352.806243896484 369.618743896484 383.412506103516 380.993743896484 371.806243896484 371.606262207031 371.681243896484 372.237487792969 372.075012207031 371.162506103516 370.543762207031 370.5 373.556243896484 378.637512207031 392.1875 409.243743896484 426.737487792969 448.431243896484 470.825012207031 487.412506103516 485.918762207031 467.4375 448.056243896484 431.831237792969 425.549987792969 414.625 401.368743896484 394.731262207031 394.825012207031 394.262512207031 
278.237487792969 281.606262207031 286.918762207031 292.299987792969 298.149993896484 301.862487792969 305.725006103516 308.762512207031 310.112487792969 311.706237792969 314.475006103516 318.243743896484 322.237487792969 327.181243896484 330.081237792969 335.506256103516 337.612487792969 339.524993896484 342.649993896484 345.893737792969 349.506256103516 357.21875 367.825012207031 374.912506103516 373.725006103516 370.9375 373.868743896484 376.875 379.625 380.731262207031 382.018737792969 381.012512207031 376.5625 375.362487792969 378.675018310547 393.65625 412.631256103516 430.21875 450.799987792969 471.325012207031 486.306243896484 476.575012207031 460.337493896484 445.762512207031 431.881256103516 423.350006103516 415.274993896484 408.575012207031 402.0625 404.40625 410.4375 
277.850006103516 280.481262207031 286.350006103516 293.518737792969 300.268737792969 304.600006103516 310.362487792969 315.518737792969 317.799987792969 320.387512207031 324.462493896484 328.487487792969 332.631256103516 337.012512207031 337.399993896484 341.362518310547 342.78125 345.774993896484 347.862487792969 350.631256103516 355 360.524993896484 367.043762207031 372.524993896484 375.174987792969 377.887481689453 382.09375 386.287506103516 391.087493896484 393.274993896484 391.506256103516 388.637512207031 383.556243896484 376.15625 375.125 393.462493896484 416.131256103516 435.399993896484 450.143737792969 461.125 464.40625 460.587493896484 455.581237792969 444.337493896484 433.84375 426.693756103516 422.012512207031 416.350006103516 414.243743896484 412.862487792969 415.975006103516 
275.200012207031 278.637512207031 285.606262207031 293.493743896484 301.287506103516 308.318756103516 314.350006103516 319.931243896484 325.274993896484 330.125 334.03125 339.256256103516 343.9375 347.606262207031 347.875 348.100006103516 348.262512207031 351.193756103516 352.950012207031 356.137512207031 359.075012207031 362.412506103516 367 372.350006103516 376.75 382.637512207031 389.181243896484 396.200012207031 404.262512207031 406.556243896484 406.112487792969 401.693756103516 391.987487792969 383.212493896484 379.375 405.537506103516 427.387512207031 438.662506103516 445.706237792969 451.299987792969 451.96875 451.068756103516 448.15625 440.568756103516 432.1875 426.725006103516 421.28125 415.862487792969 413.825012207031 412.087493896484 412.506256103516 
272.875 277.493743896484 284.162506103516 293.131256103516 302.475006103516 310.28125 318.712493896484 325.649993896484 332 338.356262207031 343.018737792969 349.575012207031 355.337493896484 357.943756103516 359.25 357.25 353.1875 353.862518310547 356.850006103516 359.412506103516 361.506256103516 364.293762207031 368.487487792969 374.268737792969 380.731262207031 386.106262207031 394.712493896484 404.962493896484 413.918762207031 419.024993896484 420.131256103516 416.3125 407.106262207031 402.418762207031 412.912506103516 435.924987792969 447.337493896484 449.25 447.09375 445.700012207031 447.125 446.143737792969 441.1875 434.756256103516 429.793762207031 425.25 419.850006103516 416.762512207031 416.4375 411.625 410.737487792969 
268.837493896484 274.368743896484 282.868743896484 293.25 303.462493896484 312.037506103516 320.649993896484 329.318756103516 337.518737792969 345.043762207031 351.787506103516 360.337493896484 365.212493896484 369.125 369.262512207031 365.356262207031 360.556243896484 353.725006103516 359.431243896484 361.612487792969 364.912506103516 366.65625 368.899993896484 374.581237792969 381.424987792969 390.318756103516 398.387512207031 411.174987792969 423.700012207031 429.587493896484 429.59375 419.637512207031 413.581237792969 416.737487792969 435.443756103516 470.268737792969 467.037506103516 457.331237792969 449.024993896484 447.018737792969 443.987487792969 441.84375 438.0625 431.987487792969 426.475006103516 423.268737792969 418.931243896484 416.975006103516 417.418762207031 411.075012207031 411.037506103516 
264.081237792969 270.643737792969 279.756256103516 291.09375 303.181243896484 313.837493896484 323.818756103516 333.53125 342.59375 351.543762207031 359.568756103516 366.024993896484 373.700012207031 379.412506103516 376.881256103516 371.081237792969 364.34375 356.456237792969 356.100006103516 358.987518310547 364.293762207031 367.806243896484 364.53125 371.318756103516 380.293762207031 391.299987792969 402.34375 414.225006103516 428.600006103516 437.225006103516 439.46875 425.131256103516 412.774993896484 406.637512207031 417.893737792969 447.893737792969 452.899993896484 450.950012207031 448.956237792969 445.75 443.506256103516 439.587493896484 436.162506103516 431.243743896484 425.293762207031 421.59375 418.649993896484 417.887512207031 417.6875 406.206237792969 411.506256103516 
256.78125 265.274993896484 275.318756103516 287.700012207031 301.34375 314.424987792969 326.318756103516 337.5 347.856262207031 357.037506103516 365.331237792969 371.575012207031 380.643737792969 388.737487792969 382.443756103516 370.831237792969 359.743743896484 357.043762207031 354.5625 355.881256103516 357.375 357.587493896484 359.59375 366.056243896484 375.618743896484 386.46875 399.193756103516 413.918762207031 426.475006103516 431.931243896484 430.78125 420.762512207031 400.193756103516 380.46875 371.475006103516 395.256256103516 423.918762207031 438.606262207031 444.506256103516 445.912506103516 443.575012207031 439.237487792969 436.549987792969 432.512512207031 427.100006103516 423.350006103516 420.174987792969 418.512512207031 415.387512207031 403.106262207031 411.693756103516 
248.518753051758 259.756256103516 272.068756103516 285.206237792969 299.356262207031 314.743743896484 329.706237792969 342.850006103516 354.350006103516 361.943756103516 366.4375 371.03125 376.237487792969 383.274993896484 378.375 366.506256103516 356.149993896484 350.40625 349.256256103516 348.350006103516 349.962493896484 351.893737792969 353.368743896484 361.637512207031 371.862487792969 383.118743896484 395.587493896484 407.931243896484 419.318756103516 424.262512207031 421.412506103516 411.418762207031 389.568756103516 362.268737792969 337.387512207031 366.225006103516 407.59375 432.881256103516 444.075012207031 447.03125 445.743743896484 442.299987792969 436.543762207031 432 428.325012207031 424.618743896484 421.931243896484 420.331237792969 411.731262207031 406.168762207031 412.393737792969 
241.118759155273 253.106246948242 267.306243896484 281.399993896484 296.756256103516 314.737487792969 332.40625 348.756256103516 361.125 365.568756103516 364.274993896484 363.131256103516 362.96875 365.787506103516 364.131256103516 359.181243896484 354.806243896484 350.056243896484 347.149993896484 344.481262207031 341.78125 340.481262207031 343.681243896484 350.893737792969 361.3125 375.0625 392.212493896484 404.912506103516 415.850006103516 419.756256103516 415.850006103516 406.674987792969 390.243743896484 373.137512207031 364.668762207031 384.206237792969 417.337493896484 442.174987792969 452.912506103516 453.487487792969 449.96875 445.34375 439.4375 434.25 431.049987792969 427.799987792969 425.174987792969 422.737487792969 412.96875 414.056243896484 413.71875 
236.768753051758 250.206253051758 264.149993896484 279.037506103516 294.537506103516 312.856262207031 331.53125 352.493743896484 368.668731689453 368.200012207031 361.362487792969 352.46875 346.25 348.03125 351.356231689453 351.637512207031 349.712493896484 345.90625 342.043762207031 338.318756103516 333.9375 329.424987792969 328.65625 335.287506103516 348.28125 364.725006103516 383.256256103516 398.337493896484 409.362518310547 412.450012207031 411.006256103516 408.587493896484 403.931243896484 398.206237792969 402.575012207031 419.737487792969 442.856262207031 460.806243896484 466.106262207031 463.181243896484 456.59375 449.9375 443.256256103516 436.125 433.012512207031 431.368743896484 429.799987792969 425.993743896484 420.600006103516 421.149993896484 417.881256103516 
234.881256103516 247.375 261.581237792969 276.837493896484 292.537506103516 310.075012207031 329.75 350.331237792969 364.693756103516 362.056243896484 352.706237792969 343.681243896484 332.981262207031 335.931243896484 342.34375 345.393737792969 345.96875 342.868743896484 336.90625 331.331237792969 324.931243896484 318.1875 314.831237792969 320.46875 331.15625 346.975006103516 366.34375 384.84375 399.325012207031 407.387512207031 412.512512207031 415.412506103516 418.506256103516 422.806243896484 433.668762207031 452.037506103516 470.200012207031 478.762512207031 477.081237792969 471.331237792969 463.768737792969 454.706237792969 446.631256103516 437.543762207031 436.268737792969 435.59375 435.162506103516 429.287506103516 433.075012207031 427.424987792969 423.975006103516 
237.75 247.84375 259.837493896484 274.924987792969 291.731262207031 308.631256103516 325.112487792969 341.381256103516 351.524993896484 352.612487792969 348.71875 340.71875 335.825012207031 336.793762207031 339.493743896484 343.174987792969 343.756256103516 340.625 334.78125 326.112487792969 316.131256103516 306.90625 300.131256103516 301.931243896484 313.274993896484 332.693756103516 352.056243896484 374.112487792969 391.581237792969 406.09375 415.200012207031 422.543762207031 432.806243896484 443.46875 456.325012207031 467.856262207031 481.625 488.393737792969 484.381256103516 479.65625 471.625 460.649993896484 448.65625 441.493743896484 434.487487792969 434.137512207031 432.84375 441.975006103516 445.924987792969 437.993743896484 431.5 
244.287506103516 253.337493896484 262.21875 276.137512207031 290.212493896484 304.912506103516 319.112487792969 332.337493896484 340.262512207031 343.193756103516 342.918762207031 340.725006103516 339.306243896484 339.5 340.950012207031 344.143737792969 343.643737792969 340.637512207031 334.893737792969 323.318756103516 312.368743896484 298.325012207031 285.981262207031 283.03125 296.649993896484 319.706237792969 343.96875 366.012512207031 386.59375 404.793762207031 418.75 431.756256103516 447.700012207031 460.049987792969 472.037506103516 480.25 489.787506103516 495.34375 492.243743896484 486.506256103516 479.012512207031 465.662506103516 448.824981689453 439.1875 433.168762207031 432.668762207031 448.212493896484 459.075012207031 459.4375 454.768737792969 446.181243896484 
253.262496948242 258.212493896484 266.65625 277.131256103516 288.206237792969 300.59375 311.8125 322.231262207031 329.368743896484 334.78125 338.200012207031 338.90625 339.71875 341.4375 343.575012207031 345.756256103516 347.443756103516 343.068756103516 336.043762207031 326.243743896484 312.331237792969 296.387512207031 278.59375 272.862487792969 290.606262207031 313.200012207031 338.131256103516 359.737487792969 381.018737792969 400.5625 417.837493896484 436.256256103516 457.299987792969 469.262512207031 480.149993896484 488.299987792969 497.6875 502.90625 500.818756103516 496.725006103516 487.631256103516 472.293762207031 453.125 440.256256103516 444.5 455.90625 471.556243896484 477.931243896484 479.200012207031 469.206237792969 462.612487792969 
263.274993896484 265.587493896484 272 279.956237792969 287.162506103516 296.65625 307.325012207031 315.856262207031 322.643737792969 328.825012207031 332.90625 335.493743896484 338.731262207031 342.268737792969 345.100006103516 347.587493896484 350.274993896484 348.756256103516 342.65625 333.587493896484 320.112487792969 303.700012207031 291.524993896484 288.03125 298.881256103516 316.825012207031 338.237487792969 359.206237792969 378.881256103516 396.4375 413.443756103516 431.09375 453.587493896484 468.5 482.237487792969 492.143737792969 500.049987792969 508.162506103516 508.649993896484 508.125 504.668762207031 487.0625 462.225006103516 447.981262207031 465.34375 480.25 495.149993896484 499.1875 498.024993896484 486.46875 477.149993896484 
272.081237792969 272.556243896484 276.881256103516 281.53125 288.068756103516 295.149993896484 302.100006103516 309.318756103516 316.431243896484 322.431243896484 328.381256103516 332.78125 337.274993896484 342.71875 347.737487792969 352.5625 357.962493896484 357.574981689453 353.706237792969 346.28125 333.462493896484 318.481262207031 308.556243896484 304.825012207031 312.181243896484 324.037506103516 341.28125 359.787506103516 377.518737792969 393.850006103516 407.9375 423.381256103516 446.418762207031 465.543762207031 482.756256103516 494.081237792969 502.212493896484 511.375 513.518737792969 513.443725585938 516.518737792969 498.887512207031 474.393737792969 471.331237792969 493.112487792969 508.518737792969 520.306274414062 524.125 518.206237792969 507.137512207031 490.131256103516 
278.762512207031 277.287506103516 279.09375 281.524993896484 285.581237792969 289.899993896484 295.818756103516 301.993743896484 308.981262207031 314.956237792969 321.412506103516 328.381256103516 335.818756103516 343.137512207031 349.600006103516 356.049987792969 362.59375 368.462493896484 367.375 357.818756103516 344.631256103516 331.5 321.643737792969 318.768737792969 322.412506103516 331.306243896484 345.350006103516 359.90625 374.162506103516 388.450012207031 402.274993896484 415.90625 438.225006103516 461.256256103516 481.081237792969 492.556243896484 501.850006103516 512.900024414062 510.543762207031 510.481262207031 514.831237792969 510.856231689453 499.625 504.668762207031 515.299987792969 535.806213378906 550.25 551.418762207031 542.668762207031 529.325012207031 510.456237792969 
282.549987792969 279.131256103516 278.943756103516 280.399993896484 282.887512207031 285.162506103516 290.581237792969 295.518737792969 301.743743896484 307.912506103516 314.931243896484 322.662506103516 331.918762207031 340.112487792969 348.493743896484 357.475006103516 368.118743896484 375.668762207031 379.543762207031 369.9375 356.25 342.09375 333.168762207031 329.537506103516 330.462493896484 338.137512207031 347.956268310547 358.274993896484 370.456237792969 383.518737792969 396.96875 411.818756103516 434.387512207031 458.037506103516 479.450012207031 490.443756103516 501.100006103516 513.787475585938 509.893737792969 500.475006103516 508.537506103516 519.53125 523.9375 531.893737792969 543.15625 571.368774414062 584.950012207031 584.28125 572.075012207031 553.237487792969 530.368774414062 
283.112487792969 278.368743896484 276.768737792969 276.731262207031 278.237487792969 279.71875 284.306243896484 287.84375 293.493743896484 299.643737792969 306.806243896484 315.424987792969 324.96875 335.993743896484 346.8125 358.100006103516 367.043762207031 374.450012207031 378.612487792969 374.443756103516 361.381256103516 349.831268310547 339.818756103516 335.4375 337.662506103516 341.943756103516 348.012512207031 357.006256103516 365.274993896484 378.731262207031 392.825012207031 407.943756103516 429.587493896484 453.575012207031 475.887512207031 488.40625 502.456237792969 514.637512207031 507.975006103516 504.993743896484 519.84375 538.650024414062 551.0625 568.987487792969 585.75 617.674987792969 632.487487792969 624.518737792969 602.700012207031 576.525024414062 549.443725585938 
276.668762207031 272.762512207031 270.899993896484 270.412506103516 270.53125 272.837493896484 275.78125 278.399993896484 282.59375 289.162506103516 298.950012207031 307.918762207031 319.487487792969 334.037506103516 345.043762207031 355.399993896484 363.356262207031 370.712493896484 373.462493896484 371.4375 362.5 352.137512207031 342.125 339.162506103516 339.631256103516 341.799987792969 345.975006103516 352.556243896484 360.731262207031 373.743743896484 388.0625 403.568756103516 426.231262207031 450.21875 471.431243896484 487.9375 503.293762207031 515.087524414062 513.318725585938 524.106262207031 541.337524414062 560.96875 580.168762207031 602.612487792969 634.793762207031 677.181274414062 686.662475585938 660.381225585938 629.131225585938 598.037475585938 565.081237792969 
268.8125 265.5625 265.087493896484 264.700012207031 264.581237792969 265.637512207031 267.25 269.149993896484 272.368743896484 278.149993896484 287.581237792969 300.306243896484 314.131256103516 327.918762207031 338.59375 349.962493896484 359.84375 366.081237792969 367.375 366.231262207031 360.106262207031 350.956237792969 343.006256103516 338.600006103516 338.056243896484 338.075012207031 341.912506103516 346.556243896484 355.125 368.043762207031 381.931243896484 399.375 423.137512207031 446.774993896484 470.381256103516 487.950012207031 503.424987792969 515.818725585938 525.181274414062 540.568725585938 557.625 578.78125 605.068725585938 632.174987792969 669.75 709.762512207031 713.4375 682.256225585938 648.087524414062 614.912475585938 580.549987792969 
260.931243896484 259.037506103516 259.0625 258.399993896484 256.837493896484 257.825012207031 258.149993896484 259.9375 261.262512207031 265.481262207031 275.862487792969 291.481262207031 308.362487792969 323.475006103516 335.674987792969 345.456237792969 355.193756103516 360.587493896484 361.96875 361.024993896484 356.350006103516 347.712493896484 339.962493896484 334.893737792969 333.912506103516 333.706237792969 335.787506103516 340.518737792969 346.8125 361.268737792969 377.587493896484 395.818756103516 419.225006103516 443.831237792969 466.637512207031 483.587493896484 500.018737792969 520.25 535.09375 551.668762207031 570.493774414062 589.96875 616.34375 645.131225585938 676.881225585938 700.018737792969 702.518737792969 683.168762207031 654.368774414062 623.049987792969 590.418762207031 
252.981246948242 250.949996948242 250.518753051758 249.762496948242 248.46875 248.668746948242 249.300003051758 249.149993896484 249.181243896484 253.631256103516 264.481262207031 281.450012207031 301.143737792969 318.581237792969 330.4375 340.90625 349.262512207031 353.762512207031 356.137512207031 356.337493896484 351.056243896484 342.34375 333.881256103516 329.418762207031 327.381256103516 326.237487792969 328.024993896484 332.762512207031 339 353.78125 371.649993896484 390.075012207031 411.831237792969 436.881256103516 459.256256103516 475.75 495.918762207031 516.356262207031 529.693725585938 547.837463378906 568.34375 586.71875 608.150024414062 636.168762207031 659.543762207031 673.431274414062 676.40625 664.606262207031 642.5625 618.537475585938 585.918762207031 
243.975006103516 242.668746948242 242.475006103516 241.487503051758 240.793746948242 241.481246948242 241.4375 240.912506103516 239.662506103516 240.762496948242 254.774993896484 277.475006103516 297.731262207031 313.462493896484 325.881256103516 335.231262207031 342.46875 346.162506103516 348.881256103516 347.212493896484 342.375 334.106262207031 326.274993896484 320.40625 317.493743896484 316.318756103516 318.399993896484 324.012512207031 330.087493896484 346.28125 364.475006103516 383.3125 406.256256103516 430.90625 452.287506103516 470.587493896484 490.899993896484 511.537506103516 525.618774414062 539.862487792969 557.237487792969 574.46875 595.118774414062 619.818725585938 639.643737792969 649.168762207031 652.693725585938 644.668762207031 628.974975585938 608.506225585938 580.556274414062 
235.643753051758 235.143753051758 234.6875 234.231246948242 234.606246948242 236.043746948242 236.618743896484 235.918746948242 236.8125 236.918746948242 258.637512207031 281.962493896484 297.768737792969 311.299987792969 321.225006103516 329.950012207031 335.112487792969 337.59375 338.462493896484 335.575012207031 329.149993896484 321.825012207031 316.200012207031 310.087493896484 307.081237792969 306.356262207031 308.59375 314.981262207031 322.118743896484 338.706237792969 356.481262207031 375.399993896484 398.106262207031 422.743743896484 443.043762207031 463.231262207031 483.231262207031 500.84375 516.662536621094 532.012512207031 544.799987792969 561.981262207031 578.174987792969 593.831237792969 610.6875 621.056213378906 627.049987792969 625.237487792969 613.21875 595.21875 574.137512207031 
227.137496948242 227.0625 227.875 228.600006103516 229.90625 231.59375 234.387496948242 236.456253051758 242.675003051758 256.274993896484 280.356262207031 292.087493896484 301.15625 311.34375 319.712493896484 326.5 330.306243896484 330.481262207031 328.662506103516 324.043762207031 315.931243896484 308.881256103516 303.674987792969 299.181243896484 297.256256103516 297.825012207031 301.493743896484 307.549987792969 315.375 331.356262207031 349.362487792969 366.15625 386.368743896484 409.325012207031 432.606262207031 449.981262207031 467.231262207031 485.606262207031 497.975006103516 509.506256103516 520.90625 536.681274414062 549.25 563.125 574.181274414062 582.556274414062 587.268737792969 584.106262207031 577.606262207031 569.474975585938 549.137512207031 
219.131256103516 219.612503051758 221.431243896484 222.787506103516 225.5625 229.9375 233.506256103516 239.737503051758 249.137496948242 262.543762207031 279.131256103516 292.737487792969 303.168762207031 311.975006103516 319.456237792969 324.243743896484 326.637512207031 324.368743896484 319.337493896484 313.568756103516 304.087493896484 296.568756103516 290.181243896484 286.581237792969 286.868743896484 288.806243896484 292.931243896484 300.181243896484 308.318756103516 322.887512207031 338.393737792969 356.975006103516 378.65625 398.8125 419.668762207031 436.668762207031 450.962493896484 466.5625 479.049987792969 486.181243896484 494.331237792969 507.4375 518 528.200012207031 536.493774414062 544.8125 551.3125 551.743774414062 546.887512207031 540.243774414062 525.375 
210.993743896484 212.649993896484 215.262496948242 218.212493896484 221.237503051758 226.300003051758 231.800003051758 240.418746948242 250.956253051758 263.956237792969 277.306243896484 290.881256103516 302.712493896484 311.837493896484 318.856262207031 323.612487792969 324.700012207031 320.181243896484 312.868743896484 303.787506103516 292.15625 283.081237792969 276.9375 274.237487792969 277.049987792969 280.362487792969 285.137512207031 292.850006103516 302.200012207031 316.387512207031 332.087493896484 351.575012207031 370.46875 389.112487792969 407.600006103516 422.643737792969 435.481262207031 449.524993896484 458.993743896484 462.506256103516 469.350006103516 476.368743896484 482.868743896484 493.131256103516 502.424987792969 511.75 517.381225585938 516.25 515.462524414062 512.306274414062 501.518737792969 
204.975006103516 207.131240844727 210.625 214.625 218.506256103516 224.574996948242 231.493743896484 240.28125 251.412506103516 263.537506103516 276.325012207031 290.268737792969 302.806243896484 312.475006103516 319.443756103516 323.806243896484 325.84375 320.024993896484 312.15625 299.887512207031 283.3125 271.149993896484 265.318756103516 265.28125 270.78125 274.975006103516 280.649993896484 288.587493896484 299.056243896484 313.356262207031 325.15625 343.887512207031 361.443756103516 380.262512207031 398.912506103516 409.787506103516 420.356262207031 432.243743896484 439.337493896484 441.225006103516 444.149993896484 444.325012207031 447.78125 460.5625 470.043762207031 479.981262207031 484.412506103516 483.606262207031 484.5625 481.012512207031 471.956237792969 
199.668746948242 202.662506103516 206.96875 210.412506103516 215.0625 222.606246948242 230.675003051758 238.606246948242 249.5625 261.831237792969 275.306243896484 289.237487792969 302.231262207031 312.987487792969 320.149993896484 325.40625 326.399993896484 323.668762207031 315.706237792969 297.806243896484 274.862487792969 257.043762207031 253.8125 259.106262207031 266.262512207031 272.168762207031 278.40625 284.881256103516 295.193756103516 308.024993896484 320.5625 333.024993896484 348.96875 368.25 387.681243896484 402.549987792969 408.549987792969 416.200012207031 420.112487792969 420.462493896484 423.168762207031 422.881256103516 423.806243896484 431.287506103516 442.268737792969 448.556243896484 452.868743896484 453.106262207031 454.931243896484 452.575012207031 446.487487792969 
195.087509155273 198.600006103516 203.193756103516 206.837493896484 212.46875 220 228.03125 237.03125 248.074996948242 260.450012207031 274.443756103516 288.9375 301.793762207031 312.600006103516 320.318756103516 325.325012207031 327.850006103516 326.106262207031 321.600006103516 301.625 275.524993896484 253.681243896484 251.649993896484 256.837493896484 264.056243896484 270.5 276.450012207031 283.756256103516 293.006256103516 304.606262207031 313.918762207031 324.443756103516 338.950012207031 356.875 376.262512207031 395.068756103516 399.612487792969 402.1875 402.762512207031 403.412506103516 404.893737792969 405.5625 405.162506103516 410.399993896484 417.0625 421.162506103516 425.9375 424.893737792969 423.46875 424.818756103516 421.712493896484 
193.675003051758 197.550003051758 201.768753051758 206.074996948242 211.362503051758 218.59375 226.356246948242 235.199996948242 246.75 259.206237792969 271.875 287.462493896484 301.887512207031 313.637481689453 322.25 326.106262207031 328.368743896484 324.618743896484 318.631256103516 303.200012207031 281.537506103516 266.262512207031 259.15625 261.443756103516 267.674987792969 272.625 278.049987792969 285.512512207031 294.256256103516 305.362487792969 313.668762207031 321.862487792969 333.6875 347.975006103516 364.993743896484 382.818756103516 389.09375 389.362487792969 388.774993896484 390.149993896484 390.318756103516 390.549987792969 392.043762207031 392.362487792969 398.149993896484 400.71875 402.4375 402.325012207031 399.168762207031 398.831237792969 400.25 
