ncols        51
nrows        45
xllcorner    -63.500000000000
yllcorner    -7.500000000000
cellsize     0.166666666667
NODATA_value -99
115.025001525879 109.731246948242 107.556251525879 107.65625 106.349998474121 104.912498474121 100.96875 96.2062530517578 93.4375 91.1374969482422 90.3562469482422 91.4937515258789 92.8125 93.1750030517578 95.2437515258789 96.8125 99.2624969482422 99.8249969482422 101.137496948242 101.256248474121 100.099998474121 97.1374969482422 94.9749984741211 92.7312469482422 90.1187515258789 89.0562515258789 89.3499984741211 89.6937484741211 88.3874969482422 85.0562515258789 80.6812515258789 77.2562484741211 75.0187530517578 71.4562530517578 68.6062469482422 66.4937515258789 65.1937484741211 63.7937507629395 62.4500007629395 61.3687515258789 60.6062507629395 60.65625 60.2062492370605 59.8875007629395 59.78125 58.7750015258789 58.6312484741211 56.8812484741211 55.3624992370605 53.2000007629395 52.84375 
110.443748474121 105.081253051758 104.800003051758 106.625 108.775001525879 104.868751525879 99.7125015258789 96.6374969482422 93.6750030517578 90.8687515258789 89.3937530517578 89.6812515258789 90.3187484741211 89.84375 91.4749984741211 93.6125030517578 95.1750030517578 97.2562484741211 99.40625 100.775001525879 98.9625015258789 97.3187484741211 94.8874969482422 92.8187484741211 89.1624984741211 87.3125 87.7312469482422 88.0625 85.84375 81.6312484741211 76.8187484741211 73.2249984741211 70.0749969482422 67.4124984741211 64.5999984741211 62.25 60.6062507629395 59.1624984741211 57.6124992370605 56.3624992370605 55.5625 55.6875 55.7874984741211 55.03125 54.8499984741211 54.0687484741211 53.7687492370605 51.8812484741211 50.1875 47.8187484741211 47.3687515258789 
104.693748474121 101.375 101.137496948242 102.981246948242 104.318748474121 102.099998474121 97.9250030517578 94.53125 92.0999984741211 89.59375 87.8874969482422 87.6937484741211 87.9312515258789 87.0437469482422 88.0812530517578 90.3562469482422 91.5562515258789 93.0562515258789 94.4437484741211 95.34375 93.1999969482422 90.7125015258789 88.4937515258789 86.4562530517578 83.15625 80.6812515258789 82.2062530517578 82.1125030517578 80.46875 76.09375 71.0250015258789 67.2937469482422 65.0437469482422 62.2999992370605 59.6062507629395 57.1187515258789 55.4375 54.1624984741211 53.0875015258789 52.3062515258789 51.8062515258789 51.7312507629395 52.1812515258789 51.8250007629395 51.3250007629395 50.7249984741211 50.2937507629395 48.5250015258789 46.1187515258789 43.7249984741211 43.2062492370605 
97.1624984741211 95.0250015258789 97.5687484741211 97.78125 97.9625015258789 96.4312515258789 94.09375 92.6875 90.9749984741211 88.9562530517578 86.6312484741211 86.0062484741211 84.6875 84.0999984741211 85.1125030517578 86.90625 88.3499984741211 88.9937515258789 90.1624984741211 90.71875 87.9437484741211 83.9625015258789 80.5374984741211 78.4625015258789 75.0999984741211 73.1062469482422 74.0999984741211 73.4749984741211 72.84375 69.28125 65.15625 61.0625 58.2999992370605 55.6437492370605 52.7374992370605 51.5999984741211 50.5 49.2625007629395 48.7249984741211 47.9187507629395 47.3312492370605 47.3250007629395 47.6937484741211 47.8125 47.7374992370605 47.0562515258789 46.3624992370605 44.9375 42.4124984741211 39.6187515258789 38.40625 
99.6812515258789 94.9625015258789 91.9312515258789 91.40625 92.8249969482422 92.21875 90.4625015258789 89.6937484741211 89.1437530517578 87.3625030517578 84.9749984741211 83.0812530517578 82.0999984741211 82.1187515258789 83.1500015258789 84.5500030517578 85.4499969482422 85.0250015258789 84.9499969482422 84.0062484741211 81.5125045776367 76.2125015258789 72.8062515258789 70.6062469482422 67.5062484741211 65.5062484741211 65.5062484741211 65.9874954223633 65.6125030517578 61.9937515258789 58.4625015258789 54.3687515258789 51.4874992370605 49.2374992370605 47.0062484741211 45.7000007629395 44.7374992370605 44.1437492370605 44.0125007629395 43.5999984741211 43.1937484741211 43.0999984741211 43.1812515258789 43.65625 43.7249984741211 43.2937507629395 42.4625015258789 40.65625 38.2937507629395 35.78125 34.1187515258789 
101.806251525879 96.7062530517578 91.9124984741211 86.7562484741211 88.25 90.6187515258789 89.9937515258789 88.375 87.6187515258789 86.6374969482422 83.9375 81.9499969482422 81.1312484741211 81.2375030517578 81.5 82.8625030517578 83.2437515258789 81.2562484741211 79.6999969482422 78.0812530517578 74.1624984741211 69.5 65.75 62.9749984741211 60.6312484741211 58.4625015258789 58.4625015258789 59.3187484741211 58.9187507629395 55.5687484741211 52.375 50.1624984741211 47.6187515258789 45.4000015258789 43.2937507629395 42.8187484741211 42.2437515258789 42.3125 42.7125015258789 42.4375 41.0625 40.9187507629395 40.9500007629395 41.5875015258789 42.4812507629395 41.96875 40.6187515258789 38.4187507629395 36.6312484741211 34.3687515258789 32.84375 
105.449996948242 100.662498474121 95.4812469482422 90.0749969482422 88.3062515258789 87.4812469482422 87.4937515258789 86.6999969482422 85.1187515258789 83.1374969482422 81.3874969482422 80.375 80.1937484741211 80.0124969482422 80.2312469482422 81.0374984741211 81.0875015258789 78.5250015258789 75.1750030517578 71.6374969482422 67.1062545776367 62.6062507629395 58.2062492370605 55.5125007629395 53.6500015258789 51.9625015258789 52.2062492370605 53 52.4562492370605 49.46875 47 44.7062492370605 42.9749984741211 41.5250015258789 40.0499992370605 39.4375 39.3812484741211 40.2687492370605 41.6124992370605 40.6812477111816 39.25 38.625 38.5875015258789 39.3250007629395 40.5125007629395 40.2062492370605 38.78125 36.1812515258789 34.5062484741211 33.3937492370605 32.3312492370605 
109.556251525879 104.65625 99.4375 95.7062530517578 93.5749969482422 92.4250030517578 89.1624984741211 84.0812530517578 80.6437530517578 79.15625 78.8375015258789 78.7874984741211 79.0875015258789 78.8874969482422 79.28125 78.6999969482422 78.0687484741211 74.8375015258789 70.4875030517578 64.8125 60.4124984741211 55.7937507629395 51.5625 48.7625007629395 46.8375015258789 45.3499984741211 45.5187492370605 46.0062484741211 46.1312484741211 43.7687492370605 41.8187484741211 39.9749984741211 38.6312484741211 37.78125 36.3812484741211 35.9874992370605 36.09375 36.75 37.2687492370605 36.8062515258789 35.6687507629395 34.9874992370605 34.9562492370605 35.2999992370605 36.3812484741211 36.3562507629395 35.5750007629395 33.7062492370605 32.2999992370605 31.5499992370605 30.7062492370605 
114.025001525879 109.699996948242 105.3125 101.431251525879 98.8687515258789 96.4250030517578 92.8562469482422 87.6062469482422 82.625 78.84375 78.4124984741211 78.5500030517578 79.8187484741211 79.3187484741211 78.1437530517578 76.1687469482422 74.0812530517578 70.3499984741211 66.1875 60.3062515258789 55.15625 50.9187507629395 46.0625 44.03125 41.8624992370605 40.0999984741211 40.4562492370605 41.4187507629395 42.1687507629395 40.4375 39.4000015258789 37.3187484741211 35.6312484741211 34.2249984741211 33.2437515258789 33.53125 33.90625 34.2000007629395 34.0999984741211 33.6500015258789 32.6812515258789 31.9187507629395 31.8062496185303 32.0625 32.3937492370605 32.6187515258789 32.5187492370605 30.9187507629395 29.9312496185303 29.875 30.2312507629395 
117.268753051758 113.462501525879 109.568748474121 105.837501525879 103.800003051758 101.25 97.3937530517578 91.6437530517578 87.0875015258789 83.5812530517578 81.3687515258789 80.3062515258789 80.78125 80.6187515258789 77.0687484741211 73.75 69.4749984741211 65.2624969482422 60.9874992370605 56.03125 51.0437507629395 46.0374984741211 41.1812515258789 38.8937492370605 36.5187492370605 34.96875 35.6749992370605 36.8250007629395 37.8375015258789 37.2125015258789 36.03125 34.4375 32.875 31.9125003814697 31.09375 31.1999988555908 31.6437492370605 31.7749996185303 31.1812496185303 30.6062507629395 29.71875 29.1062507629395 28.1000003814697 28.0125007629395 28.5 29.1062507629395 28.9375 27.6062507629395 26.6062507629395 26.28125 26.375 
122.181251525879 118.34375 114.5625 110.724998474121 108.237495422363 106.431251525879 102.59375 95.4375 90.2125015258789 86.7375030517578 84.5500030517578 83.5875015258789 82.3625030517578 80.6875 75.3000030517578 69.9749984741211 64.1500015258789 59.7625007629395 55.4874992370605 51.1937484741211 47.2562484741211 42.3562507629395 37.3312492370605 33.6312484741211 31.8624992370605 31.375 32.3562507629395 33.2312507629395 33.9124984741211 33.7249984741211 33.2062492370605 32.1312484741211 30.84375 29.75 28.9937496185303 28.9500007629395 29.1625003814697 29.1124992370605 28.7437496185303 27.7312488555908 26.46875 25.6124992370605 25.125 24.3812503814697 24.4500007629395 25.6687507629395 25.0750007629395 23.59375 22.5687503814697 21.7999992370605 20.2000007629395 
125.318748474121 121.474998474121 117.793746948242 114.837501525879 112.206253051758 110.143753051758 107.068748474121 100.181251525879 94.1312484741211 89.7375030517578 87.3000030517578 85.40625 81.5374984741211 77.65625 72.8562469482422 66.9562530517578 61.3312492370605 56.3687515258789 52.2249984741211 48.8562507629395 45.5437507629395 40.5 35.1500015258789 31.2875003814697 29.2749996185303 28.4375 29.40625 30.5249996185303 31.1499996185303 31.3062496185303 31.03125 30.3374996185303 29.21875 28.5 28.1812496185303 28.0750007629395 28.0562496185303 27.9437503814697 26.6875 25.0874996185303 23.5625 22.4812507629395 21.9812507629395 21.1937503814697 20.4937496185303 20.3187503814697 20.2124996185303 19.53125 18.9500007629395 17.9500007629395 15.6750001907349 
127.481246948242 123.550003051758 119.550003051758 115.668746948242 112.40625 110.125 106.387496948242 100.375 95.90625 92.1624984741211 88.84375 85.6937484741211 80.9124984741211 74.0374984741211 68.1687469482422 63.1624984741211 57.7874984741211 53.2249984741211 49.3499984741211 45.90625 42.7999992370605 38.1937484741211 32.9187507629395 29.5125007629395 26.7937507629395 25.7250003814697 27.1124992370605 28.5499992370605 29.53125 29.6875 29.2562503814697 28.6687507629395 27.84375 26.8875007629395 26.53125 26.8250007629395 27.4812507629395 27.6499996185303 26.625 23.9375 21.3500003814697 20.5625 19.7374992370605 17.4375 16.4624996185303 17.2999992370605 17.5437507629395 16.7562503814697 15.6875 15.0687503814697 13.1499996185303 
128.518753051758 124.143753051758 119.243751525879 114.981246948242 111.706253051758 108.25 104.193748474121 99.8125 95.8812484741211 92.8812484741211 88.8687515258789 83.0687484741211 77.2125015258789 70.2000045776367 63.1187515258789 58.7562484741211 53.8562507629395 49.3812484741211 45.3125 42.0374984741211 38.7750015258789 34.2937507629395 29.8937511444092 27.7374992370605 25.65625 24.3562507629395 25.6312503814697 26.9125003814697 27.75 28.0874996185303 28.3062496185303 27.6499996185303 26.6062507629395 25.6625003814697 25.4312496185303 26.40625 27.8125 29.1875 28.5375003814697 26.2437496185303 21.7687492370605 19.1312503814697 18.2374992370605 17.3374996185303 16.75 16.75 17.2062492370605 16.65625 15.4750003814697 14.7312498092651 12.9125003814697 
127.787498474121 122.493751525879 117.306251525879 113.018753051758 109.700004577637 104.71875 101.5625 97.1937484741211 93.3937530517578 91.0124969482422 86.3812484741211 79.9562530517578 73.3187484741211 66.3125 59.0187492370605 53.9812507629395 49.8937492370605 46.2125015258789 42.1937484741211 39.1437492370605 36.0250015258789 32.2125015258789 28.5437507629395 27.4312496185303 26.5499992370605 25.6937503814697 26.7000007629395 27.40625 27.7999992370605 28.1749992370605 27.6499996185303 26.96875 26.1937503814697 25.1375007629395 24.2937507629395 26.0562496185303 29.3500003814697 33.2000007629395 34.7875022888184 32.6187515258789 28.7749996185303 24.6375007629395 22.2625007629395 20.03125 18.59375 18.0625 17.7687492370605 17.5125007629395 16.9562492370605 15.4437503814697 13.6062498092651 
125.599998474121 119.8125 115.21875 110.706253051758 106.237503051758 102.550003051758 98.7937469482422 94.4499969482422 91.3000030517578 88.9625015258789 84.2062530517578 76.8812484741211 69.6374969482422 62.7625007629395 55.9749984741211 49.8812484741211 46 43.1812515258789 39.6187477111816 36.8875007629395 33.6749992370605 30.5812492370605 27.8937492370605 27.8500003814697 27.7000007629395 26.9437503814697 27.6437492370605 28.3562507629395 28.7687492370605 28.7875003814697 28.8562507629395 27.7625007629395 26.3812503814697 25.4750003814697 24.1812496185303 27.3250007629395 32.5562515258789 37.3875007629395 41.65625 41.5625 39.2999992370605 32.6937484741211 26.84375 22.3624992370605 20.6062507629395 19.5062503814697 19.1687507629395 18.5125007629395 17.5437507629395 16.4500007629395 15.2749996185303 
121.712501525879 116.487503051758 112.518753051758 108.231246948242 103.612503051758 100.25 96.5187530517578 92.7624969482422 89.5812530517578 86.5 82.2687530517578 74.5999984741211 66.5 59.3187484741211 53.7687492370605 48.3562507629395 42.9812507629395 40.0437507629395 37.5 34.8875007629395 31.6937503814697 28.9375 27.0874996185303 28.2875003814697 29.0249996185303 28.0249996185303 28.7124996185303 29.4624996185303 29.9624996185303 30.2937507629395 30.9500007629395 31.15625 29.3500003814697 27.9937496185303 28.8687496185303 31.71875 36.5374984741211 44.4874992370605 53.0687484741211 51.1624984741211 46.3062515258789 37.8062515258789 29.6937503814697 24.6999988555908 22.4500007629395 21.1937503814697 20.4187507629395 20.0687503814697 19.71875 18.2687492370605 17.4187507629395 
117.775001525879 112.974998474121 108.181251525879 104 100.324996948242 97.125 93.0875015258789 89.0124969482422 86.4499969482422 83.0374984741211 78.8874969482422 71.6937484741211 64 57.2000007629395 51.8499984741211 47.0812492370605 42.1875 37.5999984741211 35.8812484741211 33.3375015258789 30.4874992370605 27.5812492370605 25.9750003814697 27.9125003814697 29.4624996185303 29.1062507629395 30.3562507629395 31.2937507629395 31.6437492370605 31.5874996185303 31.9562492370605 32.1937484741211 33.8062515258789 35.2312507629395 34.9000015258789 35.6187515258789 41.7062492370605 49.0374984741211 53.7437515258789 52.5875015258789 45.9187507629395 37.8812484741211 30.8999996185303 27.0562496185303 24.7937507629395 23.4750003814697 22.875 21.9312496185303 21.4562492370605 19.7625007629395 19.2937507629395 
113.53125 108.425003051758 103.5625 100.012496948242 96.15625 93.2062530517578 89.3312530517578 86.1999969482422 83.5062484741211 80.2750015258789 76.1875 69.0812454223633 61.6500015258789 55.4000015258789 50.0125007629395 46.0125007629395 41.8375015258789 37.1187515258789 34.1624984741211 31.8687496185303 29.6812496185303 28.2999992370605 24.5249996185303 26.5249996185303 28.8062496185303 30.3624992370605 32.4249992370605 33.4124984741211 34.65625 34.2625007629395 34.0437507629395 36.8375015258789 41.5562515258789 43.3250007629395 43.8937492370605 44.7562484741211 47.4937515258789 50.3187484741211 51.5187492370605 48.9312515258789 43.3250007629395 36.9625015258789 31.6937503814697 28.75 27.0874996185303 26.125 25.3937492370605 24.5187492370605 23.4125003814697 20.4874992370605 20.8374996185303 
108.599998474121 104.5 99.6500015258789 95.7874984741211 92.2562484741211 90.0562515258789 86.9937515258789 83.40625 81.7687530517578 78.9375 75.1937484741211 68.96875 62.1437492370605 55.6624984741211 49.8812484741211 45.1624984741211 40.1375007629395 37.4812507629395 34.3062515258789 32.53125 29.1625003814697 26.0812492370605 24.6312503814697 26.6687507629395 28.8937492370605 30.4312496185303 33.1312484741211 35.8875007629395 36.7249984741211 36.9812507629395 38.15625 44.3624992370605 48.7687492370605 54.3062515258789 58.1687507629395 56.8499984741211 54.7625007629395 53.125 50.8312492370605 46.9500007629395 41.4749984741211 35.46875 32.9437484741211 31.8500003814697 30.3562507629395 29.4750003814697 28.625 27.21875 25.2250003814697 22.3687496185303 22.5874996185303 
103.068748474121 100.099998474121 96.5187530517578 93.0437469482422 89.6062469482422 87 84.6875 81.96875 81.03125 79.15625 75.6937484741211 70.5124969482422 64.03125 57.09375 51.6062507629395 45.8312492370605 40.8187484741211 37.0875015258789 34.96875 32.1312484741211 29.9937496185303 27.8624992370605 26.1437492370605 28.34375 31.2625007629395 33.3812484741211 36.0499992370605 38.1875 39.9937515258789 42.9562492370605 46.3375015258789 52.4312515258789 57.5562477111816 64.25 71.6187515258789 67.5062484741211 60.2874984741211 55.5625 51.3937492370605 47.375 43.3375015258789 39.0374984741211 36.4437484741211 35.0750007629395 33.7562484741211 32.8875007629395 31.65625 29.9500007629395 26.7062492370605 25.3500003814697 24.75 
98.9812469482422 95.0500030517578 91.8125 88.8249969482422 86.5374984741211 85.0124969482422 82.8937530517578 81.2437515258789 80.7125015258789 79.3562469482422 76.59375 72.3312530517578 67.3625030517578 61.2750015258789 55.2062492370605 48.6187515258789 43.3562507629395 39.1500015258789 36.5750007629395 33.5812492370605 30.5874996185303 28.5562496185303 27.1499996185303 29.4937496185303 32.25 34.9500007629395 39.0875015258789 41.9500007629395 45.46875 49.5187492370605 53.7249984741211 59.0999984741211 63.6749992370605 69.15625 71.6312484741211 68.5562515258789 61.8375015258789 57.0437507629395 52.5687484741211 49.1375007629395 46.2125015258789 43.3250007629395 41.6624984741211 40.25 38.53125 37.4812507629395 35.7000007629395 33.03125 29.7000007629395 28.7312507629395 27.2250003814697 
95.6187515258789 92.8499984741211 89.03125 86.3125 84.0187530517578 82.7624969482422 81.6312484741211 80.5749969482422 81.0625 79.6937484741211 78.5187530517578 75.4124984741211 72.3687515258789 67.0687484741211 59.3187484741211 52.15625 45.9874992370605 41.7000007629395 38.0062484741211 34.7750015258789 31.9624996185303 29.9249992370605 28.4312496185303 30.4375 33.6312484741211 36.625 40.9500007629395 45.6687507629395 49.7374992370605 54.0062484741211 59.2750015258789 65.2312469482422 68.3000030517578 70.71875 70.5124969482422 65.84375 61.1937484741211 57.0250015258789 53.5875015258789 51.7062492370605 50.4375 48.2249984741211 46.7625007629395 45.4124984741211 43.4874992370605 42.4375 40.3250007629395 37.1500015258789 33.96875 32.2062492370605 30.9249992370605 
94.3812484741211 90.5812530517578 87.3812484741211 84.0875015258789 81.1624984741211 81.0374984741211 80.5500030517578 79.6500015258789 80.1687469482422 79.4000015258789 78.2375030517578 77.3125 76.4875030517578 71.2937469482422 62.6500015258789 54.875 48.5374984741211 43.9749984741211 40.0625 36.3374977111816 33.5812492370605 31.2250003814697 30.0125007629395 32.3687515258789 35.53125 38.3687515258789 42.8187484741211 47.8062515258789 53.3937492370605 58.3375015258789 63.6375007629395 69.6312484741211 71.4749984741211 72.4250030517578 71.6875 66.4250030517578 62.78125 60.21875 57.4625015258789 56.6124992370605 55.4437484741211 53.4874992370605 52.4124984741211 51.1875 50.2000007629395 48.4000015258789 45.9249992370605 40.96875 38.84375 35.6500015258789 34.5812492370605 
94.4250030517578 90.0500030517578 86.0187530517578 82.2062530517578 81.2874984741211 80.7125015258789 79.9437484741211 79.2375030517578 79.3312530517578 79.1437530517578 78.4812469482422 77.0749969482422 75.5999984741211 71.8125 64.40625 56.9000015258789 50.7562522888184 45.7874984741211 41.5437507629395 37.9500007629395 35.3125 32.8687515258789 31.9874992370605 34.6749992370605 37.3875007629395 40.9749984741211 45.71875 51.1500015258789 56.9812507629395 62.53125 67.7750015258789 73.1875 75.5 75.9187469482422 74.4499969482422 70.1875 67.9499969482422 65.9000015258789 63.2437515258789 62.0062484741211 60.7625007629395 59.4249992370605 58.4437484741211 58.4500007629395 57.8812484741211 56.2687492370605 49.5875015258789 47.1312484741211 43.5499992370605 39.4375 38.8937492370605 
96.3937530517578 93.0124969482422 87.3625030517578 83.9437484741211 81.1937484741211 80.28125 79.8125 78.9562530517578 78.78125 78.7249984741211 77.3312530517578 76.1999969482422 74.6125030517578 71.2562484741211 65.03125 58.4187507629395 52.3250007629395 47.5875015258789 43.1624984741211 39.375 36.8312492370605 34.4562492370605 33.7562484741211 36.8062515258789 39.9500007629395 43.3375015258789 49.0437507629395 55.4187507629395 61.2750015258789 67.0374984741211 72.34375 78.0999984741211 79.0562515258789 79.2624969482422 78.8937530517578 77.1500015258789 74.6999969482422 72.875 71.125 69.1812515258789 68.2687530517578 66.3187484741211 65.0124969482422 65.3000030517578 66.4250030517578 60.2687492370605 57.28125 53.78125 49.4874992370605 46.2125015258789 44.25 
99.4625015258789 94.9874954223633 89.9937515258789 86.5 83.0500030517578 81.9812469482422 80.7687530517578 79.1624984741211 77.9875030517578 77.7062530517578 77.0687484741211 76.25 74.5437469482422 71.9312515258789 66.3625030517578 60.25 54.9625015258789 49.8187484741211 45.375 41.4625015258789 39.0562515258789 36.6749992370605 35.78125 39.7312507629395 43.0687484741211 46.96875 53.1500015258789 59.4000015258789 65.6937484741211 71.2687530517578 76.5 81.3249969482422 83.9499969482422 84.8375015258789 84.5187530517578 84.09375 83.2125015258789 81.6875 79.9499969482422 78.2312469482422 76.3562469482422 74.2437515258789 72.7375030517578 71.1999969482422 69.5062484741211 68.5500030517578 65.5625 59.9874992370605 56.03125 51.5125007629395 48.3875007629395 
102.412498474121 98.0062484741211 93.5562515258789 88.9375 85.6812515258789 83.6750030517578 82.0812530517578 80.1312484741211 78.3499984741211 77.9000015258789 76.875 76.0812530517578 74.7874984741211 73.2062530517578 67.8125 62.1812515258789 56.96875 51.9749984741211 47.4937515258789 43.8187484741211 41.3062515258789 39.0687484741211 38.1749992370605 42.2125015258789 46.5625 50.6937484741211 57.09375 63.7937507629395 70.4312515258789 76.3625030517578 80.84375 85.6624984741211 89.1437530517578 90.5 91.40625 91.5812530517578 92.8000030517578 92.8125 90.9625015258789 88.8687515258789 86.7624969482422 84.0875015258789 79.9437484741211 78.15625 76.9937515258789 75.6750030517578 71.9124984741211 67.2437515258789 62.1749992370605 56.7062492370605 53.0875015258789 
105.831253051758 101.15625 95.8625030517578 91.0437469482422 87.3187484741211 84.6312484741211 82.375 80.4812469482422 78.90625 77.7750015258789 76.46875 75.6062469482422 75.4625015258789 73.7750015258789 68.78125 64.5062484741211 60.3624992370605 54.1875 49.5562515258789 45.9625015258789 43.71875 41.7437477111816 41.0062522888184 45.4500007629395 49.7062492370605 54.59375 61.375 68.875 76.6187515258789 81.4625015258789 85.34375 89.8874969482422 93.21875 96.0124969482422 99.2937545776367 100.243751525879 103.243751525879 105.224998474121 104.03125 101.53125 96.6437530517578 91.4625015258789 87.9437484741211 86.0625 85.6624984741211 82.4499969482422 78.5812530517578 74.2437515258789 68.6999969482422 63.2312507629395 57.3062515258789 
109.387496948242 104.662498474121 98.2125015258789 93.0062484741211 88.9375 86.3000030517578 83.9562530517578 81.7687530517578 79.9812469482422 78.375 76.8125 76.6624984741211 76.4000015258789 75.1624984741211 71.6125030517578 67.2687530517578 62.9187507629395 57.8187484741211 52.7750015258789 49.0999984741211 47.125 45.53125 44.4500007629395 48.7249984741211 53.8875007629395 59.625 66.375 73.5999984741211 80.5562515258789 85.9562530517578 90.9749984741211 95.9187469482422 99.4749984741211 103.112503051758 107.693748474121 110.650001525879 115.349998474121 120.306251525879 117.724998474121 117.706253051758 114.650001525879 108 102.106246948242 99.4312515258789 96.46875 93.4625015258789 90.0250015258789 85.2750015258789 78.5875015258789 72.5 65.3375015258789 
110.887496948242 106.543746948242 101.268753051758 95.1937484741211 91.3000030517578 88.7624969482422 85.4437484741211 82.8375015258789 81.2125015258789 79.7624969482422 78.0500030517578 77.6875 78.78125 77.4499969482422 73.9937515258789 70.1374969482422 66.9625015258789 62.0499992370605 56.9562492370605 53.5750007629395 51.46875 50.0125007629395 49.09375 53.3062515258789 58.4625015258789 64.5062484741211 71.3687515258789 78.4499969482422 85.46875 89.8000030517578 95.71875 101.337501525879 105.506248474121 111.731246948242 117.487503051758 120.675003051758 127.09375 134.59375 135.40625 135.856246948242 133.037506103516 125.106254577637 117.862503051758 113.481254577637 108.925003051758 106.081253051758 101.987503051758 96.5875015258789 89.8625030517578 83.1374969482422 75.625 
113.0625 107.637496948242 102.212501525879 97.2624969482422 94.3687515258789 90.8375015258789 87.5250015258789 84.78125 83.2874984741211 81.4312515258789 79.9625015258789 79.4749984741211 79.2249984741211 79.15625 77.1437530517578 75.1062469482422 71.8812484741211 67.2125015258789 62.8499984741211 59.8375015258789 57.7687492370605 55.0999984741211 54.1062507629395 58.125 64.2937469482422 69.34375 75.8000030517578 83.7562484741211 90.6999969482422 95.4312515258789 101.306251525879 106.162498474121 111.806251525879 118.762496948242 125.287498474121 129.90625 137.449996948242 144.818756103516 147.300003051758 149.368743896484 149.162506103516 141.162506103516 134.15625 128.46875 124.606246948242 123.087501525879 118.28125 112.21875 103.5 95.2437515258789 87.3187484741211 
112.112503051758 107.956253051758 102.731246948242 98.7249984741211 96.0687484741211 93.1125030517578 90.5374984741211 87.4312515258789 85.7375030517578 83.5124969482422 84.0562515258789 82.75 82.7687530517578 84.1624984741211 82.7437515258789 81.8312530517578 79.6750030517578 76.21875 71.9499969482422 68.8000030517578 65.9749984741211 62.96875 60.8125 64.5562515258789 70.0500030517578 74.3874969482422 80.7874984741211 88.3625030517578 95.3687515258789 101.712501525879 107.118751525879 112.706253051758 118.34375 125.925003051758 134.0625 139.481246948242 146.512496948242 152.393753051758 156.09375 160.956253051758 162.5625 156.693756103516 151.631256103516 146.34375 144.362503051758 144.887496948242 141.831253051758 131.59375 122.387496948242 113.337501525879 103.881248474121 
109.837501525879 107.118751525879 103.743751525879 100.481246948242 97.78125 95.2562484741211 93.3249969482422 90.7249984741211 88.3937530517578 86.96875 86.2312469482422 87.1687469482422 87.2937469482422 87.28125 87.84375 88.0062484741211 88.2312469482422 85.5562515258789 82.1437530517578 78.9499969482422 75.5625 71.5687484741211 68.65625 71.2125015258789 75.1750030517578 78.9187469482422 85.1750030517578 92.5812530517578 99.2437515258789 105.78125 112.324996948242 118.756248474121 125.412498474121 133.056243896484 141.806243896484 150.300003051758 155.899993896484 161.493743896484 166.643753051758 170.768753051758 173.28125 172.087493896484 170.356246948242 166.800003051758 165.71875 165.0625 160.581253051758 150.9375 140.949996948242 130.606246948242 120.662498474121 
108.474998474121 106.425003051758 104.143753051758 102.349998474121 100.443748474121 97.7249984741211 96.3874969482422 94.1750030517578 91.1437530517578 89.8562469482422 90.0749969482422 91.9187469482422 92.3687515258789 92.8249969482422 94.28125 96.03125 97.0250015258789 94.5124969482422 92.9312515258789 89.625 86.1374969482422 81.34375 76.7874984741211 77.9937515258789 80.0187530517578 83.6999969482422 90.15625 96.71875 103.168746948242 109.650001525879 116.550003051758 122.90625 130.606246948242 139.256256103516 147.643753051758 154.768753051758 162.225006103516 170.962493896484 175.487503051758 181.024993896484 182.006256103516 181.162506103516 183.300003051758 181.012496948242 180.818756103516 179.643753051758 175.868743896484 167.162506103516 158.574996948242 147.756256103516 136.074996948242 
106.962501525879 104.837501525879 103.543746948242 102.300003051758 100.862503051758 99.1937484741211 97.2312469482422 96.3625030517578 94.2750015258789 92.90625 93.9187469482422 95.9250030517578 98.0749969482422 99.7687530517578 101.681251525879 104.168746948242 105.537498474121 104.443748474121 103.387496948242 101.6875 96.8249969482422 91.3812484741211 85.40625 84.8562469482422 86.0500030517578 88.34375 93.4562530517578 99.5749969482422 105.662498474121 111.956245422363 119.25 126.412498474121 133.550003051758 142.375 150.706253051758 156.53125 166.162506103516 173.487503051758 178.050003051758 182.8125 186.6875 186.287506103516 186.899993896484 186.956253051758 187.293746948242 185.381256103516 182.050003051758 178.875 170.981246948242 160.043746948242 149.643753051758 
105.46875 103.887496948242 102.662498474121 101.356246948242 101.237503051758 100.162498474121 99.28125 98.5625 97.5187530517578 95.8125 98.3562469482422 104.012496948242 106.65625 108.3125 110.8125 112.743751525879 114.762496948242 113.099998474121 111.650001525879 109.787498474121 106.006248474121 98.9937515258789 92.8687515258789 90.8312530517578 90.8562469482422 92.3625030517578 96.2249984741211 101.087501525879 106.643753051758 113.5625 120.84375 128.543746948242 136.850006103516 145.818756103516 154.199996948242 160.9375 168.949996948242 176.912506103516 180.199996948242 183.618743896484 187.118743896484 187.0625 189.75 191.925003051758 194.756256103516 191.881256103516 191.662506103516 190.25 180.050003051758 171.643753051758 160.03125 
103.65625 102.943748474121 102.237503051758 100.974998474121 101.393745422363 101.568748474121 101.681251525879 102.162498474121 102.412498474121 101.4375 110.481246948242 115.806251525879 116.893753051758 117.643753051758 119.675003051758 121.90625 121.931251525879 120.418746948242 117.53125 114.306251525879 111.143753051758 104.668746948242 98.9437484741211 95.9187469482422 94.6062469482422 94.7687530517578 98.5187530517578 102.96875 107.90625 115.037498474121 120.675003051758 128.125 136.837493896484 147.725006103516 156.887496948242 160.856246948242 168.149993896484 175.199996948242 181.381256103516 185.774993896484 186.662506103516 190.662506103516 190.425003051758 191.71875 194.587493896484 194.4375 197.28125 197.96875 185.493743896484 177.925003051758 168.300003051758 
102.675003051758 101.75 101.243751525879 100.993751525879 100.75 101.387496948242 102.993751525879 105.09375 108.106246948242 114.731246948242 125.806251525879 126.487503051758 124.650001525879 125.731246948242 126.856246948242 127.918746948242 127.625 125.03125 120.675003051758 116.956253051758 112.912498474121 107.068748474121 102.125 98.8874969482422 96.9499969482422 96.0562515258789 98.6937484741211 102.849998474121 107.393753051758 114.256248474121 120.712501525879 126.65625 134.3125 141.375 149.543746948242 154.606246948242 161.443756103516 167.737503051758 173.993759155273 175.925003051758 177.899993896484 181.918746948242 181.737503051758 182.774993896484 184.90625 184.731246948242 181.768753051758 183.962493896484 178 174.237503051758 163.100006103516 
100.206253051758 99.2874984741211 99.5250015258789 99.5812530517578 100.09375 101.8125 103.175003051758 106.862503051758 111.868751525879 119.949996948242 127.012496948242 129.762496948242 130.831253051758 132.212493896484 133.84375 133.481246948242 132.65625 128.868743896484 124.793746948242 119.4375 114.068748474121 108.53125 102.96875 99.5812530517578 97.7562484741211 96.7437515258789 98.4875030517578 102.381248474121 105.581253051758 112.46875 116.487503051758 122.800003051758 130.756256103516 136.768753051758 143.350006103516 148.850006103516 153.850006103516 160.71875 165.649993896484 164.6875 167.368743896484 172.018753051758 171.925003051758 171.206253051758 171.78125 169.975006103516 170.456253051758 171.574996948242 169.112503051758 166.893753051758 158.625 
97.9625015258789 97.5999984741211 98.15625 98.6374969482422 99.0124969482422 100.75 103.912498474121 108.112503051758 113.293746948242 120.03125 125.78125 130.34375 134.75 136.331253051758 137.868743896484 137.949996948242 136.774993896484 134.206253051758 128.481246948242 121.162498474121 115.506248474121 108.181251525879 102.443748474121 98.5749969482422 97.5 96.8249969482422 98.9124984741211 101.318748474121 104.300003051758 109.418746948242 114.768753051758 121.974998474121 128.731246948242 134.568756103516 140.050003051758 144.318756103516 148.375 153.074996948242 157.899993896484 156.637496948242 158.787506103516 161.125 160.837493896484 159.399993896484 159.512496948242 160.0625 161.006256103516 159.831253051758 161.412506103516 158.112503051758 154.362503051758 
95.5625 95.2750015258789 95.8874969482422 96.1500015258789 97.0124969482422 98.5062484741211 101.5625 105.481246948242 110.862503051758 116.518753051758 122.518753051758 127.931251525879 133.21875 136.443756103516 137.649993896484 138.850006103516 138.4375 136.106246948242 130.506256103516 121.4375 112.28125 105.78125 98.40625 94.7750015258789 95.8499984741211 95.5500030517578 96.4625015258789 98.4375 102.412498474121 108.175003051758 110.768753051758 117.893753051758 123.074996948242 132.143753051758 137.712493896484 138.050003051758 140.837493896484 144.574996948242 146.762496948242 146.106246948242 147.581253051758 147.331253051758 145.243743896484 146.15625 146.699996948242 148.868743896484 147.449996948242 146.46875 152.006256103516 148.056243896484 143.556243896484 
92.5999984741211 92.34375 93.5687484741211 93.8937530517578 94.4562530517578 95.8812484741211 98.5374984741211 102.262496948242 106.806251525879 112.675003051758 119.056251525879 124.300003051758 129.256256103516 133.6875 137.381256103516 139.293746948242 140.206253051758 138.712493896484 133.443756103516 121.15625 109.21875 99.7562484741211 94.59375 94.15625 93.9375 93.9375 94.4000015258789 95.9375 98.9250030517578 103.53125 106.199996948242 110.568748474121 116.306251525879 123.162498474121 132.275009155273 135.050003051758 132.993743896484 135.350006103516 135.925003051758 135.824996948242 135.856246948242 135.856246948242 134.643753051758 133.881256103516 134.981246948242 134.9375 136.25 135.524993896484 139.793746948242 137.475006103516 133.149993896484 
89.7312469482422 89.4562530517578 90.5124969482422 90.2750015258789 90.2562484741211 92.2249984741211 93.8562469482422 96.9749984741211 102.125 108.337501525879 114.581253051758 120.768753051758 127.293746948242 131.03125 135.768753051758 138.21875 139.600006103516 139.262496948242 136.6875 123.15625 108.868751525879 98 91.9499969482422 91.3874969482422 92.3125 92.7624969482422 93.3187484741211 94 95.6937484741211 99.6687469482422 101.912498474121 105 109.03125 114.724998474121 124.768753051758 132.931243896484 127.931251525879 126.568748474121 128.487503051758 126.287498474121 125.818748474121 125.131248474121 124.056251525879 124.287498474121 125.099998474121 123.662498474121 123.943748474121 124.162498474121 124.574996948242 126.793746948242 123.199996948242 
86.46875 87 89.0749969482422 87.5250015258789 88.0187530517578 88.9437484741211 89.6937484741211 92.28125 97.3625030517578 103.818748474121 110.462501525879 117.262496948242 124.412498474121 129.787506103516 134.106246948242 135.875 136.625 135.181243896484 131.306243896484 121.643753051758 106.987503051758 97.8687515258789 91.0625 89.3125 90.3125 91.3125 91.4375 92.4375 94.9625015258789 98.15625 99.2062530517578 102.09375 105.34375 108.606246948242 114.637496948242 122.768753051758 121.337501525879 119.71875 119.949996948242 119.6875 119.456253051758 118.493751525879 116.962501525879 115.674995422363 115.368751525879 114.599998474121 115.425003051758 115.699996948242 113.699996948242 117.081253051758 115.224998474121 
