ncols        51
nrows        45
xllcorner    -63.500000000000
yllcorner    -7.500000000000
cellsize     0.166666666667
NODATA_value -99
80.90625 79.3062515258789 77.2125015258789 76.9375 76.6437530517578 77.8249969482422 78.6187515258789 79.5250015258789 81.4937515258789 83.1687469482422 85.0250015258789 87.0500030517578 89.2874984741211 90.2687530517578 92.6750030517578 94.78125 96.8937530517578 97.3937530517578 97.9000015258789 98.5687484741211 97.3625030517578 95.78125 94.7562484741211 93.28125 92.3499984741211 91.90625 92.4625015258789 93.1437530517578 93.1812515258789 91.3312530517578 89.5500030517578 88.4812469482422 87.5687484741211 87.34375 86.7937469482422 86.2249984741211 85.78125 84.8375015258789 82.84375 80.7937469482422 78.0500030517578 75.6437530517578 72.40625 69.3187484741211 66.7437515258789 63.84375 60.3562507629395 56.7687492370605 53.5625 49.8062515258789 46.34375 
82.53125 80.2249984741211 78.8062515258789 78.5562515258789 78.9875030517578 79.8312530517578 80.1374969482422 81.53125 83.3249969482422 84.59375 86.03125 87.4312515258789 88.6687469482422 89.7937469482422 91.6374969482422 94.21875 95.9124984741211 97.7562484741211 99.3125 100.849998474121 99.4437484741211 97.6187515258789 96.5374984741211 95.9437484741211 94.4000015258789 93.6187515258789 94.2062530517578 94.4124984741211 94.4749984741211 93.2062530517578 92.2437515258789 91.9625015258789 91.0625 92.125 92.6187515258789 92.5124969482422 92.5062484741211 92.0250015258789 90.0187530517578 88.0562515258789 85.8625030517578 83.1312484741211 80.15625 76.28125 73.5 70.21875 66.71875 61.9749984741211 57.6124992370605 52.7999992370605 48.1875 
87.9000015258789 86.2249984741211 84.6937484741211 83.9375 84.34375 84.3499984741211 85.0687484741211 85.7750015258789 87.4749984741211 88.2750015258789 88.4187469482422 88.8687515258789 89.46875 89.8125 91.3812484741211 93.3125 95.2312469482422 96.9000015258789 97.8125 98.9124984741211 97.5062484741211 95.6812515258789 94.5687484741211 94.5875015258789 93.9187469482422 93.3375015258789 94.0062484741211 94.6687469482422 94.5875015258789 93.3874969482422 93.3499984741211 93.1624984741211 93.9000015258789 94.7750015258789 95.8625030517578 95.4499969482422 95.28125 95.7375030517578 93.9749984741211 92.2937469482422 89.9812469482422 86.8187484741211 83.7000045776367 80.1437530517578 76.59375 72.7562484741211 68.8000030517578 63.7000007629395 57.9749984741211 52.3062515258789 47.2750015258789 
92.1437530517578 90.7375030517578 90.3249969482422 89.3687515258789 89.7624969482422 89.25 89.0500030517578 89.78125 91.6687469482422 92.25 91.0687484741211 90.2375030517578 89.7562484741211 89.2937469482422 90.7562484741211 92.6750030517578 94.6374969482422 95.3000030517578 95.8375015258789 96.8562469482422 95.53125 93.53125 91.7750015258789 91.9499969482422 92.0749969482422 92.25 93.3000030517578 93.3687515258789 93.9250030517578 93.7249984741211 93.8375015258789 94.46875 94.6875 95.8000030517578 96.9375 97.8375015258789 98.3375015258789 98.5625 97.1937484741211 95.4187469482422 92.4124984741211 89.8499984741211 86.0999984741211 82.3375015258789 78.4812469482422 74.7624969482422 69.7937469482422 64.21875 57.9124984741211 51.625 45.9500007629395 
99.0687484741211 96.65625 93.2750015258789 93.1375045776367 94.5500030517578 93.8000030517578 93 93.53125 95.8125 96.6875 93.2874984741211 90.46875 89.0749969482422 88.4562530517578 89.90625 92.0500030517578 93.6624984741211 94 93.7437515258789 93.3375015258789 92.7375030517578 90.8187484741211 89.2437515258789 90.3874969482422 90.2687530517578 90.7312469482422 90.8125 92 93.3375015258789 92.7937469482422 93.2125015258789 94.2375030517578 95 96.5875015258789 98.3000030517578 99.4250030517578 100.337501525879 101.099998474121 100.4375 97.7687530517578 95.1062469482422 91.7937469482422 88.3249969482422 84.65625 80.7562484741211 76.1999969482422 70.9749984741211 64.1999969482422 57.6937484741211 51.4249992370605 44.96875 
105.650001525879 103.849998474121 100.262496948242 96.9312515258789 98.9625015258789 99.6812515258789 99.0500030517578 98.53125 99.90625 100.631248474121 95.9625015258789 92.6125030517578 91.15625 90.1500015258789 90.7249984741211 91.7937469482422 92.9124984741211 92.2562484741211 91.4437484741211 89.96875 89.3937530517578 88.5749969482422 87.6624984741211 88.3812484741211 89.2874984741211 89.5687484741211 89.9437484741211 90.7000045776367 91.7874984741211 91.3062515258789 91.2125015258789 93.34375 94.0437469482422 95.96875 97.6437530517578 99.5250015258789 101 102.425003051758 102.8125 101.012496948242 96.8562469482422 93.75 90.2625045776367 86.9625015258789 83.875 78.5812530517578 72.3000030517578 65.0062484741211 58.5875015258789 51.9375 45.2374992370605 
113.525001525879 113.212501525879 109.525001525879 105.831253051758 105.487503051758 104.087501525879 102.800003051758 101.212501525879 99.8812484741211 97.3000030517578 94.7874984741211 93.0562515258789 92.3187484741211 91.4437484741211 91.7687454223633 92.3687515258789 92.5562515258789 90.6187515258789 88.03125 86.7125015258789 86.5999984741211 86.3874969482422 86.1875 87.0625 88.0999984741211 89.0749969482422 89.0875015258789 89.2687530517578 89.0875015258789 88.875 89.4812469482422 91.1312484741211 92.3499984741211 94.4749984741211 96.78125 98.4562530517578 99.9000015258789 102.03125 104.612503051758 102.862503051758 98.375 95 91.6812515258789 88.2874984741211 85.1125030517578 80.2624969482422 74.1937484741211 66.125 59.1624984741211 52.7312507629395 46.4249992370605 
122.693748474121 122.481246948242 119.40625 117.287498474121 116.381248474121 112.599998474121 107.231246948242 101.087501525879 96.0374984741211 93.0562515258789 92.75 93.0999984741211 93.15625 92.6187515258789 92.5124969482422 92.6750030517578 91.9000015258789 88.7750015258789 85.4562530517578 82.9499969482422 84.2062530517578 85.0374984741211 85.0187530517578 86.2062530517578 87.8874969482422 87.8499984741211 87.4250030517578 86.875 86.78125 86.0374984741211 86.5250015258789 88.8062515258789 90.2937469482422 92.2062530517578 94.5812530517578 96 97.9499969482422 99.5374984741211 100.681251525879 99.5625 96.4937515258789 93.6374969482422 90.6062469482422 87.3187484741211 83.9812469482422 80.40625 74.8812484741211 66.84375 59.7437515258789 53.4937515258789 46.7374992370605 
130.768753051758 131.306243896484 129.225006103516 127.243751525879 125.59375 120.675003051758 114.224998474121 106.637496948242 97.9625015258789 92.6437530517578 93.4312515258789 94.7624969482422 95.6750030517578 95.34375 94.2750015258789 92.8312530517578 90.8937530517578 88.0625 85.9437484741211 83.4562530517578 84.0250015258789 85.2937469482422 85.2375030517578 87.3249969482422 88.28125 87.7375030517578 86.4187469482422 85.7249984741211 85.1687469482422 83.3062515258789 83.8874969482422 86.4937515258789 87.2750015258789 88.5562515258789 90.2562484741211 92.0500030517578 93.7249984741211 94.9625015258789 95.7375030517578 95.71875 93.7062530517578 91.1687469482422 89.1187515258789 86.5124969482422 83.1437530517578 79.7249984741211 75.3874969482422 67.8562469482422 60.6500015258789 54.3812484741211 48.3312492370605 
139.306243896484 139.506256103516 137.71875 136.143753051758 134.737503051758 130.081253051758 122.78125 114.268753051758 106.556251525879 101.431251525879 99.3062515258789 98.6312484741211 99.3874969482422 98.7125015258789 95.9875030517578 93.0124969482422 89.8812484741211 87.8249969482422 86.0124969482422 84.6937484741211 85.7125015258789 86.71875 86.4187469482422 87.9937515258789 88.0999984741211 87.5749969482422 86.5187530517578 84.96875 83.5812530517578 80.8562469482422 81.0374984741211 83.1937484741211 83.9000015258789 85.1312484741211 86.6687469482422 88.3499984741211 90.0875015258789 90.7312469482422 91.7375030517578 92.125 91.3499984741211 89.6500015258789 87.5500030517578 84.8000030517578 82.3187484741211 79.6374969482422 75.5124969482422 68.9562530517578 61.9625015258789 55.8937492370605 48.7562484741211 
148.337493896484 148.612503051758 146.481246948242 144.90625 143.449996948242 140.112503051758 133.225006103516 123.787498474121 115.831253051758 109.912498474121 106.643753051758 104.775001525879 103.75 102.074996948242 97.5250015258789 92.75 88.6812515258789 87.1937484741211 86.2062530517578 86.0374984741211 89.2312469482422 89.9375 88.6875 87.8687515258789 88.3375015258789 88.6812515258789 87.5562515258789 85.9499969482422 83.59375 80.46875 80.2249984741211 81.625 82.2562484741211 83 83.6937484741211 84.6687469482422 85.7125015258789 86.5187530517578 88.5687484741211 89.5250015258789 89.1687469482422 88.1437530517578 86.71875 84.5437469482422 81.4437484741211 79.6999969482422 75.5500030517578 68.9000015258789 62.5562515258789 55.9749984741211 48.4749984741211 
155.887496948242 155.762496948242 153.543746948242 152.625 151.300003051758 148.256256103516 142.493743896484 132.962493896484 124.768745422363 118.412498474121 113.756248474121 110.462501525879 106.568748474121 103.262496948242 98.4250030517578 93.5625 89.6437530517578 88.4124984741211 88.3125 89.5625 94.0562515258789 94.9187469482422 92.6312484741211 90.4562530517578 89.59375 89.2624969482422 87.9000015258789 86.5 85.2562484741211 82.25 80.8062515258789 80.8000030517578 80.5062484741211 80.5187530517578 81.1437530517578 82.0062484741211 82.7249984741211 83.7874984741211 85.6500015258789 87.0749969482422 87.6500015258789 86.96875 85.9625015258789 84.2937469482422 80.1374969482422 75.4187469482422 71.2750015258789 66.84375 61.125 55.5999984741211 48.1062507629395 
163.068756103516 163.024993896484 160.824996948242 158.850006103516 156.71875 153.449996948242 147.518753051758 139.537506103516 131.925003051758 125.90625 120.493751525879 115.6875 110.106246948242 103.381248474121 97.8874969482422 93.3375015258789 89.8249969482422 89.7125015258789 90.1875 91.6374969482422 97.0124969482422 98.03125 95.1624984741211 93.3000030517578 91.0062484741211 89.4749984741211 89.0812530517578 87.8375015258789 86.7937469482422 83.9000015258789 81.8000030517578 80.6374969482422 79.0124969482422 78.1875 78.3312530517578 79.0500030517578 79.8375015258789 80.8125 83.2874984741211 84.4562530517578 85.9250030517578 86.1437530517578 84.5250015258789 79.7562484741211 75.65625 73.7562484741211 70.3062515258789 64.9437484741211 58.8499984741211 54.15625 47.78125 
169.84375 168.443756103516 165.987503051758 163.512496948242 161.143753051758 156.762496948242 151.306243896484 144.893753051758 138.649993896484 132.381256103516 126.4375 118.731246948242 111.481246948242 103.78125 96.4124984741211 92.0187530517578 89.0875015258789 89.1374969482422 89.6812515258789 90.7375030517578 94.96875 96.4250030517578 95.1624984741211 93.9625015258789 92.5687484741211 91.4437484741211 91.4187469482422 90.4187469482422 88.8687515258789 85.4250030517578 82.8812484741211 80.7624969482422 78.0250015258789 76.1937484741211 76.1875 77.1312484741211 77.9375 79.8125 81.8874969482422 84.1312484741211 84.9250030517578 82.8625030517578 80.3687515258789 78.8125 76.1999969482422 73.84375 71.9937515258789 66.9812469482422 60.3937492370605 54.34375 47.4625015258789 
173.774993896484 172.024993896484 169.574996948242 167.050003051758 164.368743896484 159.887496948242 155.181243896484 149.399993896484 143.012496948242 136.574996948242 130.056243896484 121.637496948242 113.150001525879 104.681251525879 95.9875030517578 91.34375 89.1437530517578 89.5124969482422 90.1999969482422 91.0062484741211 94.2249984741211 95.84375 95.6875 95.8249969482422 95.9812469482422 95.7125015258789 95.2750015258789 93.9562530517578 92.0437469482422 87.75 84.2437515258789 81.15625 78.1937484741211 75.96875 75.09375 75.9625015258789 77.8812484741211 81.0250015258789 84.5 86.0625 85.3125 83.8562469482422 82.9562530517578 81.9250030517578 77.5187530517578 74.1437530517578 71.03125 66.7375030517578 61.4812507629395 55.1312484741211 47.59375 
176.425003051758 174.337493896484 172.481246948242 169.925003051758 167.375 163.443756103516 158.425003051758 152.987503051758 147.462493896484 141.743743896484 134.574996948242 125.349998474121 116.112503051758 106.331253051758 97 90.2249984741211 89.5187530517578 91 91.5999984741211 92.1125030517578 95.125 96.9124984741211 97.1187515258789 98.03125 99.0875015258789 100.300003051758 100.462501525879 98.8125 95.4562530517578 89.9875030517578 85.6312484741211 82.1062469482422 78.4749984741211 76.3125 74.4187469482422 76.375 79.4499969482422 81.0374984741211 84.5875015258789 86.8000030517578 88.3874969482422 87.6062469482422 85.9875030517578 82.3312530517578 79.03125 75.7562484741211 72.625 67.2312469482422 61.3312492370605 55.7000007629395 48.5437507629395 
178.681243896484 177.262496948242 174.962493896484 172.537506103516 170.481246948242 166.71875 162.65625 157.418746948242 152.237503051758 146.375 139.581253051758 130.162506103516 120.181251525879 110.15625 101.175003051758 94.6687469482422 91.5875015258789 92.3625030517578 93.5250015258789 94.3062515258789 96.9562530517578 98.5562515258789 98.8375015258789 99.6875 101.556251525879 104.543746948242 106.362503051758 103.362503051758 97.875 91.7375030517578 87.21875 84.4875030517578 80.2062530517578 77.3499984741211 77.875 81.4437484741211 82.8312530517578 85.2874984741211 89.7624969482422 91.625 94.0374984741211 92.7062530517578 88.3625030517578 85.0562515258789 81.34375 77.4499969482422 73.6312484741211 68.5062484741211 63.25 57.3375015258789 50.6937484741211 
180.1875 178.793746948242 177.1875 175.3125 172.981246948242 170.5 167.068756103516 162.125 157.199996948242 151.350006103516 144.587493896484 135.456253051758 125.025001525879 115.868751525879 108.074996948242 101.599998474121 97.2937545776367 95.0124969482422 96.8562469482422 97.8499984741211 100.46875 100.587501525879 100.03125 101.537498474121 104.212501525879 107.581253051758 111.787498474121 107.243751525879 99.5625 91.5749969482422 86.4124984741211 83.6374969482422 82.3874969482422 83.3062515258789 84.78125 84.9000015258789 87.1875 89.7687530517578 91.6812515258789 95.5124969482422 96.9749984741211 94.8874969482422 91.3187484741211 88.0187530517578 83.96875 79.7062530517578 75.6312484741211 70.2375030517578 65.1812515258789 58.7937507629395 53.3187484741211 
181.043746948242 180.537506103516 179.143753051758 177.675003051758 176.149993896484 173.96875 170.699996948242 166.881256103516 162.706253051758 157.787506103516 150.856246948242 141.662506103516 131.618743896484 122.931251525879 114.84375 108.59375 103.925003051758 100.300003051758 100 101.056251525879 104.162498474121 105.143753051758 101.099998474121 102.743751525879 105.706253051758 108.631248474121 110.856246948242 107.4375 100.706253051758 91.9000015258789 85.3874969482422 85.0500030517578 87.96875 88.90625 89.0062484741211 90.9499969482422 92.5124969482422 94.125 96.6062469482422 98.9749984741211 99.8499984741211 99.0812530517578 95.0437469482422 91.4000015258789 87.1624984741211 82.875 78.2312469482422 72.8499984741211 66.9937515258789 59.9249992370605 56.2312507629395 
181.481246948242 181.637496948242 180.356246948242 179.481246948242 178.431243896484 177.21875 174.981246948242 171.78125 168.668746948242 164.756256103516 159.125 150.587493896484 140.962493896484 131.318756103516 123.074996948242 115.731246948242 108.90625 106.40625 105.012496948242 105.025001525879 105.543746948242 103.925003051758 102.237503051758 103.650001525879 105.543746948242 106.40625 106.993751525879 106.168746948242 100.868751525879 93.0187530517578 88.3375015258789 90.7937469482422 92.6999969482422 94.6999969482422 95.9250030517578 97.2375030517578 99.0124969482422 100.925003051758 102.137496948242 102.881248474121 103.106246948242 101.918746948242 98.5250015258789 95.4437484741211 90.9499969482422 86.5812530517578 81.1125030517578 75.1374969482422 69.0625 62.28125 58.3250007629395 
181.987503051758 183.487503051758 183.456253051758 182.975006103516 181.737503051758 181.274993896484 180.543746948242 178.71875 176.737503051758 173.15625 168.21875 160.793746948242 152.106246948242 141.862503051758 132.78125 123.724998474121 115.787498474121 110.78125 108.581253051758 106.162498474121 105.981246948242 104.768753051758 102.743751525879 104.137496948242 106 106.787498474121 107.337501525879 105.425003051758 102.106246948242 99.53125 97.875 99.6125030517578 100.587501525879 102.043746948242 103.631248474121 105.943748474121 107.125 108.381248474121 108.668746948242 108.9375 108.150001525879 106.168746948242 103.143753051758 99.4312515258789 94.5749969482422 89.3375015258789 83.8937530517578 77.9250030517578 71.0250015258789 65.3187484741211 60.6812515258789 
183.618743896484 184.275009155273 185.050003051758 185.287506103516 185.175003051758 185.287506103516 185.806243896484 185.018753051758 184.831253051758 182.612503051758 178.53125 172.893753051758 165.287506103516 155.006256103516 144.300003051758 133.868743896484 125.381248474121 118.181251525879 112.981246948242 109.006248474121 106.081253051758 103.643753051758 101.84375 102.875 104.068748474121 105.025001525879 107.268753051758 107.168746948242 106.65625 106.243751525879 105.425003051758 107.237503051758 108.150001525879 110.643753051758 113.40625 115.556251525879 116.724998474121 117.393753051758 116.1875 115.59375 113.974998474121 111.199996948242 107.900001525879 104.337501525879 99.2125015258789 92.9250030517578 86.9437484741211 80.4437484741211 74.1999969482422 68.7312469482422 63.5499992370605 
185.487503051758 187.512496948242 188.212493896484 188.731246948242 189.175003051758 189.456253051758 189.725006103516 190.899993896484 192.393753051758 191.012496948242 188.831253051758 184.78125 181.043746948242 171.425003051758 157.118743896484 144.149993896484 133.837509155273 124.981246948242 117.381248474121 111.1875 107.087501525879 103.362503051758 100.4375 101.106246948242 102.793746948242 104.318748474121 106.981246948242 109.118751525879 109.9375 110.868751525879 112.256248474121 114.775001525879 116.96875 120.074996948242 122.962501525879 125.506248474121 126.75 126.006248474121 123.75 122.143753051758 120.300003051758 116.693748474121 112.849998474121 108.831253051758 102.9375 96.9937515258789 90.5250015258789 83.6187515258789 77.0250015258789 71.71875 66.8249969482422 
188.368759155273 190.318756103516 191.262496948242 191.143753051758 192.050003051758 193.293746948242 194.118743896484 195.78125 196.643753051758 196.006256103516 194.631256103516 194.493743896484 193.456253051758 182.925003051758 166.287506103516 151.887496948242 140.212493896484 129.962493896484 120.556251525879 112.300003051758 107.237503051758 102.681251525879 98.6624984741211 99.3562469482422 101.162498474121 102.837501525879 107.818748474121 110.256248474121 113.106246948242 115.5 119.018753051758 122.875 125.387496948242 128.399993896484 131.881256103516 135.324996948242 136.524993896484 134.318756103516 131.556243896484 129.131240844727 126.525001525879 122.631248474121 118.631248474121 114.21875 109.631248474121 102.556251525879 94.8874969482422 86.6374969482422 81.1687469482422 74.5625 69.6312484741211 
194.168746948242 194.706253051758 195.337493896484 195.324996948242 196.862503051758 197.193756103516 197.306243896484 198.206253051758 199.231246948242 198.774993896484 198.149993896484 196.356246948242 194.0625 185.587493896484 171.006256103516 156.962493896484 144.824996948242 133.043746948242 122.599998474121 113.25 107.043746948242 101.150001525879 97.0062484741211 97.4499969482422 98.9562530517578 101.949996948242 107.324996948242 111.931251525879 115.787498474121 120.393753051758 124.824996948242 129.75 132.606246948242 135.743743896484 138.731246948242 141.0625 142.25 140.256256103516 137.75 135.600006103516 132.556243896484 128.512496948242 125.074996948242 121.306251525879 115.1875 107.706253051758 97.53125 91.2937469482422 84.8625030517578 78.4812469482422 73.3000030517578 
203.606246948242 203.725006103516 200.9375 201.012496948242 200.743743896484 199.981246948242 199.0625 199.043746948242 199.387496948242 198.912506103516 197.737503051758 195.787506103516 191.956253051758 184.787506103516 172.606246948242 160.056243896484 148.506256103516 136.162506103516 124.831253051758 114.762496948242 107.518753051758 100.787498474121 95.4562530517578 95.1687469482422 97.3249969482422 101.087501525879 107.756248474121 113.943748474121 119.4375 125.212501525879 130.481246948242 136.018753051758 139.212493896484 141.487503051758 144.149993896484 145.731246948242 146.274993896484 145.393753051758 144 141.850006103516 139.199996948242 134.993743896484 130.3125 127.03125 120.96875 111.224998474121 103.800003051758 97.0562515258789 89.8375015258789 83.875 77.90625 
216.15625 213.987503051758 209.949996948242 207.231246948242 204.481246948242 202.149993896484 201.518753051758 200.087493896484 198.28125 197.337493896484 196.649993896484 194.46875 190.481246948242 184.231246948242 173.449996948242 161.418746948242 150.587493896484 138.712493896484 127.4375 116.756248474121 108.737503051758 101.275001525879 95.0625 94.9875030517578 98.0749969482422 102.087501525879 109.25 116.431251525879 123.5 129.149993896484 135.331253051758 141.162506103516 144.612503051758 146.793746948242 148.287506103516 149.706253051758 150.399993896484 149.768753051758 149.399993896484 148.0625 145.800003051758 140.662506103516 135.28125 130.537490844727 124.90625 119.106246948242 112.506248474121 104.525001525879 97.5062484741211 89.8937530517578 83.4499969482422 
229.574996948242 225.087493896484 218.824996948242 212.993743896484 208.306243896484 204.28125 202.193756103516 200.306243896484 198.40625 196.756240844727 194.4375 192.268753051758 188.493743896484 182.824996948242 173.475006103516 162.612503051758 152.050003051758 141.024993896484 129.84375 119.337501525879 111.106246948242 102.956253051758 97.28125 97.9562530517578 100.650001525879 104.262496948242 111.512496948242 119.587501525879 127.087501525879 133.037506103516 138.793746948242 144.818756103516 148.131256103516 149.618743896484 151.731246948242 153.262496948242 154.162506103516 154.84375 154.081253051758 154.574996948242 153.831253051758 148.125 139.331253051758 133.15625 130.699996948242 126.900001525879 121.21875 114.175003051758 106.018745422363 97.2562484741211 89.4187469482422 
242.081253051758 235.262496948242 225.399993896484 217.256256103516 210.606246948242 205.350006103516 202.012496948242 199.34375 197.993743896484 195.649993896484 193 190.237503051758 187.068756103516 181.768753051758 173.131256103516 164.137496948242 154.993743896484 143.6875 132.731246948242 122.481246948242 114.21875 105.981246948242 100.231246948242 101.581253051758 104.087501525879 107.375 115.1875 123.193748474121 131.231246948242 136.587493896484 142.28125 147.737503051758 150.181243896484 151.831253051758 154.418746948242 156.225006103516 157.8125 158.618743896484 158.193756103516 158.175003051758 158.868743896484 151.9375 143.699996948242 139.612503051758 139.09375 135.912506103516 131.456253051758 124.681251525879 115.693748474121 105.90625 95.8874969482422 
247.612503051758 239.074996948242 227.9375 216.712493896484 209.787506103516 204.84375 201.331253051758 198.737503051758 197.03125 193.887496948242 191.181243896484 188.925003051758 186.181243896484 182.162506103516 174.693756103516 166.800003051758 157.668746948242 147.737503051758 136.987503051758 127.056251525879 118.825004577637 111.5 105.793746948242 106.756248474121 109.206253051758 112.699996948242 120.393753051758 128.131256103516 135.65625 141.081253051758 146.081253051758 150.912506103516 153.181243896484 155.40625 157.768753051758 159.243743896484 160.581253051758 162.600006103516 160.90625 160.256256103516 160.65625 158.456253051758 153.225006103516 150.71875 147.618743896484 147.643753051758 145.1875 139 129.368743896484 118.287498474121 106.568748474121 
250.331253051758 240.899993896484 229.1875 217.625 209.231246948242 205.231246948242 201.681243896484 198.512496948242 195.518753051758 193.0625 190.574996948242 188.59375 186.737503051758 182.3125 176.243743896484 169.662506103516 162.425003051758 152.475006103516 141.625 133.125 125.40625 118.03125 112.212501525879 113.0625 115 118.512496948242 125.6875 133.443756103516 140.481246948242 145.149993896484 149.762496948242 154.362503051758 156.324996948242 159.243743896484 161.024993896484 162.512496948242 164.543746948242 167.8125 165.46875 160.59375 162.306243896484 164.125 162.53125 160.431243896484 158.274993896484 163.143753051758 163.306259155273 156.306243896484 145.350006103516 132.149993896484 119.224998474121 
250.699996948242 241.487503051758 229.931243896484 219.868759155273 212.449996948242 206.118743896484 201.987503051758 197.956253051758 194.693756103516 191.824996948242 189.543746948242 188.324996948242 186.556243896484 183.600006103516 179.493743896484 174.293746948242 168.006256103516 158.506256103516 148.856246948242 140.837493896484 133.175003051758 125.418746948242 119.131248474121 119.668746948242 121.887496948242 124.762496948242 131.350006103516 138.699996948242 145.137496948242 149.737503051758 153.831253051758 157.475006103516 159.693756103516 162.050003051758 164.981246948242 167 169.550003051758 172.15625 169.068756103516 166.725006103516 171.09375 174.868743896484 175.443756103516 177.112503051758 178.118743896484 188.050003051758 189 179.28125 163.90625 148.125 132.356246948242 
242.318756103516 234.837493896484 225.199996948242 217.162506103516 210.631256103516 203.893753051758 199.25 195.25 191.856246948242 189.375 189.131256103516 188.175003051758 187.918746948242 187.725006103516 184.418746948242 180.625 174.975006103516 167.581253051758 159.199996948242 151.46875 143.975006103516 135.800003051758 128.881256103516 129.0625 130.96875 133.243743896484 139.206253051758 145.65625 151.962493896484 155.693756103516 159.068756103516 162.087493896484 164.087493896484 166.231246948242 169.731246948242 172.518753051758 176.106246948242 178.425003051758 176.331253051758 179.300003051758 184.550003051758 188.9375 192.943756103516 198.743743896484 208.75 224.800003051758 223.65625 204.418746948242 184.90625 165.800003051758 148.524993896484 
231.931243896484 226.4375 219.081253051758 213.368743896484 207.512496948242 201.243743896484 195.643753051758 191.949996948242 188.875 186.59375 186.649993896484 188.356246948242 190.306243896484 190.762496948242 189.074996948242 186.868743896484 183.46875 177.199996948242 169.925003051758 162.9375 155.225006103516 147.012496948242 139.962493896484 139.425003051758 140.699996948242 142.137496948242 147.6875 153.131256103516 158.637496948242 161.556243896484 164.21875 167.199996948242 169.21875 171.456253051758 175.199996948242 178.975006103516 182.193756103516 183.931243896484 185.90625 191.543746948242 197.143753051758 203.09375 211.268753051758 220.800003051758 234.0625 249.131256103516 245.03125 223.393753051758 202.493743896484 182.556243896484 164.100006103516 
222.756256103516 218.743743896484 213.412506103516 208.5625 204.137496948242 198.006240844727 192.068756103516 188.28125 184.0625 182.806243896484 184.512496948242 188.675003051758 192.587493896484 195.75 196.125 194.212493896484 192.449996948242 187.362503051758 180.993743896484 174.512496948242 167.256256103516 159.012496948242 151.550003051758 149.887496948242 149.84375 151.043746948242 155.368743896484 160.556243896484 165.012496948242 167.28125 169.756240844727 172.074996948242 173.881256103516 176.90625 179.75 182.850006103516 186.106246948242 191.912506103516 195.837493896484 201.143753051758 208.106246948242 214.443756103516 223.606246948242 233.868743896484 244.625 250.981246948242 248.100006103516 232.762496948242 214.199996948242 196.25 178.356246948242 
214.362503051758 210.818756103516 206.5 202.100006103516 198.162506103516 192.949996948242 187.6875 182.574996948242 177.693756103516 175.787506103516 179.425003051758 185.949996948242 193.4375 199.71875 201.068756103516 202.012496948242 200.612503051758 197.012496948242 192.412506103516 187.706253051758 180.618743896484 171.425003051758 163.568756103516 161.487503051758 160.806243896484 161.074996948242 164.681243896484 169.21875 173.081253051758 173.893753051758 176.181243896484 177.681243896484 179.737503051758 182.381256103516 183.9375 186.137496948242 192.431243896484 197.768753051758 201.09375 207.006256103516 214.425003051758 220.149993896484 227.737503051758 237.106246948242 244.324996948242 246.962493896484 245.137496948242 234.631256103516 220.21875 205.356246948242 189.600006103516 
206.15625 203.481246948242 200.212493896484 196.762496948242 193.106246948242 188.774993896484 183.675003051758 178.412506103516 172.46875 167.699996948242 174.056243896484 187.506256103516 196.931243896484 203.118743896484 206.1875 208.331253051758 208.487503051758 205.793746948242 202.443756103516 198.287506103516 191.381256103516 182.550003051758 175 172.381256103516 171.050003051758 171.324996948242 173.431243896484 177.625 180.268753051758 181.037506103516 182.212493896484 184.268753051758 185.6875 188.131256103516 189.34375 192.262496948242 197.837493896484 203.28125 207.206253051758 210.956253051758 216.612503051758 221.418746948242 228.03125 236.75 242.493743896484 242.9375 242.4375 235.493743896484 224.768753051758 212.256256103516 198.737503051758 
200.262496948242 197.662506103516 194.731246948242 192.149993896484 189.012496948242 185.75 182.037506103516 177.71875 172.512496948242 167.037506103516 180.056243896484 195.800003051758 202.893753051758 208.28125 211.8125 214.625 215.868743896484 213.606246948242 210.350006103516 205.25 199.625 192.368743896484 185.768753051758 182.256256103516 180.837493896484 180.681243896484 181.962493896484 185.3125 187.606246948242 188.443756103516 187.125 188.262496948242 190.112503051758 192.393753051758 193.881256103516 197.625 203.0625 207.556259155273 212.543746948242 216.618743896484 218.887496948242 223.59375 227.475006103516 233.268753051758 237.850006103516 239.112503051758 239.112503051758 235.537506103516 226.056243896484 216.524993896484 206.356246948242 
194.46875 192.381256103516 190.581253051758 188.481246948242 185.731246948242 183.387496948242 181.274993896484 179.162506103516 179.074996948242 184.943756103516 200.706253051758 205.668746948242 208.987503051758 213.5625 216.506256103516 219.024993896484 220.6875 218.887496948242 215.324996948242 211.306243896484 205.887496948242 199.337493896484 194.149993896484 191.100006103516 188.443756103516 187.975006103516 188.662506103516 190.887496948242 192.800003051758 193.118743896484 192.699996948242 193.262496948242 194.65625 196.443756103516 200.475006103516 204.668746948242 208.268753051758 213.59375 217.350006103516 217.668746948242 218.675003051758 222.706253051758 223.793746948242 228.181243896484 231.637496948242 231.975006103516 228.856246948242 226.300003051758 219.387496948242 212.568756103516 204.475006103516 
188.568756103516 187.337493896484 186.09375 184.399993896484 183.318756103516 182.675003051758 181.756256103516 182.59375 186.006256103516 192.881256103516 202.631256103516 209.268753051758 213.431243896484 218.024993896484 221.162506103516 223.462493896484 225.931243896484 224.199996948242 221.024993896484 217.699996948242 212.206253051758 206.493743896484 201.25 197.756256103516 195.925003051758 194.574996948242 194.481246948242 196.162506103516 197.3125 197.181243896484 196.59375 199.818756103516 202.96875 204.875 208.981246948242 211.975006103516 214.356246948242 217.600006103516 220.850006103516 218.962493896484 218.618743896484 220.831253051758 220.831253051758 221.712493896484 223.274993896484 222.912506103516 221.537506103516 219.543746948242 214.787506103516 208.75 201.59375 
182.34375 181.649993896484 181.175003051758 180.774993896484 180.199996948242 180.012496948242 180.8125 184.081253051758 188.143753051758 194.28125 201.800003051758 208.925003051758 215.993743896484 220.725006103516 224.643753051758 227.34375 229.949996948242 229.5 226.774993896484 223.425003051758 218.243743896484 212.543746948242 207.324996948242 204.081253051758 203.443756103516 201.012496948242 200.006256103516 200.481246948242 200.725006103516 200.643753051758 202.4375 207.993743896484 210.387496948242 213.574996948242 217.637496948242 220.725006103516 222.143753051758 223.149993896484 223.981246948242 220.587493896484 218.243743896484 217.899993896484 215.512496948242 216.056243896484 216.824996948242 217.518753051758 215.612503051758 212.225006103516 209.600006103516 205.487503051758 199.231246948242 
173.543746948242 173.675003051758 173.693756103516 173.581253051758 173.850006103516 174.225006103516 176.287506103516 179.5625 184.71875 189.84375 197.100006103516 204.40625 211.981246948242 218.050003051758 222.675003051758 227.787506103516 231.600006103516 232.418746948242 231.487503051758 227.28125 220.125 215.356246948242 209.931243896484 206.5 205.487503051758 203.581253051758 201.71875 201.293746948242 202.618743896484 204.699996948242 203.737503051758 210.393753051758 214.568740844727 221.837493896484 228.306243896484 229.475006103516 230.506256103516 230.368743896484 227.956253051758 222.78125 218.375 213.606246948242 210.024993896484 211.637496948242 213.006256103516 213.53125 210.681243896484 206.600006103516 204.787506103516 200.193756103516 194.600006103516 
164.568740844727 164.943756103516 165.449996948242 165.574996948242 165.59375 167.212493896484 169.78125 173.331253051758 178.537506103516 183.837493896484 190.59375 198.337493896484 206.899993896484 213.574996948242 220.256256103516 226.800003051758 231.925003051758 235.4375 236 230.368743896484 221.987487792969 215.09375 210.162506103516 208.9375 207.606246948242 205.631256103516 203.037506103516 202.162506103516 203.25 204.768753051758 206.300003051758 208.212493896484 214.34375 225.456253051758 236.756256103516 243.543746948242 240.800003051758 238.199996948242 232.456253051758 225.131256103516 219.331253051758 214.112503051758 210.581253051758 209.756256103516 210.606246948242 209.1875 206.375 202.8125 200.59375 196.462493896484 191.375 
155.649993896484 156.637496948242 157.125 156.962493896484 157.837493896484 159.300003051758 161.587493896484 165.368743896484 170.324996948242 176.524993896484 183.743743896484 192.537506103516 200.300003051758 209.15625 217.356246948242 225.1875 231.949996948242 236.712493896484 240.712493896484 235.8125 225.831253051758 217.199996948242 212.081253051758 210.1875 209.59375 207.618743896484 204.743743896484 204.287506103516 204.050003051758 205.818756103516 206.418746948242 207.743743896484 212.725006103516 225.875 243.03125 256.987487792969 253.537506103516 245.90625 237.337493896484 228.768753051758 222.043746948242 216.387496948242 211.762496948242 210.518753051758 209.743743896484 207.068756103516 204.75 200.28125 196.3125 193.800003051758 189.506256103516 
147.975006103516 149.037506103516 149.668746948242 149.1875 149.925003051758 151.5625 153.125 156.643753051758 161.71875 168.481246948242 176.056243896484 185.199996948242 194.199996948242 203.6875 212.881256103516 221.612503051758 228.899993896484 233.25 236.949996948242 234.637496948242 226.4375 219.725006103516 213.512496948242 210.9375 210.8125 208.75 206.25 205.3125 205.699996948242 207.943756103516 208.643753051758 208.981246948242 215.181243896484 226.53125 241.831253051758 257.612487792969 257.943756103516 248.487503051758 239.425003051758 232.324996948242 224.875 219.518753051758 215.350006103516 211.149993896484 210.356246948242 208.206253051758 204.675003051758 200.212493896484 194.587493896484 192.274993896484 189.418746948242 
