ncols        51
nrows        45
xllcorner    -63.500000000000
yllcorner    -7.500000000000
cellsize     0.166666666667
NODATA_value -99
201.606246948242 185.356246948242 181.9375 184.068756103516 184.212493896484 189.881256103516 195.949996948242 199.743743896484 207.65625 217.287506103516 222.793746948242 226.543746948242 228.8125 234.318756103516 239.3125 241.53125 243.168746948242 238.737503051758 236.081253051758 236.606246948242 237.537506103516 232.25 228.318756103516 223.34375 220.806243896484 213.975006103516 208.193756103516 202.631256103516 194.943756103516 191.987503051758 181.581253051758 176.212493896484 177.362503051758 175.068756103516 172.618743896484 169.618743896484 163.587493896484 166.181243896484 160.899993896484 156.943756103516 158.693756103516 161.106246948242 158.456253051758 158.225006103516 159.143753051758 162.287506103516 162.818756103516 160.568756103516 160.59375 164.631256103516 166.618743896484 
193.425003051758 174.850006103516 168.862503051758 168.643753051758 168.337493896484 173.425003051758 178.481246948242 183.337493896484 191.262496948242 198.46875 203.5625 206.143753051758 208.59375 212.018753051758 214.112503051758 216.475006103516 217.287506103516 214.225006103516 213.037506103516 212.287506103516 206.956253051758 205.806243896484 203.887496948242 203.96875 197.300003051758 192.956253051758 189.850006103516 187.037506103516 180.018753051758 174.537506103516 169.762496948242 170.287506103516 170.912506103516 172.737503051758 171.868759155273 166.600006103516 161.306243896484 161.4375 155.75 153.756256103516 157.081253051758 156.449996948242 155.162506103516 152.193756103516 155.043746948242 158.75 159.762496948242 159.03125 156.862503051758 161.850006103516 162.412506103516 
180.012496948242 166.699996948242 162.443756103516 158.131256103516 154.09375 156.193756103516 160.637496948242 167.118743896484 174.65625 180.600006103516 184.78125 185.399993896484 189.162506103516 188.800003051758 189.612503051758 190.600006103516 192.050003051758 189.375 187.193756103516 187.981246948242 183.712509155273 183.731246948242 183.75 183.262496948242 179.90625 174.300003051758 177.243743896484 174.681243896484 170.418746948242 167.412506103516 163.9375 159.3125 161.331253051758 166.118743896484 160.506256103516 154.493743896484 153.231246948242 155.375 149.318756103516 147.962493896484 150.149993896484 150.643753051758 147.962493896484 146.699996948242 150.618743896484 150.949996948242 150.731246948242 152.668746948242 149.331253051758 152.868743896484 157.09375 
168.956253051758 154.462493896484 151.456253051758 148.46875 141.71875 140.881256103516 142.875 149.699996948242 158.25 164.243743896484 164.481246948242 164.743743896484 166.675003051758 169.512496948242 168.399993896484 167.243743896484 166.768753051758 165.456253051758 165.956253051758 170.637496948242 168.381256103516 164.306243896484 164.03125 165.831253051758 164.850006103516 161.956253051758 162.456253051758 157.96875 158.012496948242 160.581253051758 158.443756103516 153.931243896484 151.568756103516 150.418746948242 146.96875 149.149993896484 150.350006103516 146.337493896484 142.8125 140.65625 144.800003051758 147.337493896484 144.949996948242 143.037506103516 143.931243896484 142.46875 143.03125 144.15625 143.9375 145.25 148.493743896484 
174.981246948242 153.981246948242 138.956253051758 134.418746948242 131.018753051758 128.324996948242 130.381256103516 135.068756103516 141.350006103516 145.175003051758 148.59375 147.818756103516 149.193756103516 150.518753051758 149.131256103516 148.199996948242 146.981246948242 147.162506103516 145.118743896484 148.362503051758 149.175003051758 145.931243896484 144.918746948242 151.125 150.387496948242 148.0625 147.21875 149.181243896484 149.337493896484 148.34375 148.681243896484 147.625 148.09375 145.912506103516 142.668746948242 139.65625 140.53125 140 135.662506103516 135.387496948242 138.287506103516 137.3125 138.475006103516 138.84375 137.368743896484 135.837493896484 136.574996948242 135.568756103516 133.337493896484 135.293746948242 137.212493896484 
166.537506103516 151.03125 137.949996948242 119.40625 118.15625 123.862503051758 125.25 127.743751525879 134.46875 137.168746948242 138.362503051758 138.300003051758 139.699996948242 137.3125 137.831253051758 136.762496948242 133.481246948242 130.71875 130.65625 134.168746948242 134.90625 134.243743896484 135.824996948242 137.168746948242 139.756256103516 139.818756103516 139.662506103516 141.006256103516 140.300003051758 139.725006103516 140.074996948242 142.59375 140.893753051758 141.181243896484 136.681243896484 135.175003051758 130.268753051758 129.850006103516 130.362503051758 132.5 130.15625 131.518753051758 130.800003051758 129.550003051758 130.918746948242 129.725006103516 126.224998474121 125.793746948242 123.087501525879 123.806251525879 125.006248474121 
160.03125 145.862503051758 134.274993896484 122.262496948242 112.875 110.737503051758 115.474998474121 120.318748474121 123.918746948242 127.506248474121 129.949996948242 127.46875 129.943756103516 128.787506103516 126.712501525879 126.518753051758 125.068748474121 119.362503051758 115.46875 120.581253051758 121.525001525879 121.400001525879 122.34375 126.824996948242 129.475006103516 132.75 135.931243896484 133.543746948242 131.331253051758 134.556243896484 134.074996948242 132.21875 130.512496948242 132.625 132.15625 128.618743896484 123.412498474121 121.193748474121 122.981246948242 126.081253051758 123.400001525879 121.993751525879 122.787498474121 121.337501525879 122.662498474121 123.806251525879 121.456245422363 115.193748474121 110.568748474121 112.087501525879 115.03125 
156.168746948242 140.212493896484 130.668746948242 121.650001525879 114.400001525879 116.15625 113.712501525879 108.300003051758 109.15625 112.762496948242 115.849998474121 117.206253051758 118.887496948242 117.606246948242 117.293746948242 116.506248474121 113.84375 109.0625 105.650001525879 104.756248474121 109.887496948242 112.8125 113.587501525879 118.09375 123.349998474121 123.824996948242 126.53125 123.543746948242 124.962501525879 124.706253051758 128.100006103516 126.631248474121 126.043746948242 124.775001525879 122.618751525879 117.474998474121 113.237503051758 111.493751525879 110.537498474121 110.375 109.568748474121 110.4375 110.699996948242 108.800003051758 108.887496948242 107.043746948242 104.84375 99.0499954223633 97.3687515258789 98.3375015258789 103.387496948242 
151.181243896484 136.831253051758 127.012496948242 120.59375 115.262496948242 114.318748474121 113.006248474121 110.912498474121 108.393753051758 105.618751525879 106.462501525879 106.168746948242 111.568748474121 110.443748474121 109.231246948242 107.46875 106.324996948242 105.006248474121 105.668746948242 100.824996948242 101.724998474121 107.8125 109.443748474121 115.587501525879 119.981246948242 117.762496948242 117.143753051758 120.256248474121 122.162498474121 120.84375 124.599998474121 120.131248474121 114.443748474121 111.21875 110.268753051758 110.412498474121 109.231246948242 108.706253051758 105.768753051758 103.03125 101.15625 100.837501525879 101.625 98.875 96.96875 94.5625 93.2375030517578 87.5812530517578 85.7750015258789 86.5999984741211 90.1187515258789 
144.09375 132.112503051758 124.71875 119.112503051758 114.324996948242 114.900001525879 113.237503051758 111.212501525879 110.275001525879 109.90625 107.037498474121 102.650001525879 105.556251525879 105.8125 104.34375 102.987503051758 99.4875030517578 101.418746948242 103.03125 102.043746948242 102.693748474121 102.71875 102.724998474121 108.706253051758 111.900001525879 114.262496948242 113.381248474121 115 114.824996948242 114.262496948242 115.59375 111.256248474121 108.131248474121 104.506248474121 101.90625 102.887496948242 102.875 102.800003051758 100.443748474121 100.306251525879 100.150001525879 98.0437469482422 94.65625 89.7874984741211 85.8625030517578 86.4375 85.7624969482422 79.1875 75.9437484741211 74.6750030517578 74.7125015258789 
140.212493896484 129.5625 122.306251525879 118.150001525879 113.462501525879 113.981246948242 112.943748474121 108.449996948242 105.462501525879 105.287498474121 105.256248474121 102.931251525879 99.3249969482422 100.53125 96.7312469482422 94.3375015258789 93.5124969482422 95.8312530517578 97.8375015258789 101.743751525879 105.993751525879 105.09375 101.293746948242 98.7687530517578 106.662498474121 115.087501525879 114.743751525879 113.481246948242 108.981246948242 108.0625 107.525001525879 106.318748474121 104.0625 99.5187530517578 98.1875 97.6812515258789 97.6937484741211 95.1812515258789 97.4937515258789 96.1125030517578 93.4625015258789 90.6624984741211 89.6875 82.8874969482422 77.4312515258789 77.4875030517578 76.09375 72.5500030517578 69.9875030517578 65.8187484741211 64.2062530517578 
137.018753051758 125.962501525879 119.78125 116.462501525879 112.962501525879 113.5 113.331253051758 109.112503051758 104.625 101.243751525879 99.96875 99.6125030517578 93.6999969482422 92.1125030517578 92.0374984741211 88.3062515258789 87.6187515258789 90.1125030517578 92.9312515258789 98.65625 106.6875 108.087501525879 108.199996948242 103.53125 104.712501525879 103.875 103.8125 104.962501525879 102.887496948242 101.09375 97.7312469482422 96.5500030517578 95.7249984741211 93.7437515258789 93.8312530517578 94.6687469482422 93.1999969482422 93.6812515258789 90.3687515258789 89.3187484741211 86.3125 85.5124969482422 80.8062515258789 73.3062515258789 67.1187515258789 63.2125015258789 60.25 62.1062507629395 61.9000015258789 58.7874984741211 53.0374984741211 
129.837493896484 121.918746948242 117.612503051758 113.150001525879 108.893753051758 109.581253051758 108.099998474121 103.262496948242 99.5562515258789 98.5374984741211 98.0374984741211 94.84375 92.1812515258789 84.0812530517578 81.3625030517578 81.9562530517578 81.6187515258789 85.1187515258789 88.5437545776367 92.65625 98.9937515258789 101.456253051758 104.300003051758 101.78125 97.46875 96.5687484741211 97.2750015258789 98.6312484741211 97.1999969482422 94.3625030517578 90.8125 86.9250030517578 87.9000015258789 87.0374984741211 86.8562469482422 88.40625 90.3187484741211 92.8499984741211 93.5374984741211 88.4000015258789 82.1374969482422 79.15625 72.03125 67.1437530517578 66.3000030517578 63.8562507629395 58.5625 55.1500015258789 53.9124984741211 53.53125 51.1812515258789 
124.025001525879 116.637496948242 113.037498474121 108.462501525879 103.9375 102.949996948242 100.974998474121 97.21875 96.7874984741211 94.3937530517578 93.3187484741211 90.2937469482422 85.0124969482422 78.9749984741211 71.7750015258789 74.0124969482422 73.3937530517578 77.5687484741211 80.2062530517578 84.84375 90.1187515258789 94.8062515258789 98.3812484741211 97.8125 94.0875015258789 91.8687515258789 90.6312484741211 88.8125 87.1437530517578 84.8562469482422 85.0062484741211 82.6624984741211 80.7750015258789 79.9937515258789 80.34375 84.8187484741211 90.1875 95.6125030517578 98.1500015258789 92.15625 78.5187530517578 70.875 70.1624984741211 74.4625015258789 76.4812469482422 70.1062469482422 65.2562484741211 62.5687484741211 57.4000015258789 57.1624984741211 53.8312492370605 
119.275001525879 110.887496948242 106.412498474121 102.856246948242 97.6624984741211 95.7750015258789 96.0124969482422 92.4937515258789 90.9000015258789 88.7249984741211 87.25 83.0812530517578 79.0250015258789 74.5124969482422 65.46875 65.2750015258789 65.4812469482422 68.9312515258789 72.0250015258789 77.03125 83.8812484741211 88.5562515258789 92.6374969482422 94.6937484741211 94.1062469482422 92.9812469482422 90.8874969482422 87.2375030517578 85.7937469482422 84.2750015258789 80.25 78.8249969482422 80.0374984741211 77.8312530517578 74.3687515258789 77.53125 87.3562469482422 97.5875015258789 100.831253051758 93.7750015258789 84.75 79.2624969482422 83.03125 80.9625015258789 77.8937530517578 74.4625015258789 74.59375 72.4812469482422 70.0625 60.2250022888184 54.9562492370605 
111.837501525879 104.356246948242 100.693748474121 96.21875 92.0250015258789 91.9812469482422 89.3187484741211 86.3687515258789 85.1875 84.5749969482422 82.0124969482422 78.1812515258789 74.3562469482422 69.9375 63.1124992370605 54.9437484741211 56.7999992370605 61.2000007629395 63.8812484741211 69.0374984741211 75.0999984741211 81.9499969482422 87.8812484741211 94.21875 95.2624969482422 93.5437469482422 89.1624984741211 83.3625030517578 81.96875 80.8625030517578 81.78125 77.0625 73.96875 70.8937530517578 68.6374969482422 78.1624984741211 86.1374969482422 94.7437515258789 100.1875 100.21875 95.5687484741211 91.0999984741211 88.25 82.5625 75.5875015258789 71.9437484741211 69 67.46875 66.4000015258789 61.3875007629395 55.90625 
104.762496948242 98.0374984741211 95.1374969482422 91.8874969482422 88.6125030517578 86.1687469482422 84.875 82.3187484741211 81.2750015258789 80.5750045776367 78.53125 73.7750015258789 68.9375 65.6937484741211 63.4124984741211 57.84375 52.2874984741211 53.5812492370605 59.0687484741211 63.5562515258789 69.1875 76.5 85.3187484741211 93.71875 97.7125015258789 89.9375 82.0999984741211 76.9812469482422 77.2375030517578 78.4937515258789 79.7624969482422 79.9749984741211 76.3125 73.7125015258789 78.90625 84.0875015258789 93.8249969482422 106.006248474121 113.5625 104.431251525879 96.9499969482422 90.8499984741211 84.2062530517578 80.8937530517578 74.4875030517578 68.7437515258789 67.40625 68.0437469482422 66.4812469482422 59.0374984741211 56.59375 
97.2937469482422 92.21875 88.4562530517578 86.1875 82.8812484741211 79.7249984741211 77.8812484741211 76.3499984741211 75.625 73.1937484741211 71.7624969482422 69.40625 65.3562469482422 62.4000015258789 61.65625 59.25 54.6812515258789 49.25 55.3562507629395 58.9874992370605 64.2562484741211 70.8937530517578 81.9437484741211 89.0062484741211 91.6312484741211 83.9000015258789 75.9000015258789 72.6812515258789 73.7249984741211 73.3375015258789 70.9312515258789 70.3562469482422 79.6687469482422 82.5687484741211 81.3937530517578 90.1500015258789 102.0625 109.300003051758 112.125 105.362495422363 92.7375030517578 86.40625 80.0749969482422 76.6374969482422 70.8812484741211 66.8249969482422 67.5687484741211 65.1437530517578 62.7000007629395 55.6937484741211 55.0062484741211 
90.2750015258789 85.4375 81.0187530517578 78.15625 76.0124969482422 74.0062484741211 71.3625030517578 70.6500015258789 70.8000030517578 69.1875 67.8812484741211 64.2312469482422 61.4625015258789 60.0250015258789 57.4500007629395 56.9124984741211 54.8687515258789 51.4375 49.7374992370605 52.0187492370605 59.7687492370605 70.9562530517578 69.2437515258789 76.8249969482422 80.0187530517578 79.1187515258789 74.2249984741211 69.8375015258789 71.0124969482422 71.6999969482422 71.0062484741211 72.0750045776367 78.3562469482422 79.1750030517578 80.4812469482422 87.3499984741211 93.0124969482422 97.1812515258789 100.40625 93.21875 86.2249984741211 79.0250015258789 74.4437484741211 71.1062469482422 67.3874969482422 64.1624984741211 65.40625 64.2312469482422 58.8375015258789 50.6812515258789 53.1812477111816 
81.5187530517578 78.1875 74.8187484741211 71.6312484741211 68.40625 69.1875 66.9187469482422 66.3812484741211 67.1812515258789 66.2125015258789 65.4250030517578 64.9749984741211 62.3312492370605 59.7374992370605 55.6875 51.0499992370605 48.3812484741211 53.0250015258789 50.84375 50.5999984741211 50.3250007629395 56.5562515258789 65.3937530517578 69.7687530517578 70.7937469482422 67.8812484741211 66.3125 67.5562515258789 66.25 64.8125 67.6187515258789 74.7624969482422 76.3125 77.25 79.3125 84.15625 86.6437530517578 87.2437515258789 87.1937484741211 83.46875 76.1812515258789 70.28125 68.5812530517578 65.4937515258789 62.5687484741211 61.3875007629395 62.0499992370605 59.96875 54.5999984741211 49.1312484741211 51.5687484741211 
72.0875015258789 73.03125 72.7249984741211 68.25 64.0187530517578 64.7437515258789 63.7625007629395 63.6437492370605 63.875 63.7437515258789 62.3624992370605 62.09375 60.71875 57.8499984741211 54.0687484741211 50.5187492370605 48.7000007629395 49.4562492370605 51.4124984741211 49.5125007629395 54.4187507629395 60.2999992370605 67.0749969482422 72.0500030517578 72.6187515258789 68.71875 63.3312492370605 63.7437515258789 64.9312515258789 65.3625030517578 69.6687469482422 74.0437469482422 72.3187484741211 73.6374969482422 75.59375 78.9187469482422 81.375 80.3062515258789 78.3249969482422 74.6624984741211 70.2062530517578 67.3062515258789 64.2062530517578 61.8062515258789 59.6312484741211 58.46875 57.7625007629395 55.9437484741211 50.0562477111816 48.75 48.5374984741211 
68.375 65.0812530517578 65.8375015258789 63.9312515258789 61.3499984741211 59.75 59.4000015258789 59.4124984741211 60.3812484741211 60.4500007629395 60.4124984741211 58.59375 56.8624992370605 56.9625015258789 55.6187515258789 52.1937484741211 51.8937492370605 51.5999984741211 52.4812507629395 52.7687492370605 54.5374984741211 59.6500015258789 65.8874969482422 67.0875015258789 65.8062515258789 63.5 64.1062469482422 61.9437484741211 65.0625 68.1062469482422 69.6374969482422 70.6999969482422 69.4499969482422 69.2125015258789 68.875 72.625 74.6624984741211 74.0875015258789 72.5374984741211 69.9499969482422 66.6312484741211 64.4124984741211 62.1062507629395 59.625 57.2437515258789 55.8375015258789 54.1687507629395 50.78125 46.3624992370605 47.7125015258789 45.7874984741211 
64.6374969482422 64.3874969482422 63.53125 60.7562484741211 57.7874984741211 57.1687507629395 54.1875 54.2687492370605 56.0437507629395 58.6749992370605 59.5125007629395 58.0999984741211 58.1124992370605 57.5187492370605 57.3562507629395 56.125 53.5499992370605 52.0812492370605 52.1687507629395 53.7125015258789 58.2625007629395 60.8937492370605 64.2937469482422 64.8187484741211 65.5374984741211 62.3562507629395 60.4124984741211 61.0812492370605 61.7874984741211 63.2000007629395 64.6999969482422 66.71875 64.8812484741211 62.7750015258789 63.15625 64.0875015258789 66.78125 65.7375030517578 66.21875 65.5437469482422 63.4000015258789 60.25 58.4249992370605 56.0374984741211 52.6749992370605 52.2125015258789 49.6375007629395 47.6187515258789 46.15625 46.4375 44.3375015258789 
59.3812484741211 61.28125 61.8250007629395 58.34375 55.0125007629395 53.4500007629395 53.6500015258789 52.9249992370605 53.1500015258789 53.8062477111816 55.375 58.1500015258789 58.6124992370605 59.3125 57.5687484741211 56.2562484741211 53.3687515258789 53.8312492370605 53.59375 56.0999984741211 58.2999992370605 62.5999984741211 65.2375030517578 67.3499984741211 66.9749984741211 62.9874992370605 62.25 59.2437515258789 58.5187492370605 59.3062477111816 60.7937507629395 61.9187507629395 58.90625 55.7999992370605 57.2437515258789 56.5750007629395 59.2374992370605 60.2625007629395 60.8624992370605 60.1687507629395 59.1375007629395 56.8250007629395 55.6937484741211 53.3687515258789 51.2687492370605 48.8562507629395 45.7437515258789 43.3375015258789 43.78125 43.9562492370605 41.4375 
56.1937484741211 59.15625 60.2562484741211 56.9812507629395 53.6749992370605 51.4874992370605 51.4000015258789 51.0687484741211 51.4124984741211 53.2999992370605 55.0187492370605 55.0062484741211 58.0750007629395 58.6749992370605 56.71875 54.21875 52.8875007629395 54 54.8937492370605 56.4500007629395 59.5499992370605 62.7437515258789 67.8812484741211 67.90625 65.1374969482422 64.3812484741211 59.9937515258789 56.875 54.7999992370605 55.2312507629395 54.0750007629395 53.4249992370605 52.4812507629395 50.2249984741211 49.2937507629395 50.2999992370605 52.9375 53.3250007629395 54.7937507629395 55.2562484741211 54.03125 53.3312492370605 52.9124984741211 50.78125 46.6437492370605 45.0750007629395 40.9187507629395 41.6687507629395 41.3499984741211 40.9937515258789 39.7437515258789 
55.8062515258789 58.78125 56.6312484741211 54.1312484741211 50.5999984741211 49.3062515258789 49.1812515258789 48.8562507629395 48.7874984741211 48.7125015258789 52.7437515258789 54.3062515258789 54.9749984741211 56.3937492370605 55.3624992370605 53.8562507629395 52.2312507629395 53.3312492370605 54.8687515258789 55.8937492370605 60.3999977111816 63.9437484741211 68.4625015258789 68.3499984741211 64.8687515258789 61.6500015258789 58.3562507629395 54.1875 50.6375007629395 49.21875 47.8624992370605 46.3250007629395 44.4874992370605 43.4000015258789 43.9312515258789 45.0875015258789 46.9812507629395 48.3125 49.6375007629395 50.3875007629395 51.03125 49.6687507629395 49.0812492370605 47.2125015258789 44.34375 40.1500015258789 39.6437492370605 39.28125 39.4437484741211 39.6375007629395 38.21875 
49.9937515258789 50.4500007629395 50.4375 49.2312507629395 46.6875 46.46875 46.9812507629395 46.65625 45.9375 48.65625 51.8125 53.7062492370605 55.0999984741211 55.46875 54.0875015258789 53.9812507629395 52.6187515258789 52.6500015258789 54.5812492370605 56.4812507629395 59.03125 62.6375007629395 67.6187515258789 68.9375 63.96875 58.4500007629395 54.8499984741211 51.3812484741211 48.1124992370605 44.7562484741211 43.6937484741211 40.5687484741211 38.2625007629395 39.0812492370605 38.7625007629395 40.4312515258789 40.7937507629395 41.9312515258789 43.71875 45.2687492370605 47.0187492370605 46.7374992370605 45.8812484741211 44.1375007629395 40.6437492370605 38.34375 38.2062492370605 36.3250007629395 36.3125 35.03125 33.7249984741211 
44.28125 42.6187515258789 43.1062507629395 43.7999992370605 42.6749992370605 43.1749992370605 43.9874992370605 43.96875 44.8624992370605 47.0875015258789 49.4312515258789 50.8875007629395 52.875 54.03125 52.5812492370605 51.84375 51.2625007629395 51.875 52.1812515258789 54.5374984741211 58.4500007629395 61.0250015258789 62.9625015258789 63.7374992370605 60.71875 55.875 52.1749992370605 48.7312507629395 45.4437484741211 43.1812515258789 41.125 39.0125007629395 36.5562515258789 35.0499992370605 34.625 35.6687507629395 35.7437515258789 36.8250007629395 38.875 41.4812507629395 43.1749992370605 44.71875 43.3062515258789 42.4187507629395 38.2249984741211 35.8312492370605 34.6749992370605 33.875 32.4000015258789 30.0187492370605 29.0125007629395 
38.46875 36.71875 38.1187515258789 37.7999992370605 38.34375 38.6500015258789 39.4874992370605 40.8499984741211 42.0062484741211 44.7000007629395 46.7874984741211 48.5812492370605 51.0374984741211 53.1500015258789 52.0875015258789 51.2062492370605 51.28125 50.4124984741211 51.3562507629395 53.3624992370605 56.0125007629395 58.1062507629395 60.3062515258789 59.4124984741211 56.7874984741211 52.9187507629395 49.4187507629395 46.15625 44.2562484741211 42.0187492370605 39.4124984741211 37.4375 34.4625015258789 32.15625 31.1374988555908 31.6812496185303 31.7312507629395 32.4000015258789 34.1937484741211 35.6812515258789 38.2687492370605 38.8499984741211 38.9812507629395 38.5687484741211 35.5562515258789 32.09375 31.625 30.71875 28.2062511444092 26.4624996185303 23.8500003814697 
33.4749984741211 33.0437507629395 33.9937477111816 34.1937484741211 34.2625007629395 35.34375 36.1312484741211 38.4375 40.5687484741211 42.5687484741211 44.7937507629395 47.7437515258789 50.2125015258789 51.5687484741211 51.0187492370605 50.4749984741211 49.8500022888184 50.0750007629395 50.0687484741211 51.0687484741211 53.9124984741211 55.4812507629395 57.4124984741211 55.3312492370605 53.2062492370605 50.2312507629395 46.7937507629395 44.1187515258789 42.3499984741211 39.8375015258789 37.5750007629395 35.2062492370605 32.0750007629395 29.8187503814697 28.0750007629395 27.8312492370605 28.375 28.0249996185303 28.5125007629395 29.7437496185303 31.96875 32.9000015258789 33.125 32.5062484741211 30.6000003814697 29.5437507629395 28.625 26.6499996185303 24.375 23.3500003814697 21.34375 
29.6187496185303 29.3125 29.21875 30.7062492370605 31.65625 33.2750015258789 34.3187484741211 36.0625 38.3562507629395 40.7437515258789 43.4500007629395 45.9187507629395 49.6500015258789 50.0437507629395 49.3250007629395 49.5062484741211 50.3812484741211 48.8937492370605 47.6875 49.6500015258789 52.375 53.6749992370605 54.5437507629395 51.6062507629395 48.9437484741211 47.7999992370605 44.7937507629395 41.6062507629395 39.0625 37.2874984741211 35.2000007629395 33.3562507629395 30.5125007629395 28.2062492370605 26.0687503814697 24.9249992370605 24.5062503814697 24.4500007629395 24.0562496185303 23.9500007629395 25.09375 26.6124992370605 27.0062503814697 26.3999996185303 25.6937503814697 25.6124992370605 24.3812503814697 22.6812496185303 21.1687507629395 20.3062496185303 19.2000007629395 
26.28125 25.1625003814697 25.375 26.3999996185303 28.0562496185303 30.1937503814697 32.2249984741211 33.8812484741211 36.59375 38.5125007629395 41.4562492370605 45 47.5750007629395 50.0562515258789 49.9124984741211 49.8499984741211 49.9187507629395 48.34375 46.5250015258789 48.3375015258789 49.4749984741211 50.8562507629395 50.8812484741211 48.1124992370605 46.6062507629395 44.3562507629395 41.90625 39.8562507629395 36.7062492370605 35 33.5750007629395 31.5812492370605 28.5125007629395 26.09375 24.09375 22.4187507629395 21.75 20.1625003814697 19.7000007629395 19.9750003814697 20.5625 21.15625 21.4312496185303 21.8250007629395 21.6000003814697 21.8687496185303 21.8187503814697 20.3687496185303 18.4562492370605 17.4874992370605 16.6687507629395 
24.5562496185303 23.3937492370605 23.1749992370605 23.8312492370605 25.2625007629395 27.1687507629395 29.3812503814697 31.3312492370605 33.2562484741211 36.59375 40.4874992370605 43.0750007629395 46.3499984741211 49.8624992370605 50.4312515258789 49.5625 48.5999984741211 48.7062492370605 47.875 48.8125 49.0625 48.8937492370605 47.9375 46.0625 45.0750007629395 42.6687507629395 40.96875 38.2937507629395 36.1437492370605 33.7125015258789 31.8562507629395 29.5187492370605 26.1625003814697 23.8500003814697 22.1499996185303 20.8624992370605 19.0062503814697 17.3250007629395 16.7875003814697 17.1437492370605 17.2749996185303 17.6749992370605 17.2124996185303 17.5625 17.5625 17.96875 18.8687496185303 17.4624996185303 16.4312496185303 15.1374998092651 14.7937498092651 
23.1187496185303 22.1875 22.2625007629395 22.7312507629395 23.3187503814697 24.3250007629395 26.1437492370605 27.40625 30.5687503814697 33.3062515258789 37.3187484741211 41.2687492370605 45.4500007629395 48.3499984741211 49.1500015258789 48.2687492370605 48.2625007629395 47.9375 47.1187515258789 47.4187507629395 48.0187492370605 46.5999984741211 46.46875 44.9437484741211 42.7937507629395 40.4249992370605 38.7750015258789 37.1437492370605 35.0374984741211 32.6437492370605 30.4812507629395 27.7749996185303 24.46875 22.3875007629395 20.4125003814697 18.6749992370605 16.4937496185303 14.9750003814697 14.6125001907349 14.375 14.2749996185303 14.5874996185303 14.6312503814697 14.4375 14.6687498092651 14.5437498092651 14.5249996185303 13.8625001907349 13.2437496185303 12.9250001907349 12.53125 
22.1749992370605 20.7749996185303 21.28125 21.4125003814697 22.0625 22.9375 23.8937492370605 24.9812507629395 26.9812507629395 29.84375 34.2125015258789 39.3812484741211 45.3375015258789 49.2750015258789 48.9249992370605 48.40625 48.125 47.21875 47.0499992370605 46.2437515258789 46.4375 46.2249984741211 45.2312507629395 43.4500007629395 41.25 38.7562484741211 37.2750015258789 35.75 33.6749992370605 29.8187503814697 27.6312503814697 25.9125003814697 23.1499996185303 20.8250007629395 18.3687496185303 16.59375 14.84375 13.5625 12.78125 12.0187501907349 11.5124998092651 11.3187503814697 11.6687498092651 11.5562496185303 11.5625 11.65625 11.5562496185303 11.3500003814697 10.9187498092651 10.5812501907349 10.4250001907349 
21.8999996185303 20.9812507629395 21.6187496185303 21.28125 21.6437492370605 22.1187496185303 22.9375 23.7000007629395 25.2749996185303 27.3125 31.1499996185303 36.8687515258789 43.9000015258789 46.7874984741211 47.9375 47.9749984741211 48.2125015258789 46.8062515258789 45.4749984741211 44.8687515258789 43.0499992370605 43.7625007629395 42.2750015258789 40.4249992370605 37.9249992370605 37.1124992370605 35.8375015258789 34.4874992370605 32.4937515258789 28.8312492370605 26.4187507629395 24.78125 21.9937496185303 19.8062496185303 17.5062503814697 15.5 14.0500001907349 12.6687498092651 12.1125001907349 11.3374996185303 10.4375 10.2250003814697 9.88749980926514 9.72500038146973 9.75 9.64375019073486 9.40625 9.47500038146973 9.33125019073486 8.875 8.92500019073486 
21.4437503814697 21.0687503814697 21.3875007629395 20.90625 21.1375007629395 21.90625 22.4562492370605 22.8937492370605 23.7875003814697 24.4937496185303 28.2749996185303 34.3812484741211 40.3875007629395 43.625 45.8312492370605 46.7437515258789 46.8687515258789 44.9562492370605 43.4625015258789 42.8875007629395 40.8499984741211 39.8937492370605 38.7937507629395 37.8937492370605 35.7999992370605 34.7937507629395 33.8250007629395 32.4187507629395 30.6937503814697 28.0812492370605 25.3562507629395 23.0249996185303 20.3874988555908 18.3875007629395 16.28125 14.28125 12.8874998092651 12.0562496185303 11.6187496185303 10.6437501907349 9.60624980926514 9.24374961853027 8.76249980926514 8.66874980926514 8.59375 8.10000038146973 8.125 7.98750019073486 7.94999980926514 7.72499990463257 7.71250009536743 
20.2374992370605 20.3312492370605 20.1499996185303 20.4249992370605 20.6749992370605 21.2562503814697 21.78125 22.0874996185303 22.8999996185303 23.0375003814697 28.3374996185303 33.9000015258789 38.0687484741211 41.3687515258789 44.0999984741211 45.4124984741211 44.4500007629395 43.9437484741211 41.7562484741211 40.8375015258789 39.3937492370605 37.8937492370605 36 35.375 34.2312507629395 33.2000007629395 32.0499992370605 30.8624992370605 29.4125003814697 26.4875011444092 22.90625 21.0249996185303 18.71875 17.0562496185303 14.8062496185303 12.9375 12.21875 11.3625001907349 10.8625001907349 10.0375003814697 9.0625 8.83749961853027 8.20625019073486 7.36875009536743 7.19999980926514 6.91874980926514 6.83750009536743 7.0625 6.66249990463257 6.55000019073486 6.95625019073486 
17.9375 17.7374992370605 17.6437492370605 18.59375 19.1000003814697 19.7625007629395 19.96875 21.5 23.5062503814697 26.5437507629395 31.8500003814697 34.71875 37.2374992370605 40.5125007629395 42.7687492370605 42.8812484741211 42.3375015258789 41.34375 38.9124984741211 38.0187492370605 36.5687484741211 34.7999992370605 33.7999992370605 33.1500015258789 31.5562496185303 30.6437492370605 30.0249996185303 28.6062507629395 27.5437507629395 25.4312496185303 22.4937496185303 19.9249992370605 17.9187507629395 16.5375003814697 14.8500003814697 13.4624996185303 12.8125 12.15625 11.4250001907349 10.1499996185303 9.61874961853027 9.625 8.65625 7.97499990463257 7.70625019073486 7.41249990463257 7.06874990463257 7.06874990463257 6.98124980926514 7.13124990463257 7.40625 
15.6687498092651 15.8500003814697 15.8812494277954 17.1000003814697 17.6062507629395 18.84375 19.6812496185303 21.2937507629395 23.71875 26.6875 30.5499992370605 33.7437515258789 35.9874992370605 37.96875 40.1375007629395 41.4000015258789 40.125 39.7125015258789 37.625 35.7125015258789 32.9937515258789 31.75 30.5062503814697 29.8999996185303 28.7625007629395 27.9375 27.1375007629395 26.2562503814697 25.0062503814697 23.78125 22.0062503814697 19.8062496185303 17.9437503814697 16.53125 15.6374998092651 14.1625003814697 13.0562496185303 12.3999996185303 12.2312498092651 11.15625 10.5562496185303 10.3687496185303 9.46875 8.60624980926514 8.04374980926514 7.66874980926514 7.55000019073486 7.46250009536743 7.54374980926514 7.69374990463257 7.83125019073486 
12.9250001907349 13.4562501907349 14.3249998092651 15.3062496185303 16.2124996185303 17.3624992370605 18.8062496185303 20.9125003814697 22.4125003814697 25.9812507629395 29.53125 32.5875015258789 34.8250007629395 35.5250015258789 36.6124992370605 37.7374992370605 37.8875007629395 36.8250007629395 34.7125015258789 32.9249992370605 30.3500003814697 29.09375 27.5062503814697 26.875 26.8875007629395 26.0249996185303 25.2250003814697 24.6937503814697 23.9437503814697 21.8687496185303 20.4750003814697 20 18.3562507629395 17.1499996185303 15.9875001907349 14.7624998092651 13.8062496185303 13 12.7562503814697 12.1812496185303 11.2312498092651 10.8187503814697 10.125 9.25 8.72500038146973 8.25 7.91874980926514 7.65625 7.96250009536743 7.94999980926514 8.15625 
10.2124996185303 10.7875003814697 11.7562503814697 12.6312503814697 13.7687501907349 15.03125 16.7312507629395 18.0499992370605 19.7124996185303 22.5249996185303 25.5874996185303 28.78125 30.8500003814697 31.1124992370605 32.1749992370605 33.9375 34.5187492370605 34.03125 32.1437492370605 30.7562503814697 28.2562503814697 26.6124992370605 24.8875007629395 23.5499992370605 23.6374988555908 23.0249996185303 22.7749996185303 22.4562511444092 22.2937507629395 21.40625 19.15625 18.6687507629395 17.9500007629395 18 16.96875 15.1312503814697 14.4250001907349 14.1062498092651 13.90625 13.3999996185303 12.3187503814697 11.6687498092651 10.7437496185303 10.0062503814697 9.49374961853027 9.13125038146973 8.44375038146973 7.90625 8.32499980926514 8.26875019073486 8.19375038146973 
7.54374980926514 8.1875 8.96875 9.71875 10.3562498092651 11.7937498092651 13.1875 14.3374996185303 16.3125 18.7312507629395 21.2062492370605 23.6875 25.4750003814697 26.78125 28.3562507629395 30.0687503814697 30.7999992370605 31.0499992370605 29.8250007629395 27.6625003814697 25.2749996185303 23.3062496185303 22.2624988555908 22.0874996185303 22.15625 20.9812488555908 20.9249992370605 20.5625 19.9500007629395 19.3812503814697 18.2749996185303 16.9624996185303 16.1625003814697 16.7312507629395 17.8999996185303 17.1062507629395 15.28125 14.875 14.5812501907349 13.4250001907349 12.5500001907349 12.1875 11.6000003814697 10.6812496185303 10.5749998092651 9.63749980926514 8.71249961853027 8.39999961853027 9.07499980926514 8.71875 8.15625 
5.41874980926514 5.875 6.51249980926514 7.11250019073486 7.88750028610229 9.07499980926514 10.09375 11.2937498092651 13.0062503814697 15.1499996185303 17.1812496185303 19.5562496185303 21.3125 23.3624992370605 24.9312496185303 25.96875 27.71875 28.5562496185303 27.40625 25.9812488555908 23.6625003814697 21.65625 19.875 19.9375 19.5625 18.875 18.4937496185303 18.2250003814697 17.8187503814697 17.7124996185303 16.7374992370605 15.9812498092651 15.5437498092651 15.78125 17.7312507629395 18.53125 16.2749996185303 15.4875001907349 14.9875001907349 13.5625 12.7687501907349 12.4375 11.6312503814697 10.9750003814697 10.6624994277954 9.90625 9.40625 8.6875 8.44999980926514 8.81875038146973 8.125 
3.86249995231628 4.18125009536743 4.79374980926514 5.34375 6.20625019073486 7.26875019073486 8.11874961853027 8.9375 10.5687503814697 12.3249998092651 13.96875 15.7687501907349 17.9750003814697 20.2562503814697 22.0562496185303 22.625 23.8687496185303 25.1812496185303 24.8374996185303 23.3687496185303 21.2374992370605 19.8125 17.75 17.4375 17.375 17.125 16.1875 16.125 15.9250001907349 15.8624992370605 15.1625003814697 14.6437501907349 14.5 15.5 16.5125007629395 17.8624992370605 16.3312492370605 15.4125003814697 14.6687498092651 14.1000003814697 12.9437503814697 12.4750003814697 12.1499996185303 11.3562498092651 10.8812503814697 10.0874996185303 9.64999961853027 8.83749961853027 8.15625 8.5 8.35000038146973 
