ncols        51
nrows        45
xllcorner    -63.500000000000
yllcorner    -7.500000000000
cellsize     0.166666666667
NODATA_value -99
247.074996948242 257.424987792969 260.950012207031 270.15625 280.381256103516 288.493743896484 287.762512207031 289.850006103516 288.924987792969 284.299987792969 271.40625 261.643737792969 255.118759155273 243.75 233.84375 219.387496948242 208.925003051758 198.899993896484 189.09375 184.600006103516 179.818756103516 172.993743896484 167.024993896484 163.512496948242 158.850006103516 154.8125 155.987503051758 159.274993896484 156.4375 165.443756103516 169.356246948242 178.506256103516 187.71875 192.643753051758 199.387496948242 206.375 210.725006103516 217.537506103516 224.100006103516 228.356246948242 233.993743896484 242.524993896484 245.693756103516 247.96875 252.275009155273 252.106246948242 251.475006103516 248.581253051758 248.581253051758 241.256256103516 240.118743896484 
233.706253051758 242.668746948242 253.456253051758 265.431243896484 279.631256103516 285.587493896484 280.6875 281.3125 281.0625 276.068756103516 265.712493896484 257.875 245.875 232.21875 220.65625 211.018753051758 198.412506103516 187.981246948242 179.168746948242 173.006256103516 167.925003051758 161.262496948242 155.71875 153.837493896484 149.274993896484 144.4375 148.574996948242 150.5625 148.818756103516 155.181243896484 162.625 169.768753051758 177.881240844727 186.143753051758 191.762496948242 196.600006103516 197.21875 206.506256103516 210.056243896484 213.462493896484 223.262496948242 228.475006103516 235.324996948242 240.318756103516 244.987503051758 243.393753051758 243.737503051758 239.481246948242 238.225006103516 234.706253051758 234.537506103516 
209.337493896484 220.90625 233.356246948242 248.043746948242 262.125 267.09375 266.756256103516 266.768737792969 263.556243896484 257.987487792969 252.125 244.568756103516 232.600006103516 217.1875 205.550003051758 195.574996948242 185.368743896484 175.368743896484 166.84375 158.731246948242 155.981246948242 153.006256103516 148.649993896484 148.512496948242 143.337493896484 140.768753051758 146.09375 145.943756103516 144.34375 151.681243896484 156.774993896484 163.6875 172.387496948242 182.399993896484 186.756256103516 187.818756103516 192.262496948242 201.243743896484 203.987503051758 210.912506103516 223.53125 230.300003051758 239.975006103516 243.262496948242 247.75 245.024993896484 241.581253051758 242.793746948242 238.118743896484 234.393753051758 232.443756103516 
186.512496948242 194.318756103516 209.050003051758 224.400009155273 235.71875 240.493743896484 243.537506103516 245.53125 247.21875 242.506256103516 234.368743896484 224.831253051758 215.012496948242 201.212493896484 190.274993896484 180.193756103516 171.774993896484 163.431243896484 155.84375 152.456253051758 149.243743896484 145.175003051758 141.25 142.1875 139.137496948242 137.024993896484 141.03125 138.137496948242 137.537506103516 144.96875 150.868743896484 155.699996948242 161.9375 169.368743896484 175.550003051758 180.768753051758 190.643753051758 197.925003051758 199.106246948242 209.9375 220.462493896484 232.487503051758 241.524993896484 249.056243896484 252.787506103516 249.381256103516 244.837493896484 242.850006103516 237.768753051758 234.981246948242 226.25 
182.475006103516 184.456253051758 186.65625 196.962493896484 210.856246948242 215.28125 217.6875 225.225006103516 230.381256103516 226.806243896484 217.356246948242 207.256256103516 197.9375 187.193756103516 176.262496948242 167.625 158.618743896484 150.181243896484 143.449996948242 141.606246948242 142.350006103516 137.181243896484 134.850006103516 138.34375 134.612503051758 132.237503051758 132.856246948242 134.012496948242 133.431243896484 137.112503051758 145.481246948242 148.837509155273 156.649993896484 165.212493896484 171.8125 175.337493896484 182.443756103516 190.699996948242 192.84375 200.887496948242 217.449996948242 229.100006103516 243.518753051758 251.537506103516 255.962493896484 253.40625 245.949996948242 238.056243896484 232.306243896484 227.856246948242 216.262496948242 
173.362503051758 174.737503051758 174.399993896484 172.612503051758 183.787506103516 196.018753051758 200.737503051758 204.75 210.574996948242 207.837493896484 196.768753051758 188.137496948242 181.6875 173.425003051758 163.774993896484 156.6875 147.449996948242 138.71875 134.59375 133.181243896484 134.568756103516 133.237503051758 132.362503051758 131.256256103516 130.893753051758 130.012496948242 130.387496948242 130.125 130.28125 131.662506103516 138.018753051758 143.431243896484 148.006256103516 155.96875 159.481246948242 166.449996948242 171.193756103516 175.537506103516 181.056243896484 192.737503051758 204.287506103516 218.181243896484 233.225006103516 247.850006103516 260.100006103516 252.918746948242 235.949996948242 224.600006103516 220.375 213.481246948242 204.543746948242 
165.5 168.206253051758 168.193756103516 167.543746948242 171.300003051758 174.831253051758 178.256256103516 181.4375 178.606246948242 177.537506103516 172.893753051758 168.350006103516 166.050003051758 160.100006103516 153.737503051758 147.475006103516 139.356246948242 132.412506103516 127.300003051758 127.337501525879 128.356246948242 129.024993896484 129.131256103516 129.493743896484 128.831253051758 128.943756103516 128.524993896484 126.881248474121 123.956253051758 127.668746948242 131.131256103516 133.65625 139.625 145.90625 149.793746948242 154.4375 157.274993896484 162.175003051758 169.612503051758 181.306243896484 192.0625 205.324996948242 222.493743896484 241.006240844727 257.881256103516 252.568756103516 229.350006103516 206.387496948242 200.456253051758 196.6875 193.256256103516 
159.068756103516 159.71875 162.5625 163.768753051758 168.4375 171.168746948242 165.762496948242 154.831253051758 147.381256103516 147.5625 151.699996948242 150.725006103516 149.581253051758 146.574996948242 142.84375 137.637496948242 132.043746948242 126.112503051758 121.193748474121 120.34375 123.650001525879 125.618751525879 125.199996948242 125.412498474121 127.224998474121 125.931251525879 124.243751525879 122.900001525879 120.806251525879 120.46875 125.09375 126.418746948242 129.40625 135.581253051758 136.537506103516 139.912506103516 142.762496948242 146.199996948242 151.481246948242 160.131256103516 171.768753051758 185.818756103516 201.512496948242 217.056243896484 226.818756103516 221.293746948242 204.149993896484 188.556243896484 180.043746948242 176.8125 174.300003051758 
154.475006103516 155.393753051758 158.962493896484 158.743743896484 161.28125 161.068756103516 157.399993896484 149.293746948242 136.212493896484 130.012496948242 132.831253051758 133.762496948242 137.550003051758 135.962493896484 132.9375 128.806243896484 126.368751525879 122.4375 121.106246948242 118.025001525879 120.256248474121 123.53125 123.168746948242 126.987503051758 127.506248474121 124.268753051758 119.875 119.96875 118.056251525879 117.199996948242 120.675003051758 118.96875 119.037498474121 120.0625 121.78125 126.893753051758 130.587493896484 134.09375 137.475006103516 144.481246948242 153.037506103516 161.774993896484 172.0625 182.8125 184.993743896484 181.824996948242 170.425003051758 160.637496948242 153.931243896484 153.712493896484 158.050003051758 
148.90625 150.056243896484 152.081253051758 153.625 155.581253051758 154.84375 154.09375 146.368743896484 135.800003051758 131.818756103516 129.768753051758 126.356246948242 129.112503051758 128.962493896484 124.9375 122.162498474121 119.056251525879 118.5625 118.012504577637 117.5 120.037498474121 121.237503051758 120.793746948242 124.237503051758 123.918746948242 120.599998474121 116.681251525879 115.34375 111.737503051758 110.03125 109.681251525879 108.40625 110.681251525879 112.887496948242 115.237503051758 118.681251525879 120.199996948242 121.824996948242 126.15625 131.59375 137.137496948242 141.318756103516 146.46875 149.956253051758 149.643753051758 147.03125 140.193756103516 129.693756103516 124.300003051758 126.199996948242 126.818748474121 
146.168746948242 146.862503051758 146.762496948242 147.331253051758 150.024993896484 151.899993896484 150.84375 141.706253051758 133.306243896484 127.837501525879 126.787498474121 123.893753051758 122.787498474121 121.162498474121 116.181251525879 112.625 110.949996948242 112.556251525879 113.025001525879 115.087501525879 121.712501525879 123.3125 122.362503051758 121.46875 123.71875 120.881248474121 117.125 113.243751525879 106.78125 102.943748474121 103.425003051758 102.287498474121 105.699996948242 107.800003051758 107.681251525879 108.949996948242 109.46875 111.512496948242 113.918746948242 116.787498474121 119.456253051758 122.181251525879 126.862503051758 127.1875 123.28125 119.75 111.212501525879 102.78125 98.3312530517578 98.1125030517578 96.6437530517578 
142.506256103516 143.574996948242 143.331253051758 144.787506103516 147.712493896484 149.487503051758 149.449996948242 142.324996948242 133.40625 127.168746948242 124.449996948242 121.050003051758 117.068748474121 112.631248474121 111.418746948242 107.974998474121 105.550003051758 105.831253051758 108.206253051758 112.775001525879 120.349998474121 123.074996948242 123.400001525879 123.46875 122.481246948242 113.787498474121 109.418746948242 106.662498474121 101.368751525879 98.3625030517578 97.0875015258789 97.8375015258789 98.4375 99.8375015258789 101.393753051758 103.974998474121 104.631248474121 104.8125 103.46875 102.318748474121 103.831253051758 105.737503051758 107.631248474121 102.8125 97.1187515258789 92.0625 81.7375030517578 75.53125 76.71875 79.0250015258789 74.2249984741211 
137.75 137.15625 137.706253051758 137.59375 141.28125 141.893753051758 138.962493896484 134.712493896484 127.043746948242 122.337501525879 119.762496948242 116.837501525879 111.40625 104.4375 100.981246948242 99.2062530517578 96.5062484741211 98.9375 101.46875 104.599998474121 113.224998474121 117.368751525879 118.900001525879 115.875 108.974998474121 102.34375 101.71875 100.09375 98.6062469482422 96.0687484741211 93.5812530517578 92.5625 94.7375030517578 93.2562484741211 95.2937469482422 99.6999969482422 104.375 103.675003051758 102.981246948242 97.0562515258789 90.6750030517578 93.9499969482422 93.7687530517578 87.71875 86.3312530517578 82.1875 72.1312484741211 65.2312469482422 64.1500015258789 66.8312530517578 65.96875 
131.949996948242 129.837493896484 129.412506103516 130.881256103516 132.6875 131.793746948242 129.287506103516 127.181251525879 120.474998474121 116.425003051758 112.71875 107.737503051758 103.275001525879 97.1937484741211 89.5999984741211 89.2062530517578 87.9812469482422 90.1812515258789 90.2937469482422 92.7249984741211 101.181251525879 105.693748474121 107.918746948242 106.918746948242 102.768753051758 98.8375015258789 98.09375 97.1687469482422 95.8562469482422 94.3062515258789 92.9499969482422 89.8187484741211 90.8687515258789 90.375 94.2062530517578 101.28125 106.599998474121 110.974998474121 111.25 102.474998474121 86.46875 81.7312469482422 85.3000030517578 91.40625 92.7125015258789 84.1187515258789 76.4124984741211 71.03125 67.6937484741211 69.4437484741211 69.4437484741211 
125.03125 124.625 123.21875 123.106246948242 125.037498474121 123.893753051758 121.443748474121 118.181251525879 112.25 108.6875 103.487503051758 99.6937484741211 95.1687469482422 88.3812484741211 81.0187530517578 77.875 76.8187484741211 77.5749969482422 78.6812515258789 81.7249984741211 89.875 95.7312469482422 99.8312530517578 102.306251525879 102.368751525879 101.612503051758 99.6187515258789 97.3625030517578 94.5875015258789 92.40625 89.5625 87.84375 89.0250015258789 90.6062469482422 92.9562530517578 100.743751525879 109.918746948242 122.831253051758 126.412498474121 114.606246948242 104.168746948242 98.5374984741211 101.400001525879 100.875 95.90625 91.0999984741211 87.1437530517578 84.5 83.5500030517578 76.7937469482422 72.3562469482422 
116.650001525879 117.243751525879 117.056251525879 116.943748474121 117.506248474121 117.393753051758 115.306251525879 110.418746948242 105.449996948242 101.412498474121 96.6687469482422 91.5250015258789 86.0562515258789 79.9875030517578 73.6812515258789 67.3937530517578 66.0500030517578 67.0687484741211 68.1125030517578 71.5749969482422 79.2375030517578 86.9187469482422 94.6937484741211 100.949996948242 103.824996948242 103.762496948242 101.762496948242 97.6437530517578 93.8874969482422 92.03125 90.46875 88.3375015258789 88.0062484741211 89.5250015258789 93.3187484741211 107.818748474121 120.40625 133.381256103516 140.143753051758 136.306243896484 130.362503051758 122.34375 115.337501525879 107.431251525879 99.8562469482422 93.9312515258789 90.8125 86.3812484741211 86.2937469482422 82.3312530517578 76.7937469482422 
111.006248474121 112.099998474121 111.306251525879 111.675003051758 110.712501525879 111.043746948242 109.949996948242 106.400001525879 100.087501525879 96.3687515258789 91.8812484741211 85.3000030517578 79.6437530517578 73.5875015258789 67.3937530517578 61.5062522888184 56.1624984741211 56.34375 58.9000015258789 62.875 69.0812530517578 78.53125 89.3625030517578 100.474998474121 106.912498474121 106.518753051758 101.487503051758 97.28125 92.0062484741211 89.1312484741211 89.2562484741211 90.3312530517578 92.3812484741211 95.2062530517578 109.412498474121 123.925003051758 137.012496948242 154.887496948242 166.706253051758 156.618743896484 145.362503051758 131.837493896484 119.28125 112.237503051758 104.074996948242 98.0437469482422 95.84375 94.1937484741211 94.3000030517578 88.0437469482422 85.1624984741211 
102.900001525879 105.449996948242 105.768753051758 106.962501525879 106.449996948242 106.824996948242 103.875 100.900001525879 95.5124969482422 91.2062530517578 86.90625 81.09375 73.8687515258789 67.2125015258789 61.5 55.78125 50.6375007629395 47.5625 50.9812507629395 53.2874984741211 60.34375 69.7750015258789 82.3375015258789 94.0062484741211 103.9375 106.112503051758 103.068748474121 98 91.2249984741211 86.78125 82.5562515258789 82.0999984741211 95.5437469482422 110.662498474121 122.106246948242 139.418746948242 156.475006103516 170.137496948242 174.0625 167.112503051758 148.149993896484 135.518753051758 123.606246948242 116.449996948242 106.818748474121 102.650001525879 101.306251525879 98.3687515258789 95.0250015258789 89.0875015258789 89.2874984741211 
95.1374969482422 98.3937530517578 99.8562469482422 101.6875 102.868751525879 102.068748474121 99.9812545776367 96.6312484741211 93.6500015258789 90.1875 85.2874984741211 76.6812515258789 69.7874984741211 63.5750007629395 56.7562484741211 52.1062507629395 46.9124984741211 42.9937515258789 43.0999984741211 45.9375 55.59375 70.6999969482422 72.8874969482422 85.3062515258789 95.8937530517578 104.224998474121 103.800003051758 97.8812484741211 93.4562530517578 84.9875030517578 79.5124969482422 83.9625015258789 100.0625 113.568748474121 127.806251525879 144.925003051758 155.90625 161.649993896484 166.287506103516 158.443756103516 147.09375 135.53125 124.474998474121 115.9375 108.487503051758 104.974998474121 102.731246948242 100.806251525879 97.7125015258789 88.1312484741211 91.1624984741211 
88.5187530517578 92.0374984741211 93.5500030517578 95.5812530517578 96.3187484741211 95.9937515258789 94.40625 92.1500015258789 91.1875 88.4937515258789 84.8375015258789 78.875 70.2249984741211 61.8624992370605 55.4937515258789 49.2312507629395 42.09375 40.7000007629395 41.3062515258789 44.7625007629395 49.2562484741211 57.2437515258789 70.3249969482422 81.4000015258789 90.4000015258789 95.8249969482422 97.4437484741211 95.5749969482422 90.6812515258789 81.7624969482422 78.8625030517578 90.0374984741211 101.181251525879 115.118751525879 130.78125 142.199996948242 150.912506103516 158.71875 159.46875 154.037506103516 142.274993896484 132.03125 124.400001525879 117.137496948242 110.25 108.293746948242 103.962501525879 101.324996948242 98.0562515258789 90.3812484741211 94.5687484741211 
80.3000030517578 86.0062484741211 89.5 91.9499969482422 91.9187469482422 91.6687545776367 91.3249969482422 90.2437515258789 89.8499984741211 87.4812469482422 84.8125 80.4312515258789 71.9187469482422 63.4375 56.125 49.8250007629395 43.8062515258789 40.8250007629395 42.4187507629395 44.8250007629395 51.9562492370605 61.4625015258789 72.4937515258789 83.9812469482422 95.6125030517578 99.8000030517578 96.7750015258789 94.4562454223633 92.0437469482422 90.0625 90.6125030517578 96.8874969482422 103.737503051758 112.90625 126.981254577637 137.15625 148.09375 155.5625 154.662506103516 150.756256103516 140.800003051758 132.712493896484 126.074996948242 117.893753051758 111.862503051758 109.106246948242 106.762496948242 103.53125 98.4124984741211 95.6750030517578 96.9937515258789 
75.1875 79.8125 83.9749984741211 87.8937530517578 89.6062545776367 88.875 89.6374969482422 88.0562515258789 88.5124969482422 86.4187469482422 85.75 84.3812484741211 80.7437515258789 72.875 64.4124984741211 55.5499992370605 50.8562507629395 48.1687507629395 48.5499992370605 50.6812515258789 54.5999984741211 62.40625 72.8625030517578 83.3687515258789 92.6062469482422 98.6750030517578 103.243751525879 100.4375 99.25 96.8562469482422 96.1187515258789 98.1062469482422 103.443748474121 111.474998474121 118.71875 128.568756103516 141.5625 152.024993896484 152.987503051758 148.5 139.899993896484 131.918746948242 123.543746948242 118.71875 110.662498474121 108.118751525879 107.625 105.431251525879 101.074996948242 101.737503051758 98.3375015258789 
70.6875 77.8062515258789 82.96875 85.9937515258789 88.4812469482422 88.21875 86.7624969482422 85.0374984741211 86.8812484741211 88.25 90.2312469482422 91.3687515258789 91.1437530517578 84.34375 73.7874984741211 63.9187507629395 56.8562507629395 54.125 53.8499984741211 54.7999992370605 58.75 65.8125 74.53125 80.71875 91.4437484741211 100.59375 104.800003051758 105.550003051758 102.918746948242 98.1062469482422 96.3125 98.0437469482422 102.125 106.224998474121 110.412498474121 114.625 127.025001525879 143.668746948242 148.925003051758 144.168746948242 138.09375 129.3125 121.512496948242 116.375 109.443748474121 107.381248474121 106.65625 106.900001525879 105.25 104.768753051758 101.53125 
69.0124969482422 77.3187484741211 83.1999969482422 84.3937530517578 85.8499984741211 86.1187515258789 86.3874969482422 86.5374984741211 85.9437484741211 88.6875 91.78125 97.0999984741211 99.28125 91.9812469482422 81.4812469482422 71.65625 64.5437469482422 60.9749984741211 59.6875 60.4874992370605 64.1624984741211 70.0250015258789 76.1687469482422 83.5437469482422 91.9937515258789 98.59375 104.78125 103.262496948242 102.150001525879 99.1937484741211 97.9187469482422 98.1374969482422 101.28125 101.925003051758 104.03125 105.987503051758 116.193748474121 132.4375 139.487503051758 136.762496948242 131.581253051758 124.824996948242 117.537498474121 111.762496948242 109.768745422363 105.925003051758 107.381248474121 108.537498474121 111.043746948242 109.418746948242 105.256248474121 
68.9562530517578 77.1812515258789 82.4437484741211 85.34375 87.1937484741211 86.8562469482422 86.2374954223633 86.6875 87.7562484741211 90.5250015258789 92.59375 96.0374984741211 97.9000015258789 93.0812530517578 84.96875 77.2125015258789 70.9000015258789 66.9812469482422 65.1062469482422 65.4749984741211 68.8375015258789 73.1750030517578 78.40625 84.8812484741211 90.7125015258789 98.3000030517578 100.587501525879 100.131248474121 99.5812530517578 98.0187530517578 96.3625030517578 95.8375015258789 98.2750015258789 100.375 101.368751525879 103.212501525879 112.125 121.199996948242 127.137496948242 127.868751525879 124.6875 120.349998474121 114.75 110.268753051758 106.931251525879 106.5625 103.118751525879 111.362503051758 115.449996948242 112.543746948242 108.181251525879 
70.7312469482422 78.8312530517578 81.6374969482422 85.4437484741211 86.0562515258789 85.8687515258789 85.5625 87.0374984741211 86.8062515258789 88.0687484741211 90.34375 92.9375 94.1312484741211 90.125 85.4187469482422 79.0500030517578 74.2874984741211 71.34375 68.8125 69.5124969482422 72.6875 75.7375030517578 80.7125015258789 84.7937469482422 89.3812484741211 94.96875 97.5124969482422 97.3874969482422 97.7312469482422 97.0500030517578 95.1374969482422 94.6624984741211 95.5437469482422 96.7937469482422 97.4937515258789 101.699996948242 108.162498474121 113.262496948242 118.949996948242 118.806251525879 117.775001525879 114.643753051758 111.512496948242 108.956253051758 105.5 95.6187515258789 102.800003051758 109.556251525879 114.081253051758 109.949996948242 104.099998474121 
72.9312515258789 78.8125 82.0625 84.5687484741211 85.4812469482422 85.3249969482422 86.2125015258789 86.2249984741211 85.0999984741211 87.375 89.6999969482422 89.5999984741211 89.59375 87.0812530517578 84.3125 79.7375030517578 76.4562530517578 73.6687469482422 72.25 71.5 72.90625 76.2312469482422 79.4625015258789 84.15625 87.9499969482422 90.4499969482422 93.7562484741211 94.1875 93.96875 92.5999984741211 92.2374954223633 90.8249969482422 92.5625 94.0500030517578 94.1187515258789 98.1312484741211 101.6875 106.387496948242 109.349998474121 109.506248474121 108.912498474121 107.4375 107.887496948242 104.8125 102.037498474121 101.699996948242 105.512496948242 104.987503051758 106.775001525879 102.068748474121 94.5062484741211 
76.4499969482422 78.4875030517578 81.4625015258789 83.8125 85.3375015258789 84.3625030517578 84.9812469482422 85.3000030517578 85.125 86.3562469482422 86.3000030517578 85.6687469482422 85.34375 84.4250030517578 81.7437515258789 79.1437530517578 77.5562515258789 75.3499984741211 74.1999969482422 73.1437530517578 74.3125 74.9937515258789 78.8812484741211 82.4625015258789 84.9749984741211 86.0187530517578 88.9250030517578 90.3062515258789 90.78125 89.9124984741211 88.4562530517578 86.8812484741211 88.6437530517578 89.2874984741211 91.4562530517578 93.75 95.71875 99.125 102.568748474121 104.118751525879 103.631248474121 104.118751525879 104.993751525879 106.425003051758 106.375 106.449996948242 106.337501525879 103.425003051758 99.7437515258789 92.9250030517578 87.6062469482422 
77.4749984741211 80.3687515258789 81.5999984741211 83.4625015258789 83.0562515258789 82.4812469482422 82.0562515258789 81.4812469482422 83.3187484741211 83.1999969482422 83.0187530517578 82.0187530517578 81.4312515258789 81.1624984741211 79.8375015258789 78.2687530517578 78.1062469482422 76.8312530517578 75.7249984741211 75.0500030517578 75.40625 75.5999984741211 77.9312515258789 79.7875061035156 82.125 82.1937484741211 85.0124969482422 85.9375 86.1374969482422 85.3812484741211 83.8875045776367 83.1312484741211 83.4749984741211 83.625 85.9875030517578 89.8499984741211 92.6187515258789 95.7937469482422 99.125 99.6750030517578 97.6500015258789 98.8687515258789 101.625 105.862503051758 106.081253051758 105.212501525879 104.1875 99.7562484741211 92.3125 84.5562515258789 76.2687530517578 
77.8874969482422 80.6875 81.2874984741211 80.8375015258789 80.9000015258789 80.5812454223633 79.6374969482422 80.3000030517578 80.6312484741211 79.8562469482422 80.0875015258789 79.7937469482422 79.1374969482422 78.4812469482422 77.7437515258789 76.7375030517578 75.9875030517578 76.4375 77.1437530517578 75.1500015258789 74.8249969482422 75.7562484741211 77.5749969482422 78.3000030517578 78.9812469482422 80.2437515258789 80.7937469482422 81.2125015258789 79.7437515258789 78.9250030517578 78.3687515258789 78.4562530517578 78.8187484741211 79.7312469482422 82.0187530517578 84.5999984741211 89.7312469482422 93.6750030517578 95.8187484741211 98.875 99.6187515258789 99.8125 99.09375 101.306251525879 102.068748474121 100.393753051758 98.0124969482422 94.1125030517578 85.1812515258789 77.3249969482422 69.4437484741211 
77.9250030517578 79.3062515258789 78.2062530517578 78.7249984741211 80.6312484741211 79.5 78.8312530517578 77.9250030517578 77.40625 76.625 76.1125030517578 77.4312515258789 78.2687454223633 77.6624984741211 75.7249984741211 74.8937530517578 75.6624984741211 76.3812484741211 77.65625 76.7062530517578 75.6500015258789 74.1062469482422 74.8562469482422 75.1374969482422 75.125 76.3625030517578 75.4625015258789 75.9812469482422 75.3937530517578 75.03125 75.0812530517578 74.6125030517578 74.5124969482422 75.6750030517578 79.1125030517578 81.3125 85.8687515258789 90.0187530517578 94.4875030517578 99.65625 100.6875 97.1937484741211 94.6624984741211 97.71875 96.6875 94.1750030517578 89.0812530517578 84.9375 78.9000015258789 71.0687484741211 64.7937469482422 
77.1812515258789 78.2249984741211 76.8312530517578 76.8375015258789 78.8874969482422 77.71875 76.4749984741211 74.5250015258789 74.2687530517578 73.90625 73.4499969482422 74.2562484741211 74.3000030517578 74.7874984741211 73.96875 75.1374969482422 75.21875 75.5062484741211 75.6999969482422 75.5500030517578 74.7375030517578 74.6374969482422 73.4437484741211 71.5999984741211 71.6062469482422 71.9937515258789 71.0625 71.3687515258789 70.3625030517578 69.8000030517578 70.5500030517578 69.9187469482422 70.2312469482422 72.0250015258789 73.1812515258789 75.0812530517578 79.4124984741211 84.0250015258789 88.9437484741211 94.0124969482422 95.125 91.5812530517578 90.5625 90.5812530517578 90.4749984741211 88.4499969482422 82.1937484741211 77.5062484741211 72.1687469482422 67.0250015258789 61.2125015258789 
73.71875 73.9937515258789 73.3625030517578 73.9812469482422 74.3375015258789 72.9749984741211 72.6875 71.6624984741211 70.6500015258789 70.9250030517578 72.1875 71.8375015258789 71.6750030517578 73.1875 72.6062469482422 73.8874969482422 74 74.75 74.625 74.3000030517578 73.3187484741211 72.5374984741211 71.5999984741211 71.3062515258789 70.7624969482422 69.5625 68.5875015258789 66.5999984741211 65.8874969482422 64.9625015258789 65.5749969482422 64.78125 65.0062484741211 65.9875030517578 67.1875 68.9124984741211 72.6437530517578 76.1812515258789 80.1624984741211 84.2312469482422 84.625 82.9187469482422 81.8000030517578 80.8499984741211 80.2062530517578 78.5187530517578 76.2750015258789 70.65625 65.6125030517578 61.7374992370605 56.90625 
69.9875030517578 71.0687484741211 70.4437484741211 71.7312469482422 69.7062530517578 69.2937469482422 69.7375030517578 69.03125 67.9000015258789 67.5 67.9187469482422 68.7937469482422 70.1062469482422 69.375 70.1500015258789 70.4250030517578 71.6687469482422 71.7312469482422 71.3312530517578 71.71875 71.2375030517578 70.5437469482422 70.1500015258789 68.8562469482422 68.6312484741211 67.6374969482422 66.0250015258789 63.3562507629395 63.03125 62.34375 62 60.7062492370605 59.8499984741211 59.7062492370605 61.09375 62.6437530517578 65.7062530517578 68.2312469482422 71.3187484741211 73.2125015258789 75.1812515258789 74.6812515258789 73.3249969482422 71.75 70.34375 69.1687469482422 67.2624969482422 64.03125 60.3125 56.2750015258789 53.2125015258789 
67.21875 67.7312469482422 67.6437530517578 67.3000030517578 66.625 66.3187484741211 66.4499969482422 66.0999984741211 63.96875 64.1500015258789 64.4312515258789 66.3625030517578 66.8249969482422 67.8812484741211 68.5250015258789 69.4187469482422 70.3312530517578 70.0999984741211 69.6687469482422 70.0250015258789 69.8125 68.8187484741211 67.5999984741211 66.84375 65.8062515258789 65.1374969482422 63.1624984741211 60.6124992370605 60.15625 59.5 57.7125015258789 55.6687507629395 54.75 53.9874992370605 54.5687484741211 55.8062515258789 57.3187484741211 60.1124992370605 62.7374992370605 64.0812530517578 64.6875 64.375 64.1687469482422 63.1375007629395 62.4187507629395 60.8687515258789 60.0062484741211 57.8812484741211 54.3125 50.4749984741211 48.2437515258789 
64.8000030517578 65.4312515258789 64.6875 64 63.6500015258789 62.5812492370605 62.1687507629395 61.1812515258789 60.0062484741211 60.625 62.3187484741211 63.5499992370605 65.3812484741211 66.5 67.6062469482422 69.2624969482422 69.5374984741211 70.1374969482422 68.8625030517578 68.7624969482422 68.8687515258789 69.2687530517578 67.7062454223633 66.8125 65.0062484741211 63.3125 60.84375 59.7874984741211 57.7625007629395 55.9249992370605 53.78125 51.59375 49.0374984741211 48.6749992370605 48.3187484741211 48.25 50.3562507629395 52.5875015258789 53.7937507629395 55.6187515258789 56.2125015258789 57.09375 55.8875007629395 55.4437484741211 54.4937477111816 52.5562515258789 51.4937515258789 50.84375 48.4249992370605 45.6812515258789 43.9437522888184 
60.7625007629395 61.1687507629395 60.3187484741211 60.1437492370605 59.9500007629395 59.4124984741211 59.1062507629395 58.8937492370605 57.3687515258789 56.9749984741211 60.6624984741211 64.15625 66.3249969482422 66.7562484741211 68.5 68.9937515258789 69.2750015258789 69.2125015258789 68.6062469482422 67.6687469482422 67.8312454223633 68.2562484741211 67.1687469482422 66.3812484741211 64.9250030517578 61.96875 59.9562492370605 58.15625 54.7874984741211 52.5999984741211 50.5437507629395 47.5750007629395 45.3187484741211 43.6875 42.9312515258789 42.96875 44.4937515258789 46.5562515258789 47.2874984741211 48.7437515258789 48.9625015258789 49.7562484741211 48.7249984741211 48.6312484741211 47.2249984741211 46.2374992370605 46.0187492370605 45.3312492370605 43.6312484741211 41.65625 39.875 
57.7687492370605 58.34375 57.0562515258789 57.6124992370605 57.7625007629395 57.03125 56.7562522888184 56.3812484741211 56.28125 55.8812484741211 62.9812507629395 66.9437484741211 66.9562530517578 68.2375030517578 70.2437515258789 70.3125 69.5687484741211 68.5062484741211 69.0562515258789 67.9625015258789 67.8000030517578 67.2125015258789 66.3125 65.40625 63.9874992370605 61.8812484741211 59.7625007629395 57.7125015258789 54.6749992370605 51.4625015258789 48.03125 45.5812492370605 43.4625015258789 40.25 38.5250015258789 37.9937515258789 40.03125 41.9937515258789 42.90625 44.09375 42.6624984741211 42.375 41.90625 41.6437492370605 41.3375015258789 41.2374992370605 42.2249984741211 42.25 39.6749992370605 38.5562515258789 37.84375 
55.4625015258789 55.2750015258789 54.9000015258789 54.7312507629395 55.4562492370605 55.125 55.2625007629395 55.2937507629395 56.7750015258789 61.5 69.2437515258789 69.09375 67.3249969482422 68.2937469482422 69.25 69.7562484741211 70.53125 70.3125 68.7562484741211 69.7062454223633 68.5500030517578 67 66.2562484741211 64.6187515258789 63.0875015258789 60.7562484741211 58.8250007629395 57.3125 54.4874992370605 50.78125 47.2937507629395 44.6437492370605 42.2625007629395 38.3062515258789 36.3812484741211 36.9749984741211 37.8499984741211 39.1937484741211 40.2437515258789 39.6000022888184 38.6312522888184 38.1625022888184 37.4437484741211 37 37.5125007629395 37.9375 37.4187507629395 38.3687515258789 37.28125 37.1687507629395 36.6312484741211 
52.7374992370605 53.1375007629395 52.65625 52.5499992370605 52.6062507629395 52.8125 52.4749984741211 53.3875007629395 56.0250015258789 60.7937507629395 65.0374984741211 67.53125 67.9625015258789 68.2874984741211 69.71875 71.2750015258789 71.1812515258789 70.3562469482422 68.9250030517578 70.59375 70.1187515258789 67.1812515258789 66.1750030517578 64.2437515258789 62.5 60.2062492370605 58.1687507629395 56.2312507629395 52.8375015258789 50.0999984741211 47.0999984741211 45.1124992370605 42.1124992370605 38.6437492370605 37.2625007629395 37.0187492370605 36.5250015258789 37.6124992370605 37.8812484741211 36.2000007629395 34.9749984741211 34.6624984741211 34.0062484741211 33.1437492370605 34.2874984741211 33.90625 33.59375 34.9749984741211 35.2125015258789 35.9812507629395 35.6437492370605 
50.5687484741211 51.7625007629395 51.3562507629395 51.4249992370605 50.78125 50.1624984741211 50.1437492370605 50.5 52.28125 56.8624992370605 60.71875 63.5125007629395 66.03125 66.8249969482422 68.6624984741211 70.2624969482422 71.0687484741211 70.8000030517578 70.6937484741211 71.21875 71.1875 68 65.5187530517578 63.5062484741211 61.9749984741211 59.2562484741211 57.9812507629395 54.9749984741211 52 49.0750007629395 46.3187484741211 44.34375 42.125 39.34375 38.7125015258789 37.3250007629395 36.1749992370605 36.0687484741211 36.3499984741211 34.09375 31.8249988555908 31.7124996185303 31.0437507629395 30.7124996185303 30.7124996185303 31.2625007629395 31.5062503814697 32.7750015258789 35.09375 34.2374992370605 33.84375 
48.9625015258789 50.09375 49.8624992370605 49.6500015258789 48.65625 47.0125007629395 46.5 47.21875 49.0187492370605 52.1812515258789 55.0250015258789 58.2625007629395 61.7874984741211 63.3062515258789 65.5437469482422 68.1875 69.3499984741211 70.1875 69.5500030517578 69.8187484741211 68.65625 68.2624969482422 64.2375030517578 61.8187484741211 60.2937507629395 57.7374992370605 54.6937484741211 52.3499984741211 51.4249992370605 49.6062507629395 46.3312492370605 43.9124984741211 42.2000007629395 42.4187507629395 41.6312484741211 38.65625 36.0625 35.875 34.5374984741211 32.8687515258789 30.6812496185303 28.9562511444092 27.6937503814697 28.1875 29.0375003814697 30.2062492370605 30.4812488555908 31.3562488555908 34.3125 32.5687484741211 32.6187515258789 
47.3812484741211 48.7374992370605 48.3187484741211 47.4249992370605 45.9312515258789 43.8624992370605 43.1812515258789 43.5062484741211 44.28125 46.8499984741211 49.7374992370605 53.1062507629395 55.6624984741211 58.4874992370605 62.5687484741211 64.9437484741211 67.2062530517578 67.8249969482422 68.1875 68.1750030517578 66.9749984741211 67.5500030517578 64.3312530517578 61.5250015258789 58.7999992370605 55.3125 53.2249984741211 52.15625 49.90625 48.3562507629395 46.2062492370605 44.0187492370605 42.7125015258789 42.1749992370605 42.75 41.4937515258789 36.9562492370605 35.4187507629395 33.84375 32.375 29.9312496185303 27.96875 26.84375 26.8624992370605 28.0499992370605 28.7687511444092 29.6687507629395 30.4812507629395 33.6812477111816 32.5999984741211 31.6875 
46.0374984741211 47.78125 47.8062515258789 45.3624992370605 43.0499992370605 40.4749984741211 38.6687507629395 38.6875 39.8187484741211 41.9937515258789 45.1437492370605 49.2999992370605 51.7750015258789 55.5875015258789 59.6687507629395 63.0125007629395 65.2624969482422 65.8812484741211 66.9000015258789 67.1312484741211 66.0687484741211 65.8499984741211 61.6062507629395 59.0750007629395 57.6875 55.5374984741211 53.2125015258789 51.1437492370605 49.2625007629395 47.2937507629395 46.53125 45.09375 43.5062484741211 42 43.4249992370605 45.2687492370605 39.6937484741211 36.3875007629395 35.1187515258789 32.0187492370605 29.78125 28.6000003814697 27.2937488555908 27.3937492370605 27.1875 27.8562488555908 28.2374992370605 28.71875 30.9375 31.9937496185303 30.3937492370605 
44.3499984741211 46.6437492370605 47.90625 44.8062515258789 40.59375 37.0125007629395 33.5250015258789 33.1375007629395 34.7874984741211 37.7625007629395 40.8562507629395 44.5812492370605 48.7000007629395 52.8312492370605 56.2249984741211 58.8875007629395 61.5437507629395 62.4187507629395 64.0250015258789 65.0687484741211 63.40625 62.0374984741211 58.9812507629395 57.7125015258789 56.2750015258789 54.09375 51.3687515258789 49.7874984741211 48.3062515258789 46.96875 45.3937492370605 44.59375 43.2062492370605 41.7874984741211 42.6937484741211 43.2312507629395 40.125 36.875 34.3624992370605 32.3875007629395 30.4937496185303 29.3312511444092 27.7562503814697 27.7125015258789 27.78125 27.9187507629395 27.9750003814697 28.4750003814697 29.0187511444092 30 28.8687496185303 
