ncols        51
nrows        45
xllcorner    -63.500000000000
yllcorner    -7.500000000000
cellsize     0.166666666667
NODATA_value -99
314.518737792969 318.606262207031 321.59375 330.331237792969 336.200012207031 339.8125 338.975006103516 340.206237792969 340.643737792969 343.850006103516 344.756256103516 341.168762207031 339.393737792969 338.262512207031 334.899993896484 333.456237792969 330.6875 326.575012207031 325.306243896484 326.643737792969 328.043762207031 328.981262207031 333.412506103516 332.5 332.818756103516 335.112487792969 335.362487792969 337.381256103516 336.787506103516 339.606262207031 338.087493896484 339.256256103516 342.125 343.3125 344.8125 349.274993896484 352.443756103516 352.53125 352.587493896484 354.568756103516 353.568756103516 353.03125 349.306243896484 350.243743896484 348.943756103516 346.037506103516 344.681243896484 339.65625 337.774993896484 339.287506103516 338.0625 
309.456237792969 311.668762207031 318.206237792969 328.456237792969 338.6875 343.087493896484 342.09375 343.356231689453 345.462493896484 345.287506103516 345.875 341.5 336.90625 332.799987792969 327.518737792969 323.006256103516 318.681243896484 313.631256103516 314.162506103516 315.774993896484 317.28125 319.537506103516 321.65625 323.193756103516 322.90625 322.831237792969 325.674987792969 328.21875 329.399993896484 329.049987792969 326.581237792969 330.024993896484 330.049987792969 333.368743896484 334.024993896484 333.706237792969 338.674987792969 339.587493896484 342.131256103516 339.012512207031 337.962493896484 341.524993896484 338.168762207031 334.137512207031 333.818756103516 330.112487792969 329.018737792969 326.112487792969 325.950012207031 326.931243896484 327.168762207031 
300.149993896484 305.293762207031 314.743743896484 324.21875 332.631256103516 338.049987792969 341.21875 345.443756103516 348.043762207031 347.506256103516 346 338.993743896484 331.556243896484 322.981262207031 316.918762207031 312.587493896484 306.149993896484 299.806243896484 299.418762207031 301.193756103516 302.5 306.287506103516 308.274993896484 308.25 307.206237792969 309.1875 313.612487792969 315.024993896484 314.487487792969 313.40625 310.837493896484 311.424987792969 314.899993896484 315.693756103516 318.174987792969 317.25 320.399993896484 322.506256103516 323.09375 322.487487792969 324.443756103516 322.837493896484 322.59375 319.506256103516 317.524993896484 315.868743896484 313.993743896484 312.40625 308.200012207031 309.9375 311.03125 
287.068756103516 290.424987792969 305.762512207031 315.056243896484 324.256256103516 329.075012207031 333.90625 341.318756103516 348.493743896484 349.174987792969 344.018737792969 334.550018310547 322.424987792969 312.125 305.068756103516 298.84375 291.068756103516 285.21875 284.125 287.756256103516 292.993743896484 294.71875 294.556243896484 294.575012207031 293.0625 292.462493896484 297.418762207031 297.25 296.762512207031 297.743743896484 295.46875 294.962493896484 296.168762207031 296.137512207031 295.793762207031 300.3125 304.806243896484 306.643737792969 307.700012207031 307.975006103516 307.9375 310.131256103516 306.418762207031 302.962493896484 303.568756103516 299.575012207031 297.162506103516 296.375 291.399993896484 289.087493896484 291.493743896484 
292.287506103516 292.424987792969 292.387512207031 301.181243896484 312.59375 316.787506103516 323.575012207031 333.206237792969 344.96875 349.431243896484 339.262512207031 324.112487792969 313.368743896484 303.106262207031 295.100006103516 286.918762207031 277.756256103516 272.15625 270.618743896484 275.200012207031 280.106262207031 280.587493896484 278.868743896484 281.4375 278.137512207031 276.881256103516 276.850006103516 280.243743896484 281.15625 280.350006103516 279.387512207031 276.806243896484 276.668762207031 279.043762207031 280.149993896484 282.274993896484 287.8125 291.84375 293.924987792969 293.568756103516 295.068756103516 293.668762207031 291.131256103516 289.956237792969 287.618743896484 284.256256103516 279.481262207031 276.350006103516 271.512512207031 271.981262207031 275.787506103516 
293.287506103516 293.981262207031 292.087493896484 288.193756103516 299.737487792969 308.787506103516 315.512512207031 322.287506103516 334.6875 340.65625 332.09375 315.737487792969 307.524993896484 299.231262207031 288.975006103516 283.28125 272.649993896484 265.118743896484 263.693756103516 268.368743896484 270.506256103516 271.424987792969 271.674987792969 268.806243896484 266.287506103516 264.575012207031 264.956237792969 266.3125 268.537506103516 267.8125 266.162506103516 264.59375 263.393737792969 264.018737792969 263.700012207031 266.756256103516 270.293762207031 273.318756103516 278.556243896484 278.568756103516 277.1875 276.618743896484 273.506256103516 272.043762207031 270.799987792969 265.3125 259.162506103516 256.893737792969 253.34375 251.131256103516 252.331253051758 
296.856262207031 295.90625 293.018737792969 289.625 291.21875 293.850006103516 298.912506103516 304.581237792969 305.481262207031 311.46875 310.53125 302.725006103516 298.462493896484 293.143737792969 285.71875 278.806243896484 272.837493896484 266.9375 263.193756103516 266.21875 264.637512207031 262.456237792969 258.549987792969 257.356262207031 255.706253051758 255.899993896484 254.806243896484 255.28125 254.425003051758 253.637496948242 252.300003051758 248.456253051758 245.543746948242 245.081253051758 244.981246948242 248.956253051758 250.949996948242 253.574996948242 258.918762207031 261.287506103516 258.793762207031 256.181243896484 253.537506103516 253.662506103516 250.956253051758 249.199996948242 241.862503051758 233.524993896484 228.981246948242 230.84375 232.3125 
299.174987792969 297.043762207031 293.462493896484 292.149993896484 292.78125 294.481262207031 289.256256103516 278.3125 270.081237792969 278.0625 288.5625 289.550018310547 291.28125 287.924987792969 283.043762207031 278.875 273.712493896484 269.587493896484 264.962493896484 261.981262207031 261 255.787506103516 250.699996948242 245.574996948242 245.118743896484 240.4375 242.074996948242 241.393753051758 240.912506103516 239.850006103516 237.699996948242 233.331253051758 230.800003051758 227.53125 224.606246948242 226.668746948242 229.518753051758 233.21875 235.925003051758 234.850006103516 235.587493896484 233.6875 232.5 230.59375 227.550003051758 223.074996948242 216.862503051758 211.556243896484 208.300003051758 205.943756103516 207.300003051758 
300.893737792969 298.524993896484 296.443756103516 293.443756103516 292.174987792969 291.399993896484 285.731262207031 276.649993896484 262.625 258.881256103516 269.762512207031 278.34375 286.268737792969 284.875 281.081237792969 279.024993896484 275.28125 272.793762207031 270.818756103516 262.012512207031 253.574996948242 249.975006103516 240.493743896484 240.550003051758 234.918746948242 229.118743896484 227.818756103516 229.993743896484 232.524993896484 229.84375 229.181243896484 223.768753051758 216.399993896484 210.643753051758 208.800003051758 210.956253051758 213.637496948242 216.850006103516 220.399993896484 218.262496948242 216.068756103516 214.006256103516 215.118759155273 215.949996948242 208.90625 204.806243896484 199.800003051758 192.949996948242 187.524993896484 185.78125 187.487503051758 
301.487487792969 300.475006103516 298.331237792969 296.59375 292.149993896484 291.087493896484 286.881256103516 280.212493896484 273.237487792969 271.806243896484 275.487487792969 275.506256103516 284.637512207031 283.75 282.037506103516 277.606262207031 273.668731689453 271.012512207031 269.693756103516 265.0625 253 241.668746948242 232.331253051758 229.818756103516 222.1875 216.524993896484 214.856246948242 216.793746948242 220.512496948242 220.931243896484 217.137496948242 210.943756103516 205.612503051758 200.056243896484 195.381256103516 196.375 197.543746948242 200.350006103516 203.543746948242 204.987503051758 205.493743896484 205.643753051758 201.46875 198.09375 194.550003051758 193.46875 187.431243896484 178.818756103516 173.100006103516 168.675003051758 165.806243896484 
301.774993896484 302.162506103516 298.943756103516 297.537506103516 293.106262207031 293.237487792969 290.375 282.887512207031 278.387512207031 279.75 283.893737792969 286.799987792969 283.706268310547 284.625 280.043762207031 274.40625 270.356262207031 268.5 266.424987792969 264.28125 259.243743896484 242.881256103516 227.881256103516 212.768753051758 210.637496948242 208.050003051758 206.256256103516 207.40625 207.581253051758 205.699996948242 203.800003051758 199.643753051758 193.631256103516 187.53125 181.96875 180.568756103516 181.100006103516 184.056259155273 188.962493896484 191.668746948242 193.006256103516 191.787506103516 191.481246948242 185.787506103516 181.050003051758 177.6875 173.675003051758 164.612503051758 159.475006103516 155.375 150.587493896484 
303.587493896484 302.299987792969 299.893737792969 298.46875 295.90625 293.087493896484 293.225006103516 290.0625 288.693756103516 286.424987792969 289.643737792969 294.481262207031 285.337493896484 282.75 279.868743896484 271.981262207031 267.3125 264.956237792969 263.543762207031 264.418762207031 261.618743896484 248.737503051758 231.243743896484 213.274993896484 201.462509155273 193.649993896484 190.53125 191.537506103516 193.65625 191.8125 187.725006103516 184.056243896484 178.693756103516 173.106246948242 169.856246948242 170.8125 172.774993896484 174.524993896484 177.881256103516 181.212493896484 184.237503051758 183.074996948242 179.231246948242 168.149993896484 162.1875 155.743743896484 149.337493896484 148.868743896484 147.350006103516 144.556243896484 137.149993896484 
306.212493896484 302.293762207031 299.200012207031 298.087493896484 295.075012207031 294.887512207031 292.831237792969 289.3125 289.462493896484 291.556243896484 293.918762207031 295.356262207031 289.768737792969 275.424987792969 269.706237792969 266.662506103516 261.787506103516 259.431243896484 257.40625 257.787506103516 257.399993896484 243.287506103516 226.21875 208.225006103516 186.537506103516 175.743743896484 177.899993896484 179.618743896484 182.262496948242 181.399993896484 176.324996948242 170.268753051758 164.637496948242 159.03125 156.862503051758 159.96875 163.256256103516 167.306243896484 172.331253051758 175.393753051758 176.800003051758 175.706253051758 166.362503051758 157.631256103516 155.231246948242 151.34375 144.5625 138.074996948242 134.287506103516 136.425003051758 137.206253051758 
302.125 298.893737792969 297.21875 295.649993896484 294.412506103516 292.818756103516 290.318756103516 288.337493896484 290.825012207031 292.631256103516 289.543762207031 286.875 280.693756103516 271.200012207031 256.243743896484 255.987503051758 251.28125 247.3125 246.918746948242 247.387496948242 243.84375 231.543746948242 216.693756103516 202.087493896484 184.368743896484 172.162506103516 169.71875 168.287506103516 169.368743896484 166.899993896484 164.84375 158.574996948242 153.212493896484 148.243743896484 145.487503051758 150.518753051758 156.512496948242 162.574996948242 168.425003051758 169.493743896484 164.425003051758 157.856246948242 155.587493896484 155.300003051758 157.568756103516 151.6875 145.84375 141.862503051758 137.881256103516 142.506256103516 146.693756103516 
296.90625 295.443756103516 294.825012207031 292.912506103516 290.881256103516 289.987487792969 290.606262207031 290.674987792969 290.481262207031 288.450012207031 284.100006103516 279.225006103516 270.287506103516 260.081237792969 241.581253051758 239.712493896484 237.3125 236.743743896484 236.175003051758 235.256256103516 231.918746948242 222.368743896484 211.1875 202.993743896484 191.856246948242 181.331253051758 174.462493896484 170.324996948242 167.350006103516 162.96875 155.606246948242 148.725006103516 145.462493896484 138.293746948242 132.731246948242 135.981246948242 147.793746948242 157.243743896484 160.78125 158.475006103516 152.243743896484 150.568756103516 153.987503051758 153.574996948242 153.09375 152.4375 150.699996948242 150.362503051758 149.543746948242 148.899993896484 151.53125 
290.674987792969 288.881256103516 290.106231689453 289.762512207031 287.287506103516 288.518737792969 290.081237792969 289.6875 287.068756103516 285.21875 279.1875 272.087493896484 262.450012207031 253.537506103516 238.225006103516 222.518753051758 223.693756103516 228.293746948242 225.543746948242 224.34375 221.143753051758 216.837493896484 210.556243896484 206.512496948242 197.262496948242 185.881256103516 177.175003051758 169.899993896484 165.112503051758 161.037506103516 155.90625 147.875 137.725006103516 128.068756103516 121.818748474121 131.875 139.418746948242 147.087493896484 151.256256103516 151.412506103516 147.65625 146.793746948242 148.193756103516 145.550003051758 145.212493896484 146.456253051758 145.418746948242 144.837493896484 147.300003051758 147.981246948242 152.431243896484 
286.100006103516 285.0625 284.53125 285.725006103516 286.518737792969 285.793731689453 285.8125 284.674987792969 283.731262207031 281.143737792969 276.237487792969 270.162506103516 259.387512207031 248.774993896484 236.600006103516 224.181243896484 210.568756103516 213.5625 214.987503051758 214.818756103516 212.268753051758 208.675003051758 206.818756103516 207.649993896484 202.774993896484 185.787506103516 174.631256103516 167.324996948242 161.956253051758 157.699996948242 153.506256103516 148.15625 138.881256103516 130.256256103516 130.4375 133.568756103516 140.368743896484 147.15625 152.824996948242 148.231246948242 142.862503051758 140.987503051758 139.100006103516 139.168746948242 139.981246948242 142.012496948242 142.350006103516 145.106246948242 147.425003051758 145.818756103516 149.456253051758 
279.512512207031 280.631256103516 281.84375 282.231262207031 283.1875 285.368743896484 283.799987792969 281.1875 278.424987792969 276.443756103516 271.818756103516 268.243743896484 255.231246948242 246.456253051758 235.175003051758 224.512496948242 211.918746948242 199.793746948242 208.831253051758 207.568756103516 204.024993896484 201.237503051758 199.543746948242 200.96875 197.706253051758 183.706253051758 169.90625 164.237503051758 159.5625 153.237503051758 144.393753051758 136.931243896484 138.78125 136.412490844727 133.587493896484 141.631256103516 147.568756103516 148.65625 149.912506103516 146.637496948242 137.762496948242 135.037506103516 133.175003051758 133.506256103516 134.081253051758 137.331253051758 138.899993896484 140.731246948242 144.71875 141.53125 148.043746948242 
272.762512207031 274.8125 275.706237792969 278.881256103516 281.53125 281.737487792969 281.306243896484 280.125 277.268737792969 276.368743896484 270.012512207031 259.056243896484 248.46875 240.84375 230.606246948242 222.743743896484 214.168746948242 199.787506103516 195.25 195.887496948242 193.375 193.493743896484 181.699996948242 184.681243896484 182.350006103516 176.800003051758 168.787506103516 159.78125 155.100006103516 149.0625 142.649993896484 139.574996948242 139.800003051758 137.118743896484 135.793746948242 140.875 142.137496948242 141.149993896484 142.837493896484 138.318756103516 131.443756103516 127.84375 127.53125 129.175003051758 129.956253051758 131.637496948242 135.256256103516 137.931243896484 140.487503051758 134.84375 146.006256103516 
264.893737792969 268.075012207031 270.481262207031 271.6875 275.481262207031 280.643737792969 281.837493896484 280.375 277.387512207031 273.168762207031 269.287506103516 263.118743896484 256.262512207031 244.53125 232.15625 215.90625 202.431243896484 199.631256103516 194.037506103516 191.925003051758 182.837509155273 178.456253051758 177.012496948242 174.443740844727 169.125 160.887496948242 156.456253051758 153.699996948242 146.65625 139.943756103516 137.568756103516 142.1875 139.668746948242 135.399993896484 135.181243896484 137.550003051758 137.693756103516 136.46875 134.831253051758 131.693756103516 124.449996948242 120.824996948242 122.349998474121 124 126.574996948242 129.125 130.981246948242 133.71875 135.318756103516 131.931243896484 143.356246948242 
251.300003051758 263.137512207031 269.268737792969 270.481262207031 271.318756103516 279.375 283.543762207031 283.700012207031 281.1875 274.856262207031 269.606262207031 264.225006103516 254.1875 243.681243896484 229.425003051758 217.824996948242 203.137496948242 195.712493896484 194.21875 188.912506103516 187.78125 184.018753051758 179.1875 175.118743896484 169.849990844727 161.087493896484 152.112503051758 147.600006103516 143.918746948242 142.081253051758 142.418746948242 144.162506103516 138.181243896484 133.262496948242 131.493743896484 133.162506103516 133.943756103516 132.956253051758 130.3125 126.09375 122.237503051758 118.918746948242 117.893753051758 120.018753051758 122.362495422363 125.256248474121 128.381256103516 130.175003051758 128.412506103516 132.931243896484 139.75 
246.050003051758 249.793746948242 260.137512207031 268.668762207031 270.568756103516 275.231262207031 282.043762207031 286 284.543762207031 279.162506103516 272.662506103516 264.424987792969 253.962493896484 242.75 233.300003051758 219.65625 215.868759155273 205.975006103516 202.574996948242 195.256256103516 186.331253051758 181.75 177.1875 169.756256103516 160.625 154.425003051758 151.993743896484 147.34375 147.274993896484 147.143753051758 145.412506103516 143.368743896484 139.699996948242 136.149993896484 131.362503051758 130.293746948242 130.881256103516 129.662506103516 126.762496948242 122.887496948242 119.775001525879 116.887496948242 115.493751525879 116.231246948242 118.162498474121 120.856246948242 123.706253051758 126.650001525879 126.40625 133.600006103516 137.012496948242 
241.225006103516 252.887496948242 261.612487792969 269.799987792969 271.756256103516 275.193756103516 273.337493896484 278.981262207031 284.768737792969 280.875 272.362487792969 263.475006103516 257.481262207031 247.25 237.762496948242 226.800003051758 218.806243896484 210.737503051758 204.199996948242 197.237503051758 190.206253051758 180.456253051758 174.087509155273 165.506256103516 159.03125 151.506256103516 146.943740844727 146.300003051758 146.71875 146.375 144.362503051758 144.806243896484 142.631256103516 137.831253051758 133.5 128.068756103516 125.931251525879 125.581253051758 125.012496948242 121.09375 117.037498474121 114.587501525879 112.800003051758 112.887496948242 114.400001525879 115.868751525879 118.012496948242 120.681251525879 125.699996948242 133.306259155273 136.581253051758 
233.412506103516 247.600006103516 259.837493896484 265.75 267.231262207031 268.056243896484 275.899993896484 279.087493896484 278.418762207031 273.737487792969 268.625 266.174987792969 259.200012207031 252.050003051758 240.524993896484 229.618743896484 221.149993896484 214.743743896484 208.9375 202.800003051758 191.90625 182.743743896484 173.8125 167.618743896484 158.612503051758 148.293746948242 145.6875 145.606246948242 147.256256103516 150.306243896484 152.556243896484 154 151.28125 144.8125 138.425003051758 129.800003051758 127.925003051758 124.96875 122.53125 119.006248474121 114.46875 112.993751525879 111.831253051758 110.71875 111.724998474121 112.737503051758 114.287498474121 114.256248474121 122.431251525879 130.106246948242 135.84375 
231 245.912506103516 256.006256103516 265.825012207031 269.756256103516 272.049987792969 272.03125 275.456237792969 273.600006103516 271.318756103516 265.981262207031 261.46875 258.868743896484 251.768753051758 240.056243896484 231.34375 225.731246948242 218.443756103516 210.912506103516 204.65625 196.237503051758 185.112503051758 177.287490844727 169.131256103516 159.331253051758 153.081253051758 150.375 150.824996948242 152 157.90625 161.262496948242 166.699996948242 162.318756103516 154.193756103516 143.362503051758 134.637496948242 129.8125 122.962501525879 119.650001525879 116.1875 112.431251525879 110.331253051758 109.3125 107.275001525879 106.168746948242 107.006248474121 105.5 111.46875 116.625 125.275001525879 131.5625 
234.899993896484 251.087493896484 254.487503051758 262.706237792969 263.193756103516 264.337493896484 263.84375 266.256256103516 261.681243896484 256.762512207031 259.056243896484 258.131256103516 252.918746948242 247.675003051758 242.043746948242 233.625 228.181243896484 220.96875 213.287506103516 205.831253051758 197.725006103516 187.056243896484 179.331253051758 168.956253051758 161.368743896484 154.568756103516 155.824996948242 156.4375 157.350006103516 164.006256103516 171.393753051758 181.706253051758 176.868743896484 162.774993896484 149.037506103516 139.387496948242 130.287506103516 122.631248474121 116.300003051758 112.362503051758 109.181251525879 106.393753051758 104.324996948242 103.78125 103.743751525879 101.618751525879 106.425003051758 109.456253051758 113.806251525879 120.912498474121 124.387496948242 
237.831253051758 245.331253051758 251.887496948242 256.6875 256.65625 257.575012207031 256.256256103516 253.918746948242 251.5 254.487503051758 254.75 251.181243896484 249.237503051758 246.15625 240.793746948242 235.175003051758 227.993743896484 219.393753051758 216.143753051758 208.131256103516 198.125 189.037506103516 181.487503051758 174.287506103516 166.618759155273 160.275009155273 161.318756103516 162.0625 163.881256103516 168.912490844727 178.850006103516 188.949996948242 185.925003051758 167.256256103516 150.012496948242 138.456253051758 130.337493896484 120.631248474121 114.224998474121 110.137496948242 106.368751525879 103.9375 102.262496948242 100.706253051758 100.762496948242 102.518753051758 105.431251525879 106.887496948242 110.587501525879 112.125 114.368751525879 
242.568756103516 245.256256103516 248.668746948242 248.612503051758 249.237503051758 250.918746948242 250.306243896484 245.806243896484 245.59375 248.037506103516 247.181243896484 244.1875 243.268753051758 240.606246948242 237.725006103516 230.46875 226.681243896484 222.875 219.5 212.637496948242 202.793746948242 192.362503051758 186.962493896484 178.831253051758 171.787506103516 164.475006103516 165.90625 166.681243896484 169.074996948242 174.34375 182.412506103516 189.6875 182.412506103516 165.024993896484 149.725006103516 137.793746948242 127.506248474121 119.181251525879 113.737503051758 108.15625 103.512496948242 102.368751525879 101.112503051758 100.412498474121 98.9437484741211 98.5062484741211 100.5 104.287498474121 105.331253051758 104.40625 105.131248474121 
243.0625 244.449996948242 243.418746948242 242.387496948242 241.537506103516 238.03125 235.46875 236.337493896484 240.306243896484 239.53125 239.356246948242 238.887496948242 237.712493896484 238.393753051758 237.912506103516 235.225006103516 231.418746948242 225.9375 221.199996948242 215.199996948242 206.181243896484 195.931243896484 189.287506103516 181.293746948242 174.199996948242 165.787506103516 167.518753051758 170.074996948242 172.28125 175.887496948242 182.181243896484 185.125 175.018753051758 159.643753051758 146.824996948242 135.368743896484 125.599998474121 116.125 110.724998474121 105.150001525879 99.0687484741211 97.1812515258789 98.2937469482422 100.181251525879 99.90625 98.8062515258789 100.675003051758 103.318748474121 101.818748474121 99.9437484741211 98.0125045776367 
244.137496948242 242.65625 237.706253051758 231.793746948242 228.681243896484 228.587493896484 226.75 229.800003051758 231.637496948242 229.662506103516 231 232.056243896484 232.806243896484 235.199996948242 235.550003051758 234.287506103516 231.262496948242 229.762496948242 223.943756103516 215.787506103516 207.668746948242 199.868759155273 192.993743896484 184.350006103516 175.40625 171.03125 170.212493896484 169.78125 171.487503051758 174.074996948242 178.181243896484 177.981246948242 167.824996948242 155.256256103516 143.46875 131.587493896484 124.318748474121 115.287498474121 108.943748474121 105.40625 100.806251525879 98.3125 97.1500015258789 96.9124984741211 97.1624984741211 98.6125030517578 99.6125030517578 101.9375 101.03125 98.5374984741211 95.3249969482422 
244.693756103516 239.912506103516 231.625 226.53125 223.425003051758 222.043746948242 222.606246948242 222.149993896484 223.71875 223.975006103516 225.125 225.381256103516 229.918746948242 229.756256103516 231.131256103516 232.862503051758 232.53125 229.131256103516 225.087493896484 219.625 209.262496948242 200.625 194.34375 184.4375 176.21875 173.800003051758 171.8125 169.962493896484 171.074996948242 171.206253051758 173.731246948242 170.606246948242 160.625 149.600006103516 138.318756103516 126.806251525879 119.587501525879 112.65625 108.1875 103.637496948242 100.724998474121 97.8562469482422 96.0999984741211 94.1687469482422 95.1999969482422 97.9312515258789 99.8812484741211 100.700004577637 99.4812469482422 97.96875 95.1187515258789 
239.5 232.743743896484 225.131256103516 220.793746948242 218.943756103516 215.574996948242 218.231246948242 214.550003051758 215.318756103516 215.056243896484 216.068756103516 216.068756103516 220.300003051758 224.28125 226 229.637496948242 227.137496948242 223.706253051758 220.300003051758 216.15625 205.96875 198.649993896484 192.256256103516 184.493743896484 179.949996948242 175.131256103516 173.0625 169.881256103516 167.987503051758 167.631256103516 165.287506103516 162.168746948242 152.168746948242 142.056243896484 132.543746948242 122.443748474121 114.837501525879 108.693748474121 104.068748474121 101.875 98.8125 96.6687469482422 95.2437515258789 94.8499984741211 95.65625 101.287498474121 104.681251525879 103.262496948242 100.21875 98.0562515258789 95.7249984741211 
231.875 226.731246948242 219.65625 217.068756103516 212.96875 209.512496948242 210.043746948242 207.731246948242 207.962493896484 209.168746948242 213.537506103516 213.881256103516 217.149993896484 222.087493896484 222.90625 223.100006103516 221.34375 220.862503051758 215.15625 210.925003051758 201.1875 195.649993896484 188.731246948242 183.837493896484 179.625 176.125 172.5 169.681243896484 165.793746948242 162.824996948242 159.850006103516 154.862503051758 144.337493896484 136.943756103516 127.5625 120.118751525879 111.418746948242 105.537498474121 101.15625 100.068748474121 96.8187484741211 95.7937469482422 94.7062530517578 95.0374984741211 98.8499984741211 104.849998474121 107.143753051758 104.3125 100.393753051758 97.8812484741211 95.8062515258789 
224.643753051758 218.993743896484 215.743743896484 212.949996948242 210.887496948242 206.006256103516 203.84375 200.399993896484 199.475006103516 200.306243896484 203.53125 208.25 210.475006103516 213.006256103516 215.837493896484 218.475006103516 218.149993896484 216.262496948242 209.037506103516 203.087493896484 197.143753051758 192.550003051758 186.493743896484 180.787506103516 177.8125 173.9375 169.6875 166.03125 163.5 158.931243896484 154.262496948242 148.081253051758 138.868743896484 130.0625 122.275001525879 114.893753051758 108.012496948242 100.71875 98.0999984741211 96.125 92.9749984741211 93.15625 93.6812515258789 94.125 99.3687515258789 105.037498474121 105.856254577637 100.918746948242 97.7937469482422 95.8937530517578 94.7125015258789 
215.699996948242 211.074996948242 209.612503051758 209 207.681243896484 202.59375 196.362503051758 193.181243896484 188.743743896484 189.9375 194.631256103516 200.0625 206.337493896484 211.399993896484 213.243743896484 214.449996948242 213.168746948242 210.993743896484 204.162506103516 196 190.862503051758 185.331253051758 181.550003051758 176.600006103516 173.65625 170.581253051758 168.443756103516 165.512496948242 162.112503051758 156.850006103516 149.693756103516 142.34375 132.056243896484 124.318748474121 113.862503051758 107.987503051758 100.768753051758 97.1687469482422 94.5562515258789 91.8874969482422 89.125 88.21875 88.6437530517578 89.9124984741211 94.2249984741211 97.9749984741211 99.2062530517578 97.5812530517578 94.65625 93.0437469482422 93.4500045776367 
209.34375 207 203.925003051758 202.399993896484 200.03125 195.024993896484 188.212493896484 185.3125 181.368743896484 179.387496948242 182.681259155273 192.862503051758 202.612503051758 206.71875 209.606246948242 209.356246948242 207.412506103516 202.368743896484 197.856246948242 189.881256103516 185.387496948242 180.550003051758 176.524993896484 173.018753051758 169.8125 166.568756103516 166.637496948242 164.40625 159.268753051758 152.837493896484 145.6875 137.725006103516 127.618751525879 117.706253051758 108.943748474121 103.018753051758 99.9875030517578 94.46875 92.1687469482422 91.2437515258789 88.2687530517578 88.4124984741211 87.8249969482422 88.6187515258789 90.1374969482422 92.8625030517578 94.1999969482422 93.7687530517578 93.5374984741211 91.9875030517578 92.3812484741211 
204.28125 203.649993896484 200.368743896484 198.443756103516 196.899993896484 190.4375 184.449996948242 178.668746948242 173.606246948242 166.862503051758 176.793746948242 195.456253051758 203.40625 205.399993896484 206.118743896484 204.756256103516 200.443756103516 194.743759155273 190.206253051758 181.59375 178.456253051758 174.59375 169.800003051758 166.899993896484 164.731246948242 163.881256103516 162.756256103516 160.324996948242 155.800003051758 149.524993896484 142.612503051758 135.043746948242 124.637496948242 113.493751525879 105.643753051758 101.59375 97.9625015258789 94.125 91.3000030517578 89.1999969482422 86.4499969482422 85.3499984741211 86.65625 87.625 88.5124969482422 88.8249969482422 92.25 90.5374984741211 89.75 89.6374969482422 90.7874984741211 
200.587493896484 199.743743896484 198.662506103516 195.962493896484 195.46875 190.181243896484 184.481246948242 177.612503051758 172.556243896484 165.762496948242 186.625 205.34375 207.862503051758 207.6875 205.293746948242 201.71875 195.768753051758 190.643753051758 183.818756103516 177.162506103516 171.568756103516 168.074996948242 164.050003051758 161.550003051758 159.693756103516 158.78125 156.225006103516 157.53125 154.600006103516 146.643753051758 138.293746948242 130.774993896484 121.762496948242 110.456253051758 101.268753051758 98.0812530517578 96.1062469482422 92.5250015258789 91.4375 88.3687515258789 85.96875 85.0687484741211 83.59375 82.9625015258789 84.2249984741211 85.9124984741211 87.4749984741211 88.4812469482422 86.9812469482422 87.0062484741211 88.9812469482422 
197.543746948242 196.399993896484 194.943756103516 193.550003051758 190.106246948242 186.324996948242 183.862503051758 182.331253051758 184.106246948242 194.25 218.662506103516 219.65625 212.381256103516 209.043746948242 204.856246948242 199.881256103516 194.037506103516 187.806243896484 181.143753051758 173.09375 165.725006103516 160.068756103516 157.350006103516 156.512496948242 153.71875 152.506256103516 152.625 153.787506103516 149.993743896484 144.449996948242 135.456253051758 125.681251525879 118.724998474121 111.15625 105.431251525879 101.5625 98.0999984741211 96.15625 92.7249984741211 88.6500015258789 87.4875030517578 86.3125 84.0437469482422 84.15625 84.4562454223633 85.9562454223633 85.9875030517578 87.1374969482422 88.3187484741211 88.8562469482422 90.21875 
197.887496948242 195.487503051758 194.931243896484 193.056243896484 190.925003051758 187.725006103516 184.693756103516 189 194.649993896484 204.46875 214.225006103516 217.706253051758 211.668746948242 206.512496948242 203.949996948242 196.793746948242 189.412506103516 182.412506103516 174.625 167.818756103516 159.25 153.956253051758 148.818756103516 147.925003051758 147.143753051758 147.175003051758 146.774993896484 147.300003051758 144.675003051758 139.793746948242 133.681243896484 127.918746948242 121.306251525879 115.456253051758 110.324996948242 105.800003051758 101.706253051758 99.5062484741211 95.7937469482422 90.0250015258789 87.8499984741211 86.5812530517578 83.6687469482422 82.2375030517578 84.0250015258789 84.84375 85.96875 87.7562484741211 89.5250015258789 89.9625015258789 92.0124969482422 
197.262496948242 196.068756103516 195.481246948242 194.5 190.893753051758 186.59375 186.84375 193.693756103516 197.3125 202.875 208.993743896484 209.46875 208.28125 203.375 199.774993896484 193.149993896484 185.362503051758 177.21875 169.306243896484 161.887496948242 153.4375 146.418746948242 140.581253051758 139.537506103516 140.506256103516 140.712493896484 140.625 141.59375 140.387496948242 135.65625 133.574996948242 130.5 126.650001525879 121.831253051758 115.40625 112.068748474121 109.074996948242 105.606246948242 98.9499969482422 93.3687515258789 88.4375 84.2624969482422 81.8562469482422 82.3062515258789 84.1374969482422 85.8687515258789 86.5 87.4187469482422 91.4625015258789 92.9625015258789 94.4375 
197.5625 196.4375 197.056243896484 196.0625 192.5625 191.793746948242 192.862503051758 195.774993896484 199.462509155273 200.443756103516 203.681243896484 203.887496948242 203.981246948242 198.612503051758 192.856246948242 187.862503051758 180.356246948242 173.537506103516 166.737503051758 156.5625 147.574996948242 139.493743896484 131.5625 131.143753051758 132.006256103516 132.412506103516 133.256256103516 136.243743896484 138.1875 134.943756103516 131.050003051758 131.25 128.712493896484 129.131256103516 123.831253051758 117.875 113.21875 108.037498474121 103.175003051758 96.8625030517578 90.5625 84.0687484741211 80.7937469482422 83.09375 86.5062484741211 87.7437515258789 88.0812530517578 89.4562454223633 92.3499984741211 93.5812530517578 95.4812469482422 
197.381256103516 198.493743896484 200.15625 194.824996948242 195.862503051758 195.59375 194.381256103516 195.175003051758 196.693756103516 197.03125 199.212493896484 198.875 197.012496948242 193.606246948242 188.581253051758 182.425003051758 173.981246948242 170.387496948242 163.381256103516 149.637496948242 138.475006103516 128.756256103516 123.53125 125.737495422363 126.424995422363 127.637496948242 128.987503051758 132.112503051758 133.612503051758 133.506240844727 132.256256103516 130.65625 131.28125 133.518753051758 134.024993896484 129.399993896484 120.40625 115.081253051758 108.168746948242 101.987503051758 95.3187484741211 88.8562469482422 84.1999969482422 85.7437515258789 88.6062469482422 89.6750030517578 90.2375030517578 91.9000015258789 95.8249969482422 95.1750030517578 97.1875 
200.237503051758 200.581253051758 202.675003051758 198.518753051758 199.40625 198.262496948242 195.137496948242 196.28125 197.181243896484 197.199996948242 196.800003051758 195.962493896484 194.28125 190.524993896484 186.574996948242 179.600006103516 171.8125 167.631240844727 163.106246948242 149.462493896484 134.90625 121.956253051758 117.631248474121 120.112503051758 121.974998474121 122.537498474121 123.737503051758 126.724998474121 128.524993896484 128.618743896484 129.831253051758 129.537506103516 131.668746948242 136.681243896484 140.5 141.106246948242 132.568756103516 123.231246948242 116.074996948242 107.537498474121 99.5374984741211 94.5124969482422 91.90625 92.09375 92.4937515258789 92.9375 94.4312515258789 94.3625030517578 95.4312515258789 97.9187469482422 98.4312515258789 
199.106246948242 203 203.418746948242 202.3125 201.65625 199.643753051758 193.568756103516 193.368743896484 192.206253051758 192.949996948242 192.456253051758 192.162506103516 190.449996948242 186.40625 182.337493896484 176.681243896484 168.25 161.412506103516 155.90625 143.375 131.425003051758 119.34375 114.581253051758 115.5 117.875 119.1875 121.0625 122.25 124.300003051758 125.693748474121 127.550003051758 128.112503051758 130.824996948242 133.90625 139.550003051758 143.53125 135.943756103516 126.837501525879 119.65625 112.5 104.46875 100.768753051758 97.3062515258789 96.7687530517578 96.8687515258789 95.9499969482422 96.8249969482422 97.09375 96.7249984741211 99.8625030517578 100.15625 
