ncols        51
nrows        45
xllcorner    -63.500000000000
yllcorner    -7.500000000000
cellsize     0.166666666667
NODATA_value -99
225.71875 232.53125 227.831253051758 227.943756103516 225.037506103516 218.012496948242 206.71875 195.512496948242 185.412506103516 178.993743896484 176.368743896484 176.087493896484 176.21875 174.162506103516 174.46875 174.899993896484 177.462493896484 177.0625 179.043746948242 180.668746948242 183.181243896484 184.800003051758 187.274993896484 189.3125 193.418746948242 197.893753051758 204.725006103516 215.050003051758 224.618743896484 230.625 240.368743896484 247.481246948242 254.03125 262.456237792969 270.0625 275.912506103516 280.256256103516 284.9375 289.950012207031 293.399993896484 297.0625 300.056243896484 301.412506103516 303.662506103516 302.243743896484 302.887512207031 302.331237792969 302.25 302.34375 305.006256103516 305.481262207031 
235.943756103516 245.556243896484 249.237503051758 252.850006103516 254.5 246.981246948242 235.143753051758 224.774993896484 216.893753051758 210.212493896484 206.337493896484 204.162506103516 202.443756103516 199.668746948242 198.34375 197.762496948242 198.743743896484 200.324996948242 202.175003051758 204.237503051758 206.524993896484 208.568756103516 211.625 214.150009155273 217.318756103516 221.412506103516 227.175003051758 236.71875 244.537506103516 249.606246948242 256.256256103516 263.981262207031 268.018737792969 276.3125 280.756256103516 286.4375 291.606262207031 295.543762207031 299.6875 301.975006103516 305.631256103516 307.743743896484 308.3125 309.450012207031 308.806243896484 309.40625 308.306243896484 308.6875 310.981262207031 314.450012207031 314.756256103516 
241.53125 253.65625 261.53125 268.625 272.368743896484 266.987487792969 260.581237792969 254.768737792969 248.662506103516 243.600006103516 237.487503051758 232.993743896484 230.137496948242 226.649993896484 224.274993896484 223.725006103516 223.59375 225.143753051758 226.087493896484 227.506256103516 230.056243896484 232.725006103516 234.568756103516 237.4375 240.693756103516 242.943756103516 248.125 256.1875 261.78125 264.71875 270.575012207031 276.518737792969 280.75 285.487487792969 291.931243896484 295.225006103516 300.618743896484 306.3125 309.418762207031 312.318756103516 314.987487792969 315.674987792969 315.15625 314.450012207031 315.0625 314.524993896484 313.875 313.84375 315.756256103516 318.950012207031 319.737487792969 
243.856246948242 259.037506103516 272.818756103516 282.518737792969 289.524993896484 286.600006103516 284.4375 283.424987792969 281.756256103516 278.225006103516 271.118743896484 263.456237792969 257.506256103516 252.612503051758 250.112503051758 248.762496948242 249.587493896484 251.268753051758 252.143753051758 252.581253051758 255.925003051758 257.393737792969 257.393737792969 259.712493896484 262.493743896484 264.181243896484 268.28125 272.637512207031 276.631256103516 279.100006103516 281.649993896484 287.6875 290.637512207031 294.231262207031 299.118743896484 304.543762207031 310.625 316.681243896484 320.887512207031 322.631256103516 322.893737792969 323.325012207031 322.168762207031 319.806243896484 320.174987792969 318.668762207031 318.231262207031 318.806243896484 318.112487792969 320.96875 322.46875 
253.006256103516 267.262512207031 279.818756103516 293.649993896484 304.043762207031 304.362487792969 303.975006103516 306.918762207031 310.362487792969 311.03125 302.456237792969 290.850006103516 283.362487792969 279.399993896484 275.46875 274.668762207031 274.837493896484 277.462493896484 276.931243896484 275.975006103516 279.46875 279.825012207031 280.556243896484 282.806243896484 284.5 285.700012207031 286.537506103516 288.950012207031 293.75 292.53125 294.681243896484 296.931243896484 301.168762207031 304.943756103516 309 315.006256103516 321.068756103516 326.725006103516 331.231262207031 331.662506103516 332.28125 330.225006103516 327.518737792969 325.268737792969 324.012512207031 322.225006103516 321.493743896484 320.681243896484 319.6875 321.243743896484 324.1875 
260.206237792969 275.28125 290.5625 302.200012207031 309.662506103516 311.356262207031 311.962493896484 314.612487792969 319.662506103516 323.375 312.668762207031 301.443756103516 296.337493896484 292.28125 290.168762207031 290.100006103516 291.456237792969 294.537506103516 296.09375 295.481262207031 297.96875 299.362487792969 300.368743896484 301.056243896484 301.762512207031 303.206237792969 303.112518310547 303.09375 304.475006103516 303.831237792969 303.918762207031 305.875 307.918762207031 314.181243896484 319.806243896484 325.237487792969 333.268737792969 339.356262207031 343.493743896484 344.881256103516 342.6875 340.03125 336.350006103516 332.662506103516 330.193756103516 326.71875 324.518737792969 323.075012207031 321.799987792969 320.424987792969 318.918762207031 
265.15625 279.412506103516 294.181243896484 304.125 309.649993896484 310.268737792969 310.393737792969 309.818756103516 309.174987792969 308.3125 306.65625 302.731262207031 301.350006103516 300.337493896484 300.524993896484 301.731262207031 304.193756103516 307.100006103516 309.318756103516 312.899993896484 314.78125 317.5 318.318756103516 318.59375 319.024993896484 318.743743896484 317.706237792969 315.887512207031 313.725006103516 310.887512207031 312.837493896484 313.649993896484 315.737487792969 319.850006103516 325.993743896484 333.46875 341.049987792969 348.024993896484 355.162506103516 354.506256103516 348.556243896484 345.424987792969 340.956237792969 336.731262207031 336.112518310547 330.100006103516 325.887512207031 323.543762207031 317.868743896484 317.125 316.924987792969 
266.206237792969 279.149993896484 291.875 302.493743896484 310.100006103516 310.087493896484 305.768737792969 298.256256103516 290.149993896484 289.618743896484 296.081237792969 300.0625 304.25 307.15625 309.137512207031 311.924987792969 313.606262207031 316.293762207031 320.287506103516 325.618743896484 329.725006103516 333.368743896484 335.462493896484 334.837493896484 336.399993896484 333.96875 330.043762207031 326.450012207031 321.53125 317.681243896484 317.075012207031 320.068756103516 321.256256103516 325.081268310547 330.831237792969 338.28125 346.481262207031 353.575012207031 359.118743896484 357.306243896484 351.78125 347.825012207031 342.8125 337.831237792969 336.037506103516 330.15625 321.700012207031 315.331237792969 312.787506103516 309.712493896484 308.706237792969 
267.200012207031 278.912506103516 291.950012207031 303.037506103516 310.256256103516 309.824981689453 304.75 295.09375 280.34375 276.200012207031 288.100006103516 296.918762207031 304.918762207031 308.53125 312.712493896484 317.393737792969 320.287506103516 323.212493896484 329.037506103516 334.581237792969 336.487487792969 342.237487792969 345.162506103516 350.125 351.631256103516 347.59375 339.768737792969 332.981262207031 328.325012207031 322.4375 321.237487792969 323.243743896484 324.4375 327.350006103516 331.6875 340.075012207031 350.150024414062 357.075012207031 361.881256103516 359.75 354.46875 349.631256103516 344.462493896484 338.606262207031 333.875 327.5 318.90625 310.1875 304.068756103516 299.0625 297.299987792969 
268.149993896484 278.756256103516 291.100006103516 302.25 310.787506103516 311.262512207031 308.049987792969 300.649993896484 290.043762207031 286.856262207031 293.293762207031 298.649993896484 306.09375 310.931243896484 316.087493896484 322.237487792969 327.262512207031 330.306243896484 335.09375 340.274993896484 342.674987792969 349.399993896484 356.5 365.287506103516 364.8125 359.856262207031 350.606262207031 341.4375 333.600006103516 325.381256103516 321.9375 324.549987792969 326.862487792969 330.6875 334.556243896484 342.237487792969 351.462493896484 359.362487792969 364.256256103516 363.53125 359.293762207031 354.243743896484 345.987487792969 335.293762207031 330.668762207031 326.056243896484 317.674987792969 307.575012207031 297.512512207031 290.731262207031 286.806243896484 
268.8125 278.881256103516 290.412506103516 302.09375 312.262512207031 315.075012207031 314.112487792969 308.731262207031 302.212493896484 300.431243896484 302.768737792969 306.418762207031 310.756256103516 316.006256103516 321.856262207031 327.975006103516 333.424987792969 336.481262207031 339.4375 343.912506103516 348.975006103516 356.768737792969 368.09375 375.450012207031 379.831237792969 371.137512207031 359.743743896484 351.225006103516 340.893737792969 329.631256103516 325.850006103516 326.131256103516 327.75 331.34375 335.681243896484 342.59375 351.03125 358.987487792969 364.143737792969 365.618743896484 362.056243896484 354.774993896484 343.799987792969 331.306243896484 325.393737792969 320.356262207031 310.162506103516 296.881256103516 287.15625 283.46875 276.975006103516 
269.34375 279.40625 291.168762207031 304.006256103516 314.018737792969 319.362487792969 321.625 319.274993896484 314.868743896484 312.587493896484 313.268737792969 315.587493896484 318.506256103516 323.174987792969 331.174987792969 337.056243896484 339.762512207031 341.068756103516 343.274993896484 346.231262207031 348.924987792969 358.193756103516 373.174987792969 387.318756103516 389.362487792969 374.012512207031 360.762512207031 351.6875 344.412506103516 336.637512207031 329.149993896484 326.46875 326.806243896484 329.225006103516 332.381256103516 340.981262207031 350.350006103516 358.462493896484 363.112487792969 366.28125 364.200012207031 354.568756103516 339.206237792969 320.475006103516 310.087493896484 300.956237792969 288.737487792969 279.850006103516 275.256256103516 274.318756103516 267.949981689453 
269.737487792969 279.387512207031 291.90625 304.256256103516 315.612487792969 322.868743896484 326.450012207031 327.399993896484 324.15625 323.424987792969 325.193756103516 327.243743896484 331.037506103516 333.318756103516 339.950012207031 344.893737792969 346.368743896484 347.46875 349.649993896484 349.987487792969 348.537506103516 357.012512207031 371.168762207031 382.100006103516 376.806243896484 364.487487792969 358.931243896484 353.293762207031 348.018737792969 341.381256103516 333.956237792969 327.462493896484 325.350006103516 326.575012207031 329.068756103516 336.418762207031 346.024993896484 354.756256103516 361.274993896484 366.674987792969 367 354.674987792969 330.793762207031 308.243743896484 294.200012207031 288.006256103516 279.075012207031 270.412506103516 266.512512207031 267.3125 268.868743896484 
268.975006103516 279.09375 291.706237792969 304.443756103516 317.0625 323.6875 329.862487792969 334.65625 334.90625 334.962493896484 336.325012207031 339.331237792969 342.643737792969 346.918762207031 348.65625 353.018737792969 353.743743896484 353.506256103516 354.368743896484 355.306243896484 356.25 361.225006103516 368.987487792969 372.768737792969 368.262512207031 361.681243896484 357.837493896484 353.537506103516 348.981262207031 342.931243896484 337.012512207031 329.8125 324.174987792969 322.03125 323.299987792969 331.537506103516 342.293762207031 350.743743896484 356.787506103516 361.331237792969 361.081237792969 343.037506103516 321.149993896484 302.231262207031 289.712493896484 281.850006103516 274.65625 270.168762207031 266.09375 268.043762207031 273.881256103516 
268.825012207031 278.493743896484 291.731262207031 306.450012207031 320.149993896484 327.475006103516 335.706237792969 342.881256103516 344.393737792969 345.806243896484 348.893737792969 352.356262207031 356.081237792969 359.899993896484 358.856262207031 361.549987792969 361.412506103516 362.068756103516 361.674987792969 361.956237792969 363.618743896484 366.362487792969 369.774993896484 370.581237792969 368.212493896484 365.4375 361.46875 357.03125 353.231262207031 347.799987792969 339.037506103516 330.206237792969 324.368743896484 317.412506103516 315.181243896484 325.168762207031 337.587493896484 346.21875 347.9375 345.90625 338.149993896484 326.306243896484 314.112487792969 298.799987792969 288.537506103516 281.331237792969 276.137512207031 272.049987792969 270.581237792969 269.75 272.993743896484 
266.731262207031 277.543762207031 291.993743896484 307.556243896484 322.493743896484 332.693756103516 341.21875 348.875 354.018737792969 358.200012207031 361.431243896484 366.450012207031 370.943756103516 374.206237792969 372.887512207031 371.431243896484 369.793762207031 370.181243896484 369.193756103516 369.700012207031 369.856262207031 370.412506103516 371.662506103516 370.743743896484 368.274993896484 366.8125 363.799987792969 360.75 358.78125 353.131256103516 345.362487792969 335.200012207031 325.90625 318.200012207031 313.806243896484 328.918762207031 339.068756103516 340.081237792969 336.306243896484 331.056243896484 322.487487792969 314.524993896484 305.600006103516 294.174987792969 285.318756103516 279.012512207031 273.068756103516 268.850006103516 267.087493896484 265.693756103516 266.487487792969 
265.337493896484 277.600006103516 291.8125 308.481262207031 325.081237792969 336.118743896484 347.206237792969 356.40625 363.006256103516 369.237487792969 373.706237792969 380.424987792969 386.293762207031 388.575012207031 388.287506103516 384.300018310547 378.006256103516 375.831237792969 376.03125 375.743743896484 374.96875 374.84375 375.4375 373.325012207031 371.043762207031 367.28125 364.9375 363.606262207031 361.287506103516 357.768737792969 351.21875 341.487487792969 332.875 328.850006103516 336.149993896484 347.068756103516 347.243743896484 339.950012207031 329.59375 319.924987792969 312.75 306.15625 297.299987792969 287.918762207031 281.443756103516 275.662506103516 269.675018310547 266.731262207031 265.831237792969 262.174987792969 261.518737792969 
264.524993896484 277.762512207031 293.324981689453 310.956237792969 328.024993896484 339.756256103516 350.993743896484 362.125 371.450012207031 379.774993896484 387.21875 396.475006103516 401.59375 405.456237792969 404.056243896484 398.09375 391.112487792969 381.043762207031 384.456237792969 383.943756103516 384.012512207031 382.34375 380.256256103516 376.34375 372.53125 370.350006103516 366.106262207031 365.743743896484 365.3125 362.131256103516 354.462493896484 339.59375 333.049987792969 334.731262207031 347.774993896484 366.893737792969 354.956237792969 338.59375 324.087493896484 314.46875 304.662506103516 297.831237792969 290.331237792969 281.774993896484 275.8125 271.78125 267.193756103516 265.118743896484 264.712493896484 260.075012207031 259.674987792969 
263.268737792969 277.575012207031 293.225006103516 311.212493896484 329.725006103516 343.587493896484 356.262512207031 368.581237792969 379.59375 390.40625 400.125 407.306243896484 415.774993896484 421.850006103516 417.693756103516 409.84375 400.862487792969 389.862487792969 387.012512207031 387.556243896484 389.362487792969 389.012512207031 380.418762207031 376.03125 372.575012207031 370.625 367.831237792969 365.387512207031 365.375 364.181243896484 358.193756103516 339.674987792969 327.487487792969 321.037506103516 327.368743896484 342.53125 337.168762207031 326.881256103516 317.487487792969 307.493743896484 298.681243896484 291.006256103516 284.143737792969 276.799987792969 271.518737792969 268.131256103516 265.25 264.106231689453 263.368743896484 255.543746948242 258.28125 
259.268737792969 275.418762207031 291.5625 310.106262207031 329.831237792969 346.274993896484 360.956237792969 374.96875 388.106262207031 400.006256103516 410.75 418 428.25 437.237487792969 429.0625 414.8125 401.112487792969 396.049987792969 391.15625 390.174987792969 387.575012207031 383.318756103516 379.793731689453 373.725006103516 369.331237792969 365.84375 363.543762207031 362.5625 360 355.96875 347.274993896484 332.274993896484 313.100006103516 295.462493896484 285.59375 296.393737792969 309.306243896484 311.524993896484 308.212493896484 301.868743896484 293.412506103516 285.84375 279.787506103516 273.450012207031 269.306243896484 266.693756103516 264.431243896484 262.881256103516 260.362487792969 252.125 256.743743896484 
253.606246948242 271.943756103516 290.512512207031 310.087493896484 330.618743896484 349.606262207031 367.71875 383.918762207031 398.5 408.756256103516 415.350006103516 420.881256103516 426.962493896484 434.90625 428.3125 413.75 400.837493896484 392.375 388.987487792969 385.643737792969 383.325012207031 381.056243896484 377.012512207031 372.487487792969 368.368743896484 364.84375 361.556243896484 357.700012207031 353.450012207031 348.649993896484 338.325012207031 323.043762207031 301.881256103516 277.412506103516 254.800003051758 269.587493896484 291.993743896484 301.912506103516 302.706237792969 297.875 290.524993896484 284.012512207031 276.462493896484 270.1875 267.456237792969 265.1875 263.46875 262.075012207031 256.243743896484 252.324996948242 255.837493896484 
248.600006103516 266.993743896484 287.6875 308.65625 330.862487792969 352.8125 373.956237792969 393.762512207031 409.381256103516 416.112487792969 416.087493896484 415.200012207031 415.237487792969 418.537506103516 415.668762207031 408.912506103516 402.71875 395.3125 389.962493896484 384.65625 377.756256103516 372.21875 370.274993896484 364.662506103516 360.793762207031 359.649993896484 360.193756103516 355.918762207031 350.524993896484 344.424987792969 332.875 317.799987792969 299.743743896484 281.96875 270.649993896484 277.875 293.712493896484 303.068756103516 303.706237792969 297.606262207031 289.199981689453 282.381256103516 275.15625 268.931243896484 266.706237792969 264.893737792969 263.412506103516 261.568756103516 255.118743896484 255.449996948242 255.368743896484 
247.143753051758 266.737487792969 287.487487792969 309.799987792969 332.649993896484 355.081237792969 377.331237792969 402.3125 422.162506103516 423 416.318756103516 406.318756103516 399.25 401.256256103516 404.131256103516 403.375 399.981262207031 393.681243896484 387.268737792969 380.868743896484 372.268737792969 363.412506103516 357.412506103516 351.487487792969 350.549987792969 352.212493896484 353.825012207031 351.21875 345.412506103516 338.299987792969 328.412506103516 318.149993896484 307.818756103516 297.168762207031 293.912506103516 298.431243896484 306.393737792969 310.493743896484 307.549987792969 299.431243896484 289.40625 281.725006103516 274.46875 267.418731689453 265.487487792969 264.875 264.225006103516 261.600006103516 257.881256103516 258 256.46875 
251.368743896484 271.318756103516 293.456237792969 317.299987792969 341.431243896484 363.024993896484 386.350006103516 410.649993896484 427.09375 423.625 412.162506103516 400.399993896484 386.668762207031 388.837493896484 395.100006103516 397.456237792969 396.924987792969 391.78125 383.362487792969 375.181243896484 364.5 353.350006103516 344.8125 338.506256103516 336.09375 338.024993896484 341.087493896484 342.03125 339.443756103516 336.268737792969 331.318756103516 324.506256103516 318.137512207031 312.793762207031 312.15625 316.450012207031 320.075012207031 317.21875 309.725006103516 300.037506103516 289.681243896484 280.950012207031 273.274993896484 265.462493896484 264.962493896484 265.225006103516 265.481262207031 261.537506103516 263.350006103516 259.506256103516 257.8125 
261.306243896484 280.387512207031 301.268737792969 326.181243896484 352.725006103516 373.649993896484 392.981262207031 411.8125 421.806243896484 420.681243896484 413.637512207031 401.287506103516 392.631256103516 391.149993896484 392.862487792969 395.875 395.306243896484 390.518737792969 382.662506103516 371.306243896484 356.756256103516 342.9375 330.899993896484 321.318756103516 320.587493896484 327.0625 330.756256103516 335.431243896484 335.662506103516 337.693756103516 335.59375 331.549987792969 328.512512207031 325.456237792969 324.037506103516 322.631256103516 322.643737792969 318.287506103516 309.431243896484 300.65625 290.325012207031 280.862518310547 271.274993896484 265.068756103516 261.399993896484 262.131256103516 262.087493896484 267.149993896484 268.856262207031 263.537506103516 259.806243896484 
276.243743896484 296.056243896484 314.399993896484 338.993743896484 363.193756103516 381.381256103516 397.625 412.293762207031 418.168762207031 417.612487792969 413.1875 406.131256103516 400.112487792969 396.431243896484 396.318756103516 398.568756103516 396.631256103516 392.168731689453 384.662506103516 370.174987792969 354.543762207031 335.393737792969 317.318756103516 303.393737792969 306.018737792969 317.112487792969 326.143737792969 331.137512207031 334.356262207031 339.293762207031 340.774993896484 340.475006103516 339.512512207031 335.206237792969 330.912506103516 326.34375 322.981262207031 317.443756103516 309.337493896484 300.143737792969 290.450012207031 280.024993896484 268.043762207031 260.806243896484 258.03125 258.931243896484 269.231262207031 275.237487792969 274.65625 271.174987792969 266.03125 
298.03125 314.856262207031 332.768737792969 352.918762207031 373.006256103516 387.837493896484 399.893737792969 410.481262207031 414.831237792969 416.668762207031 415.993743896484 411.931243896484 408.087493896484 405.737487792969 405.643737792969 405.912506103516 405.674987792969 398.756256103516 388.868743896484 375.612487792969 356.337493896484 334.806243896484 310.625 294.25 302.0625 313.475006103516 323.831237792969 329.112487792969 333.412506103516 339.475006103516 343.443756103516 346.875 347.712493896484 340.75 333.618743896484 327.649993896484 322.943756103516 316.15625 308.600006103516 300.481231689453 289.975006103516 278.96875 266.274993896484 257.71875 261.350006103516 269.618743896484 280.21875 283.649993896484 283.768737792969 277.293762207031 273.356262207031 
322.65625 338.100006103516 353.287506103516 369.700012207031 384.087493896484 394.600006103516 405.393737792969 412.981262207031 416.362487792969 418.674987792969 418.34375 416.325012207031 415.206237792969 414.693756103516 414.606262207031 414.274993896484 414.299987792969 409.606262207031 399.668762207031 386.237487792969 367.03125 344.662506103516 326.493743896484 312.4375 313.024993896484 320.03125 327.306243896484 332.399993896484 335.674987792969 339.90625 343.475006103516 345.856262207031 346 339.243743896484 332.268737792969 326.174987792969 319.306243896484 313.34375 307.243743896484 301.262512207031 294.162506103516 282.462493896484 267.206237792969 258.46875 269.993743896484 280.5625 290.981262207031 293.243743896484 292.131256103516 284.962493896484 279.475006103516 
346.225006103516 361.03125 373.193756103516 384.543762207031 397.381256103516 404.118743896484 409.456237792969 414.84375 418.306243896484 419.981262207031 421.606262207031 421.65625 421.90625 423.46875 425.256256103516 426.950012207031 429.28125 424.918762207031 416.543762207031 404.075012207031 385.024993896484 363.84375 347.762512207031 333.09375 329.774993896484 330.537506103516 333.825012207031 336.912506103516 338.693756103516 341.65625 342.512512207031 342.637512207031 341.674987792969 336.325012207031 330.168762207031 323.71875 315.768737792969 309.475006103516 304.206237792969 298.5 295.237518310547 284.131256103516 269.818756103516 268.043762207031 282.306243896484 293.443756103516 302.337493896484 304.712493896484 301.131256103516 294.575012207031 284.737487792969 
363.987487792969 376.950012207031 385.6875 393.825012207031 403.118743896484 406.287506103516 410.5625 414.918762207031 418.256256103516 419.837493896484 422.112518310547 425.337493896484 429.168762207031 432.887512207031 436.350006103516 439.893737792969 443.53125 446.568756103516 441.237487792969 425.768737792969 405.612487792969 385.71875 368.943756103516 354.0625 345.674987792969 342.493743896484 342.375 341.668762207031 340.256256103516 340.943756103516 341.03125 339.1875 336.881256103516 333.568756103516 328.256256103516 320.412506103516 311.737487792969 305.25 297.075012207031 291.287506103516 288.731231689453 285.881256103516 279.731262207031 282.9375 290.993743896484 305.03125 315.549987792969 316.962493896484 312.424987792969 305.21875 294.806243896484 
377.787506103516 388.524993896484 394.424987792969 401.068756103516 408.09375 408.681243896484 412.793762207031 415.84375 418.293762207031 420.206237792969 423.243743896484 427.412506103516 433.475006103516 438.225006103516 444.174987792969 450.956237792969 459.762512207031 465 465.693756103516 449.799987792969 428.174987792969 406.256256103516 389.693756103516 372.625 360 354.549987792969 349.850006103516 345 341.631256103516 340.625 339.78125 338.362487792969 335.450012207031 331.768737792969 326.662506103516 316.987487792969 307.668762207031 300.868743896484 291.549987792969 280.424987792969 279.899993896484 285.768737792969 288.850006103516 294.112487792969 302.581237792969 320.912506103516 331.056243896484 332.09375 326.381256103516 316.793731689453 304.700012207031 
386.65625 395.59375 399.381256103516 403.75 409.325012207031 409.168762207031 412.625 414.087493896484 416.087493896484 418.299987792969 421.850006103516 427.28125 433.850006103516 442.368743896484 451.643737792969 461.506256103516 468.318756103516 473.581237792969 474.8125 465.418762207031 443.868743896484 424.368743896484 405.850006103516 386.8125 374.587493896484 364.668762207031 355.818756103516 349.518737792969 342.337493896484 340.90625 339.825012207031 337.868743896484 333.487487792969 329.375 324.112487792969 314.143737792969 305.5625 297.306243896484 286.181243896484 278.581237792969 281.674987792969 292 299.774993896484 310.831237792969 322.387512207031 342.756256103516 353.743743896484 351.387512207031 341.081237792969 328.168762207031 314.34375 
380.956237792969 389.53125 392.962493896484 396.96875 400.825012207031 402.418762207031 404.137512207031 405.049987792969 406.53125 411.043762207031 419.899993896484 426.556243896484 436.506256103516 450.393737792969 460.25 469.212493896484 474.918762207031 480.424987792969 480 473.28125 456.725006103516 438.493743896484 419.762512207031 402.524993896484 388.524993896484 376.418762207031 364.887512207031 355.475006103516 347.356262207031 343.856262207031 341.206237792969 338.03125 334.037506103516 329.712493896484 323.393737792969 315.424987792969 306.925018310547 297.78125 289.3125 289.268737792969 293.450012207031 303.762481689453 314.731262207031 327.731262207031 347.543762207031 373.5 381.524993896484 369.743743896484 354.956268310547 340.049987792969 323.787506103516 
372.456237792969 380.137512207031 385.618743896484 390.081237792969 394.006256103516 394.368743896484 394.725006103516 395.431243896484 397.162506103516 402.450012207031 412.662506103516 425.5625 439.418762207031 453.106262207031 462.887512207031 473.556243896484 482.131256103516 486.399993896484 484.193756103516 478.662506103516 465.762512207031 449.049987792969 432.90625 414.306243896484 399.693756103516 385.575012207031 373 360.762512207031 352.181243896484 346.6875 341.674987792969 338.5 335.049987792969 330.28125 325.443756103516 317.524993896484 308.475006103516 299.174987792969 296.868743896484 299.299987792969 303.181243896484 313.756256103516 327.881256103516 342.725006103516 365.149993896484 389.524993896484 394.231262207031 380.431243896484 364.84375 349.518737792969 333.475006103516 
363.90625 371.806243896484 378.056243896484 382.431243896484 384.5 385.387512207031 384.543762207031 385.837493896484 386.106262207031 390.631256103516 403.799987792969 422.012512207031 441.287506103516 457.78125 470.212493896484 479.200012207031 488 491.418762207031 489.418762207031 484.212493896484 473.3125 457.1875 441.350006103516 422.46875 408.106262207031 394.225006103516 379.112487792969 366.3125 354.59375 348.71875 343.943756103516 339.693756103516 335.668762207031 331.612487792969 326.131256103516 317.5 308.71875 303.71875 304.4375 307.4375 312.168762207031 321.268737792969 334.743743896484 349.825012207031 368.725006103516 383.462493896484 387.274993896484 380.475006103516 368.4375 354.825012207031 340.674987792969 
355.049987792969 361.712493896484 367.243743896484 371.575012207031 374.225006103516 374.681243896484 375.03125 374.012512207031 372.1875 376.762512207031 390.668762207031 412.612487792969 438.087493896484 459.943756103516 473.431243896484 484.737487792969 492.881256103516 495.34375 494.774993896484 491.09375 479 462.293762207031 445.237487792969 427.881256103516 413.100006103516 398.90625 383.487487792969 370.649993896484 358.606262207031 351.21875 345.787506103516 339.962493896484 335.03125 332.1875 327.231262207031 319.262512207031 313.850006103516 309.762512207031 309.731262207031 313.756256103516 319.506256103516 327.524993896484 337.768737792969 351.950012207031 365.899993896484 375.074981689453 378.549987792969 375.65625 367.174987792969 357.556243896484 343.943756103516 
344.674987792969 351.443756103516 357.212493896484 361.3125 365.049987792969 366.943756103516 367.056243896484 366.037506103516 361.75 360.706237792969 379.137512207031 411.362487792969 440 461.693756103516 477.612487792969 488.768737792969 496.668762207031 498.256256103516 498.262512207031 491.862487792969 480.03125 463.443756103516 446.950012207031 428.556243896484 413.737487792969 400.443756103516 385.631256103516 374.081237792969 361.731262207031 353.975006103516 346.700012207031 339.5 336.1875 333.987487792969 329.206268310547 323.600006103516 319.4375 316.506256103516 317.112487792969 318.96875 323.012512207031 329.9375 339.15625 350.962493896484 362.518737792969 368.693756103516 371.862487792969 370.756256103516 365.556243896484 357.78125 347.393737792969 
335.5 342.493743896484 347.768737792969 352.606262207031 358.03125 361.706237792969 363.456237792969 362.725006103516 361.231262207031 358.181243896484 388.131256103516 422.943756103516 446.962493896484 467.393737792969 481.09375 492.768737792969 498.799987792969 498.950012207031 496.456237792969 488.299987792969 473.850006103516 458.174987792969 444.506256103516 426.59375 412.681243896484 400.924987792969 386.681243896484 376.412506103516 365.243743896484 356.40625 346.950012207031 338.399993896484 335.712493896484 334.618743896484 330.09375 327.149993896484 324.056243896484 320.3125 322.256256103516 324.90625 326.306243896484 332.743743896484 338.899993896484 345.056243896484 354.556243896484 360.737487792969 364.850006103516 367.043762207031 363.674987792969 357.106262207031 351.200012207031 
327.46875 334.243743896484 340.625 346.543762207031 352.799987792969 356.84375 362.143737792969 365.850006103516 373.299987792969 391.59375 426.043762207031 443.712493896484 457.65625 473.25 485.493743896484 495.200012207031 500.0625 497.424987792969 491.46875 481.112487792969 463.850006103516 448.081237792969 434.712493896484 419.356262207031 407.287506103516 397.6875 385.924987792969 375.912506103516 366.274993896484 357.293762207031 348.487487792969 338.418762207031 335.024993896484 334.212493896484 333.46875 329.90625 326.443756103516 324.575012207031 324.6875 325.174987792969 325.975006103516 331.84375 336.075012207031 341.40625 347.700012207031 352.799987792969 356.162506103516 357.356262207031 356.96875 355.981231689453 350.037506103516 
320.393737792969 327.181243896484 334.199981689453 340.256256103516 348.068756103516 356.200012207031 362.681243896484 373.03125 386.462493896484 405.756256103516 430.087493896484 450.568756103516 466.306243896484 479.600006103516 491.243743896484 498.818756103516 502.331237792969 496.556243896484 486.293762207031 474.59375 454.875 437.975006103516 422.5625 408.71875 400.056243896484 392.725006103516 382.3125 374.618743896484 366.15625 356.631256103516 346.21875 338.850006103516 338.425018310547 336.793762207031 335.674987792969 333.412506103516 329.318756103516 326.96875 327.5625 325.362487792969 324.28125 328.868743896484 332.087493896484 335.481262207031 340.331237792969 345.65625 350.200012207031 353.543762207031 353.931243896484 353.612487792969 350.59375 
312.762512207031 320.606262207031 328.15625 335.862487792969 343.418762207031 352.450012207031 361.868743896484 376.043762207031 392.256256103516 412.075012207031 432.4375 452.825012207031 470.399993896484 484 495.549987792969 503.818756103516 505.981262207031 497.237487792969 483.918762207031 467.424987792969 444.012512207031 424.375 409.075012207031 396.725006103516 392.006256103516 386.912506103516 378.193756103516 372.050018310547 366.012512207031 357.306243896484 348.162506103516 342.8125 341.456268310547 340.162506103516 338.681243896484 336.481262207031 332.868743896484 330.84375 329.71875 325.125 323.368743896484 324.21875 325.075012207031 328.893737792969 334.637481689453 340.837493896484 345.024993896484 347.212493896484 350.125 351.899993896484 351.125 
305.787506103516 315.049987792969 323.743743896484 332.768737792969 341.337493896484 351.418762207031 362.5 376.387512207031 393.018737792969 411.043762207031 430.024993896484 450.731262207031 469.1875 483.424987792969 494.90625 502.59375 506.318756103516 495.84375 481.924987792969 460.693756103516 429.581237792969 405.174987792969 390.268737792969 381.674987792969 380.59375 376.681243896484 370.325012207031 365.762512207031 362.631256103516 357.024993896484 346.693756103516 343.549987792969 342.962493896484 343.625 344.006256103516 340.162506103516 336.53125 334.5625 332.393737792969 326.987487792969 322.881256103516 319.225006103516 318.350006103516 324.456237792969 330.643737792969 337.53125 340.956237792969 343.274993896484 347.306243896484 348.568756103516 348.287506103516 
299.487487792969 310.912506103516 320.743743896484 328.731262207031 338.15625 349.956237792969 362.206237792969 374.049987792969 389.649993896484 407.137481689453 426.493743896484 446.887512207031 465.850006103516 481.587493896484 493.25 502.231262207031 504.293762207031 498.8125 484.993743896484 455.399993896484 414.549987792969 381.6875 370.568756103516 369.537506103516 370.393737792969 368.618743896484 364.118743896484 358.96875 357.306243896484 353.299987792969 347.25 340.931243896484 341.043762207031 344.262512207031 347.331237792969 348.912506103516 343.225006103516 339.537506103516 335.5625 329.362487792969 325.549987792969 321.743743896484 319.237487792969 322.037506103516 329.637512207031 334.087493896484 337.537506103516 340.487487792969 345.143737792969 347.075012207031 348.331237792969 
293.393737792969 306.587493896484 316.9375 325.106262207031 336 347.212493896484 358.806243896484 371.681243896484 386.6875 403.524993896484 422.90625 443.737487792969 462.106262207031 477.618743896484 489.887512207031 498.256256103516 502.556243896484 498.756256103516 490.481262207031 457.987487792969 412.356262207031 373.418762207031 363.931243896484 362.350006103516 362.837493896484 361.581237792969 357.643737792969 354.706237792969 353.125 350.71875 344.493743896484 339.40625 340.4375 344.625 349.962493896484 357.337493896484 352.212493896484 345.831237792969 339.762512207031 334.28125 329.918762207031 327.043762207031 323.706237792969 325.193756103516 329.8125 332.71875 336.600006103516 338.443756103516 340.443756103516 345.056243896484 348.049987792969 
286.950012207031 301.424987792969 312.106262207031 322.268737792969 333.431243896484 344.28125 355.368743896484 367.837493896484 382.818756103516 398.831237792969 415.137512207031 436.368743896484 455.862487792969 471.518737792969 484.118743896484 489.837493896484 492.987487792969 486.043762207031 475.662506103516 450.587493896484 412.256256103516 383.46875 366.606262207031 360.637512207031 359.456237792969 356.03125 351.693756103516 349.356262207031 347.743743896484 346.893737792969 341.975006103516 336.887512207031 337.981262207031 341.53125 347.543762207031 356.59375 355.131256103516 348.493743896484 342.399993896484 338.40625 333.743743896484 330.893737792969 329.424987792969 327.293762207031 331.587493896484 333.4375 334.993743896484 337.256256103516 337.306243896484 340.043762207031 346.018737792969 
