ncols        51
nrows        45
xllcorner    -63.500000000000
yllcorner    -7.500000000000
cellsize     0.166666666667
NODATA_value -99
361.450012207031 367.418762207031 363.206237792969 363.331237792969 357.268737792969 342.325012207031 318.25 291.912506103516 269.65625 248.975006103516 232.387496948242 218.793746948242 205.293746948242 189.625 176.8125 163.293746948242 152.081253051758 140.943756103516 131.800003051758 122.168746948242 115.012496948242 106.599998474121 99.6312484741211 94.2624969482422 88.90625 85.6312484741211 85.9812469482422 86.7375030517578 85.71875 81.5687484741211 76.2562484741211 71.9749984741211 69.5 65.90625 63.0187492370605 61.1812515258789 60.1437492370605 59.0374984741211 58.0187492370605 57.2312507629395 56.5999984741211 55.875 54.5687484741211 53.5999984741211 54.1687507629395 54.125 54.9749984741211 55.0062522888184 55.4562492370605 55.0374984741211 55.3687515258789 
349.856262207031 355.6875 360.581237792969 369.887512207031 378.899993896484 356.8125 329.3125 308.881256103516 285.756256103516 263.274993896484 244.512496948242 228.274993896484 212.693756103516 194.556243896484 180.206253051758 167.074996948242 153.506256103516 142.824996948242 133.074996948242 123.6875 115.675003051758 108.893753051758 101.631248474121 96.0687484741211 89.2562484741211 84.8312530517578 84.9812469482422 85.40625 83.3874969482422 79.3874969482422 74.7750015258789 71.3874969482422 68.5062484741211 66.1500015258789 63.7125015258789 62.2125015258789 61.4874992370605 60.96875 60.1749992370605 59.71875 59.5125007629395 58.9812507629395 58.2125015258789 56.7625007629395 57.1875 57.2125015258789 57.7937507629395 57.2000007629395 56.8999977111816 55.5812492370605 54.9187507629395 
323.862487792969 333.268737792969 338.837493896484 349.375 357.100006103516 344.125 323.393737792969 304.818756103516 285.40625 265.412506103516 247.487503051758 230.75 214.818756103516 196.287506103516 180.618743896484 167.6875 153.65625 142.850006103516 132.743743896484 123.293746948242 114.518753051758 106.243751525879 98.6374969482422 92.0687484741211 84.5500030517578 78.5562515258789 79.25 78.8187484741211 76.9749984741211 72.7437515258789 67.8812484741211 64.3249969482422 62.4000015258789 60.0562515258789 57.8187484741211 56.2437515258789 55.5125007629395 55.2125015258789 54.9312515258789 54.9437484741211 55.125 54.7312507629395 54.7125015258789 54.0187492370605 54.0125007629395 54.03125 54.2937507629395 53.4375 51.9437484741211 50.21875 49.4874992370605 
291.981262207031 301.493743896484 315.950012207031 321.606262207031 326.506256103516 319.237487792969 308.225006103516 299.356262207031 284.5625 268.075012207031 250.100006103516 233.068740844727 214.0625 196.962509155273 181.287506103516 167.487503051758 154.143753051758 143.149993896484 133.981246948242 124.75 114.699996948242 103.949996948242 94.2687530517578 86.53125 77.7750015258789 71.2687530517578 70.8812484741211 69.5 68.1937484741211 64.5124969482422 60.3312492370605 56.2687492370605 53.8562507629395 51.5999984741211 49.1812515258789 48.84375 48.6312484741211 48.2937507629395 48.4874992370605 48.3812484741211 48.4500007629395 48.5125007629395 48.9249992370605 49.1124992370605 49.46875 49.1875 48.96875 48.0812492370605 46.0687484741211 43.6124992370605 42.2374992370605 
291.21875 290.987518310547 287.637512207031 291.137512207031 300.53125 298.943756103516 292.806243896484 288.868743896484 280.106262207031 266.4375 250.087493896484 230.606246948242 213.487503051758 198.712493896484 183.1875 168.725006103516 154.712493896484 143.300003051758 133.574996948242 123.181251525879 113.1875 100.050003051758 89.7125015258789 80.8000030517578 71.21875 63.7937507629395 61.9874992370605 61.2687492370605 59.8937492370605 55.9375 52.0999984741211 47.8937492370605 45.3187484741211 43.3812484741211 41.5437507629395 40.9500007629395 40.7374992370605 40.875 41.3499984741211 41.5499992370605 41.7625007629395 42.1312484741211 42.6749992370605 43.5875015258789 43.96875 43.84375 43.2750015258789 41.6749992370605 39.5125007629395 37.125 35.4375 
289.399993896484 286.46875 277.5 266.25 275.043762207031 283.174987792969 281.299987792969 275.568756103516 267.481262207031 257.762512207031 242.037506103516 223.631256103516 208.193756103516 194.90625 179.668746948242 167.056243896484 153.893753051758 141.699996948242 131.350006103516 121.237503051758 108.481254577637 95.1750030517578 83.5250015258789 73.3187484741211 64.0999984741211 56.0562515258789 54.125 53.7000007629395 52.25 48.4000015258789 44.7374992370605 41.9625015258789 39.4000015258789 37.1687507629395 35.0875015258789 34.9249992370605 34.7687492370605 35.1687507629395 35.9187507629395 36.1437492370605 35.4562492370605 35.875 36.46875 37.5750007629395 38.7750015258789 38.6749992370605 37.7625007629395 35.7874984741211 34.1749992370605 32.1187515258789 30.8812503814697 
291.787506103516 288.462493896484 278.149993896484 266.112487792969 264.4375 262.681243896484 262.975006103516 260.162506103516 250.8125 239.556243896484 228.143753051758 213.981246948242 201.46875 188.9375 175.981246948242 164.456253051758 152.725006103516 141.668746948242 130.181243896484 118.381248474121 103.800003051758 89.6687469482422 76.2375030517578 65.65625 56.5687484741211 48.7437515258789 46.9749984741211 46.46875 44.9000015258789 41.28125 38.1124992370605 35.1624984741211 33 31.0562496185303 29.1625003814697 28.625 28.6000003814697 29.2999992370605 30.5687503814697 30.2124996185303 29.5562496185303 29.6124992370605 30.15625 31.2875003814697 32.7062492370605 32.9312515258789 32.1500015258789 29.9750003814697 28.5125007629395 27.5687503814697 26.9874992370605 
295.206237792969 290.306243896484 279.674987792969 272.493743896484 269.487487792969 266.787506103516 257.475006103516 242.481246948242 228.956253051758 220.456253051758 214.175003051758 203.987503051758 193.918746948242 182.693756103516 172.693740844727 160.824996948242 150.125 139.868743896484 128.443756103516 114.212501525879 99.0875015258789 83.7249984741211 69.7062530517578 58.5499992370605 49.125 41.3375015258789 39.53125 38.7999992370605 37.8187484741211 34.7000007629395 31.8937492370605 29.25 27.1499996185303 25.40625 23.4312496185303 22.8624992370605 22.7437496185303 23.0125007629395 23.53125 23.4812507629395 23.03125 23.0562496185303 23.5375003814697 24.2999992370605 25.5750007629395 26.1187496185303 26 24.5687503814697 23.3687496185303 22.7625007629395 22.4937496185303 
299.9375 295.96875 287.493743896484 279.78125 275.3125 268.793762207031 258.762512207031 243.493743896484 225.737503051758 210.918746948242 204.393753051758 195.193756103516 188.018753051758 177.068756103516 167.550003051758 156.899993896484 146.587493896484 135.737503051758 124.537498474121 109.599998474121 92.6999969482422 77.5 62.3062515258789 52.28125 42.8687515258789 35.1500015258789 33.6812515258789 33.4812507629395 33.1000022888184 30.5562496185303 28.5375003814697 25.8250007629395 23.46875 21.3250007629395 19.5874996185303 19.3187503814697 19.21875 19.0750007629395 19.125 19.0249996185303 18.6312503814697 18.5687503814697 18.9187507629395 19.4812507629395 20.2124996185303 20.8812503814697 21.2625007629395 20.1937503814697 19.46875 19.3999996185303 20.0687503814697 
301.200012207031 297.84375 290.443756103516 282.993743896484 279.712493896484 272.787506103516 261.987487792969 245.5 228.925003051758 214.6875 203.268753051758 191.206253051758 182.306243896484 173.024993896484 162.34375 153.137496948242 141.9375 130.212493896484 118.331253051758 104.637496948242 87.5187530517578 70.6875 55.34375 45.3562507629395 36.1812515258789 29.1625003814697 28.2062492370605 28.2937507629395 28.28125 26.7124996185303 24.7374992370605 22.5437507629395 20.2937507629395 18.4750003814697 16.8624992370605 16.3999996185303 16.2124996185303 15.9250001907349 15.6437501907349 15.3937501907349 15.0374994277954 15 14.7687501907349 15.0687503814697 15.7875003814697 16.625 16.96875 16.2250003814697 15.6062498092651 15.4624996185303 16 
306.231262207031 302.112518310547 294.856262207031 286.893737792969 282.15625 277.056243896484 266.237487792969 246.243743896484 227.899993896484 213.612503051758 202.09375 190.800003051758 178.706253051758 167.381256103516 156.199996948242 146.456253051758 135.074996948242 123.118751525879 110.9375 98.125 82.5187530517578 65.40625 49.5750007629395 38.2000007629395 30.2749996185303 24.5750007629395 24.0062503814697 24.0249996185303 23.8937492370605 22.7937507629395 21.4812507629395 19.8250007629395 17.8250007629395 15.9937496185303 14.46875 13.9375 13.6062498092651 13.21875 13.0062503814697 12.5374994277954 12.0124998092651 11.78125 11.7750005722046 11.6625003814697 12.1000003814697 13.1499996185303 13.25 12.5375003814697 12.0124998092651 11.6999998092651 11.25 
305.543762207031 301.268737792969 294.256256103516 288.524993896484 283.231262207031 276.825012207031 267.412506103516 247.9375 227.443756103516 210.774993896484 198.931243896484 188.625 174.193756103516 161.050003051758 151.662506103516 140.868743896484 129.949996948242 116.6875 104.618751525879 93.5187530517578 78.90625 61.3312492370605 44.9000015258789 33.9249992370605 26.34375 20.9562492370605 20.5062503814697 20.8125 20.75 20.0625 19.1000003814697 17.875 16.15625 14.6437501907349 13.4937496185303 12.9937496185303 12.6125001907349 12.2624998092651 11.65625 10.9812498092651 10.3125 9.94999980926514 9.82499980926514 9.625 9.64375019073486 9.875 10.1499996185303 9.88125038146973 9.64375019073486 9.20625019073486 8.375 
302.068756103516 297.587493896484 289.756256103516 281.731262207031 274.743743896484 267.206237792969 255.625 238.112503051758 221.518753051758 206.337493896484 192.975006103516 183.318756103516 170.793746948242 154.456253051758 142.856246948242 133.5 122.6875 110.175003051758 98.5749969482422 87.28125 73.0875015258789 56.28125 40.0250015258789 30.2124996185303 22.6499996185303 17.6687507629395 17.6812496185303 18.2875003814697 18.5437507629395 18.0187492370605 17.1499996185303 16.1937503814697 14.7937498092651 13.3312501907349 12.3062496185303 12.0562496185303 12.03125 11.875 11.3999996185303 10.2624998092651 9.18124961853027 8.88125038146973 8.57499980926514 7.65000009536743 7.44999980926514 8.10000038146973 8.46249961853027 8.16874980926514 7.68125009536743 7.46250009536743 6.78749990463257 
296.481262207031 290.825012207031 280.799987792969 271.756256103516 264.587493896484 253.837493896484 241.137496948242 227.318756103516 212.125 198.8125 184.550003051758 172.306243896484 160.875 146.981246948242 132.862503051758 124.324996948242 114.193748474121 101.84375 89.9499969482422 79.1125030517578 65.0812530517578 48.9249992370605 34.3125 26.5437507629395 20.1625003814697 15.5062503814697 15.5437498092651 16.1062507629395 16.375 16.1437492370605 15.8187503814697 15.0062503814697 13.6187496185303 12.3000001907349 11.4312496185303 11.5625 11.9250001907349 12.28125 11.9875001907349 11.03125 9.16874980926514 8.0625 7.71875 7.36250019073486 7.33125019073486 7.58125019073486 8.02499961853027 7.83750009536743 7.34999990463257 7.07499980926514 6.48124980926514 
290.568756103516 282.518737792969 271.399993896484 261.881256103516 254.068756103516 239.443740844727 228.493743896484 214.612503051758 200.331253051758 189.043746948242 174.331253051758 161.96875 150.006256103516 137.043746948242 122.34375 112.074996948242 103.34375 92.9187469482422 81.5374984741211 71.5625 58.5062484741211 44.0062484741211 30.7749996185303 24.5187492370605 19.5750007629395 15.4562501907349 15.3999996185303 15.6187496185303 15.6750001907349 15.5749998092651 14.9937496185303 14.2937498092651 13.125 11.8249998092651 10.7624998092651 11.2312498092651 12.4125003814697 13.7875003814697 14.3312501907349 13.3499994277954 11.7437496185303 10.1125001907349 9.19375038146973 8.36250019073486 7.98750019073486 8.02499961853027 8.10000038146973 8.0625 7.875 7.26875019073486 6.65000009536743 
282.043762207031 272.549987792969 262.375 251.84375 240.943756103516 228.956253051758 216.393753051758 202.449996948242 190.300003051758 179.75 165.550003051758 152.1875 139.787490844727 127.662498474121 113.818748474121 101.1875 92.71875 84.3562469482422 74.2062530517578 65.2874984741211 52.6749992370605 39.8250007629395 28.0437507629395 23.1749992370605 19.15625 15.4312496185303 15.2124996185303 15.46875 15.5625 15.3562498092651 15.2250003814697 14.4187498092651 12.9750003814697 11.7937498092651 10.5812501907349 11.6499996185303 13.6062498092651 15.3312501907349 16.8500003814697 16.6375007629395 15.6000003814697 13.09375 10.8812503814697 9.19999980926514 8.73124980926514 8.49374961853027 8.60000038146973 8.38749980926514 8.01875019073486 7.58750009536743 7.29374980926514 
270.25 261.6875 252.568756103516 242.199996948242 230.612503051758 219.09375 206.381256103516 193.668746948242 181.875 170.368743896484 157.881256103516 144.40625 130.875 118.518753051758 107.112503051758 95.6937484741211 84.1624984741211 75.8312530517578 68.0437469482422 59.6749992370605 47.7000007629395 35.8812484741211 25.40625 21.9249992370605 18.8562488555908 15.3062496185303 15.1499996185303 15.4312496185303 15.6000003814697 15.6937503814697 15.9624996185303 15.8999996185303 14.2312498092651 12.7937498092651 12.4937496185303 13.375 15.1125001907349 18.0375003814697 21.1875 20.1375007629395 18.0187492370605 14.8812503814697 11.8500003814697 10.0437498092651 9.38749980926514 9.11250019073486 9.02499961853027 8.95625019073486 8.86874961853027 8.29374980926514 8.15625 
260.587493896484 252.837493896484 241.818756103516 231.643753051758 222.1875 211.15625 197.962493896484 184.6875 174.056243896484 161.787506103516 149.306243896484 136.356246948242 123.1875 111.256248474121 100.268745422363 90.1812515258789 79.7125015258789 68.6062469482422 62.6500015258789 54.8312492370605 44.1500015258789 32.9375 23.3374996185303 20.7625007629395 18.5249996185303 15.5687494277954 15.71875 16.0687503814697 16.1687507629395 16.1687507629395 16.40625 16.4562492370605 16.4249992370605 16.125 15.1000003814697 14.9875001907349 17.1437492370605 19.7437496185303 21.3125 20.5812492370605 17.7937507629395 14.8062496185303 12.2437496185303 10.8999996185303 10.2437496185303 9.98124980926514 10 9.73124980926514 9.60624980926514 8.97500038146973 8.99374961853027 
250.668746948242 242.09375 230.981246948242 222.1875 212.425003051758 202.125 189.487503051758 178.331253051758 167.1875 155.112503051758 142.456253051758 129.168746948242 116 104.731246948242 93.6937484741211 85.1437530517578 76.1437530517578 65.1937484741211 57.3687515258789 50.4249992370605 41.3562507629395 32.6500015258789 21.2562503814697 19.0562496185303 17.625 16.0062503814697 16.5562496185303 16.9187507629395 17.4249992370605 17.40625 17.46875 18.8875007629395 20.2250003814697 19.8500003814697 18.9874992370605 18.7937507629395 19.4125003814697 20.1062507629395 20.3250007629395 19.0874996185303 16.7687492370605 14.3937501907349 12.4937496185303 11.4750003814697 11.09375 11.0249996185303 10.9875001907349 10.78125 10.4499998092651 9.29374980926514 9.68124961853027 
238.862503051758 232.431243896484 221.318756103516 211.850006103516 202.787506103516 194.356246948242 183.643753051758 171.662506103516 162.524993896484 151.024993896484 138.862503051758 126.71875 114.212501525879 102.21875 90.53125 80.8000030517578 70.5 63.4625015258789 55.5 49.5999984741211 39.3187484741211 29.0499992370605 20.78125 18.6875 17.34375 15.875 16.75 17.9375 18.28125 18.7062492370605 19.6187496185303 22.8999996185303 23.8937492370605 25.0062503814697 25.2625007629395 23.8812503814697 22.375 21.1375007629395 19.9874992370605 18.2749996185303 16.0249996185303 13.7875003814697 12.90625 12.6312503814697 12.3125 12.2875003814697 12.25 11.8874998092651 11.2250003814697 10.1499996185303 10.4875001907349 
223.725006103516 219.568756103516 211.131256103516 202.418746948242 193.512496948242 184.381240844727 175.581253051758 165.71875 158.481246948242 149.268753051758 137.899993896484 127.231246948242 114.925003051758 101.818748474121 90.9437484741211 79.6374969482422 69.6374969482422 61.09375 55.1875 47.8312492370605 39.75 31.0625 22.7749996185303 20.4937496185303 19.1000003814697 17.5249996185303 18.2687492370605 19.1437492370605 19.9437503814697 21.9375 24.1937503814697 27.6437492370605 28.7875003814697 30.1499996185303 31.6749992370605 28.8187503814697 24.9437503814697 22.3250007629395 20.34375 18.4937496185303 16.7374992370605 15.1062498092651 14.1750001907349 13.71875 13.4812498092651 13.4562501907349 13.2624998092651 12.8312501907349 11.6937503814697 11.3874998092651 11.4812498092651 
211.731246948242 205.324996948242 197.5 189.65625 183.03125 176.46875 168.306243896484 160.918746948242 154.962493896484 147.300003051758 137.581253051758 128.162506103516 118.025001525879 106.081253051758 94.4625015258789 82.1062545776367 71.9812469482422 62.8937492370605 56.3624992370605 48.9625015258789 40.0125007629395 32 24.5812492370605 22.0750007629395 20.1375007629395 18.4812507629395 19.9125003814697 21.0625 22.7625007629395 25.53125 28.5125007629395 31.7937507629395 32.5062484741211 33.0999984741211 32.2562484741211 29.75 25.9624996185303 23.2000007629395 20.9812488555908 19.28125 17.8687496185303 16.7124996185303 16.0687503814697 15.5749998092651 15.1812496185303 15.0437498092651 14.6374998092651 13.875 12.8062496185303 12.7562503814697 12.6000003814697 
201.34375 197.274993896484 188.068756103516 180.675003051758 173.887496948242 168.068756103516 162.243743896484 156.274993896484 152.756256103516 145.518753051758 139.018753051758 131.15625 123.78125 112.8125 98.6125030517578 85.6437530517578 74.3249969482422 65.3125 57.2625007629395 49.75 41.3250007629395 33.71875 26.59375 23.4937496185303 21.4187507629395 19.5499992370605 21 23.1124992370605 25.0687503814697 28.15625 31.9624996185303 35.7562484741211 35.5187492370605 34.4749984741211 32.2999992370605 29.0062503814697 25.9937496185303 23.3937492370605 21.5187492370605 20.3250007629395 19.4750003814697 18.5187492370605 17.8937492370605 17.375 16.8812503814697 16.7562503814697 16.2250003814697 15.3562498092651 14.4375 14.1499996185303 14.25 
194.543746948242 187.925003051758 180 171.493743896484 163.481246948242 160.412506103516 156.337493896484 151.225006103516 148.137496948242 142.5 136.318756103516 131.875 127.768753051758 116.699996948242 101.474998474121 88 76.8375015258789 67.65625 59.5 51.4562492370605 43.2312507629395 35.3375015258789 28.6937503814697 25.5812492370605 23.1812496185303 21.03125 22.5562496185303 24.8312492370605 27.6000003814697 31.1687507629395 35.1312484741211 39.0562515258789 38.03125 36.1062507629395 33.5562515258789 29.6625003814697 26.7937507629395 24.59375 22.8937492370605 22.0437507629395 21.1375007629395 20.2999992370605 19.8312492370605 19.3687496185303 19.2937507629395 18.9750003814697 18.3624992370605 16.7937507629395 16.3624992370605 15.4750003814697 15.7375001907349 
190.393753051758 182.168746948242 172.612503051758 163.09375 159.131256103516 155.574996948242 151.462493896484 147.231246948242 143.78125 139.543746948242 134.543746948242 128.931243896484 123.412498474121 114.449996948242 101.731246948242 89.1937484741211 78.7437515258789 69.2624969482422 60.8937492370605 53.2937507629395 45.3062515258789 37.4124984741211 31.1375007629395 27.9750003814697 24.9500007629395 23.03125 24.7062492370605 27.2437496185303 30.21875 34.2000007629395 38.25 41.9437484741211 41.0250015258789 38.6312484741211 35.5374984741211 31.7312507629395 29.0812492370605 26.7687492370605 24.9750003814697 23.8812503814697 22.875 22.2374992370605 21.8624992370605 21.8687496185303 22.0625 21.9187507629395 19.7562503814697 19.2062492370605 18.1812496185303 16.9375 17.4562492370605 
190.293746948242 183.75 170.993743896484 162.268753051758 154.787506103516 150.912506103516 147.806243896484 143.743743896484 140.100006103516 136.506256103516 130.53125 125.15625 119.081253051758 110.6875 100.199996948242 89.5124969482422 79.5437469482422 70.78125 62.4500007629395 54.78125 47.0625 39.3562507629395 33.3687515258789 30.25 27.2437496185303 25.0249996185303 27.2437496185303 30.3624992370605 33.3562507629395 37.5499992370605 41.7249984741211 45.6687507629395 43.7750015258789 41.0625 38.2312507629395 35.2000007629395 32.0250015258789 29.4125003814697 27.8562507629395 26.375 25.3937492370605 24.5625 24.0625 24.2250003814697 25.1437492370605 23.34375 22.7062492370605 21.7937507629395 20.4874992370605 19.6312503814697 19.6312503814697 
193.512496948242 184.762496948242 173.456253051758 164.837493896484 156.231246948242 152.118743896484 147.71875 142.393753051758 137.137496948242 133.274993896484 128.649993896484 123.375 116.775001525879 109.25 99.9562530517578 90.3125 81.7937469482422 72.6312484741211 64.4124984741211 56.7437515258789 49.3187484741211 41.7437515258789 35.6124992370605 33.25 30.2937507629395 28.3687496185303 30.9249992370605 34.0562515258789 37.40625 41.4437484741211 45.4937515258789 48.7374992370605 47.28125 44.3375015258789 41.0187492370605 38.2937507629395 35.5625 32.8312492370605 31.15625 29.6812496185303 28.25 27.3875007629395 26.84375 26.34375 26.2374992370605 26.4312496185303 25.84375 24.15625 23.0874996185303 21.7625007629395 21.2999992370605 
196.537506103516 187.881256103516 177.887496948242 167.399993896484 159.431243896484 153.649993896484 148.556243896484 142.668746948242 136.387496948242 132.28125 127.006248474121 121.462501525879 115.099998474121 108.887496948242 100.006248474121 91.2312469482422 83.0062484741211 74.2750015258789 66.1687469482422 58.96875 51.5437507629395 44.25 38.2062492370605 35.9124984741211 33.7312507629395 31.9500007629395 34.7312507629395 38.21875 41.8250007629395 46.0062484741211 49.4937515258789 52.5437507629395 50.9937515258789 47.6124992370605 44.3062515258789 41.5687484741211 39.4749984741211 37.1437492370605 35.3062515258789 33.5750007629395 31.96875 30.9125003814697 29.4624996185303 28.90625 28.9874992370605 29.0625 28.1875 26.9437503814697 25.4750003814697 23.8250007629395 23.2312507629395 
200.168746948242 191.0625 179.793746948242 169.25 160.762496948242 153.831253051758 147.649993896484 141.925003051758 136.068756103516 130.856246948242 125.125 119.181251525879 114.268753051758 107.631248474121 99.3937530517578 92.7312469482422 86.1374969482422 75.8499984741211 67.6875 60.71875 53.8312492370605 47.03125 41.2687492370605 39.2750015258789 37.0437507629395 35.84375 38.9312515258789 42.9937515258789 47.3312492370605 50.7312507629395 53.6375007629395 56.28125 54.0625 50.8937492370605 48.1687507629395 45.4812507629395 43.875 42.0812492370605 40.3125 38.2874984741211 35.5375022888184 33.5687484741211 32.3624992370605 31.8062496185303 32.1687507629395 31.5437507629395 30.6375007629395 29.5874996185303 28.0187492370605 26.4500007629395 24.9562492370605 
203.0625 194.324996948242 181.375 170.612503051758 161.875 155.287506103516 149.15625 143.143753051758 136.899993896484 130.787506103516 124.606246948242 119.643753051758 114.362503051758 108.150001525879 101.59375 94.4375 87.2437515258789 78.5374984741211 69.9500045776367 63 56.7437515258789 50.65625 44.7937507629395 42.9874992370605 41.8187484741211 41.4749984741211 44.625 48.5750007629395 52.4124984741211 55.59375 58.6062507629395 60.8937492370605 58.40625 55.3312492370605 52.9249992370605 50.8312492370605 49.6437492370605 48.7312507629395 46.1375007629395 44.7874984741211 42.4874992370605 39.8812484741211 37.7374992370605 36.8375015258789 36.2125015258789 35.6375007629395 34.90625 33.8499984741211 31.9187488555908 30.2437496185303 28.40625 
201.856246948242 194.418746948242 184.143753051758 172.3125 164.356246948242 158.212493896484 150.600006103516 144.043746948242 138.056243896484 132.149993896484 125.574996948242 120.143753051758 116.675003051758 110.081253051758 103.1875 96.21875 90.2437515258789 81.8625030517578 73.2874984741211 66.8000030517578 60.625 55.0062484741211 49.53125 47.9437484741211 47.0499992370605 47.2937507629395 50.59375 54.5 58.3187484741211 60.1875 63.0562477111816 65.1374969482422 62.625 60.6937484741211 58.5562515258789 56.1812515258789 55.4125022888184 55.2437515258789 53.6749992370605 52.1937484741211 49.6624984741211 46.4625015258789 43.7000007629395 42.0999984741211 40.8875007629395 40.3624992370605 39.375 38.15625 36.4000015258789 34.6062507629395 32.8187484741211 
201.231246948242 192.506256103516 182.524993896484 173.243743896484 167.53125 159.90625 152.581253051758 145.993743896484 140.21875 133.600006103516 127.400001525879 121.631248474121 116.03125 111.074996948242 105.724998474121 100.737503051758 94.21875 86.1687469482422 78.6125030517578 72.59375 66.6687469482422 59.8812484741211 54.6312484741211 53.15625 53.5250015258789 53.3125 56.3812484741211 60.9562492370605 64.6624984741211 66.125 68.2624969482422 69.125 67.1812515258789 65.3687515258789 63.3812484741211 61.3562507629395 60.8187484741211 60.3250007629395 59.1624984741211 58.0625 56.2625007629395 52.8812484741211 50.0875015258789 47.90625 46.8937492370605 46.8624992370605 45.6437492370605 44.3187484741211 41.9187507629395 39.6624984741211 37.9187507629395 
191.925003051758 185.956253051758 177.006256103516 170.018753051758 165.162506103516 158.862503051758 153.0625 146.181243896484 140.425003051758 133.606246948242 130.943756103516 124.012496948242 118.849998474121 115.875 110.762496948242 106.625 100.96875 94.4312515258789 87.0124969482422 80.8125 74.1374969482422 67.2062530517578 61.03125 59.9500007629395 60.4500007629395 60.2687492370605 63.3687515258789 67.7000045776367 71.3874969482422 73.3187484741211 74.3187484741211 74.96875 72.6687469482422 71.0374984741211 69.7062530517578 67.8062515258789 66.7874984741211 65.4312515258789 64.6312484741211 64.4749984741211 63.1749992370605 60.3312492370605 58.03125 55.7374992370605 55.3875007629395 56.1062507629395 55.5250015258789 52.65625 50.1312484741211 47.6687507629395 45.53125 
180.043746948242 176.9375 171.762496948242 166.649993896484 162.256256103516 157.043746948242 152.649993896484 146.96875 140.59375 135.518753051758 131.199996948242 127.837501525879 122.875 117.918746948242 114.949996948242 111.53125 108.275001525879 102.606246948242 96.25 89.9749984741211 82.8812484741211 75.1125030517578 68.4875030517578 67.03125 67 67.0250015258789 70.1062545776367 74.3249969482422 77.6812515258789 79.0999984741211 80.1812515258789 80.6437530517578 78.6624984741211 76.84375 75.6999969482422 75.0687484741211 73.0999984741211 71.40625 71.0250015258789 70.3937530517578 69.28125 67.9625015258789 66.6624984741211 64.78125 64.6999969482422 64.9250030517578 63.7374992370605 61.1437492370605 58.3624992370605 55.4375 53.3375015258789 
169.649993896484 168.006256103516 165.206253051758 163.037506103516 160.456253051758 155.331253051758 152.206253051758 147.524993896484 140.543746948242 136.087493896484 133.568756103516 131.643753051758 127.262496948242 122.856246948242 120.46875 118.387496948242 115.537498474121 109.987503051758 105.762496948242 99.3937530517578 92.46875 84.1500015258789 76.21875 74.2624969482422 73.3000030517578 74 77.4000015258789 80.9749984741211 84.09375 84.8375015258789 85.4375 85.1999969482422 83.6812515258789 82.3375015258789 80.9187469482422 79.4437484741211 78.2375030517578 77.84375 77 76.8062515258789 74.875 73.4562530517578 73.4250030517578 71.7874984741211 71.9562530517578 71.9124984741211 70.9437484741211 68.7125015258789 66.5374984741211 63.4562492370605 60.7999992370605 
157.975006103516 156.318756103516 155.243743896484 154.131256103516 152.524993896484 149.462493896484 145.78125 143.568756103516 138.40625 134.168746948242 133.037506103516 131.699996948242 130.118743896484 127.737503051758 125.775001525879 124.387496948242 121.787498474121 117.987503051758 114.418746948242 110.006248474121 101.943748474121 93.3874969482422 84.5625 81.6500015258789 80.65625 80.75 83.2437515258789 86.6624984741211 89.5999984741211 89.7687530517578 90.1875 90.1125030517578 88.1750030517578 87.0875015258789 85.8000030517578 83.8125 83.8937530517578 82.9562530517578 82.0875015258789 81.5 80.7062530517578 79.2562484741211 78.46875 77.5999984741211 77.875 77.375 76.4124984741211 76.34375 74.3125 71.0500030517578 68.8874969482422 
146.350006103516 145.581253051758 144.75 143.662506103516 144.125 142.362503051758 140.71875 139.118743896484 135.862503051758 131.556243896484 132.762496948242 136.6875 136.087493896484 134.006256103516 132.675003051758 130.481246948242 128.5625 124.28125 120.431251525879 116.125 109.737503051758 100.15625 91.7937469482422 88.2062530517578 86.875 86.8812484741211 88.5999984741211 91.1624984741211 93.8187484741211 94.15625 94.1437530517578 94.15625 93.0562515258789 92.2125015258789 91.1187515258789 89.7687530517578 89.2062530517578 88.7624969482422 87.25 85.9812469482422 84.9562530517578 83.4937515258789 83.4187469482422 83.2687530517578 84.4875030517578 83.3812484741211 83.5812530517578 84.1624984741211 80.9437484741211 78.6125030517578 75.8000030517578 
135.168746948242 135.537506103516 135.481246948242 134.581253051758 135.8125 136.081253051758 136.206253051758 136.556243896484 135.412506103516 132.399993896484 142.131256103516 145.699996948242 143.518753051758 140.699996948242 138.875 137 132.925003051758 129.043746948242 123.949996948242 118.5625 113.425003051758 105.050003051758 97.7062530517578 93.8812484741211 91.9499969482422 91.3249969482422 93.3000030517578 95.8000030517578 98.0999984741211 98.375 96.7750015258789 96.4625015258789 95.9187469482422 96.5999984741211 96.2249984741211 93.4812469482422 92.8249969482422 92.1687469482422 92.1125030517578 91.3125 88.9375 89.1312484741211 87.5374984741211 86.84375 87.9437484741211 87.8687515258789 89.2937469482422 90.7437515258789 86.2562484741211 84.1437530517578 82.1374969482422 
128.493743896484 128.387496948242 128.350006103516 128.524993896484 128.631256103516 129.28125 131.068756103516 133.318756103516 135.637496948242 142.143753051758 153.837493896484 151.699996948242 146.412506103516 144.53125 142.21875 139.743743896484 136.006256103516 131.381256103516 125.175003051758 119.743751525879 114.3125 107.175003051758 101.143753051758 97.4375 95.1875 93.8062515258789 94.9937515258789 97.4937515258789 99.7312469482422 100.387496948242 100.056251525879 99.0999984741211 98.4812469482422 97.3249969482422 97.0250015258789 95.3187484741211 94.7624969482422 94.03125 94.1875 92.1937484741211 90.4312515258789 90.7624969482422 89.1187515258789 88.3125 89.1312484741211 88.9812469482422 87.6750030517578 89.8375015258789 88.1687469482422 87.7312469482422 84.6875 
120.574996948242 120.256248474121 120.831253051758 121.074996948242 121.8125 123.462501525879 124.59375 128.40625 132.931243896484 140.800003051758 147.256256103516 148.087493896484 146.887496948242 145.925003051758 144.96875 141.800003051758 138.362503051758 132.981246948242 127.550003051758 120.943748474121 114.706253051758 108.474998474121 102.324996948242 98.7125015258789 96.7750015258789 95.4749984741211 96.0500030517578 98.6312484741211 99.9499969482422 101.462501525879 99.84375 100.056251525879 100.612503051758 99.46875 98.8125 97.7312469482422 96.3687515258789 96.2937469482422 95.9250030517578 92.34375 91.0687484741211 91.8687515258789 90.2750015258789 88.5999984741211 88.6937484741211 87.7312469482422 88.1500015258789 89.8312530517578 89.8312530517578 90.1187515258789 88.21875 
113.012496948242 113.168746948242 113.837501525879 114.368751525879 114.662498474121 116.087501525879 119.012496948242 123.025001525879 127.543746948242 133.649993896484 138.46875 141.824996948242 144.881256103516 144.824996948242 144.59375 142.793746948242 139.862503051758 136.274993896484 129.637496948242 121.537498474121 115.574996948242 108 102.074996948242 98.2125015258789 97.1624984741211 96.3937530517578 97.5999984741211 99.0250015258789 100.512496948242 101.256248474121 101.650001525879 103.46875 103.931251525879 103.40625 102.643753051758 100.981246948242 99.2562484741211 98.1687469482422 97.8812484741211 94.0625 92.6062469482422 92.25 90.5562515258789 88.4812469482422 88.375 88.6999969482422 89.40625 89.8937530517578 92.1062469482422 91.7437515258789 92.1312484741211 
104.912498474121 105.1875 105.993751525879 106.318748474121 107.237503051758 108.456253051758 111.300003051758 114.987503051758 119.818748474121 124.806251525879 130.03125 134.587493896484 138.893753051758 141.037506103516 141.081253051758 141.118743896484 139.643753051758 136.862503051758 130.918746948242 121.568748474121 112.243751525879 105.631248474121 98.1750030517578 94.5687484741211 95.6812515258789 95.3187484741211 95.6937484741211 97 99.9000015258789 102.331253051758 101.331253051758 104.212501525879 104.275001525879 107.275001525879 107.256248474121 103.087501525879 100.943748474121 99.6687469482422 97.9937515258789 94.6687469482422 92.9562530517578 91.1937484741211 88.5374984741211 87.8937530517578 88.0374984741211 89.3249969482422 88.6187515258789 89.125 93.8375015258789 92.9000015258789 92.4812469482422 
96.25 96.6750030517578 98.2125015258789 98.7125015258789 99.4124984741211 100.6875 103.231246948242 106.775001525879 110.831253051758 116.143753051758 121.918746948242 126.53125 130.787506103516 134.518753051758 137.693756103516 139.118743896484 139.612503051758 138.25 133.225006103516 121.137496948242 109.168746948242 99.6687469482422 94.4937515258789 94.0562515258789 93.8562469482422 93.8187484741211 94.0250015258789 95.25 97.6437530517578 100.106246948242 100.40625 102.03125 103.643753051758 105.868751525879 109.762496948242 108.050003051758 102.518753051758 100.724998474121 98.2125015258789 95.3812484741211 92.9625015258789 91.4375 89.3249969482422 87.7125015258789 88.1937484741211 88.0749969482422 89.0500030517578 89.6500015258789 93.7562484741211 93.6687469482422 93.0187530517578 
87.84375 88.3312530517578 89.6875 89.7125015258789 89.9187469482422 91.9312515258789 93.5250015258789 96.5562515258789 101.362503051758 107.125 112.90625 118.731246948242 124.875 128.331253051758 133.118743896484 135.699996948242 137.331253051758 137.668746948242 135.850006103516 122.987503051758 108.806251525879 97.9500045776367 91.9375 91.3874969482422 92.2874984741211 92.75 93.2750015258789 93.9187469482422 95.4250030517578 98.3062515258789 99.2874984741211 100.856246948242 101.893753051758 104.224998474121 110.131248474121 113.724998474121 106.050003051758 101.712501525879 100.525001525879 96.2874984741211 93.65625 91.7249984741211 89.7437515258789 88.84375 89.1687469482422 88.03125 88.2624969482422 89.4562530517578 90.96875 94.0124969482422 93.46875 
79.0749969482422 80.2437515258789 82.5062484741211 81.4250030517578 82.1750030517578 83.25 84.1125030517578 86.71875 91.5999984741211 97.78125 104.1875 111.081253051758 118.400001525879 124.09375 129.09375 131.71875 133.34375 132.918746948242 130.074996948242 121.28125 106.824996948242 97.8062515258789 91.0500030517578 89.3125 90.3125 91.3125 91.4375 92.4375 94.875 97.4000015258789 97.6875 99.6312484741211 100.875 101.900001525879 105.3125 109.974998474121 105.956253051758 101.962501525879 99.8625030517578 97.4625015258789 95.3125 93.3000030517578 91.0062484741211 89.0500030517578 88.59375 87.9000015258789 88.5749969482422 89.6875 89.1812515258789 93.0625 93.40625 
