ncols        51
nrows        45
xllcorner    -63.500000000000
yllcorner    -7.500000000000
cellsize     0.166666666667
NODATA_value -99
83.8187484741211 79.1125030517578 76.2937469482422 75.7062530517578 75.2687530517578 77.3562469482422 79.1999969482422 81.3000030517578 85.0562515258789 88.6187515258789 92.3125 95.9375 99.7437515258789 101.918746948242 104.931251525879 107.443748474121 109.837501525879 109.800003051758 109.706253051758 109.943748474121 109.112503051758 107.993751525879 107.506248474121 106.706253051758 106.506248474121 106.837501525879 108.387496948242 110.068748474121 111.881248474121 116.756248474121 122.550003051758 129.368743896484 137.006256103516 145.868743896484 154.206253051758 161.59375 169.293746948242 175.943756103516 178.824996948242 181.331253051758 181.993743896484 181.675003051758 178.993743896484 175.850006103516 169.243759155273 161.09375 150.912506103516 136.993743896484 123.837501525879 109.981246948242 98.4312515258789 
85.28125 79.8812484741211 77.8000030517578 77.2562484741211 77.6500015258789 79.90625 81.8562469482422 85.0437469482422 89.4375 93.3937530517578 97.3812484741211 100.75 103.78125 106.412498474121 108.65625 111.612503051758 113.337501525879 114.199996948242 114.599998474121 115.324996948242 114.318748474121 113.081253051758 112.706253051758 113.131248474121 112.412498474121 112.512496948242 114.050003051758 115.087501525879 116.925003051758 123.012496948242 130.4375 138.875 146.34375 157.112503051758 167.225006103516 176.081253051758 185.449996948242 193.862503051758 197.024993896484 199.96875 202.074996948242 200.918746948242 198.824996948242 193.518753051758 186.09375 176.587493896484 166.193756103516 149.800003051758 134.199996948242 118.34375 105.037498474121 
89.21875 84.6187515258789 83.3187484741211 83.2437515258789 84.5625 86.8937530517578 90.2562484741211 93.6999969482422 98.7750015258789 102.912498474121 106.112503051758 108.568748474121 110.962501525879 112.6875 114.293746948242 116.099998474121 117.84375 118.762496948242 118.724998474121 119.300003051758 118.956253051758 118.331253051758 118.53125 119.974998474121 120.5 120.900001525879 121.918746948242 122.8125 123.724998474121 129.306243896484 137.493743896484 145.618743896484 156.018753051758 167.087493896484 178.899993896484 188.4375 198.9375 210.75 215.4375 219.993743896484 222.675003051758 220.118743896484 217.074996948242 211.987503051758 201.806243896484 190.274993896484 178.081253051758 160.912506103516 142.199996948242 124.431251525879 110.212501525879 
91.7125015258789 87.6999969482422 88.5250015258789 89.4187469482422 91.8312454223633 94.6687469482422 98.1687469482422 102.862503051758 109.056251525879 113.800003051758 116.081253051758 117.118751525879 118.21875 118.912498474121 119.981246948242 121.337501525879 122.887496948242 123.018753051758 123.081253051758 124.206253051758 124.699996948242 124.637496948242 124.631248474121 126.543746948242 128.1875 129.568756103516 130.206253051758 129.28125 130.15625 136.306243896484 143.975006103516 152.743743896484 162.6875 174.706253051758 187.387496948242 200.856246948242 214.418746948242 227.568756103516 234.362503051758 239.918746948242 241.75 240.318756103516 234.893753051758 228.393753051758 216.587493896484 204.543746948242 189 170.762496948242 150.731246948242 131.4375 115.46875 
96.8187484741211 92.1312484741211 90.9875030517578 93.6687469482422 98.1812515258789 101.8125 105.8125 111.518753051758 119.212501525879 125.300003051758 125.443748474121 124 123.993751525879 124.525001525879 125.243751525879 126.612503051758 127.53125 127.931251525879 127.712501525879 127.724998474121 130.006256103516 130.693756103516 131.524993896484 134.925003051758 136.181243896484 137.737503051758 136.037506103516 135.706253051758 136.737503051758 141.481246948242 148.706253051758 157.381256103516 168.46875 181.856246948242 196.268753051758 211.46875 227.456253051758 243.53125 253.256256103516 257.600006103516 261.168762207031 257.200012207031 251.731246948242 244.737503051758 232.043746948242 216.8125 199.856246948242 178.568756103516 158.287506103516 139.162490844727 121.050003051758 
101.287498474121 97.5875015258789 96.5999984741211 96.4187469482422 101.831253051758 107.724998474121 112.837501525879 118.243751525879 125.543746948242 132.106246948242 131.143753051758 129.206253051758 129.300003051758 129.5625 129.71875 130.287506103516 131.306243896484 131.899993896484 132.587493896484 132.493743896484 135.143753051758 137.550003051758 139.337493896484 141.8125 144.21875 145.068756103516 143.137496948242 141.543746948242 141.568756103516 145.462493896484 150.881256103516 160.537506103516 171.25 185.28125 199.612503051758 216.34375 233.550003051758 251.25 263.506256103516 270 269.262512207031 265.674987792969 260.0625 253.831253051758 243.012496948242 225.09375 204.712493896484 182.293746948242 162.581253051758 142.706253051758 124.599998474121 
106.900001525879 105.025001525879 104.21875 103.987503051758 107.268753051758 111.618751525879 116.712501525879 121.625 125.949996948242 128.543746948242 130.768753051758 131.262496948242 132.65625 133.381256103516 134.09375 134.887496948242 135.581253051758 136.199996948242 136.193756103516 138.074996948242 141.693756103516 144.925003051758 147.649993896484 149.931243896484 152.037506103516 153.512496948242 150.306243896484 147.112503051758 144.53125 147.824996948242 153.3125 161.28125 172.568756103516 186.800003051758 202.331253051758 218.28125 234.975006103516 253.975006103516 271.350006103516 277.412506103516 275.25 270.78125 265.5 258.931243896484 247.368743896484 230.287506103516 210.106246948242 185.787506103516 164.893753051758 146.068756103516 129.743743896484 
113.78125 112.412498474121 112.506248474121 114.0625 117.206253051758 119.875 121.275001525879 121.368751525879 121.256248474121 123.337501525879 128.65625 132.231246948242 134.943756103516 136.568756103516 137.725006103516 139.050003051758 139.612503051758 140.25 141.09375 142.768753051758 148.96875 153.918746948242 156.65625 158.881256103516 161.675003051758 160.662506103516 155.893753051758 150.837493896484 147.75 149.09375 153.350006103516 161.556243896484 172.90625 186.512496948242 201.912506103516 216.6875 233.956253051758 250.793746948242 263.649993896484 270.337493896484 270.993743896484 267.6875 262.96875 256.399993896484 244.100006103516 230.318756103516 211.506256103516 187.643753051758 166.768753051758 148.868743896484 132.087493896484 
120.337501525879 120.1875 121.443748474121 123.375 125.974998474121 127.6875 128.056243896484 126.618751525879 122.081253051758 121.099998474121 127.650001525879 132.643753051758 136.649993896484 139 140.762496948242 142.024993896484 142.899993896484 145.074996948242 148.793746948242 151.399993896484 156.75 162.762496948242 165.493743896484 169.131256103516 170.112503051758 167.693756103516 160.762496948242 154.949996948242 150.637496948242 149.106246948242 152.712493896484 160.774993896484 170.137496948242 181.743743896484 194.893753051758 209.3125 224.537506103516 239.050003051758 249.475006103516 257.5 259.756256103516 256.631256103516 254.206253051758 249.193756103516 236.962493896484 223.868743896484 208.774993896484 186.975006103516 166.543746948242 149.206253051758 135.1875 
127.431251525879 127.525001525879 129.256256103516 131.725006103516 134.756256103516 136.856246948242 136.418746948242 134.056243896484 130.949996948242 130.487503051758 133.34375 135.706253051758 139.59375 141.868743896484 143.393753051758 144.893753051758 146.3125 150.725006103516 155.793746948242 161.362503051758 167.987503051758 173.806243896484 176.118743896484 178.418746948242 177.28125 174.456253051758 167.487503051758 159.543746948242 153.318756103516 149.331253051758 151.387496948242 157.912506103516 166.356246948242 177.118743896484 189.03125 202.087493896484 216.100006103516 227.693756103516 237.206253051758 244.875 249.118743896484 247.693756103516 244.556243896484 238.774993896484 229.256256103516 218.581253051758 204.456253051758 186.087493896484 166.993743896484 150.818756103516 134.550003051758 
135.024993896484 135.725006103516 137.368743896484 140.006256103516 143.137496948242 146.675003051758 146.800003051758 143.543746948242 140.418746948242 139.225006103516 140.818756103516 141.818756103516 143.59375 144.993743896484 145.800003051758 146.837493896484 148.918746948242 155.262496948242 162.649993896484 171.28125 182.90625 188.612503051758 189.0625 185.912506103516 185.0625 183.524993896484 175.837493896484 167.262496948242 158.600006103516 152.981246948242 153.487503051758 157.887496948242 165.649993896484 174.731246948242 184.131256103516 194.475006103516 205.537506103516 216.100006103516 227.018753051758 234.862503051758 239.006256103516 238.824996948242 237.081253051758 232.556243896484 221.668746948242 213.925003051758 200.268753051758 182.287506103516 165.524993896484 148.59375 131.925003051758 
141.837493896484 142.5625 144.262496948242 147.649993896484 150.975006103516 154.699996948242 155.868743896484 152.399993896484 148.987503051758 147.21875 147.0625 147.28125 146.34375 146.556243896484 147.418746948242 148.662506103516 151.456253051758 158.681243896484 168.237503051758 180.443756103516 195.981246948242 203.212493896484 202.34375 196.100006103516 192.131256103516 188.925003051758 180.331253051758 171.793746948242 164.793746948242 158.6875 156.268753051758 157.375 162.662506103516 169.574996948242 178.03125 187.225006103516 196.5 206.618743896484 216.206253051758 224.518753051758 230.443756103516 230.512496948242 229.350006103516 225.912506103516 213.037506103516 198.431243896484 185.6875 174.012496948242 159.21875 145.337493896484 128.706253051758 
148.393753051758 149.574996948242 151.431243896484 153.9375 156.53125 159.65625 160.237503051758 158.15625 155.231246948242 153.699996948242 152.637496948242 152.081253051758 150.231246948242 146.831253051758 146.881256103516 148.568756103516 152.03125 161.5 172.53125 185.774993896484 204.475006103516 213.399993896484 212.206253051758 206.524993896484 199.143753051758 193.131256103516 186.243759155273 177.568756103516 170.518753051758 163.925003051758 159.53125 157.793746948242 159.868743896484 164.399993896484 171.09375 179.074996948242 187.518753051758 196.462493896484 206.881256103516 213.806243896484 221.3125 223.237503051758 219.981246948242 208.118743896484 196.368743896484 190.137496948242 180.143753051758 166.40625 151 139.381256103516 125.699996948242 
154.581253051758 154.862503051758 156.581253051758 158.649993896484 161.006256103516 162.699996948242 163.3125 162.600006103516 161.012496948242 158.993743896484 157.231246948242 153.987503051758 151.106246948242 147.350006103516 144.675003051758 146.399993896484 150.668746948242 160.449996948242 171.800003051758 184.4375 201.78125 212.762496948242 215.993743896484 211.78125 206.256256103516 200.887496948242 194.337493896484 185.675003051758 177.1875 168.725006103516 162.762496948242 158.53125 157.850006103516 159.662506103516 165.34375 173.024993896484 180.675003051758 190.868743896484 199.4375 208.237503051758 213.331253051758 209.162506103516 203.550003051758 200.125 193.118743896484 186.706253051758 181.618743896484 169.162506103516 152.762496948242 138.0625 123.043746948242 
158.03125 158.243743896484 160.050003051758 162.131256103516 164.1875 165.581253051758 166.818756103516 166.625 164.793746948242 162.487503051758 159.993743896484 156.112503051758 151.918746948242 147.356246948242 142.53125 143.4375 148.412506103516 158.462493896484 169.78125 181.875 198.143753051758 210.737503051758 217.681243896484 216.768753051758 214.762496948242 211.300003051758 203.543746948242 193.862503051758 184.256256103516 173.399993896484 164.831253051758 158.081253051758 156.53125 157.131240844727 160.393753051758 167.162506103516 176.543746948242 188.606246948242 198.625 203.774993896484 203.587493896484 202.274993896484 202.425003051758 202.03125 191.981246948242 184.212493896484 177.149993896484 167.087493896484 154.587493896484 139.550003051758 122.887496948242 
160.28125 160.418746948242 162.824996948242 164.925003051758 167.131256103516 168.987503051758 169.725006103516 169.71875 168.743743896484 167.237503051758 163.96875 159.331253051758 154.4375 148.262496948242 142.318756103516 139.631256103516 146.475006103516 158.106246948242 169.043746948242 180.518753051758 197.431243896484 211.768753051758 220.831253051758 222.037506103516 222.193756103516 222.043746948242 215.225006103516 204.493743896484 191.556243896484 177.568756103516 166.612503051758 158.425003051758 155.162506103516 155.506256103516 156.162506103516 164.556243896484 175.6875 183.324996948242 191.556243896484 196.09375 199.862503051758 201.556243896484 201.993759155273 197.193756103516 191.3125 185.168746948242 179.199996948242 167.056243896484 153.5 140.65625 125.012496948242 
162.106246948242 163.056243896484 165.162506103516 167.431243896484 170.199996948242 172.087493896484 173.737503051758 173.856246948242 173.231246948242 171.475006103516 168.699996948242 164.006256103516 158.356246948242 152.068740844727 146.668746948242 144.337493896484 147.225006103516 157.462493896484 169.118743896484 181.087493896484 198.375 213.793746948242 224.449996948242 225.900009155273 228.006256103516 231.868743896484 228.293746948242 214.293746948242 196.631256103516 180.587493896484 168.5625 161.256240844727 156.462493896484 155.043746948242 160.337493896484 171.693756103516 178.706253051758 187.40625 196.243743896484 198.550003051758 202.899993896484 204.581253051758 200.412506103516 198.087493896484 192.599990844727 186.293746948242 179.75 169.006256103516 157.600006103516 144.524993896484 130.387496948242 
162.743743896484 163.899993896484 166.912506103516 169.974990844727 172.71875 176.09375 178.568756103516 179.175003051758 178.787506103516 177.037506103516 174.28125 169.762496948242 163.28125 157.925003051758 154.225006103516 152.03125 152.9375 157.8125 170.100006103516 182.125 200.762496948242 214.993743896484 225.556243896484 228.881256103516 232.931243896484 237.643753051758 238.787506103516 221.168746948242 198.6875 178.4375 164.643753051758 156.84375 157.475006103516 163.21875 170.256256103516 174.162506103516 182.581253051758 191.293746948242 195.231246948242 202.649993896484 205.78125 205.737503051758 203.181243896484 200.806243896484 195.418746948242 189.199996948242 182.975006103516 172.387496948242 162.268753051758 148.743743896484 137.793746948242 
162.71875 164.868743896484 168.331253051758 172.106246948242 175.943756103516 179.824996948242 182.693756103516 184.725006103516 185.193756103516 184.550003051758 181.506240844727 176.631256103516 170.412506103516 165.456253051758 161.324996948242 159.449996948242 159.787506103516 162.306259155273 170.4375 182.193756103516 203.112503051758 221.118743896484 226.175003051758 230.1875 234.975006103516 238.768753051758 235.449996948242 220.043746948242 199.356262207031 177 160.212493896484 156.449996948242 164.574996948242 170.149993896484 174.137496948242 181.412506103516 187.96875 194.456253051758 200.71875 206.34375 209.381256103516 211.962493896484 207.943756103516 204.487503051758 199.518753051758 194.231246948242 187.649993896484 177.943756103516 166.693756103516 152.143753051758 146.09375 
162.3125 165.193756103516 169.043746948242 173.681243896484 178.293746948242 183.331253051758 187.481246948242 190.40625 192.112503051758 192.625 191.131256103516 186.893753051758 180.96875 174.643753051758 170.375 166.987503051758 164.106246948242 168.231246948242 174.375 184.193756103516 201.193756103516 215.225006103516 226.618743896484 230.537506103516 233.137496948242 232.543746948242 225.78125 215.774993896484 197.912506103516 176.84375 162.96875 163.59375 169.518753051758 176.762496948242 182.675003051758 188.475006103516 195.143753051758 202.143753051758 206.856246948242 210.556243896484 213.387496948242 214.912506103516 211.956253051758 209.618743896484 204.956253051758 200.493743896484 192.993743896484 182.78125 171.893753051758 158.681243896484 152.268753051758 
161.806243896484 165.956253051758 171.306243896484 176.762496948242 181.625 187.618743896484 193.518753051758 198.168746948242 201.256256103516 202.256256103516 201.675003051758 198.631256103516 193.78125 186.612503051758 181.5625 176.143753051758 171.949996948242 172.793746948242 178.206253051758 184.206253051758 199.362503051758 213.5625 223.925003051758 228.268753051758 231.431243896484 231.206253051758 224.118743896484 211.75 197.59375 185.856246948242 176.537506103516 174.837493896484 178.731246948242 184.793746948242 191.162506103516 198.787506103516 204.399993896484 210.175003051758 213.824996948242 217.393753051758 219.112503051758 219.568756103516 217.962493896484 214.96875 210.543746948242 205.199996948242 198.793746948242 189.300003051758 176.881256103516 166.96875 158.449996948242 
162.300003051758 165.725006103516 172.137496948242 178.71875 185.106246948242 191.837493896484 199.225006103516 205.193756103516 210.412506103516 213.100006103516 213.6875 212.637496948242 208.987503051758 201.818756103516 195.043746948242 188.1875 183.756256103516 182.237503051758 183.706253051758 187.706253051758 197.143753051758 207.90625 217.84375 221.912506103516 224.337493896484 224.981246948242 221.487503051758 212.5 203.381256103516 194.699996948242 185.725006103516 183.081253051758 186.543746948242 194.162506103516 202.393753051758 209.800003051758 215.493743896484 220.418746948242 222.025009155273 224.837493896484 225.75 225.387496948242 224.03125 222.181243896484 218.34375 211.8125 205.256256103516 195.199996948242 185.03125 176.225006103516 165.925003051758 
163.03125 167.731246948242 174.425003051758 181.681243896484 189.068756103516 196.087493896484 203.3125 211.556243896484 218.762496948242 222.512496948242 225.412506103516 226.125 227.168746948242 220.899993896484 209.962493896484 200.231246948242 193.731246948242 190.637496948242 189.168746948242 189.993743896484 196.675003051758 204.074996948242 210.931243896484 214.606246948242 218.637496948242 220.981246948242 218.143753051758 213.375 206.393753051758 199.1875 193.050003051758 190.550003051758 195.862503051758 204.212493896484 212.381256103516 220.556243896484 226.618743896484 229.293746948242 229.818756103516 231.5625 232.925003051758 231.743743896484 230.050003051758 228.024993896484 223.768753051758 219.287506103516 212.824996948242 202.493743896484 192.149993896484 184.199996948242 174.206253051758 
164.706253051758 169.518753051758 176.631256103516 183.481246948242 191.431243896484 199.293746948242 206.943756103516 215.568756103516 222.050003051758 226.768753051758 230.737503051758 236.012496948242 240.306243896484 233.03125 219.75 208.78125 200.943756103516 196.399993896484 192.706253051758 190.543746948242 195.068756103516 200.243743896484 204.375 207.875 212.043746948242 214.581253051758 216.043746948242 211.362503051758 207.743743896484 202.587493896484 199.462493896484 198.449996948242 203.925003051758 211.71875 220.574996948242 230.618743896484 237.143753051758 237.768753051758 238.087493896484 238.943756103516 239.381256103516 237.943756103516 236.137496948242 233.818756103516 233.893753051758 228.90625 221.443756103516 208.537506103516 201.256256103516 190.337493896484 180.6875 
168.943756103516 172.706253051758 179.762496948242 186.96875 195.6875 202.456253051758 209.09375 216.662506103516 223.3125 228.262496948242 233.100006103516 236.15625 238.600006103516 233.787506103516 223.5 213.524993896484 205.574996948242 199.306243896484 194.456253051758 190.806243896484 192.881256103516 194.925003051758 198.199996948242 200.956253051758 204.3125 209.318756103516 211.056243896484 210.074996948242 207.75 205.981246948242 203.774993896484 203.84375 209.456253051758 217.037506103516 224.712493896484 233.193756103516 240.15625 241.768753051758 243.056243896484 244.96875 245.087493896484 243.481246948242 242.962493896484 242.28125 240.943756103516 237.168746948242 225.931243896484 218.256256103516 208.956253051758 198.975006103516 189.15625 
176.15625 179.712493896484 183.962493896484 191.418746948242 198.506256103516 204 209.331253051758 215.681243896484 221.53125 226.462493896484 230.637496948242 233.256256103516 233.475006103516 230.018753051758 223.043746948242 215.399993896484 208.675003051758 201.993743896484 196.225006103516 191.756256103516 191.649993896484 191.756256103516 192.206253051758 193.193756103516 197.606246948242 203.84375 207.600006103516 208.975006103516 208.981246948242 208.668746948242 207.287506103516 207.793746948242 213.581253051758 219.487503051758 226.393753051758 233.824996948242 240 243.899993896484 247.556243896484 249.96875 251.256256103516 249.6875 247.087493896484 247.75 247.943756103516 241.037506103516 237.712493896484 229.556243896484 218.868743896484 210.399993896484 199.193756103516 
184.96875 186.243743896484 189.112503051758 193.643753051758 198.056243896484 202.09375 207.893753051758 212.875 216.600006103516 221.193756103516 226.112503051758 228.356246948242 228.256256103516 225.893753051758 220.731246948242 213.931243896484 208.362503051758 202.618743896484 197.256256103516 192.037506103516 190.587493896484 189.256256103516 187.925003051758 188.831253051758 194.46875 200.5 204.387496948242 206.806243896484 208.837493896484 208.306243896484 208.493743896484 209.481246948242 215.893753051758 221.956253051758 227.199996948242 233.862503051758 239.637496948242 243.399993896484 248.824996948242 252.743743896484 255.09375 252.90625 250.143753051758 248.987503051758 249.662506103516 250.78125 249.274993896484 239.087493896484 229.731246948242 218.143753051758 206.706253051758 
194.231246948242 193.143753051758 193.706253051758 195.043746948242 197.300003051758 199.818756103516 204.306243896484 209.037506103516 212.875 216.949996948242 220.21875 222.375 222.418746948242 220.6875 217.3125 212.100006103516 207.056243896484 202.681243896484 197.693756103516 193.024993896484 191.262496948242 188.837493896484 188.612503051758 190.475006103516 194.581253051758 199.056243896484 202.1875 205.231246948242 207.350006103516 207.399993896484 207.137496948242 208.731246948242 215.268753051758 220.681259155273 227.050003051758 233.21875 238.53125 243.75 248.381256103516 255.431243896484 260.631256103516 258.743743896484 251.262496948242 248.443756103516 254.5625 258.9375 259.006256103516 251.649993896484 240.693756103516 227.46875 213.725006103516 
203.100006103516 199.600006103516 196.625 195.412506103516 195.418746948242 196.800003051758 200.106246948242 204.081253051758 208.631256103516 212.149993896484 215.206253051758 216.649993896484 217.356246948242 216.012496948242 213.431243896484 210.568756103516 207.506256103516 202.899993896484 198.506256103516 194.462493896484 192.706253051758 190.274993896484 190.09375 192.625 195.643753051758 198.71875 201.893753051758 203.949996948242 206.1875 205.581253051758 205.625 206.793746948242 212.368743896484 218.262496948242 225.418746948242 231.362503051758 236.868743896484 241.574996948242 246.59375 252.643753051758 260.162506103516 257.043762207031 251.762496948242 253.574996948242 262.693756103516 267.450012207031 269.549987792969 263.399993896484 251.6875 237.324996948242 219.887496948242 
209.006256103516 203.112503051758 198.043746948242 193.137496948242 191.925003051758 193.087493896484 195.768753051758 199.34375 203.418746948242 206.068756103516 209.0625 211.193756103516 212.631256103516 212.975006103516 211.40625 209.475006103516 206.043746948242 203.300003051758 199.256256103516 195.787506103516 194.131256103516 193.431243896484 193.449996948242 194.574996948242 196.668746948242 199.324996948242 201.637496948242 202.78125 203.96875 204.350006103516 204.475006103516 205.618743896484 210.725006103516 216.993743896484 223.387496948242 227.931243896484 232.175003051758 237.800003051758 240.162506103516 244.425003051758 250.662506103516 255.024993896484 255 259.537506103516 263.1875 272.856262207031 278.0625 273.506256103516 261.418762207031 245.600006103516 226.375 
213.068756103516 205.3125 198.681243896484 192.462493896484 188.993743896484 190.449996948242 192.581253051758 195.118743896484 197.75 201.074996948242 204.243743896484 206.918746948242 209.606246948242 209.725006103516 209.337493896484 208.46875 207.056243896484 204.237503051758 200.15625 198.899993896484 198.0625 197.506256103516 197.431243896484 197.637496948242 197.949996948242 199.818756103516 200.712493896484 201.487503051758 201.824996948242 202.112503051758 202.9375 204.71875 209.137496948242 215.818756103516 220.793746948242 224.59375 228.90625 235.362503051758 236.162506103516 233.53125 240.737503051758 250.606246948242 256.081237792969 260.90625 265.243743896484 281.899993896484 290.924987792969 285.162506103516 271.537506103516 253.012496948242 233.493743896484 
215.925003051758 207.350006103516 199.725006103516 193.737503051758 190.168746948242 188.962493896484 190.006256103516 191.162506103516 193.34375 196.012496948242 199.25 202.831253051758 205.806243896484 207.675003051758 209.112503051758 209.456253051758 208.78125 206.568756103516 204.25 203.818756103516 203.149993896484 202.018753051758 201.149993896484 200.149993896484 200.162506103516 200.15625 199.737503051758 199.606246948242 199 200.193756103516 201.5 203.012496948242 207.4375 212.862503051758 218.768753051758 222.537506103516 226.793746948242 231.475006103516 230.631256103516 230.981246948242 241.09375 253.012496948242 261.193756103516 271.306243896484 279.743743896484 302.975006103516 312.40625 302.40625 282.125 260.443756103516 237.850006103516 
215.768753051758 208.125 200.800003051758 195.175003051758 191.074996948242 188.375 187.8125 187.868743896484 189.018753051758 191.21875 195.725006103516 199.212493896484 203.53125 208.181243896484 210.012496948242 211.431243896484 211.112503051758 211.387496948242 210.731246948242 210.675003051758 210 208.006256103516 205.837493896484 203.925003051758 203 201.706253051758 200.28125 198.850006103516 198.1875 199.087493896484 200.306243896484 201.699996948242 205.381256103516 209.78125 215.8125 220.143753051758 225.337493896484 229.1875 229.006240844727 235.681243896484 245.743743896484 256.756256103516 268.037506103516 282.274993896484 302.5 332.456237792969 337.425018310547 312.862518310547 286.868743896484 261.056243896484 238.337493896484 
214.512496948242 208.175003051758 201.4375 196.40625 191.550003051758 187.987503051758 185.300003051758 184.443756103516 184.96875 186.399993896484 190.268753051758 196.043746948242 202.337493896484 207.362503051758 210.399993896484 213.037506103516 214.862503051758 216.268753051758 216.918746948242 217.699996948242 216.443756103516 214.068756103516 211.362503051758 208.024993896484 205.737503051758 202.943756103516 200.949996948242 198.25 196.743743896484 197.350006103516 198.53125 200.512496948242 203.71875 207.574996948242 213.143753051758 218.25 222.612503051758 225.362503051758 229.475006103516 238.350006103516 247.524993896484 258.631256103516 273.112487792969 289.868743896484 312.056243896484 337.556243896484 336.987487792969 309.493743896484 282.424987792969 256.674987792969 234.475006103516 
214.175003051758 208.837493896484 202.649993896484 197.0625 192.21875 187.556243896484 183.300003051758 181.237503051758 179.662506103516 181.162506103516 185.768753051758 193.5625 201.412506103516 208.806243896484 213.481246948242 215.818756103516 218.925003051758 221.381256103516 222.90625 224.0625 223.006256103516 220.15625 216.493743896484 211.293746948242 206.931243896484 203.662506103516 200.175003051758 197.393753051758 194.850006103516 195.368743896484 197.056243896484 198.787506103516 201.231246948242 205.274993896484 209.081253051758 213.012496948242 217.118743896484 224.28125 229.818756103516 237.100006103516 246.512496948242 256.131256103516 269.481262207031 284.443756103516 300.668762207031 311.912506103516 311.412506103516 292.731262207031 269.53125 247.524993896484 228.018753051758 
214.524993896484 209.550003051758 203.899993896484 198.193756103516 193.262496948242 188.337493896484 183.5625 179.056243896484 175.793746948242 175.581253051758 181.106246948242 190.300003051758 200.856246948242 210.475006103516 215.206253051758 219.625 222.131256103516 225.481246948242 228.393753051758 231.018753051758 229.337493896484 224.5 219.737503051758 214.25 209.443756103516 205.375 201.84375 199.050003051758 196.475006103516 195.518753051758 197.024993896484 197.793746948242 199.931243896484 202.831253051758 204.587493896484 207.4375 214.899993896484 221.350006103516 225.8125 233.25 242.462493896484 249.993743896484 259.793762207031 271.71875 281.337493896484 285.78125 284.84375 272.350006103516 255.081253051758 237.756256103516 221.518753051758 
215.012496948242 210.893753051758 205.949996948242 200.850006103516 195.731246948242 190.53125 184.643753051758 178.875 173.425003051758 169.324996948242 176.581253051758 191.850006103516 203.337493896484 211.712493896484 217.168746948242 221.725006103516 224.831253051758 228.287506103516 231.693756103516 234.050003051758 231.612503051758 226.34375 221.306243896484 215.5625 210.487503051758 206.962493896484 202.5625 200.306243896484 197.131256103516 196.193756103516 196.399993896484 197.637496948242 198.443756103516 200.393753051758 201.193756103516 204.762496948242 211.28125 217.681243896484 222.449996948242 227.03125 233.699996948242 239.018753051758 246.268753051758 255.768753051758 261.71875 261.918762207031 260.993743896484 252.737503051758 240.425003051758 226.506256103516 213.206253051758 
218.0625 213.918746948242 208.981246948242 204.399993896484 199.3125 194.056243896484 188.418746948242 182.431243896484 176.643753051758 170.762496948242 183.918746948242 200.59375 208.668746948242 215.100006103516 219.931243896484 224.143753051758 227.274993896484 230.168746948242 232.631256103516 232.831253051758 230.831253051758 226.493743896484 221.893753051758 215.574996948242 210.956253051758 207.53125 203.237503051758 200.956253051758 198.256256103516 197.46875 194.993743896484 195.087493896484 195.806243896484 196.987503051758 197.568756103516 201.756256103516 207.881256103516 213.03125 218.524993896484 223.043746948242 225.600006103516 229.912506103516 233.212493896484 238.356246948242 241.693740844727 241.556243896484 240.1875 235.600006103516 225.237503051758 215.100006103516 205.568756103516 
222.118743896484 217.962493896484 213.71875 209.112503051758 203.868743896484 198.887496948242 194.274993896484 189.787506103516 188.256256103516 193.106246948242 208.1875 212.925003051758 216.112503051758 220.625 223.993743896484 226.993743896484 229.59375 231.606246948242 232.225006103516 232.168746948242 229.21875 224.706253051758 220.975006103516 215.84375 210.65625 207.637496948242 204.118743896484 202.050003051758 200.131256103516 199 197.53125 197.087493896484 197.487503051758 198.293746948242 201.5 205.856246948242 209.774993896484 215.40625 219.3125 219.75 220.787506103516 224.331253051758 224.8125 228.543746948242 230.993743896484 230.262496948242 226.15625 223.006256103516 215.631256103516 208.5 201.018753051758 
226.387496948242 222.574996948242 218.368743896484 213.681243896484 209.693756103516 206 201.962493896484 200.012496948242 201.15625 205.981246948242 213.881256103516 219.318756103516 222.237503051758 225.699996948242 228.368743896484 230.293746948242 232.756256103516 233.356246948242 232.881256103516 232.050003051758 227.9375 223.337493896484 218.800003051758 213.850006103516 210.362503051758 207.231246948242 204.381256103516 203.168746948242 201.725006103516 200.387496948242 198.850006103516 201.175003051758 203.581253051758 204.737503051758 208.1875 211.012496948242 213.306243896484 216.462493896484 219.581253051758 217.568756103516 217.056243896484 218.868743896484 218.5 218.962493896484 220.018753051758 219.131256103516 217.318756103516 215.118743896484 210.237503051758 204.199996948242 197.574996948242 
231.149993896484 227.393753051758 223.543746948242 219.831253051758 215.899993896484 212.037506103516 209.34375 209.543746948242 210.375 213.375 217.893753051758 222.743743896484 227.59375 230 232.443756103516 233.774993896484 235.306243896484 235.6875 234.087493896484 231.725006103516 226.949996948242 221.556243896484 216.425003051758 212.324996948242 210.78125 207.287506103516 204.762496948242 203.675003051758 202.46875 201.443756103516 202.381256103516 207.106246948242 208.962493896484 211.606246948242 215.149993896484 217.793746948242 218.768753051758 219.356246948242 219.806243896484 216.137496948242 213.487503051758 212.962493896484 210.46875 210.806243896484 211.481246948242 212.112503051758 210.212493896484 207 204.53125 200.649993896484 194.831253051758 
237.28125 234.28125 230.706253051758 227 223.75 219.975006103516 218.306243896484 218.087493896484 219.581253051758 220.818740844727 224.462493896484 228.4375 232.581253051758 235.025009155273 236.5625 238.662506103516 239.649993896484 239.4375 237.768753051758 232.850006103516 225.618743896484 220.912506103516 215.46875 211.487503051758 209.875 207.337493896484 204.512496948242 203.143753051758 203.5625 204.993743896484 203.399993896484 209.418746948242 213.162506103516 219.981246948242 225.987503051758 226.712493896484 227.300003051758 226.756256103516 223.993743896484 218.574996948242 213.9375 209.112503051758 205.462493896484 206.899993896484 208.212509155273 208.725006103516 205.956253051758 202.100006103516 200.443756103516 196.100006103516 190.875 
244.475006103516 241.543746948242 238.362503051758 234.618743896484 230.649993896484 227.981246948242 226.512496948242 226.193756103516 227.206253051758 228.09375 230.556243896484 233.850006103516 237.768753051758 239.412506103516 241.318756103516 243.03125 243.40625 243.993743896484 241.818756103516 233.725006103516 224.90625 217.949996948242 212.918746948242 211.431243896484 209.824996948242 207.5 204.456253051758 203.068756103516 203.712493896484 204.850006103516 206.012496948242 207.587493896484 213.362503051758 224.100006103516 234.993743896484 241.337493896484 238.199996948242 235.268753051758 229.287506103516 221.762496948242 215.768753051758 210.481246948242 206.90625 205.975006103516 206.762512207031 205.362503051758 202.612503051758 199.225006103516 197.162506103516 193.237503051758 188.456253051758 
252.100006103516 249.918746948242 246.418746948242 241.887496948242 238.84375 235.418746948242 233.056243896484 232.699996948242 232.71875 234.162506103516 236.600006103516 239.831253051758 241.399993896484 244.03125 245.75 246.887496948242 247.03125 246.956253051758 246.375 237.356246948242 226.606246948242 217.737503051758 212.449996948242 210.512496948242 209.887496948242 207.850006103516 204.899993896484 204.399993896484 204.09375 205.743759155273 206.206253051758 207.375 212.149993896484 225.043746948242 241.887496948242 255.412506103516 251.612503051758 243.712493896484 234.949996948242 226.206253051758 219.337493896484 213.600006103516 208.9375 207.587493896484 206.787506103516 204.149993896484 201.831253051758 197.537506103516 193.75 191.387496948242 187.34375 
260.100006103516 258.237487792969 254.943756103516 249.787506103516 246.449996948242 242.918746948242 239.043746948242 238.068756103516 237.606246948242 239.149993896484 241.350006103516 243.706253051758 245.193756103516 247.012496948242 248.243743896484 248.756256103516 247.899993896484 246.231246948242 244.274993896484 236.918746948242 227.5 220.25 213.568756103516 210.9375 210.8125 208.75 206.25 205.3125 205.6875 207.875 208.481262207031 208.756256103516 214.806243896484 225.981246948242 241.074996948242 256.518737792969 256.537506103516 246.881256103516 237.649993896484 230.399993896484 222.8125 217.399993896484 213.15625 208.912506103516 208.100006103516 205.956253051758 202.46875 198.137496948242 192.662506103516 190.475006103516 187.8125 
