ncols        51
nrows        45
xllcorner    -63.500000000000
yllcorner    -7.500000000000
cellsize     0.166666666667
NODATA_value -99
305.318756103516 301.493743896484 300.293762207031 309.231262207031 313.850006103516 321.068756103516 322.106262207031 321.137512207031 314.806243896484 319.287506103516 326.418762207031 328.024993896484 329.862487792969 327.625 322.71875 319.481262207031 313.40625 306.368743896484 298.868743896484 295.075012207031 296.53125 288.90625 282.893737792969 273.106231689453 265.518737792969 259.412506103516 256.681243896484 256.118743896484 248.600006103516 242.331253051758 231.21875 226.850006103516 226.212493896484 221.206253051758 216.949996948242 213.943756103516 210.399993896484 208.53125 202.118743896484 198.118743896484 197.206253051758 200.625 196.912506103516 195.681243896484 192.59375 192.768753051758 195.962493896484 195.631256103516 194.175003051758 196.043746948242 200.525009155273 
297.793762207031 294.337493896484 299.706237792969 306.493743896484 315.90625 322.587493896484 323.081237792969 321.299987792969 322.768737792969 326.5 329.762512207031 328.5 321.256256103516 316.225006103516 308.993743896484 303.5 294.931243896484 284.587493896484 276.256256103516 273.4375 272.774993896484 266.393737792969 263.149993896484 257.600006103516 251.481246948242 245.53125 244.131256103516 241.625 235.956253051758 226.831253051758 221.099990844727 222.037506103516 220.087493896484 217.893753051758 216.168746948242 210.050003051758 207.762496948242 204.725006103516 198.9375 195.706253051758 197.412506103516 192.243743896484 194.318756103516 193.143753051758 195.068756103516 194.850006103516 197.856246948242 195.793746948242 191.90625 194.587493896484 198.762496948242 
284.518737792969 289.737487792969 295.556243896484 298.237487792969 308.731262207031 318.256256103516 321.581237792969 328.28125 330.418762207031 332.743743896484 331.556243896484 324.293762207031 317.600006103516 304.424987792969 294.225006103516 286.393737792969 275.1875 265.799987792969 258.40625 253.6875 253.912506103516 253.90625 250.337509155273 250.03125 241.368743896484 234.84375 238 233.887496948242 225.6875 223.543746948242 216.762496948242 214.53125 212.300003051758 212.037506103516 207.956253051758 197.59375 197.056243896484 196.793746948242 191.956253051758 189.524993896484 192.8125 190.331253051758 189.75 187.256256103516 190.725006103516 188.375 193.556243896484 194.5625 189.581253051758 190.643753051758 193.074996948242 
269.8125 270.587493896484 282.443756103516 291.318756103516 298.462493896484 307.46875 316.462493896484 325.137512207031 331.881256103516 335.893737792969 330.037506103516 317.918762207031 305.131256103516 290.068756103516 279.756256103516 270.418762207031 255.668746948242 248.181243896484 241.631256103516 244.475006103516 243 237.662506103516 236.600006103516 238.731246948242 230.737503051758 225.324996948242 225.868743896484 220.056243896484 216.8125 216.262496948242 212.712493896484 208.143753051758 205.699996948242 200.40625 196.581253051758 196.181243896484 195.662506103516 192.137496948242 186.75 184.350006103516 185.943756103516 187.787506103516 186.71875 183.443756103516 188.212493896484 183.256256103516 187.587493896484 187.65625 185.962493896484 183.087493896484 188.987503051758 
276.356262207031 274.28125 269.493743896484 280.9375 295.918731689453 300.162506103516 309.262512207031 323.481262207031 336.125 340.831237792969 332.818756103516 309.131256103516 294.668762207031 280.299987792969 265.612487792969 254.449996948242 242.212493896484 230.037506103516 223.568756103516 224.449996948242 223.268753051758 222.537506103516 223.15625 224.362503051758 217.743743896484 214.53125 212.618743896484 213.456253051758 211.318756103516 207.112503051758 207.481246948242 206.331253051758 201.75 198.331253051758 197.637496948242 192.056243896484 190.28125 189.300003051758 182.46875 177.800003051758 179.668746948242 181.237503051758 181.887496948242 182.337493896484 183.568756103516 180.881256103516 179.024993896484 178.399993896484 177.175003051758 177.756256103516 180.712493896484 
269.693756103516 273.368743896484 270.668762207031 263.512512207031 282.056243896484 298.568756103516 303.993743896484 314.181243896484 330.674987792969 337.037506103516 322.225006103516 299.600006103516 285.443756103516 271.0625 253.918746948242 242.350006103516 228.84375 217.675003051758 214.53125 213.106246948242 215.043746948242 213.925003051758 213.53125 210.1875 208.800003051758 207.4375 203.850006103516 204.96875 204.056243896484 200.899993896484 204.112503051758 203.899993896484 202.506256103516 197.206253051758 191.1875 192.068756103516 186.356246948242 178.106246948242 175.893753051758 177.412506103516 175.318756103516 178.356246948242 176.774993896484 176.600006103516 182.512496948242 177.318756103516 173.34375 172.831253051758 168.618743896484 167.706253051758 172.15625 
269.731262207031 271.037506103516 270.03125 268.431243896484 268.600006103516 272.625 278.125 294.862487792969 300.362487792969 305.381256103516 298.600006103516 281.6875 272.243743896484 261.543762207031 246.006256103516 233.243743896484 222.512496948242 212.274993896484 204.125 203.625 200.287506103516 200.4375 199.25 199.887496948242 203.631256103516 202.824996948242 198.943756103516 197.675003051758 196.831253051758 201.71875 199.850006103516 196.668746948242 193.443756103516 192.737503051758 192.774993896484 187.662506103516 177.318756103516 172.037506103516 168.850006103516 171.25 169.050003051758 170.193756103516 171.568756103516 171.75 172.987503051758 175.181243896484 168.537506103516 159.793746948242 159.143753051758 160.975006103516 166.125 
266.568756103516 263.256256103516 263.487487792969 269.606262207031 270.693756103516 277.875 269.456268310547 262.543762207031 256.518737792969 265.337493896484 268.931243896484 262.712493896484 257.456237792969 248.081253051758 239.018753051758 227.21875 213.199996948242 204.568756103516 196.318756103516 189.4375 196.706253051758 194.09375 191.75 192.106246948242 196.018753051758 193.4375 191.34375 190.300003051758 190.006256103516 190.293746948242 196.90625 193.5625 191.25 188.387496948242 182.618743896484 176.324996948242 169.712493896484 164.21875 157.606246948242 155.34375 155.712493896484 160.318756103516 158.018753051758 155.475006103516 155.056243896484 152.868743896484 149.324996948242 148.03125 147.675003051758 148.149993896484 156.137496948242 
261 260.78125 257.84375 260.568756103516 264.03125 264.0625 265.887512207031 264.256256103516 248.543746948242 239.46875 239.649993896484 239.356246948242 242.850006103516 236.862503051758 230.137496948242 218.449996948242 213.21875 207.6875 201.681243896484 191.662506103516 185.8125 191.600006103516 184.662506103516 190.699996948242 189.800003051758 188.475006103516 186.543746948242 187.725006103516 191.681243896484 190.600006103516 197.03125 185.537506103516 175.618743896484 170.875 170.412506103516 170.787506103516 167.356246948242 164.175003051758 157.59375 151.412506103516 147.65625 145.5625 149.868743896484 147.318756103516 140.524993896484 137.168746948242 136.856246948242 134.15625 131.787506103516 135.431243896484 139.78125 
255.987503051758 256.962493896484 254.856246948242 256.831237792969 258.962493896484 257.512512207031 257.618743896484 251.8125 246.09375 239.106246948242 231.581253051758 220.324996948242 226.375 225.462493896484 222.137496948242 216.068756103516 208.762496948242 210.243743896484 205.493743896484 199.824996948242 190.231246948242 186.412506103516 177.787506103516 180.524993896484 178.34375 181.09375 180.431243896484 179.875 180.043746948242 183.574996948242 186.3125 178.943756103516 173.756256103516 169.768753051758 164.631256103516 162.643753051758 161.774993896484 160.987503051758 156.856246948242 156.006256103516 154.487503051758 151.850006103516 144.5 135.975006103516 130.087493896484 129.287506103516 128.774993896484 127.831253051758 127.46875 125.456253051758 122.762496948242 
254.231246948242 253.21875 250.699996948242 250.425003051758 249.556243896484 251.368743896484 245.568740844727 240.34375 237.993743896484 234.056243896484 229.75 219.987503051758 213.475006103516 214.131256103516 211.399993896484 208.487503051758 203.918746948242 201.043746948242 201.487503051758 203.225006103516 205.09375 195.425003051758 179.237503051758 164.274993896484 169.300003051758 180.975006103516 182.181243896484 178.056243896484 174.100006103516 174.706253051758 175.881256103516 171.756256103516 168.78125 165.831253051758 162.206253051758 156.856246948242 156.068756103516 153.456253051758 155.837493896484 153.262496948242 150.65625 145.475006103516 141.899993896484 129.262496948242 119.462501525879 116.349998474121 121.34375 122.581253051758 121.993751525879 120.599998474121 115.318748474121 
246.637496948242 246.756256103516 247.824996948242 243.824996948242 243.649993896484 241.024993896484 241.612503051758 238.649993896484 235.099990844727 224.899993896484 223.856246948242 217.987503051758 203.481246948242 203.993743896484 207.543746948242 203.918746948242 199.649993896484 198.837493896484 201.6875 211.199996948242 214.462493896484 206.949996948242 188.793746948242 168.168746948242 166.149993896484 169.006256103516 167.21875 167.293746948242 168.193756103516 166.28125 160.243743896484 160.587493896484 159.25 154.012496948242 153.975006103516 154.393753051758 156 154.925003051758 149.512496948242 151.181243896484 149.34375 143.15625 129.893753051758 111.137496948242 99.7375030517578 95.3499984741211 97.6812515258789 110.287498474121 113.175003051758 110.081253051758 102.675003051758 
243.756256103516 242.143753051758 240.931243896484 237.100006103516 237.987503051758 233.137496948242 231.818756103516 229.668746948242 223.137496948242 217.231246948242 214.46875 212.068756103516 205.625 192.550003051758 191.699996948242 192.831253051758 191.118743896484 193.475006103516 190.25 197.943756103516 205.206253051758 199.331253051758 186.96875 170.787506103516 157.8125 157.356246948242 159.600006103516 161.074996948242 163.40625 163.981246948242 156.387496948242 150.449996948242 152.356246948242 145.699996948242 145.074996948242 147.868743896484 153.837493896484 155.962493896484 160.237503051758 156.65625 147.556243896484 139.149993896484 119.918746948242 104.775001525879 99.1187515258789 97.4937515258789 98.0875015258789 98.4875030517578 99.4250030517578 99.9562530517578 98.7624969482422 
238.512496948242 237.181243896484 234.206253051758 231.131256103516 227.693756103516 225.018753051758 221.287506103516 221.03125 217.25 209.743743896484 205.84375 199.8125 196.581253051758 189.193756103516 176.193756103516 180.956253051758 178.631256103516 178.287506103516 178.193756103516 183.699996948242 188.875 184.643753051758 176.068756103516 168.375 160.5625 154.606246948242 151.831253051758 150.481246948242 151.59375 150.899993896484 149.774993896484 145.96875 144.425003051758 143.462493896484 139.268753051758 148.118743896484 158.481246948242 165.631256103516 170.199996948242 163.012496948242 140.681243896484 126.28125 120.237503051758 119.431251525879 117.699996948242 110.15625 106.849998474121 106.462501525879 104.762496948242 107.168746948242 102.981246948242 
228.081253051758 227.274993896484 227.0625 225.668746948242 221.793746948242 218.693756103516 216.71875 213.856246948242 209.425003051758 203.850006103516 198.037506103516 193.287506103516 189.193740844727 180.181243896484 165.081253051758 167.262496948242 166.6875 170.006256103516 166.237503051758 169.362503051758 175.737503051758 173.818756103516 171.21875 167.743743896484 166.568756103516 162.018753051758 158.962493896484 155.637496948242 157.056243896484 150.324996948242 142.668746948242 141.824996948242 146.162506103516 139.78125 131.537506103516 133.537506103516 152.181243896484 170.287506103516 171.949996948242 160.71875 148.1875 140.256256103516 138.587493896484 127.568748474121 120.331253051758 118.018753051758 119.006248474121 119.90625 117.943748474121 109.893753051758 101.175003051758 
220.75 217.743743896484 217.75 214.356246948242 214.943756103516 213.006256103516 209.512496948242 205.068756103516 203.787506103516 202.493743896484 196.475006103516 190.612503051758 186.34375 177.868743896484 165.118743896484 149.3125 152.53125 159.149993896484 156.118743896484 158.368743896484 162.875 164.081253051758 166.331253051758 168.506256103516 168.168746948242 164.449996948242 158.681243896484 156.868743896484 155.193756103516 154.862503051758 149.556243896484 142.943756103516 134.881256103516 126.818748474121 120.143753051758 138.543746948242 146.425003051758 158.318756103516 166.399993896484 167.337493896484 164.081253051758 156.962493896484 144.993743896484 128.668746948242 118.787498474121 114.03125 113.324996948242 110.443748474121 110.974998474121 107.206253051758 100.331253051758 
211.612503051758 210.53125 207.956253051758 208.59375 208.725006103516 207.912506103516 204.399993896484 201.550003051758 195.881256103516 192.71875 191.024993896484 187.287506103516 180.012496948242 172.125 165.987503051758 151.90625 135.806243896484 140.693756103516 144.612503051758 145.618743896484 148.012496948242 153.512496948242 157.199996948242 165.518753051758 165.618743896484 157.0625 151.868743896484 149.4375 153.100006103516 154.050003051758 152.78125 149.856246948242 141.8125 138.881256103516 145.393753051758 151.231246948242 161.756256103516 170.243743896484 177.399993896484 168.543746948242 165.306243896484 153.662506103516 137.34375 125.693748474121 116.925003051758 112.175003051758 111.287498474121 111.162498474121 108.918746948242 99.5687484741211 94 
200.800003051758 201.018753051758 202.600006103516 203.5 204.518753051758 206.087493896484 201.649993896484 197.9375 192.356246948242 185.662506103516 181.225006103516 180.649993896484 172.5625 166.15625 162.643753051758 152.756256103516 137.462493896484 123.668746948242 135.831253051758 132.556243896484 134.693756103516 139.96875 148.925003051758 155.550003051758 159.293746948242 151.231246948242 143.587493896484 147.456253051758 150.012496948242 147.693756103516 139.762496948242 133.024993896484 149.206253051758 151.574996948242 152.943756103516 175.368743896484 182.625 175.706253051758 174.600006103516 168.362503051758 151.262496948242 137.306243896484 124.5625 116.606246948242 110.887496948242 108.956253051758 108.837501525879 107.1875 103.762496948242 92.6687469482422 91.5062484741211 
191.293746948242 194.399993896484 196.318756103516 198.618743896484 200.981246948242 199.493743896484 196.462509155273 192.34375 188.793746948242 184.425003051758 178.443756103516 169.181243896484 162.987503051758 159.125 153.024993896484 146.024993896484 140.59375 124.181251525879 117.493751525879 117.006248474121 124.068748474121 133.943740844727 129.131256103516 139.550003051758 143.431243896484 147.725006103516 146.043746948242 142.225006103516 147.625 145.012496948242 139.550003051758 139.943756103516 147.712493896484 148.1875 155.46875 170.706253051758 171.137496948242 163.381256103516 161.425003051758 150.90625 136.487503051758 120.643753051758 113.349998474121 109.375 106.75 105.8125 106.8125 104.568748474121 97.8125 85.9562530517578 89.7374954223633 
184.90625 188.787506103516 189.34375 187.475006103516 188.681243896484 192.475006103516 190.625 186 186.300003051758 183.4375 178.65625 173.21875 165.431243896484 156.837493896484 148.618743896484 133.675003051758 124.212501525879 125.306251525879 118.081253051758 118.75 111.587501525879 115.568748474121 126.818748474121 131.59375 129.65625 128.399993896484 128.481246948242 136.362503051758 133.662506103516 129.462493896484 129.324996948242 142.787506103516 145.925003051758 145.34375 146.774993896484 154.762496948242 158.350006103516 152.474990844727 145.243743896484 135.875 120.943748474121 105.4375 103.887496948242 102.443748474121 100.137496948242 100.037498474121 100.762496948242 97.7937469482422 91.6062469482422 85.7374954223633 89.6437530517578 
168.506256103516 181.149993896484 186.887496948242 186.543746948242 181.96875 182.162506103516 184.550003051758 183.28125 181.918746948242 177.78125 175.337493896484 169.606246948242 161.774993896484 150.875 140.318756103516 133.03125 123.018753051758 119.175003051758 121.556251525879 119.131248474121 125.375 130.137496948242 137.293746948242 145.131256103516 145.024993896484 138.943756103516 128.256256103516 128.231246948242 128.887496948242 131.212493896484 133.449996948242 141.131256103516 135.09375 133.46875 133.475006103516 140.806243896484 146.143753051758 144.46875 134.868743896484 125.275001525879 115.15625 103.256248474121 99.9812469482422 99.3499984741211 97.6750030517578 97.8562469482422 98.4312515258789 94.0124969482422 86.71875 88.15625 87.625 
163.274993896484 166.831253051758 176.018753051758 181.381256103516 179.96875 177.5625 178.274993896484 176.762496948242 174.925003051758 174.899993896484 172.25 164.143753051758 156.006256103516 150.5 144.71875 133.28125 134.962493896484 128.449996948242 130.899993896484 129.618743896484 128.3125 137.606246948242 144.568756103516 143.962493896484 140.206253051758 135.443740844727 135 129.625 133.681243896484 135.943756103516 133.087493896484 129.25 126.65625 129.056243896484 127.0625 129.143753051758 132.800003051758 134.793746948242 129.331253051758 121.868751525879 112.3125 103.806251525879 100.324996948242 100.150001525879 97.1999969482422 95.7125015258789 94.78125 90.1875 83.8375015258789 88.6624984741211 87.15625 
158.693756103516 171.699996948242 180.09375 184.306243896484 183.25 178.481246948242 169.568756103516 166.356246948242 170.6875 170.024993896484 166.893753051758 164.175003051758 163.324996948242 160.268753051758 153.693756103516 145.649993896484 137.462493896484 132.618743896484 133.412490844727 135.643753051758 140.962493896484 142.381256103516 142.556243896484 142.768753051758 145.112503051758 140.056243896484 133.881256103516 131.3125 132.149993896484 127.368751525879 123.893753051758 122.981246948242 119.056251525879 117.006248474121 120.21875 118.625 118.900001525879 121.824996948242 121.956253051758 118.243751525879 110.175003051758 103.837501525879 99.7937469482422 97.2312469482422 96.5124969482422 95.0250015258789 90.1374969482422 84.8000030517578 84.4499969482422 88.6125030517578 87.4937515258789 
150.524993896484 164.9375 179.324996948242 179.925003051758 177.387496948242 172.71875 172.162506103516 168.21875 164.587493896484 160.206253051758 163.943756103516 168.175003051758 164.5 164.287490844727 154.0625 147.03125 141.037506103516 141.181243896484 140.681259155273 140.756256103516 144.274993896484 149.162506103516 147.524993896484 152.5 148.393753051758 140.456253051758 139.53125 129.024993896484 124.168746948242 121.4375 117.512496948242 115.662498474121 113.762496948242 109.856246948242 111.518753051758 109.087501525879 111.337501525879 114.349998474121 113.237503051758 109.824996948242 104.856246948242 100.918746948242 98.0374984741211 96.6125030517578 97.15625 91.7312469482422 83.90625 79.65625 81.6374969482422 85.1750030517578 84.25 
140.793746948242 157.112503051758 169.40625 177.737503051758 178.550003051758 173.862503051758 170.518753051758 169.212493896484 164.387496948242 165.006256103516 163.524993896484 163.181243896484 164.837493896484 158.731246948242 149.837493896484 144.256256103516 141.556243896484 139.206253051758 140.881256103516 144.59375 147.65625 149.0625 154.612503051758 156.537506103516 147.243743896484 139.274993896484 133.043746948242 125.993751525879 119.568748474121 116.724998474121 109.3125 104.381248474121 102.512496948242 102.706253051758 102.881248474121 103.081253051758 104.425003051758 104.775001525879 106.212501525879 104.293746948242 100.6875 98.7562484741211 97.7624969482422 94.0062484741211 91.1437530517578 85.0437469482422 76.4562530517578 73.8625030517578 72.96875 78.9937515258789 82.0062484741211 
137.46875 156.131256103516 160.606246948242 169.293746948242 170.056243896484 167.706253051758 163.431243896484 162.831253051758 154.78125 151.018753051758 155.324996948242 155.449996948242 156.524993896484 153.056243896484 148.443756103516 140.725006103516 138.824996948242 140.631256103516 143.03125 142.537506103516 146.5625 149.675003051758 153.40625 152.631256103516 147.337493896484 136.875 130.050003051758 122.887496948242 113.543746948242 108.856246948242 101.5625 96.3687515258789 94.6875 94.0749969482422 94.0437469482422 97.0124969482422 98.8000030517578 97.7687530517578 97.2125015258789 98.3687515258789 95.6687469482422 89.2375030517578 88.1624984741211 88.2249984741211 87 81.9312515258789 76.4875030517578 71.0062484741211 72.5124969482422 79.1937484741211 79.8125 
132.800003051758 141.731246948242 151.199996948242 157.131256103516 157.949996948242 157.03125 154.1875 147.006256103516 142.925003051758 147.3125 152.012496948242 151.59375 149.350006103516 148.018753051758 145.71875 142.949996948242 138.75 135.887496948242 139.475006103516 139.34375 140.243743896484 143.824996948242 148.831253051758 153.337493896484 142.456253051758 132.712493896484 126.112503051758 117.068748474121 108.243751525879 102.193748474121 97.1374969482422 89.5062484741211 87.0875015258789 86.9749984741211 87.5437469482422 89.2125015258789 92.5625 91.9749984741211 90.1937484741211 92.3812484741211 92.1187515258789 87.7937469482422 83.6999969482422 82.1312484741211 81.0749969482422 80.3562469482422 79.0062484741211 71.75 70.0625 72.3562469482422 71.0374984741211 
129.3125 132.581253051758 139.274993896484 140.90625 141.693756103516 143.649993896484 142.918746948242 138.337493896484 137.199996948242 141.681243896484 143.475006103516 144.1875 141.581253051758 139.137496948242 136.9375 134.912506103516 131.96875 132.643753051758 131.21875 133.875 136.381256103516 136.53125 143.012496948242 142.231246948242 134.96875 125.212501525879 118.699996948242 110.099998474121 104.6875 100.237503051758 93.8499984741211 88.0250015258789 84.2687530517578 80.7874984741211 83.2312469482422 84.5124969482422 87.6687469482422 86.8062515258789 86.9562530517578 88.1187515258789 88.2687530517578 86.8375015258789 79.1624984741211 78.9499969482422 76.3000030517578 76.1875 74.3000030517578 70.9937515258789 67.5062484741211 62.4562492370605 61.1749992370605 
122.256248474121 128.268753051758 127.25 126.25 128.550003051758 125.993751525879 127.356246948242 129.112503051758 131.65625 133.056243896484 135.637496948242 135.40625 135.137496948242 133.675003051758 131.8125 130.418746948242 129.737503051758 127.925003051758 129.300003051758 131.556243896484 130.393753051758 129.524993896484 130.949996948242 129.237503051758 123.974998474121 115.168746948242 111.993751525879 107.193748474121 100.868751525879 94.1437530517578 87.3812484741211 83.21875 79.2624969482422 78.4625015258789 78.1437530517578 79.0374984741211 83.21875 81 81.6312484741211 81.7312469482422 80.6687469482422 77.9187469482422 74.875 76.8312530517578 75.3375015258789 71.7687530517578 71.5437469482422 67.0562515258789 62.8687515258789 57.9375 53.0625 
114.449996948242 116.668746948242 116.143753051758 114.137496948242 114.643753051758 116.143745422363 117.175003051758 122.306251525879 123.662498474121 126.400001525879 128.725006103516 130.043746948242 130.568756103516 130.006256103516 126.849998474121 123.768753051758 121.9375 123.275001525879 120.056251525879 117.756248474121 120.137496948242 120.043746948242 120.856246948242 119.293746948242 113.018753051758 109.556251525879 105.362503051758 100.050003051758 94.9000015258789 88.0812454223633 82.40625 77.96875 75.9375 75.4124984741211 76.21875 75.3312530517578 80.1937484741211 78.2125015258789 75.0250015258789 78.2375030517578 76.71875 73.78125 73.03125 70.9124984741211 69.25 69.40625 65.0124969482422 62.15625 58.7000007629395 54.2437515258789 48.9625015258789 
108.474998474121 108.212501525879 106.262496948242 105.443748474121 105.856246948242 107.081253051758 110.324996948242 113.862503051758 115.356246948242 119.34375 122.612503051758 122.375 125.043746948242 119.612503051758 118.293746948242 119.65625 118.931251525879 116.262496948242 113.737503051758 112.731246948242 112.1875 109.831253051758 110.331253051758 109.712501525879 105.331253051758 102.693748474121 98.1812515258789 94.03125 88.8375015258789 83.2125015258789 80.5749969482422 76.6500015258789 73.5562515258789 71.2874984741211 71.4625015258789 71.03125 74.28125 74.25 71.5875015258789 69.125 69.6937484741211 67.3874969482422 66.3249969482422 65.3187484741211 65.2375030517578 63.0562515258789 58.7750015258789 55.90625 52.8499984741211 50.3250007629395 47.2625007629395 
101.618751525879 100.756248474121 97.625 98.0875015258789 100.887496948242 102.0625 104.074996948242 106.5625 109.224998474121 110.912498474121 111.59375 112.900001525879 112.006248474121 112.474998474121 113.368751525879 113.03125 109.09375 106.512496948242 105.074996948242 104.587501525879 103.431251525879 102.381248474121 99.9562530517578 98.5875015258789 97.4124984741211 94.2937469482422 91.5687484741211 88.1125030517578 83.3125 81.9312515258789 77.9937515258789 73.7937469482422 71.4499969482422 68.71875 67.8874969482422 66.5625 67.7125015258789 66.0500030517578 65.6875 64.5749969482422 65.4437484741211 63.7999992370605 61.9500007629395 60.7999992370605 60.1749992370605 59.1749992370605 57.2750015258789 53.3812484741211 49.875 47.3062515258789 44.2249984741211 
93.6750030517578 92.9937515258789 92.3687515258789 93.1312484741211 93 94.6187515258789 96.7562484741211 99.7562484741211 100.806251525879 102.731246948242 107.306251525879 107.293746948242 107.574996948242 110.293746948242 111.106246948242 107.006248474121 102.487503051758 102.212501525879 100.606246948242 99.1999969482422 95.6999969482422 93.3312530517578 92.4562530517578 91.6437530517578 89.6875 87.7249984741211 84.9812469482422 81.6437530517578 78.84375 77.6937484741211 75.0500030517578 70.0562515258789 68.1312484741211 67.2062454223633 65.2062530517578 63.5874977111816 62.3062515258789 60.6062507629395 60.2000007629395 61.6812515258789 62.2625007629395 60.3875007629395 57.5437507629395 55.8499984741211 53.96875 53.8812484741211 54.8250007629395 50.6875 48.1875 43.0999984741211 41.0562515258789 
85.6875 86.375 88.1999969482422 88.3187484741211 87.6875 88.4437484741211 91.3062515258789 92.0250015258789 92.6937484741211 94.0250015258789 98.7562484741211 102.34375 103.568748474121 103.650001525879 102.59375 101.724998474121 99.90625 97.1125030517578 93.1875 91.6875 89.5500030517578 86.65625 86.7437515258789 84.2437515258789 83.5124969482422 80.5187530517578 79.6999969482422 77.125 76.0875015258789 74.3874969482422 72.7874984741211 69.90625 65.21875 62.9812507629395 62.09375 60.4625015258789 58.5750007629395 56.5750007629395 56.40625 56.75 55.8812484741211 55.5750007629395 54.0499992370605 49.9000015258789 50.1124992370605 50.6062507629395 49.0437507629395 45.2437515258789 42.8562507629395 41.3687515258789 39.8375015258789 
80.0499954223633 79.1312484741211 82.0812530517578 84.2437515258789 83.8562469482422 82.2062530517578 82.4187469482422 84.2624969482422 85.5062484741211 86.8937530517578 94.1125030517578 98.8499984741211 101.15625 105.125 103.824996948242 99.9749984741211 95.4625015258789 90.0812530517578 86.1374969482422 81.4499969482422 82.2624969482422 78.6187515258789 77.2125015258789 75.6062469482422 77.3499984741211 76.0749969482422 74.6687469482422 71.75 70.3874969482422 68.7312469482422 68.0687484741211 66.6187515258789 61.6624984741211 59.1312484741211 56.90625 56.0437507629395 53.2000007629395 53.7687492370605 52.03125 52.1937484741211 51.34375 49.7312507629395 48.9625015258789 46.4812507629395 46.09375 45.2937507629395 43.9500007629395 42.8562507629395 39.9500007629395 39.4000015258789 37.2874984741211 
75.1062469482422 74.03125 75.5749969482422 77.5875015258789 78.2249984741211 77.5374984741211 77.6125030517578 77.6125030517578 77.75 78.8312530517578 83.0875015258789 92.3625030517578 98.1500015258789 100.824996948242 99.9437484741211 96.5687484741211 91.2624969482422 84.0187530517578 79.21875 73.9625015258789 72.5124969482422 72.6500015258789 70.6312484741211 69.3812484741211 70.8187484741211 69.8687515258789 68.625 66.4375 66.3125 64.46875 62.6312484741211 61.4937515258789 58.2937507629395 55.0812492370605 51.8624992370605 51.1749992370605 51.0750007629395 49.2750015258789 48.5125007629395 48.9187507629395 48.1062507629395 46.03125 44.9375 44.1500015258789 42.6749992370605 40.8250007629395 40.78125 39.0187492370605 37.9749984741211 35.90625 34.8875007629395 
68.2874984741211 69.9312515258789 69.5437469482422 71.5749969482422 73.3125 72.8562469482422 72.5812530517578 73.65625 73.25 70.5999984741211 77.5562515258789 89.7062530517578 96.4250030517578 96.8062515258789 95.7874984741211 92.2312469482422 87.65625 81.5374984741211 76.0812530517578 68.7750015258789 66.0749969482422 66.9124984741211 64.96875 64.5437469482422 64.03125 63.5999984741211 64.3625030517578 62.5499992370605 60.9312515258789 58.3312492370605 58.40625 56.1500015258789 54.0499992370605 51.7874984741211 48.7125015258789 47.875 47.7874984741211 47.4937515258789 45.6937484741211 44.5562515258789 43.59375 43.0437507629395 40.9124984741211 42.9375 41.2687492370605 38.59375 39.65625 36.6124992370605 35.3499984741211 34.25 32.6687507629395 
62.2562484741211 64.0124969482422 65.1937484741211 67.7562484741211 68.6875 69.0124969482422 69.875 70.71875 71.4749984741211 68.5812530517578 80.3125 91.28125 94.1500015258789 95.1875 91.3562469482422 87.46875 82.6374969482422 77.7437515258789 73.3062515258789 67.4562530517578 63.4874992370605 62.1937484741211 59.4812507629395 59.4249992370605 58.5875015258789 59.5875015258789 60.2312507629395 58.53125 56.9375 53.8624992370605 52.4937477111816 52.5250015258789 51.0125007629395 48.0062484741211 45.4249992370605 44.9500007629395 44.46875 43.5 44.3499984741211 42.3875007629395 40.78125 40.71875 38.2562484741211 37.5812492370605 37.1687507629395 36.1062507629395 36.5875015258789 34.8624992370605 31.7875003814697 31.4562492370605 30.8125 
58.15625 58.7000007629395 60.40625 62.5 64.1999969482422 66.4625015258789 67.28125 69.59375 72.7624969482422 81.7937469482422 96.2062530517578 96.4562530517578 92.1624984741211 89.4625015258789 85.6437530517578 80.875 77.7312469482422 73.25 68.9375 64.9625015258789 60.4124984741211 57.9375 55.6000022888184 55.0437507629395 54.7937507629395 56.3375015258789 55.8562507629395 53.9312515258789 52.6124992370605 51.3250007629395 50.5562515258789 49.1749992370605 47.1749992370605 45.5687484741211 44.9625015258789 43.1624984741211 42.5750007629395 41.4375 39.7312507629395 38.2125015258789 38.4312515258789 38.6062507629395 37.2937507629395 36.6375007629395 35.4375 34.4249992370605 33.2999992370605 31.3062496185303 29.9750003814697 29.9812507629395 29.9125003814697 
52.8375015258789 54.3875007629395 56.5562515258789 57.6687507629395 61.1187515258789 64.3125 64.4625015258789 69.2687530517578 74.0999984741211 82.0999984741211 87.4625015258789 90.1187515258789 87.6187515258789 84.8249969482422 81.6312484741211 78.9937515258789 74.3874969482422 69.6687469482422 64.9812469482422 61.5499992370605 57.6875 55.3125 51.3687515258789 51.3687515258789 50.1062469482422 50.21875 50.8499984741211 49.6937484741211 48.3687515258789 46.7312507629395 45.5999984741211 45.2874984741211 43 42.8875007629395 40.9375 40.0625 39.34375 39.2687492370605 37.7937507629395 36.5250015258789 37.1062507629395 36.8562507629395 34.8624992370605 33.71875 32.2249984741211 32.2374992370605 31.1187496185303 30.75 29.9624996185303 29.9249992370605 29.09375 
49.6749992370605 50.3375015258789 52.2000007629395 54.5625 56.8250007629395 58.5125007629395 60.3375015258789 65.6312484741211 69.84375 75.7062530517578 79.3562469482422 80.7125015258789 80.9437484741211 77.4875030517578 76.4499969482422 72.6312484741211 70.4250030517578 66.78125 61.09375 57.4375 54.84375 51.6375007629395 49.1124992370605 48.7249984741211 47.3499984741211 45.5999984741211 46.03125 46.4000015258789 45.8062515258789 43.1124992370605 43.6375007629395 43.4562492370605 39.9874992370605 39.5812492370605 38.5187492370605 37.5187492370605 36.2249984741211 36.8312492370605 35.4375 33.9812507629395 35.1124992370605 34.0875015258789 32.2312507629395 31.0687503814697 31.71875 31.1437492370605 29.75 28.9500007629395 30.65625 30.4874992370605 29.0249996185303 
47.0562515258789 48.1624984741211 48.2312507629395 51.1437492370605 52.3875007629395 55.2625007629395 56.6187515258789 60.7999992370605 65.0374984741211 67.5500030517578 70.7874984741211 71.3125 72.0749969482422 70.4875030517578 69.0749969482422 66.9499969482422 65.53125 61.5250015258789 58.2125015258789 54.375 50.7249984741211 47.5249977111816 45.0749969482422 44.2999992370605 43.3250007629395 41.3125 41.2250022888184 41.8499984741211 42.0562515258789 39.5125007629395 38.5750007629395 39.4500007629395 38.7874984741211 39.1375007629395 36.7374992370605 34.8250007629395 33.9437484741211 33.6812515258789 32.75 32.6312484741211 32.6749992370605 31.9249992370605 31.3875007629395 30.75 29.90625 29.1499996185303 27.34375 26.2312507629395 27.1187496185303 28.0437507629395 27.7562503814697 
43.6812515258789 44.5062484741211 46.2687492370605 46.75 49.0812492370605 51.5437507629395 54.4562492370605 56.5625 58.0499992370605 59.8937492370605 62.2125015258789 64.1500015258789 63.5625 62.1437492370605 61.9124984741211 61.0687484741211 58.875 57.6937484741211 54.90625 50.9562492370605 46.3125 41.75 38.75 39.1875 39.5625 39.0625 38.40625 38.4625015258789 38.3687515258789 36.4000015258789 35.7625007629395 35.3250007629395 35.375 36.78125 37.1500015258789 33.90625 31.6875 30.8624992370605 30.5874996185303 30.2000007629395 30.1312503814697 30.1749992370605 29.7875003814697 29.1499996185303 27.6499996185303 26.3687496185303 25.2562503814697 24.8187503814697 26.25 25.1499996185303 25.9375 
40.4375 42.2125015258789 43.96875 44.5812492370605 47.6375007629395 48.90625 50.75 53.5499992370605 55.2312507629395 55.1124992370605 55.1062507629395 56.1062507629395 55.2125015258789 54.9437484741211 54.9437484741211 53.6375007629395 53.5499992370605 53.4312515258789 52.8687515258789 48.4375 42.5999984741211 38.3125 35.25 36.5625 35.875 34.875 34.3125 35.875 35.90625 33.9937515258789 33.0812492370605 33.1875 33.3375015258789 33.8812484741211 36.2750015258789 33.9874992370605 30.3999996185303 29.0249996185303 28.8937492370605 28.5187492370605 27.7562503814697 27.2625007629395 27.65625 27.1437511444092 25.90625 25.09375 24.1124992370605 22.6124992370605 22.6437492370605 23.9624996185303 24.3187503814697 
37.6437492370605 38.5187492370605 39.7374992370605 41.7062492370605 44.1937484741211 46.5999984741211 47.5 48.9187507629395 50.6375007629395 50.65625 49.1937484741211 48.1187515258789 48.3125 48.4500007629395 47.6437492370605 48.5250015258789 48.4437484741211 48.2625007629395 48.2562484741211 45.1937484741211 40.4562530517578 37.0875015258789 34 33.1875 32.9375 32.5625 31.6875 33.4375 33.875 31.4624996185303 29.875 30.1375007629395 29.8624992370605 29.5562496185303 31.0812492370605 30.4125003814697 28.1875 27.4750003814697 27.8500003814697 27.8187503814697 26.9937496185303 26.5562496185303 25.5375003814697 25.03125 24.3687496185303 23.75 22.8687496185303 20.9562492370605 20.09375 20.8812503814697 22.4562492370605 
