ncols        51
nrows        45
xllcorner    -63.500000000000
yllcorner    -7.500000000000
cellsize     0.166666666667
NODATA_value -99
392.893737792969 404.9375 405.518737792969 412.581237792969 411.881256103516 400.981231689453 387.725006103516 368.274993896484 351.943756103516 341.181243896484 334.875 328.056243896484 319.493743896484 308.668762207031 298.825012207031 289.912506103516 282.643737792969 273.59375 267.793762207031 262.475006103516 259.375 257.856262207031 255.59375 255.524993896484 253.462493896484 254.34375 257.049987792969 261.924987792969 264.3125 258.5625 251.59375 244.449996948242 236.443756103516 229.643753051758 222.912506103516 220.975006103516 218.175003051758 215.987503051758 219.3125 221.993743896484 224.731246948242 227.875 228.931243896484 231.662506103516 235.112503051758 238.675003051758 241.237503051758 241.381256103516 242.931243896484 245.662506103516 247.912506103516 
404.556243896484 417.081237792969 429.368743896484 439.943756103516 447.981231689453 435.168762207031 418.943756103516 405.206237792969 389.981262207031 376.956268310547 367.962493896484 357.081237792969 346.162506103516 333.793762207031 320.1875 310.225006103516 299.15625 290.78125 283.756256103516 276.518737792969 272.806243896484 270.024993896484 268.962493896484 267.28125 266.568756103516 266.399993896484 268.137512207031 272.443756103516 272.818756103516 266.643737792969 260.737487792969 255.381256103516 248.824996948242 243.949996948242 237.818756103516 236.899993896484 237.03125 236.40625 240.175003051758 242.900009155273 245.518753051758 248.787506103516 249.625 250.387496948242 252.637496948242 255.518753051758 258.606262207031 256.806243896484 256.649993896484 257.0625 258.518737792969 
400.206237792969 415.450012207031 425.9375 439.581237792969 450.100006103516 443.287506103516 434.15625 426.368743896484 418.356262207031 406.475006103516 394.3125 380.512512207031 368.681243896484 353.056243896484 338.618743896484 326.725006103516 314.631256103516 306.137512207031 297.875 291.243743896484 287.481262207031 284.600006103516 280.956237792969 277.524993896484 275.606262207031 273.700012207031 275.918762207031 276.518737792969 274.768737792969 269.181243896484 262.5625 255.962493896484 251.543746948242 246.243743896484 239.387496948242 238.21875 240.018753051758 241.256256103516 244.831253051758 248.350006103516 251.568756103516 254.193756103516 255.931243896484 257.893737792969 259.84375 262.081237792969 263.75 261.575012207031 259.731262207031 259.212493896484 260.200012207031 
386.693756103516 401.887512207031 417.450012207031 428.018737792969 438.412506103516 440.831237792969 440.549987792969 440.518737792969 439.787506103516 434.006256103516 421.112487792969 403.524993896484 386.700012207031 371.475006103516 355.549987792969 342.674987792969 330.768737792969 321.693756103516 313.231262207031 306.700012207031 303.243743896484 299.037506103516 292.700012207031 288.162506103516 283.731262207031 278.306243896484 280.21875 278.831237792969 276.243743896484 271.556243896484 264.375 257.181243896484 250.318756103516 244.331253051758 237.5 238.318756103516 239.962493896484 241.637496948242 247.162506103516 250.206253051758 253.981246948242 258.5625 259.799987792969 261.399993896484 264.225006103516 264.100006103516 265.53125 262.825012207031 259.643737792969 259.587493896484 260.850006103516 
391 398.662506103516 402.631256103516 412.899993896484 427.181243896484 434.34375 438.287506103516 446.306243896484 453.993743896484 456.762512207031 441.8125 417.631256103516 400.649993896484 386.206237792969 369.793762207031 356.087493896484 343.012512207031 334.456237792969 326.106262207031 319.225006103516 315.799987792969 309.681243896484 302.5 297.506256103516 288.524993896484 281.03125 280.149993896484 281.125 279.831237792969 272.956237792969 265.512512207031 255.668746948242 248.5625 243.100006103516 237.331253051758 238.481246948242 239.918746948242 242.506256103516 248.931243896484 252.824996948242 258.075012207031 260.681243896484 263.431243896484 267.0625 268.318756103516 267.450012207031 265.75 262.893737792969 259.549987792969 258.706237792969 261.65625 
382.024993896484 390.518737792969 394.875 396.168762207031 408.662506103516 418.881256103516 424.737487792969 434.487487792969 443.90625 452.100006103516 435.375 414.356262207031 400.387512207031 388.287506103516 372.96875 361.368743896484 347.693756103516 339.681243896484 334.475006103516 329.018737792969 322.506256103516 314.575012207031 308.350006103516 300.125 290.693756103516 282.5625 280.518737792969 280.28125 278.337493896484 271.78125 264.950012207031 258.262512207031 251.368743896484 247.837493896484 245.737503051758 247.618743896484 251.856246948242 255.706253051758 261.5625 266.5625 268.4375 270.0625 272.725006103516 276.125 277.962493896484 275.40625 271.681243896484 267.581237792969 263.787506103516 261 261.837493896484 
373.875 380.65625 384.918762207031 385.037506103516 386.787506103516 391.875 398.34375 406.831237792969 411.350006103516 413.012512207031 410.212493896484 401.581237792969 395.875 386.225006103516 374.450012207031 366 354.693756103516 344.268737792969 337.912506103516 334.649993896484 328.356262207031 320.381256103516 312.21875 300.512512207031 290.4375 281.65625 279.868743896484 277.443756103516 274.762512207031 269.731262207031 264.881256103516 259.075012207031 255.887496948242 253.212493896484 253.306243896484 256.993743896484 261.412506103516 267.268737792969 274.762512207031 278.568756103516 276.9375 278.118743896484 280.399993896484 282.90625 285.662506103516 281.081237792969 276.787506103516 270.587493896484 265.087493896484 263.174987792969 264.149993896484 
366.493743896484 369.162506103516 370.643737792969 373 375.118743896484 377.175018310547 375.037506103516 372.037506103516 368.350006103516 370.950012207031 381.256256103516 386.081237792969 386.962493896484 383.487487792969 376.399993896484 368.662506103516 358.975006103516 349.212493896484 340.762512207031 338.450012207031 333.09375 324.931243896484 314.293762207031 301.612487792969 291.487487792969 279.375 276.481262207031 274.03125 271.612487792969 268.393737792969 263.09375 258.918762207031 258.243743896484 258.493743896484 260.181243896484 263.018737792969 268.975006103516 275 280.21875 282.118743896484 281.674987792969 283.40625 284.393737792969 284.918762207031 285.518737792969 281.237487792969 274.418762207031 267.893737792969 264.431243896484 261.631256103516 262.612487792969 
359.006256103516 361.350006103516 362.043762207031 362.200012207031 363.65625 363.443756103516 362.231262207031 357.3125 346.706237792969 343.774993896484 358.981262207031 369.399993896484 379.556243896484 379.450012207031 373.475006103516 368.418762207031 362.056243896484 354.162506103516 348.081237792969 343.237487792969 331.131256103516 324.149993896484 312.40625 301.631256103516 290.143737792969 275.956237792969 272.149993896484 270.46875 268.431243896484 266.637512207031 264.637512207031 260.549987792969 260.549987792969 260.756256103516 264.274993896484 269.037506103516 276.393737792969 281.768737792969 286.487487792969 287.568756103516 287.21875 286.631256103516 287.612487792969 288.262512207031 284.831237792969 279.600006103516 274.75 267.25 261.075012207031 258.34375 261.424987792969 
351.037506103516 350.700012207031 351.9375 352.375 352.337493896484 352.987487792969 353.337493896484 349.6875 346.481262207031 349.03125 359.337493896484 365.643737792969 373.450012207031 374.881256103516 372.75 368.299987792969 363.9375 358.068756103516 352.3125 349.981231689453 336.606262207031 324.149993896484 310.725006103516 300.831237792969 285.787506103516 269.793762207031 265.862487792969 264.231262207031 263.774993896484 265.637512207031 263.34375 259.943756103516 260.956237792969 262.981262207031 267.200012207031 274.09375 280.487487792969 286.743743896484 290.59375 293.168762207031 294.243743896484 292.837493896484 291.306243896484 287.043762207031 284.731262207031 283.050018310547 276.512512207031 267.118743896484 259.225006103516 255.568756103516 255.8125 
343.21875 343.262512207031 343.475006103516 343.174987792969 341.231262207031 342.962493896484 344.8125 343.856262207031 346.037506103516 351.487487792969 361.412506103516 369.693756103516 371.112487792969 372.40625 369.306243896484 365.618743896484 363.412506103516 359.362487792969 355.899993896484 352.737487792969 342.975006103516 327.887512207031 310.206237792969 291.006256103516 279.25 263.774993896484 258.337493896484 256.506256103516 255.475006103516 258.8125 258.475006103516 256.84375 259.706237792969 263.087493896484 268.375 273.762512207031 280.612487792969 287.899993896484 292.362487792969 295.174987792969 295.737487792969 293.200012207031 292.53125 289.34375 285.274993896484 282.306243896484 275.325012207031 263.09375 256.443756103516 253.550003051758 250.306243896484 
335.418762207031 334.65625 334.487487792969 337.568756103516 337.368743896484 337.3125 341.125 343.893737792969 348.818756103516 355.475006103516 365.193756103516 373.631256103516 370.118743896484 367.65625 364.106262207031 361.243743896484 358.581237792969 354.862487792969 352.456237792969 350.356262207031 339.53125 324.15625 306.899993896484 291.087493896484 273.225006103516 254.78125 249.862503051758 247.762496948242 247.824996948242 250.475006103516 251.887496948242 252.5 255.0625 259.206237792969 264.65625 271.206237792969 279.487487792969 287.674987792969 289.806243896484 290.424987792969 291.768737792969 289.818756103516 287.518737792969 280.850006103516 276.5625 269.125 258.381256103516 252.40625 249.581253051758 249.368743896484 243.850006103516 
328.774993896484 327.737487792969 328.024993896484 329.837493896484 331.4375 335.268737792969 337.5 339.762512207031 344.59375 353.918762207031 363.243743896484 370.90625 368.306243896484 357.637512207031 353.731262207031 353.318756103516 349.668762207031 346.162506103516 345.387512207031 341.868743896484 331.024993896484 314.137512207031 294.506256103516 279.21875 257.106262207031 239.056243896484 237.931243896484 237.018753051758 239.118743896484 242.1875 244.806243896484 246.350006103516 249.106246948242 253.524993896484 258.34375 266.875 276.012512207031 284.575012207031 287.856262207031 288.625 285.362487792969 284.643737792969 279.5625 273.081237792969 272.068756103516 268.112487792969 259.037506103516 247.65625 242.449996948242 245.25 245.59375 
320.931243896484 319.924987792969 319.212493896484 320.549987792969 324.193756103516 327.662506103516 329.556243896484 332.549987792969 339.018737792969 346.649993896484 352.381256103516 354.731262207031 353.53125 347.168762207031 340.118743896484 340.856262207031 337.456237792969 332.1875 331.975006103516 327.112487792969 315.181243896484 297.049987792969 279.143737792969 261.337493896484 243.212493896484 228.256256103516 227.043746948242 227.731246948242 229.75 234.21875 237.699996948242 240.90625 242.287506103516 246.65625 252.6875 262.412506103516 272.087493896484 282.587493896484 287.693756103516 287.15625 280.575012207031 274.075012207031 273.325012207031 273.981262207031 275.893737792969 269.674987792969 262.4375 255.581253051758 248.962493896484 252.487503051758 255.362503051758 
312.21875 312.012512207031 312.200012207031 314.09375 318.331237792969 321.287506103516 324.1875 326.850006103516 330.737487792969 335.399993896484 339.331237792969 340.25 337.125 331.206237792969 323.081237792969 319.762512207031 317.862487792969 316.943756103516 316.21875 312.193756103516 298.84375 283.431243896484 265.212493896484 249.768753051758 234.818756103516 223.493743896484 222.543746948242 224.3125 227.100006103516 230.956253051758 233.03125 233.90625 237.506256103516 240.40625 245.043746948242 253.96875 268.25 282.606262207031 288.306243896484 286.350006103516 281.0625 277.625 279.837493896484 276.78125 276.193756103516 273.637512207031 270.631256103516 265.649993896484 263.368743896484 261.262512207031 261.256256103516 
301.831237792969 302 304.381256103516 307.774993896484 311.375 314.149993896484 316.518737792969 319.125 323.993743896484 326.506256103516 328.299987792969 327.231262207031 323.487487792969 315.818756103516 305.71875 295.875 297.887512207031 301.412506103516 299.981262207031 297.181243896484 284.825012207031 268.881256103516 251.643753051758 239.324996948242 227.175003051758 219.237503051758 218.368743896484 221.3125 224.606246948242 229.274993896484 233.362503051758 234.006256103516 232.256256103516 233.212493896484 235.293746948242 249.725006103516 264.293762207031 279.743743896484 287.59375 291.306243896484 289.518737792969 287.256256103516 284.3125 278.34375 276.0625 273.412506103516 270.774993896484 267.768737792969 265.918762207031 264.21875 262.450012207031 
289.981262207031 292.068756103516 295.962493896484 300.193756103516 303.606262207031 306.112487792969 309.950012207031 312.287506103516 314.59375 316.806243896484 316.924987792969 314.856262207031 309.399993896484 301.649993896484 293.762512207031 286.950012207031 281.649993896484 283.049987792969 284.743743896484 283.793762207031 272.28125 258.356262207031 242.574996948242 230.068756103516 220.756256103516 214.3125 215.15625 218.5 223.34375 229.418746948242 233.381240844727 234.574996948242 233.262496948242 233.318756103516 240 250.987503051758 266.4375 283.3125 296.78125 300.075012207031 300.293762207031 295.743743896484 287.100006103516 279.65625 276.024993896484 273.912506103516 272.424987792969 271.762512207031 271.450012207031 266.737487792969 264.924987792969 
275.643737792969 280.5625 284.649993896484 291.068756103516 294.899993896484 298.181243896484 302.393737792969 303.174987792969 304.693756103516 305.012512207031 303.524993896484 300.331237792969 294.4375 288.225006103516 281.425018310547 276.212493896484 270.543762207031 263.606262207031 268.568756103516 269.018737792969 261.762512207031 249.774993896484 236.75 226.75 220.274993896484 215.899993896484 215.287506103516 221.037506103516 227.149993896484 232.443756103516 233.043746948242 228.137496948242 231.824996948242 235.612503051758 240.46875 254.225006103516 269.137512207031 284.46875 295.612487792969 303.825012207031 301.90625 296.899993896484 289.524993896484 282.237487792969 279.268737792969 276.943756103516 275.668762207031 275 274.387512207031 267.862487792969 268.918762207031 
260.381256103516 267.475006103516 273.731262207031 279.412506103516 284.21875 288.5625 291.712493896484 294.5 296.03125 295.46875 291.875 284.850006103516 279.149993896484 274.862487792969 266.162506103516 261.043762207031 256.524993896484 251.431243896484 249.899993896484 251.131256103516 251.03125 244.399993896484 227.518753051758 223.456253051758 221.399993896484 221.225006103516 223.774993896484 228.237503051758 235.09375 239.056243896484 239.337493896484 235.324996948242 234.543746948242 231.262496948242 234.725006103516 248.387496948242 263.950012207031 278.237487792969 291.637512207031 298.0625 301.287506103516 297.981262207031 291.212493896484 285.15625 282.674987792969 279.568756103516 278.899993896484 278.149993896484 277.899993896484 267.006256103516 273.493743896484 
244.981246948242 254.137496948242 260.350006103516 265.09375 272.09375 278.868743896484 283.6875 284.725006103516 285.918762207031 285.112487792969 280.262512207031 274.399993896484 268.106262207031 262.162506103516 252.4375 242.649993896484 236.056243896484 237.237503051758 235.800003051758 237.012496948242 235.237503051758 229.53125 224.46875 223.306243896484 223.71875 225.074996948242 229.737503051758 237.118743896484 242.0625 243.318756103516 240.856246948242 241.774993896484 236.693756103516 228.25 225.556243896484 238.462493896484 258.600006103516 276.993743896484 288.84375 296.456237792969 298.875 296.975006103516 292.299987792969 287.487487792969 282.950012207031 279.712493896484 280.674987792969 279.5625 278.731262207031 269.28125 277.293762207031 
227.34375 239.175003051758 246.96875 253.59375 258.612487792969 266.581237792969 273.537506103516 276.037506103516 276.78125 273.962493896484 268.450012207031 259.96875 251.6875 245.118743896484 236.056243896484 228.774993896484 223.550003051758 222.568756103516 224.012496948242 224.550003051758 226.462493896484 226.1875 224.71875 227.418746948242 233.574996948242 239.350006103516 243.975006103516 248.081253051758 250.537506103516 253.606246948242 252.931243896484 251.962493896484 242.868743896484 231.243743896484 222.050003051758 237.725006103516 261.118743896484 280.21875 291.112487792969 296.012512207031 296.418762207031 295.962493896484 290.34375 286.931243896484 283.393737792969 282.424987792969 282.668762207031 282.21875 276.137512207031 273.668762207031 278.331237792969 
211.962493896484 221.256256103516 229.5625 240.0625 247.887496948242 254.199996948242 261.350006103516 266.424987792969 267.918762207031 263.306243896484 254.231246948242 241.518753051758 231.512496948242 225.356246948242 221.581253051758 216.793746948242 215.037506103516 214.399993896484 216.100006103516 216.962493896484 216.418746948242 217.606246948242 220.787506103516 226.118743896484 234.431243896484 246.175003051758 262.206237792969 266.206237792969 267.71875 269.90625 267.818756103516 264.106262207031 256.612487792969 249.75 247.837493896484 256.387512207031 273.950012207031 289.799987792969 296.712493896484 298.762512207031 298.481262207031 296.700012207031 291.449981689453 287.387481689453 283.693756103516 282.993743896484 284.681243896484 284.225006103516 278.4375 282.293762207031 281.556243896484 
197.800003051758 211.012496948242 220.024993896484 229.587493896484 237.381256103516 243.8125 248.824996948242 255.756256103516 262.424987792969 253.837509155273 240.137496948242 224.4375 213.0625 208.887496948242 208.431243896484 207.793746948242 206.21875 205.6875 206.568756103516 206.881256103516 208.337493896484 210.387496948242 212.737503051758 220.318756103516 233.149993896484 248.962493896484 267.53125 275.381256103516 278.931243896484 280.137512207031 280.212493896484 278.96875 277.506256103516 275.450012207031 277.21875 281.268737792969 291.787506103516 302.725006103516 305.59375 302.950012207031 299.8125 295.806243896484 290.600006103516 286.212493896484 283.4375 282.806243896484 284.5625 283.90625 282.862487792969 289.09375 288.106262207031 
184.162506103516 196.5 206.725006103516 214.543746948242 221.787506103516 228.637496948242 236.300003051758 242.393753051758 247.556243896484 239.331253051758 226.481246948242 214.262496948242 200.65625 200.212493896484 201.706253051758 201.487503051758 199.987503051758 201.487503051758 201.943756103516 203.0625 203.875 204.143753051758 206.225006103516 215.931243896484 229.09375 241.856246948242 257.762512207031 272.612487792969 282.006256103516 289.424987792969 294.568756103516 299.837493896484 301.850006103516 301.200012207031 303.712493896484 306.112487792969 312.743743896484 316.493743896484 313.40625 306.306243896484 300.549987792969 293.987518310547 287.337493896484 281.350006103516 281.331237792969 282.625 283.481262207031 279.081237792969 288.424987792969 293.09375 294.462493896484 
172.8125 183.868743896484 192.637496948242 201.037506103516 209.043746948242 215.34375 221.568756103516 226.850006103516 228.5 225.631256103516 216.887496948242 206.9375 201.143753051758 197.881256103516 197.375 196.918746948242 197.318756103516 199.074996948242 200.081253051758 199.949996948242 199.675003051758 199.199996948242 201.018753051758 209.3125 221.268753051758 238.5 256.299987792969 272.368743896484 286.943756103516 302 313.387512207031 323.84375 328.393737792969 327.987518310547 327.512512207031 324.662506103516 326.262512207031 323.743743896484 317.768737792969 310.143737792969 301.799987792969 292.774993896484 285.706237792969 277.662506103516 273.293762207031 275.581237792969 276.412506103516 284.487487792969 290.549987792969 297.575012207031 299.90625 
166.84375 175.381256103516 180.175003051758 187.381256103516 193.706253051758 200.03125 206.050003051758 210.631256103516 210.78125 208.75 205.837493896484 202.71875 199.90625 198.943756103516 196.768753051758 197.068756103516 196.993743896484 198.725006103516 199 197.4375 198.087493896484 196.037506103516 195.487503051758 199.912506103516 215.162506103516 235.75 258.350006103516 276.256256103516 295.825012207031 312.768737792969 331.21875 348.243743896484 355.325012207031 351.243743896484 345.399993896484 339.625 336.431243896484 331.3125 322.268737792969 312.96875 303.850006103516 292.506256103516 282.462493896484 272.212493896484 270.512512207031 269.8125 286.712493896484 293.981262207031 296.768737792969 303.712493896484 303.875 
160.712493896484 164.868743896484 169.925003051758 175.487503051758 180.050003051758 186.9375 192.300003051758 195.899993896484 197.524993896484 200.493743896484 202.03125 201.631256103516 201.993743896484 203.100006103516 201.806243896484 201.40625 200.9375 201.368743896484 202.231246948242 201.612503051758 199.893753051758 196.806243896484 193.668746948242 197.293746948242 215.318756103516 235.443756103516 259.325012207031 279.181243896484 300.993743896484 320.293762207031 342.631256103516 363.84375 374.862487792969 368.112487792969 359.743743896484 351.46875 346.106262207031 339.618743896484 328.193756103516 317.881256103516 306.46875 295.768737792969 284.693756103516 275.418762207031 278.487487792969 287.487487792969 300.893737792969 304.618743896484 307 305.725006103516 304.418762207031 
155.443756103516 155.899993896484 159.612503051758 163.887496948242 168.518753051758 174.40625 180.475006103516 183.731246948242 188.25 193.237503051758 195.75 199.556243896484 202.918746948242 207.125 206.856246948242 205.487503051758 205.65625 208.106246948242 207.6875 207.912506103516 207.131256103516 203.675003051758 204.806243896484 209.412506103516 223.481246948242 242.381256103516 262.962493896484 283.506256103516 304.549987792969 324.674987792969 344.681243896484 363.575012207031 373.012512207031 370.743743896484 366.962493896484 358.512512207031 353.850006103516 347.643737792969 335.943756103516 324.181243896484 312.78125 301.90625 290.8125 283.293762207031 293.412506103516 304.306243896484 314.731262207031 315.393737792969 314.331237792969 308.337493896484 307.325012207031 
149.487503051758 147.618743896484 149.856246948242 153.662506103516 157.28125 162.043746948242 167.725006103516 173.90625 181.162506103516 186.662506103516 192.331253051758 198.506256103516 203.96875 210.350006103516 212.512496948242 213.96875 215.03125 215.181243896484 216.362503051758 216.100006103516 216.356246948242 214.175003051758 216.399993896484 223.34375 234.9375 251.71875 270.725006103516 289.368743896484 308.674987792969 326.731262207031 341.987487792969 357.018737792969 363.318756103516 366.837493896484 367.256256103516 362.28125 359.631256103516 355.212493896484 344.362487792969 330.862487792969 316.443756103516 305.943756103516 296.962493896484 298.28125 309.043762207031 315.837493896484 324.431243896484 324.024993896484 319.774993896484 315.78125 308.8125 
150.106246948242 146.493743896484 147.600006103516 148.59375 151.5 156.84375 162.837493896484 169.606246948242 176.9375 183.4375 191.012496948242 198.731246948242 207.987503051758 216.21875 219.449996948242 221.40625 223.425003051758 226.59375 226.931243896484 225.068756103516 223.943756103516 224.831253051758 228.756256103516 234.449996948242 243.725006103516 258.212493896484 275.75 291.087493896484 308.25 323.4375 336.818756103516 347.737487792969 355.200012207031 362.4375 367.125 365.318756103516 366.018737792969 364.268737792969 353.40625 344.299987792969 334.712493896484 327.0625 319.118743896484 321.450012207031 326.137512207031 334.681243896484 338.174987792969 337.649993896484 332.924987792969 327.112487792969 316.081237792969 
150.537506103516 145.181243896484 145.006256103516 145.600006103516 147.962493896484 152.78125 159.137496948242 164.975006103516 172.793746948242 181.193756103516 190.143753051758 199.899993896484 211.931243896484 220.475006103516 225.737503051758 229.4375 234.043746948242 237.637496948242 239.037506103516 237.962493896484 236.618743896484 236.268753051758 238.943756103516 242.40625 249.162506103516 265.3125 278.200012207031 292.706237792969 307.143737792969 318.625 330.700012207031 340.71875 350.743743896484 359.575012207031 365.537506103516 367.325012207031 367.53125 368.506256103516 364 357.743743896484 351.125 344.787506103516 340.575012207031 339.6875 344.924987792969 350.1875 352.037506103516 350.225006103516 345.049987792969 335.731262207031 324.387512207031 
150.706253051758 144.206253051758 143.300003051758 144.287506103516 145.574996948242 149.175003051758 155.149993896484 160.5625 168.75 177.574996948242 188.006256103516 201.212493896484 213.293746948242 224.493743896484 230.949996948242 236.725006103516 240.475006103516 244.774993896484 246 248.162506103516 247.606246948242 247.21875 247.925003051758 251.293746948242 259.975006103516 271.431243896484 281.075012207031 294 304.881256103516 315.862487792969 327.462493896484 336.987487792969 345.299987792969 355.09375 363.1875 366.568756103516 370.25 370.924987792969 368.375 364.581237792969 365.21875 362.700012207031 359.725006103516 360.006256103516 365.274993896484 372.162506103516 373.818756103516 368.5625 359.137512207031 347.649993896484 333.700012207031 
156.78125 149.40625 147.981246948242 147.537506103516 148.431243896484 151.09375 154.6875 159.75 167.081253051758 176.606246948242 189.418746948242 202.206253051758 216.824996948242 230.443740844727 237.756256103516 243.731246948242 249.587493896484 254.25 254.5625 255.431243896484 256.637512207031 256.243743896484 255.887496948242 258.918762207031 266.581237792969 273.181243896484 282.256256103516 291.450012207031 301.049987792969 312.606262207031 322.34375 330.53125 339.206237792969 350.356262207031 360.118743896484 366.65625 371.274993896484 374.71875 372.118743896484 377.399993896484 378.59375 377.756256103516 378.618743896484 382.293731689453 388.78125 398.71875 399.762512207031 388.393737792969 376.59375 362.737487792969 346.524993896484 
162.637496948242 156.068756103516 154.09375 152.381256103516 151.524993896484 154.03125 156.699996948242 159.568756103516 166.0625 175.125 186.625 202.637496948242 219.475006103516 232.756256103516 242.131256103516 248.78125 256.231262207031 260.71875 261.837493896484 262.600006103516 263.393737792969 263.256256103516 263.081237792969 262.774993896484 269.462493896484 274.09375 279.981262207031 287.325012207031 296.006256103516 305.412506103516 314.924987792969 324.962493896484 334.549987792969 345.987487792969 357.193756103516 364.149993896484 370.862487792969 372.362487792969 378.299987792969 384.768737792969 386.918762207031 390.375 394.975006103516 401.662506103516 410.325012207031 418.274993896484 417.262512207031 404.075012207031 391.568756103516 377.412506103516 360.643737792969 
167.512496948242 162.381240844727 160.443756103516 157.09375 154.893753051758 155.818756103516 157.050003051758 159.375 164.043746948242 171.287506103516 184.237503051758 202.993743896484 222.9375 240.181243896484 249.46875 257.075012207031 263.337493896484 265.350006103516 268.375 267.4375 269.5 267.6875 267.356262207031 264.681243896484 268.399993896484 273.5625 278.443756103516 282.850006103516 290.431243896484 300.943756103516 309.612487792969 320.03125 328.825012207031 341.543762207031 352.118743896484 358.856262207031 363.837493896484 375.237487792969 382.637512207031 388.9375 392.59375 398.731262207031 406.424987792969 414.200012207031 419.78125 423.331237792969 421.943756103516 413.106262207031 403.243743896484 388.799987792969 369.331237792969 
175.793746948242 172.081253051758 169.637496948242 166.28125 163.212493896484 162.318756103516 162.618743896484 162.918746948242 164.84375 170.043746948242 181.306243896484 201.837493896484 225.074996948242 243.206253051758 253.40625 261.581237792969 268.581237792969 270.893737792969 273.225006103516 274.600006103516 274.193756103516 272.90625 268.306243896484 265.887512207031 266.287506103516 269.375 273.881256103516 278.4375 284.725006103516 293.987487792969 303.237487792969 312.443756103516 321.625 335.15625 344.399993896484 348.256256103516 359.943756103516 371.631256103516 377.875 385.475006103516 392.90625 398.943756103516 405.581237792969 414.225006103516 417.581237792969 419.662506103516 419.856262207031 415.418762207031 404.6875 393.274993896484 375.5625 
184.5625 182.149993896484 179.193756103516 176.087493896484 172.506256103516 170.693756103516 169.962493896484 167.375 165.899993896484 167.193756103516 179.625 204.706253051758 225.981246948242 241.918746948242 254.625 264.112487792969 269.875 272.850006103516 275.706237792969 275.018737792969 274.587493896484 272.012512207031 267.037506103516 264.21875 262.331237792969 263.681243896484 268.450012207031 273.049987792969 277.918762207031 286.481262207031 297.206237792969 307.787506103516 317.375 328.056243896484 336.612487792969 343.943756103516 355.756256103516 368.65625 377.912506103516 382.487487792969 390.206237792969 395.931243896484 404.393737792969 412.118743896484 417.087493896484 417.137512207031 420.856262207031 416.168762207031 407.868743896484 397.631256103516 383.493743896484 
194.287506103516 191.043746948242 187.475006103516 184.9375 181.368743896484 179.350006103516 177.03125 172.949996948242 171.550003051758 170.5625 187.34375 211.731246948242 229.368743896484 243.524993896484 255.331253051758 265.268737792969 270.293762207031 273.862487792969 273.674987792969 271.662506103516 270.462493896484 266.799987792969 263.793762207031 260.21875 257.149993896484 258.774993896484 260.618743896484 266.331237792969 271.65625 281.225006103516 289.931243896484 300.918762207031 312.575012207031 322.024993896484 327.899993896484 340.137512207031 351.818756103516 362.149993896484 374.112487792969 380.262512207031 385.325012207031 392.056243896484 397.03125 402.53125 409.0625 412.53125 414.299987792969 417.09375 409.493743896484 399.793762207031 385.9375 
198.731246948242 194.212493896484 191.550003051758 190.149993896484 188.393753051758 185.793746948242 184.350006103516 182.681243896484 185.84375 194.71875 212.34375 226.46875 236.243743896484 247.806243896484 257.875 264.681243896484 269.306243896484 271.068756103516 267.956237792969 266.875 264.0625 259.53125 256.443756103516 254.706253051758 252.893753051758 252 254.481246948242 259.356262207031 263.96875 274.3125 283.537506103516 290.837493896484 301.293762207031 311.987487792969 323.818756103516 332.274993896484 340.831237792969 351.918762207031 359.731262207031 362.993743896484 368.6875 375.381256103516 378.231262207031 384.431243896484 389.037506103516 393.806243896484 394.875 395.131256103516 390.943756103516 386.231262207031 373.100006103516 
201.675003051758 198.243743896484 196.693756103516 196.318756103516 195.46875 194.787506103516 193.087493896484 195.524993896484 201.449996948242 210.612503051758 222.71875 235.131256103516 243.368743896484 252.331253051758 260.037506103516 264.8125 268.068756103516 268.512512207031 263.975006103516 260.5 255.875 253.237503051758 247.368743896484 245.34375 246.487503051758 246.574996948242 249.237503051758 253.706253051758 258.087493896484 267.043762207031 273.418762207031 284.918762207031 297.356262207031 307.368743896484 318.493743896484 325.9375 332.756256103516 342 346.912506103516 346.893737792969 350.356262207031 355.737518310547 356.287506103516 360.5625 365.975006103516 370.393737792969 374.631256103516 375.9375 374.737487792969 372.231262207031 361.118743896484 
204.068756103516 202.699996948242 202.143753051758 202.287506103516 201.393753051758 201.15625 202.106246948242 207.837493896484 213.618743896484 220.149993896484 230.362503051758 240.175003051758 248.975006103516 254.712493896484 260.90625 264.512512207031 266.087493896484 265.243743896484 259.962493896484 254.399993896484 247.681243896484 244.600006103516 239.024993896484 236.618743896484 240.28125 241.524993896484 243.574996948242 248.081253051758 253.037506103516 259.850006103516 268.287506103516 282.787506103516 292.462493896484 303.537506103516 314.53125 323.431243896484 330.243743896484 335.737487792969 339.056243896484 334.075012207031 334.931243896484 335.962493896484 336.162506103516 338.993743896484 346.212493896484 352.443756103516 354.875 356.737487792969 359.693756103516 356.5 348.637512207031 
207.475006103516 206.449996948242 206.649993896484 205.837493896484 204.681243896484 205.462493896484 207.481246948242 211.03125 217.756256103516 223.012496948242 232.237503051758 240.143753051758 248.53125 254.206253051758 259.21875 262.625 264.0625 262.03125 256.9375 249.106246948242 240.168746948242 233.59375 228.743743896484 228.587493896484 232.300003051758 235.262496948242 237.649993896484 243.818756103516 250.581253051758 259.612487792969 263.03125 277.256256103516 288.337493896484 301.100006103516 311.631256103516 315.668762207031 322.350006103516 326.6875 325.575012207031 319.59375 317.399993896484 313.087493896484 311.725006103516 318.84375 327.625 334.412506103516 337.762512207031 339.012512207031 342.075012207031 339.524993896484 334.806243896484 
210.831253051758 209.324996948242 209.743743896484 207.1875 206.912506103516 208.550003051758 210.725006103516 214.181243896484 218.912506103516 223.568756103516 230.925003051758 238.3125 246.306243896484 250.712493896484 256.462493896484 259.943756103516 262.556243896484 261.987487792969 255.506256103516 245.068756103516 231.475006103516 220.899993896484 218.181243896484 222.399993896484 227.25 231.231246948242 234.699996948242 238.987503051758 246.037506103516 253.4375 260.28125 268.8125 281.068756103516 294.049987792969 305.53125 314.03125 314.381256103516 317.274993896484 312.118743896484 306.5625 304.837493896484 300.206237792969 296.96875 302.943756103516 311.450012207031 315.481262207031 316.893737792969 322.600006103516 327.962493896484 324.193756103516 320.53125 
215.043746948242 213.425003051758 213.5 209.96875 211.024993896484 211.212493896484 212.425003051758 215.481246948242 219.956253051758 224.418746948242 230.893753051758 237.725006103516 243.787506103516 249.050003051758 253.875 258.081237792969 260.456237792969 258.856262207031 256.0625 245.162506103516 229.349990844727 215.90625 214.268753051758 218.725006103516 224.037506103516 228.106246948242 231.15625 234.850006103516 240.443756103516 248.40625 253.112503051758 260.856262207031 270.943756103516 283.506256103516 300.71875 313.899993896484 310.893737792969 306.825012207031 301.681243896484 296.787506103516 293.043762207031 288.237487792969 288.1875 291.287506103516 297.462493896484 300.100006103516 304.206237792969 307.462493896484 307.799987792969 308.881256103516 306.762512207031 
218.993743896484 217.5625 217.256256103516 214.243743896484 214.90625 215.037506103516 213.912506103516 217.3125 221.225006103516 225.537506103516 229.8125 235.649993896484 241.40625 246.774993896484 249.462493896484 252.381240844727 254.231246948242 253.331253051758 251.618743896484 244.243743896484 231.237503051758 220.362487792969 216.6875 219 223.3125 227.0625 230.25 233.5625 239.756256103516 245.712493896484 252.537506103516 257.181243896484 264.837493896484 274.600006103516 289.912506103516 304.637512207031 302.475006103516 296.506256103516 293.325012207031 288.725006103516 285.5625 283.399993896484 281.143737792969 281.924987792969 286.962493896484 289.381256103516 291.09375 294.493743896484 293.162506103516 294.756256103516 294.96875 
