ncols        51
nrows        45
xllcorner    -63.500000000000
yllcorner    -7.500000000000
cellsize     0.166666666667
NODATA_value -99
212.324996948242 212.550003051758 203.425003051758 196.050003051758 186.793746948242 176.962493896484 166.300003051758 154.9375 145.40625 136.831253051758 130.75 125.387496948242 121.106246948242 115.71875 111.862503051758 108.331253051758 105.3125 102.243751525879 100.400001525879 98.7562484741211 98.4937515258789 98.0250015258789 97.6812515258789 98.1750030517578 98.78125 99.34375 101.993751525879 105.0625 107.637496948242 106.349998474121 103.71875 101.568748474121 98.8062515258789 95.6062469482422 92.2062530517578 90.0812530517578 87.0250015258789 83.8312530517578 80.5749969482422 77.5875015258789 74.40625 70.9437484741211 67.5 64 62.6687507629395 60.7437515258789 59.125 56.8375015258789 54.9625015258789 53.0875015258789 52.0687484741211 
215.231246948242 216.268753051758 211.787506103516 207.524993896484 202.087493896484 191.493743896484 179.537506103516 170.15625 161.831253051758 153.4375 146.068756103516 139.056243896484 133.625 127.956253051758 123.087501525879 118.768745422363 115.037498474121 112.349998474121 110.293746948242 109.356246948242 108.8125 108.150001525879 108.125 108.306251525879 108.474998474121 108.662498474121 110.556251525879 112.612503051758 114.306251525879 113.337501525879 110.887496948242 108.96875 105.768753051758 102.912498474121 100.287498474121 97.25 95.53125 93.0062484741211 89.8187484741211 87.0687484741211 84.0999984741211 80.53125 77.0124969482422 72.7937469482422 71.0062484741211 68.8125 67.0500030517578 63.4187507629395 60.1437492370605 56.6062507629395 53.7874984741211 
211.331253051758 213.637496948242 211.331253051758 208.574996948242 205.212493896484 196.25 187.737503051758 181.03125 174.149993896484 166.53125 158.725006103516 151.600006103516 146.087493896484 140.243743896484 135.106246948242 129.850006103516 125.881248474121 122.881248474121 120.84375 119.324996948242 118.418746948242 117.768753051758 117.306251525879 116.324996948242 115.449996948242 115.40625 116.831253051758 118.237503051758 119.724998474121 117.53125 114.981246948242 112.668746948242 109.84375 105.53125 101.84375 99.0250015258789 95.9562530517578 92.6624984741211 89.7937469482422 87 83.8812484741211 80.6375045776367 77.125 73.96875 71.4937515258789 68.6437530517578 66.46875 62.3250007629395 57.75 53.21875 49.9124984741211 
204.40625 208.668746948242 209.46875 207.087493896484 205.881256103516 199.925003051758 194.643753051758 190.5 185.100006103516 179.550003051758 172.431243896484 165.475006103516 159.137496948242 153.262496948242 147.399993896484 142.175003051758 137.65625 133.637496948242 131.387496948242 130.618743896484 129.431243896484 128.024993896484 125.987503051758 124.125 121.806251525879 121.012496948242 122.087501525879 122.650001525879 123.918746948242 121.918746948242 118.675003051758 115.175003051758 111.800003051758 107.443748474121 102.443748474121 98.5374984741211 94.1312484741211 90.15625 87.5687484741211 84.5187530517578 81.0187530517578 78.3187484741211 75.5 73.1062469482422 70.3062515258789 67.3625030517578 64.3499984741211 59.3624992370605 54.1375007629395 48.8937492370605 44.96875 
206.431243896484 206.800003051758 204.6875 205.112503051758 206.168746948242 203.587493896484 200.431243896484 198.381256103516 195.981246948242 192.256256103516 185.25 177.71875 172.149993896484 166.59375 160.256256103516 154.5625 149.362503051758 145.162506103516 143 142.606246948242 140.875 137.787506103516 134.618759155273 131.550003051758 128.0625 126.3125 125.893753051758 126.137496948242 126.962501525879 125.006248474121 121.824996948242 117.650001525879 113.175003051758 108.118751525879 102.456253051758 97.96875 93.2687530517578 88.3249969482422 85.4312515258789 82.1437530517578 78.5187530517578 76.2687530517578 74.28125 71.8874969482422 69.2125015258789 65.9875030517578 62.1937484741211 56.5374984741211 50.5750007629395 45.1749992370605 40.6437492370605 
208.137496948242 209.212493896484 205.806243896484 202.693756103516 204.84375 205.081253051758 203.75 201.881240844727 199.600006103516 196.5625 190.4375 184.262496948242 180.137496948242 175.350006103516 170.71875 165.793746948242 161.475006103516 156.6875 155.693756103516 154.300003051758 150.243743896484 146.28125 141.543746948242 137.168746948242 132.6875 129.175003051758 129.300003051758 129.28125 129.256256103516 127.400001525879 124.8125 121.71875 116.262496948242 110.6875 106.412498474121 101.974998474121 96.9124984741211 92.5687484741211 89.4812469482422 85.1750030517578 80.0999984741211 77.5749969482422 74.8312530517578 72.5812530517578 70.1187515258789 66.5250015258789 62.2312507629395 55.90625 50.4000015258789 44.8187484741211 40.1875 
211.818756103516 212.737503051758 209.6875 205.90625 205.181259155273 204.34375 203.78125 201.981246948242 198.75 194.493743896484 192.09375 188.512496948242 186.918746948242 183.53125 180.175003051758 176.949996948242 174.75 173.112503051758 172.199996948242 168.631256103516 161.362503051758 155.199996948242 148.206253051758 141.975006103516 136.831253051758 131.775009155273 131.03125 131.793746948242 131.600006103516 129.59375 127.387496948242 124.643753051758 120.193748474121 114.800003051758 110.081253051758 105.462501525879 100.943748474121 96.5437469482422 94.1500015258789 88.7249984741211 82.40625 78.8874969482422 76.0187530517578 73.1187515258789 70.2062530517578 67.0187530517578 63.1124992370605 56.4625015258789 50.4937515258789 45.0187492370605 40.5187492370605 
215.493743896484 215.787506103516 213.306243896484 211.6875 211.25 208.524993896484 204.649993896484 199.318756103516 193.793746948242 191.837493896484 193.162506103516 193.537506103516 193.043746948242 192.493743896484 190.112503051758 188.550003051758 187.475006103516 188.100006103516 187.737503051758 180.831253051758 170.868743896484 161.612503051758 152.762496948242 144.9375 139.21875 133.84375 132.387496948242 132.618743896484 133.462493896484 132.262496948242 129.568756103516 127.212501525879 123.5 118.46875 114.493751525879 109.050003051758 104.375 99.5374984741211 95.8000030517578 90.2750015258789 84.2062530517578 80.21875 76.9875030517578 73.6374969482422 70.0812454223633 67.71875 64.40625 57.7062492370605 51.3875007629395 45.8562507629395 40.6312484741211 
221.125 221.462493896484 219.824996948242 218.706253051758 217.625 215.418746948242 211.306243896484 204.818756103516 196.206253051758 192.556243896484 196.018753051758 198.381256103516 199.324996948242 198.96875 197.568756103516 196.568756103516 196.037506103516 196.21875 195 186.756256103516 173.912506103516 163.506256103516 154.1875 147.431243896484 140.743743896484 134.712493896484 133.337493896484 133.925003051758 134.40625 133.362503051758 132.425003051758 130.131256103516 126.775001525879 123.118751525879 119.306251525879 114.481246948242 109.349998474121 104.056251525879 99.4812469482422 94.1875 87.7750015258789 83.625 80.3562469482422 77 73.84375 70.7874984741211 67.7562484741211 61.0062484741211 54.4562492370605 48.7999992370605 43.9874992370605 
225.28125 226.118759155273 225.3125 225.3125 224.4375 222.475006103516 219.018753051758 213.762496948242 208.162506103516 204.712493896484 205.131256103516 204.96875 206.46875 205.074996948242 204.53125 203.631256103516 202.443756103516 199.675003051758 195.574996948242 187.925003051758 175.256256103516 164.074996948242 154.493743896484 148.118743896484 140.931243896484 134.543746948242 133.518753051758 134.050003051758 135.087493896484 134.706253051758 133.743743896484 132.293746948242 129.518753051758 126.25 123.518753051758 119.9375 114.837501525879 109.518753051758 103.900001525879 98.1500015258789 92.0812530517578 88.0500030517578 83.96875 80.3187484741211 77.53125 75.125 71.0062484741211 64.1187515258789 57.6500015258789 52.09375 46.2937507629395 
230.631256103516 231.268753051758 230.1875 229.587493896484 230.193756103516 230.03125 227.725006103516 222.78125 217.837493896484 215.1875 214.643753051758 214.268753051758 213.800003051758 212.418746948242 210.887496948242 209.71875 207.3125 202.243743896484 195.574996948242 187.268753051758 175.868759155273 164.40625 154.649993896484 146.524993896484 141.300003051758 135.056243896484 133.706253051758 133.481246948242 133.643753051758 133.993743896484 133.918746948242 133.806243896484 131.90625 129.5625 127.393753051758 123.8125 119.387496948242 114.481246948242 109.28125 103 96.6500015258789 92.1500015258789 88.1687469482422 84.5 81.4312515258789 79.6875 74.3499984741211 66.6812515258789 59.9937515258789 53.7062492370605 47.7937507629395 
235.050003051758 235.243743896484 234.649993896484 235.199996948242 235.993743896484 236.28125 235.368743896484 231.381256103516 226.800003051758 225.056243896484 224.581253051758 224.606246948242 222.068756103516 219.637496948242 217.5 214.3125 210.618743896484 203.050003051758 195.162506103516 186.743743896484 174.318756103516 163.256256103516 154.543746948242 147.5 142.168746948242 136.306243896484 134.65625 134.018753051758 133.78125 134.53125 134.96875 135.568756103516 134.21875 132.774993896484 131.393753051758 128.518753051758 124.631248474121 120.393753051758 114.53125 107.831253051758 101.112503051758 96.4437484741211 92.2375030517578 88.2062530517578 84.4250030517578 80.3125 75.1875 68.7374954223633 62.6312484741211 57.1437492370605 50.5187492370605 
238.806243896484 239.387496948242 239.393753051758 239.600006103516 240.96875 240.699996948242 239.418746948242 237.149993896484 233.574996948242 232.606246948242 232.599990844727 232.837493896484 230.21875 225.856246948242 223.081253051758 218.762496948242 213.506256103516 205.543746948242 196.59375 186.6875 172.03125 161.512496948242 154.199996948242 148.256256103516 141.912506103516 135.612503051758 134.418746948242 134.362503051758 134.518753051758 134.668746948242 135.381256103516 136.212493896484 135.274993896484 134.699996948242 134.175003051758 132.693756103516 130.137496948242 126.5625 120.193748474121 112.449996948242 104.943748474121 100.643753051758 95.6999969482422 89.8062515258789 85.8375015258789 82.6937484741211 77.5437469482422 70.6750030517578 64.5124969482422 59.9937515258789 54.2437515258789 
240.831253051758 241.4375 241.431243896484 242.0625 242.90625 242.600006103516 241.449996948242 241.006256103516 239.537506103516 238.087493896484 236.537506103516 236.381256103516 235.056243896484 231.65625 226.731246948242 222.987503051758 216.78125 207.5 197.800003051758 187.65625 173.881256103516 162.53125 153.737503051758 147.356246948242 141.193756103516 135.524993896484 135.193756103516 134.481246948242 134.143753051758 134.243743896484 135.125 135.918746948242 135.981246948242 135.912506103516 136.725006103516 136.25 135.149993896484 133.443756103516 127.768753051758 120.581253051758 111.106246948242 103.849998474121 97.8375015258789 92.8125 89.5999984741211 85.3375015258789 81.5562515258789 75.4124984741211 68.59375 63.2874984741211 58.3812484741211 
242.768753051758 243.381256103516 244.074996948242 244.618743896484 245.78125 245.193756103516 245.293746948242 245.081253051758 243.649993896484 241.550003051758 239.731246948242 239.512496948242 237.618743896484 234.856246948242 229.356246948242 225.118743896484 217.881256103516 208.274993896484 198.493743896484 189.6875 176.09375 164.074996948242 153.900009155273 147.731246948242 142.524993896484 137.543746948242 137.21875 136.712493896484 135.931243896484 134.75 134.643753051758 135.756256103516 136.337493896484 137.293746948242 139.0625 138.856246948242 139.96875 141.506256103516 140.324996948242 134.649993896484 124.981246948242 115.118751525879 106.481246948242 99.2249984741211 93.9375 89.21875 84.3562469482422 79.2375030517578 73.7874984741211 67.8874969482422 62.0687484741211 
242.987503051758 244.168746948242 245.206253051758 246.675003051758 247.893753051758 247.862503051758 247.90625 246.762496948242 245.462493896484 244.649993896484 242.475006103516 241.59375 239.818756103516 236.893753051758 231.6875 225.043746948242 217.59375 209.087493896484 199.481246948242 190.606246948242 177.84375 165.012496948242 154.274993896484 148.524993896484 144.381256103516 141.175003051758 140.868743896484 140.012496948242 138.143753051758 135.287506103516 134.21875 134.293746948242 134.212493896484 135.46875 137.231246948242 138.837493896484 142.681243896484 148.081253051758 152.4375 149.875 141.162506103516 127.981246948242 115.462501525879 103.862503051758 98.3000030517578 93.5500030517578 88.9562530517578 83.7125015258789 77.7624969482422 72 65.9937515258789 
242.262496948242 244.25 244.293746948242 246.506256103516 248.693756103516 248.199996948242 248.65625 248.881256103516 248.487503051758 246.975006103516 244.837493896484 243.081253051758 241.03125 237.899993896484 232.675003051758 225.306243896484 215.90625 207.712493896484 199.787506103516 191.137496948242 178.625 165.84375 155.006256103516 149.84375 146.931243896484 145.331253051758 145.806243896484 143.956253051758 139.556243896484 135.181243896484 133.006256103516 133.131256103516 131.918746948242 130.806243896484 131.5 135.006256103516 142.625 154.537506103516 168.625 165.100006103516 154.868743896484 138.425003051758 121.806251525879 109.006248474121 102.724998474121 97.75 93.2249984741211 87.84375 82.6312484741211 77.09375 71.71875 
240.074996948242 242.949996948242 243.618743896484 246.449996948242 249.0625 249.800003051758 250.09375 249.662506103516 249.012496948242 248.493743896484 246.918746948242 244.681243896484 241.268753051758 237.681243896484 231.712493896484 223.862503051758 214.574996948242 203.84375 198.262496948242 190.331253051758 179.399993896484 167.418746948242 156.96875 153.1875 151.40625 150.993759155273 152.90625 148.881256103516 141.693756103516 134.725006103516 130.768753051758 130.0625 130.225006103516 130.225006103516 128.481246948242 126.875 140.206253051758 155.875 166.693756103516 165.6875 155.262496948242 140.143753051758 126.099998474121 114.84375 108.381248474121 103.643753051758 98.9375 93.5749969482422 88.1812515258789 83 78.2750015258789 
236.381256103516 240.006256103516 242.006256103516 245.287506103516 248.53125 249.800003051758 250.074996948242 250.856246948242 250.53125 250.03125 247.306243896484 243.643753051758 240.606246948242 237.293746948242 230.418746948242 222.024993896484 212.90625 202.524993896484 194.175003051758 187.59375 179.043746948242 169.925003051758 158.399993896484 156.34375 156.318756103516 156.693756103516 157.574996948242 153.868743896484 145.712493896484 136.043746948242 129.018753051758 131.375 134.324996948242 134.256256103516 132.03125 132.925003051758 143.400009155273 154.681243896484 161.981246948242 160.21875 151.837493896484 139.862503051758 128.881256103516 120.168746948242 114.599998474121 109.875 104.668746948242 99.7687530517578 94.7125015258789 88.9749984741211 85.3562469482422 
231.418746948242 236.106246948242 238.09375 241.912506103516 246.175003051758 248.649993896484 250.03125 251.137496948242 251.46875 249.831253051758 247.481246948242 244.893753051758 241.737503051758 236.887496948242 228.556243896484 218.431243896484 208.587493896484 200.243743896484 192.712493896484 186.168746948242 177 167.425003051758 159.912506103516 159.581253051758 160.649993896484 161.506256103516 162.125 160.050003051758 152.943756103516 143.181259155273 137.649993896484 140.462493896484 142.706253051758 144.331253051758 145.587493896484 146.631256103516 152.512496948242 159.175003051758 161.587493896484 158.456253051758 150.356246948242 139.362503051758 132.037506103516 125.925003051758 120.881248474121 116.25 111.612503051758 107.012496948242 102.118751525879 96.7437515258789 92.6437530517578 
224.462493896484 231 234.306243896484 238.268753051758 242.90625 246.21875 248.431243896484 249.987503051758 251.125 250.175003051758 247.199996948242 244.143753051758 240.475006103516 234.768753051758 226.193756103516 216.137496948242 206.337493896484 197.287506103516 190.681243896484 184.0625 176.893753051758 169.475006103516 163.387496948242 164.318756103516 167.362503051758 169.837493896484 171.462493896484 168.962493896484 163.518753051758 158.018753051758 154.600006103516 155.550003051758 155.96875 157.543762207031 159.506256103516 161 164.231246948242 167.581253051758 167.199996948242 162.706253051758 154.856246948242 145.53125 138.106246948242 131.606246948242 126.737503051758 122.574996948242 118.606246948242 114.362503051758 109.318748474121 105.300003051758 100.59375 
217.506256103516 223.475006103516 228.006256103516 234.043746948242 239.774993896484 243.350006103516 246.59375 249.199996948242 250.3125 249.375 245.737503051758 241.787506103516 237.3125 230.931243896484 223.09375 214.100006103516 205.293746948242 197.068756103516 190.025009155273 183.331253051758 175.787506103516 169.850006103516 166.118743896484 167.774993896484 171.693756103516 177 182.449996948242 181.506256103516 177.412506103516 174.03125 171.956253051758 172.206253051758 171.012496948242 171.774993896484 172.381256103516 172.931243896484 175.856246948242 179.300003051758 177.368743896484 170.606246948242 162.274993896484 153.256256103516 145.462493896484 138.731246948242 133.875 130.143753051758 126.318748474121 122.299995422363 118.46875 115.337501525879 110.050003051758 
211.231246948242 218.712493896484 222.881256103516 228.893753051758 235.699996948242 240.850006103516 244.331253051758 247.987503051758 250.625 248.800003051758 244.487503051758 238.9375 234.387496948242 228.21875 220.537506103516 212.09375 203.59375 195.475006103516 188.587493896484 181.449996948242 174.787506103516 169.53125 166.199996948242 168.71875 174.081253051758 182.068756103516 191.018753051758 192.112503051758 189.475006103516 188.375 188.300003051758 189.024993896484 187.537506103516 186.25 185.381256103516 183.300003051758 186.337493896484 192.737503051758 189.743743896484 180.574996948242 170.6875 161.137496948242 153.074996948242 145.981246948242 140.631256103516 137.362503051758 133.806243896484 131.143753051758 128.84375 126.012496948242 120.806251525879 
205.362503051758 211.606246948242 215.675003051758 222.431243896484 230.600006103516 236.743743896484 241.987503051758 245.975006103516 248.324996948242 246.056243896484 241.912506103516 237.3125 233.012496948242 227.693756103516 220.09375 211.831253051758 203.887496948242 196.3125 189.268753051758 182.0625 174.712493896484 169.15625 165.137496948242 168.331253051758 174.03125 182.112503051758 191.4375 196.581253051758 198.987503051758 200.581253051758 203.050003051758 204.387496948242 203.800003051758 202.181243896484 200.768753051758 196.331253051758 198.268753051758 204.21875 200.462493896484 190.318756103516 178.96875 168.662506103516 159.225006103516 151.087493896484 146.606246948242 143.550003051758 141.193756103516 138.337493896484 139.25 138.337493896484 133.643753051758 
202.081253051758 206.375 209.793746948242 218.962493896484 229.300003051758 235.143753051758 240.018753051758 243.087493896484 244.243743896484 243.081253051758 239.862503051758 235.518753051758 231.443756103516 226.53125 219.675003051758 212.068756103516 204.443756103516 197.381256103516 190.306243896484 183.050003051758 175.143753051758 168.274993896484 163.768753051758 166.518753051758 172.887496948242 182.056243896484 192.193756103516 200.293746948242 206.324996948242 211.475006103516 216.606246948242 219.78125 220.393753051758 219.318740844727 217.15625 213.550003051758 214.256256103516 215.0625 209.668746948242 199.993743896484 187.9375 176.524993896484 165.456253051758 157.175003051758 151.399993896484 149.03125 146.100006103516 146.800003051758 147.431243896484 150.975006103516 147.0625 
203.550003051758 209.300003051758 212.96875 221.46875 229.537506103516 234.524993896484 237.949996948242 240.175003051758 240.84375 239.40625 236.475006103516 233.362503051758 229.643753051758 225.337493896484 219.493743896484 212.606246948242 205.143753051758 198.449996948242 191.612503051758 184.287506103516 176.912506103516 168.574996948242 162.131256103516 163.4375 171.787506103516 182.731246948242 194.824996948242 205.143753051758 213.868743896484 221.5625 228.806243896484 235.550003051758 238.112503051758 236.987503051758 235.449996948242 231.512496948242 230.412490844727 229.081253051758 222.112503051758 212.112503051758 199.40625 185.162506103516 171.600006103516 161.25 156.375 153.40625 156.65625 158.25 157.40625 157.9375 153.137496948242 
208.78125 214.956253051758 220.581253051758 228.074996948242 234.506256103516 237.731246948242 238.800003051758 239.25 238.443756103516 237.462493896484 235.993743896484 233.487503051758 230.106246948242 226.712493896484 221.5 215.606246948242 208.931243896484 202.487503051758 195.75 187.875 180.087493896484 171.350006103516 163.743743896484 163.612503051758 173.612503051758 185.318756103516 198.381256103516 210.0625 221.175003051758 230.225006103516 239.668746948242 248.631256103516 254.100006103516 254.087493896484 253.356246948242 250.518753051758 248.412506103516 246.3125 238.587493896484 228.725006103516 215.6875 197.806243896484 179.681243896484 166.856246948242 165.399993896484 168.125 171.412506103516 171.162506103516 170.068756103516 167.056243896484 161.112503051758 
215.512496948242 222.350006103516 229.024993896484 235.806243896484 240.612503051758 242.006256103516 241.324996948242 239.350006103516 237.4375 235.743743896484 233.918746948242 232.199996948242 230.693756103516 228.443756103516 224.03125 218.487503051758 212.943756103516 206.556243896484 200.237503051758 192.699996948242 185.418746948242 177.574996948242 172.112503051758 173.643753051758 181.375 191.912506103516 204.175003051758 215.987503051758 227.668746948242 237.556243896484 247.375 256.568756103516 263.362487792969 267.012512207031 268.90625 267.462493896484 266.4375 265.131256103516 257.924987792969 248.9375 236.431259155273 215.381256103516 189.699996948242 174.106246948242 178.274993896484 184.199996948242 187.806243896484 187.28125 184.331253051758 179.649993896484 172.568756103516 
221.243743896484 229.043746948242 236.837493896484 244.399993896484 247.712493896484 246.0625 242.887496948242 239.387496948242 236.524993896484 233.800003051758 232.393753051758 231.899993896484 231.212493896484 230.28125 226.350006103516 222.462493896484 217.800003051758 212.056243896484 205.96875 198.956253051758 192.399993896484 185.893753051758 182.149993896484 184.212493896484 191.018753051758 200.306243896484 211.737503051758 223.4375 235.300003051758 244.737503051758 254.09375 262.881256103516 271.118743896484 277.193756103516 282.350006103516 283.399993896484 284.700012207031 284.5625 277.381256103516 269.743743896484 259.825012207031 235.131256103516 207.0625 192.774993896484 196.662506103516 201.800003051758 205.600006103516 204.518753051758 201.53125 195.53125 186.443756103516 
228.03125 235.875 244.949996948242 253.943756103516 258.006256103516 252.087493896484 245.768753051758 240.90625 236.8125 233.268753051758 231.706253051758 231.231246948242 232.106246948242 232.625 229.981246948242 226.556243896484 223.199996948242 219.387496948242 213.912506103516 206.949996948242 200.456253051758 194.75 190.912506103516 193.706253051758 200.162506103516 208.768753051758 218.331253051758 229.862503051758 240.993743896484 250.537506103516 259.912506103516 268.868743896484 279.3125 287.768737792969 295.606262207031 299 302.9375 305.049987792969 299.649993896484 292.787506103516 282.59375 263.15625 239.96875 226.524993896484 223.637496948242 230.493743896484 235.475006103516 235.662506103516 230.087493896484 220.637496948242 208.625 
233.068756103516 240.574996948242 248.800003051758 257.700012207031 260.768737792969 252.943756103516 245.71875 239.59375 234.731246948242 232.012496948242 230.600006103516 230.949996948242 232.824996948242 234.006256103516 232.300003051758 230.512496948242 229.168746948242 225.5 221.606246948242 215.137496948242 208.606246948242 203.037506103516 199.743743896484 202.693756103516 208.537506103516 216.262496948242 225.362503051758 236.043746948242 246.618743896484 256.674987792969 266.0625 275.356262207031 286.90625 298.106231689453 308.100006103516 314.668762207031 321.818756103516 326.712493896484 322.46875 315.424987792969 307.9375 293.443756103516 276.15625 260.831237792969 254.800003051758 267.71875 275.774993896484 274.662506103516 265.200012207031 251.050003051758 234.806243896484 
236.581253051758 242.068740844727 248.056243896484 252.34375 252.393753051758 247.412506103516 241.456253051758 235.212493896484 231.168746948242 228.475006103516 227.862503051758 229.693756103516 232.8125 235.006256103516 235.28125 234.9375 233.231246948242 229.831253051758 226.131256103516 220.649993896484 215.287506103516 210.287506103516 206.856246948242 209.962493896484 216.637496948242 223.643753051758 231.806243896484 241.956253051758 252.3125 262.774993896484 272.412506103516 282.28125 294.131256103516 307.206237792969 320.043762207031 330.59375 339.662506103516 346.762512207031 344.649993896484 340.293762207031 338.037506103516 329.5625 318.881256103516 308.618743896484 305.887512207031 325.043762207031 333.274993896484 324.512512207031 306.756256103516 285.5625 264.024993896484 
239 241.493743896484 243.943756103516 246.1875 245.368743896484 240.925003051758 234.90625 228.84375 225.106246948242 223.556243896484 225.806243896484 228.831253051758 233.637496948242 238.362503051758 239.412506103516 239.243743896484 237.59375 235.137496948242 230.28125 225.375 220.71875 216.581253051758 213.46875 216.143753051758 222.168746948242 229.25 237.149993896484 245.84375 256.362487792969 267.0625 278.049987792969 289.043762207031 302.643737792969 317.34375 332.174987792969 344.700012207031 356.412506103516 366.506256103516 367.774993896484 371.306243896484 373.581237792969 371.987487792969 371.443756103516 374.774993896484 388.393737792969 418.162506103516 417.412506103516 389.8125 359.71875 331.1875 303.087493896484 
240.268753051758 240.212493896484 240.90625 240.600006103516 237.793746948242 233.243743896484 227.837493896484 222.056243896484 218.449996948242 217.481246948242 220.381256103516 227.21875 234.674987792969 240.224990844727 242.712493896484 243.050003051758 242.475006103516 240.0625 234.850006103516 230.09375 225.868743896484 221.743743896484 218.493743896484 221.131256103516 226.28125 232.675003051758 240.96875 249.887496948242 260.575012207031 271.424987792969 283.149993896484 295.837493896484 311.075012207031 327.581237792969 343.625 357.943756103516 372.774993896484 384.262512207031 392.200012207031 401.5 410.075012207031 415.631256103516 424.225006103516 439.131256103516 461.612487792969 493.206237792969 488.212493896484 450.962493896484 414.543762207031 378.537506103516 343.96875 
240.712509155273 239.181243896484 238.118743896484 235.606246948242 231.96875 226.774993896484 220.800003051758 214.856246948242 210.40625 210.081253051758 215.181243896484 224.818756103516 236.050003051758 244.675003051758 247.943756103516 248.818756103516 248.056243896484 245.018753051758 240.3125 234.481246948242 231.006256103516 226.362503051758 223.850006103516 225.774993896484 229.787506103516 235.712493896484 243.762496948242 253.068756103516 263.5625 275.268737792969 288.081237792969 301.850006103516 318.90625 337.368743896484 354.918762207031 370.056243896484 385.712493896484 402.118743896484 415.21875 427.756256103516 441.975006103516 452.856231689453 467.331237792969 487.331237792969 508.350006103516 522.25 518.743774414062 490.825012207031 455.40625 420.537506103516 383.556243896484 
241.912506103516 239.318756103516 236.699996948242 233.162506103516 228.331253051758 222.787506103516 215.793746948242 208.599990844727 202.881256103516 201.056243896484 208.225006103516 222.375 237.962493896484 248.8125 253.393753051758 254.90625 254.193756103516 250.868743896484 245.193756103516 238.881256103516 235.149993896484 231.693756103516 228.356246948242 229.574996948242 233.074996948242 237.662506103516 245.337493896484 253.818756103516 263.59375 276.643737792969 291.075012207031 305.581237792969 324.037506103516 342.756256103516 360.862487792969 375.493743896484 393.606262207031 410.6875 424.743743896484 439.581237792969 455.918731689453 471.056243896484 486.893737792969 507.450012207031 524.331237792969 534.625 531.849975585938 510.693756103516 482.356262207031 451.024993896484 415.475006103516 
242.850006103516 239.59375 236.256256103516 232.337493896484 227.318756103516 221.6875 214.981246948242 206.487503051758 197.925003051758 191.40625 202.981246948242 226.050003051758 243.056243896484 253.737503051758 259.106262207031 261.012512207031 260.8125 256.674987792969 251.018753051758 244.318756103516 240.006256103516 235.943756103516 232.475006103516 232.856246948242 234.943756103516 238.774993896484 245.287506103516 253.9375 263.787506103516 277.993743896484 293.381256103516 308.981262207031 328.131256103516 348.162506103516 366.5 383.137512207031 400.75 417.625 430.9375 446.268737792969 463.068756103516 479.637512207031 497.34375 518.306274414062 531.96875 539.96875 541.950012207031 525.943725585938 504.487487792969 476.987487792969 445.100006103516 
242.918746948242 239.706253051758 236.574996948242 232.550003051758 228.306243896484 222.756256103516 217.256256103516 209.868743896484 202.175003051758 193.443756103516 216.550003051758 241.981246948242 254.256256103516 262.268737792969 266.649993896484 268.481262207031 267.681243896484 263.518737792969 256.75 249.993743896484 244.1875 239.387496948242 235.981246948242 235.418746948242 236.256256103516 239.081253051758 245.956253051758 253.918746948242 263.25 278.700012207031 294.4375 311.225006103516 330.993743896484 351.568756103516 370.418762207031 387.168762207031 404.087493896484 419.850006103516 434.125 448.931243896484 464.806243896484 481.668762207031 498.943756103516 519.162475585938 533.993774414062 542.775024414062 547.856262207031 537.737487792969 518.21875 497.75 469.237487792969 
240.34375 237.574996948242 235.512496948242 232.887496948242 229.431243896484 225.587493896484 222.162506103516 219.381256103516 219.71875 229.625 257.568756103516 264.90625 268.287506103516 272.899993896484 275.6875 276.881256103516 275.731262207031 270.09375 262.787506103516 255.225006103516 248.1875 242.012496948242 237.962493896484 237.100006103516 237.862503051758 240.237503051758 245.975006103516 253.481246948242 262.149993896484 276.887512207031 292.681243896484 307.206268310547 325.256256103516 343.787506103516 362.681243896484 378.493743896484 393.96875 408.899993896484 421.681243896484 434.674987792969 449.768737792969 463.443756103516 477.506256103516 493.4375 504.674987792969 512.743774414062 515.018737792969 509.393737792969 497.762512207031 482.0625 459.481262207031 
238.506256103516 236.268753051758 235.0625 233.59375 231.774993896484 230.681243896484 230.237503051758 232.274993896484 237.699996948242 249.824996948242 267.537506103516 276.706237792969 279.924987792969 283.518737792969 285.912506103516 286.100006103516 284.193756103516 278.456237792969 269.731262207031 260.987487792969 251.293746948242 243.237503051758 237.975006103516 236.300003051758 237.693756103516 240.568756103516 246.475006103516 253.568756103516 261.318756103516 275.225006103516 289.049987792969 303.524993896484 320.143737792969 336.362487792969 352.424987792969 365.9375 380.875 394.356262207031 405.649993896484 416.487487792969 428.456237792969 439.956237792969 452.024993896484 464.512512207031 473.631256103516 478.90625 481.549987792969 478.231262207031 469.950012207031 459.381256103516 442.299987792969 
236.481246948242 235.106246948242 234.806243896484 234.193756103516 233.96875 234.71875 236.975006103516 241.9375 249.706253051758 260.681243896484 273.174987792969 282.34375 288.25 292.799987792969 294.581237792969 294.975006103516 292.862487792969 286.65625 277.143737792969 266.068756103516 253.537506103516 243.15625 236.6875 235.087493896484 237.356246948242 240.65625 246.737503051758 253.831253051758 261.5 273.768737792969 287.5 301.25 315.337493896484 329.65625 342.537506103516 354.037506103516 366.212493896484 378.068756103516 388.6875 397.84375 407.78125 416.21875 424.481262207031 435.131256103516 443.056243896484 448.893737792969 451.206237792969 449.293762207031 444.962493896484 435.799987792969 423.756256103516 
233.487503051758 232.612503051758 232.65625 232.587493896484 232.643753051758 234.675003051758 238.75 244.71875 253.518753051758 263.375 273.943756103516 283.125 291.168762207031 296.693756103516 299.03125 300.662506103516 300.206237792969 294.706237792969 285.362487792969 270.643737792969 253.181259155273 240.043746948242 233.037506103516 232.574996948242 236.256256103516 240.175003051758 246.256256103516 252.84375 261.487487792969 273.299987792969 284.537506103516 296.924987792969 309.0625 321.28125 331.662506103516 339.787506103516 349.537506103516 359.0625 367.575012207031 374.475006103516 382.056243896484 385.787506103516 391.918762207031 403.162506103516 412.074981689453 417.350006103516 419.856262207031 418.325012207031 417.018737792969 412.206237792969 404.018737792969 
230.199996948242 229.337493896484 229.925003051758 229.925003051758 231.006256103516 234.181243896484 239.112503051758 245.4375 253.875 263.34375 273.893737792969 283.28125 292.018737792969 298.737487792969 303.46875 306.743743896484 307.131256103516 304.362487792969 296.84375 277.268737792969 252.762496948242 233.168746948242 227.793746948242 230.975006103516 235.912506103516 240.868743896484 246.231246948242 253.125 260.850006103516 271.362487792969 281.90625 291.649993896484 302.3125 311.399993896484 319.037506103516 325.856262207031 332.575012207031 340.03125 346.306243896484 352.712493896484 358.037506103516 361.618743896484 366.4375 374.975006103516 382.537506103516 386.475006103516 388.543762207031 387.899993896484 387.456237792969 384.475006103516 382.024993896484 
227.949996948242 226.912506103516 227.043746948242 226.956253051758 229.662506103516 233.418746948242 238.40625 245.324996948242 253.59375 262.912506103516 272.899993896484 283.331237792969 292.881256103516 301.493743896484 307.412506103516 310.518737792969 312.606262207031 311.293762207031 307.625 285.831237792969 257.568756103516 233.662490844727 228.462493896484 232.168746948242 237.487503051758 242.5 247.587493896484 253.606246948242 260.412506103516 269.9375 278.975006103516 287.25 295.649993896484 301.806243896484 306.556243896484 312.712493896484 316.831237792969 321.856262207031 328.143737792969 332.90625 338.1875 341.087493896484 345.662506103516 351.9375 356.212493896484 359.206237792969 361.21875 359.193756103516 357.850006103516 358.362487792969 358.549987792969 
226.368743896484 225.34375 225.175003051758 225.5 228.018753051758 232.456253051758 237.356246948242 243.875 252.012496948242 262.075012207031 272.5625 283.631256103516 294.518737792969 303.549987792969 309.237487792969 312.625 313.881256103516 311.668762207031 305.418762207031 287.606262207031 264.649993896484 247.118743896484 237.850006103516 237.5625 241.1875 245.5 249.875 255.25 261.543762207031 269.681243896484 277.481262207031 285.043762207031 291.331237792969 294.774993896484 298.71875 303.131256103516 305.799987792969 309.731262207031 314.34375 318.743743896484 323.09375 326.075012207031 329.912506103516 334.65625 337.524993896484 339.049987792969 340.137512207031 338.137512207031 334.299987792969 334.243743896484 337.899993896484 
