ncols        51
nrows        45
xllcorner    -63.500000000000
yllcorner    -7.500000000000
cellsize     0.166666666667
NODATA_value -99
39.625 33.8375015258789 31.4874992370605 30.5 29.8125 31.2687492370605 32.7874984741211 34.5875015258789 38.1062507629395 41.6937484741211 45.5562515258789 50.6937484741211 56.0874977111816 60.6812515258789 66.7687530517578 72.6062469482422 78.1687469482422 81.5812530517578 84.71875 87.6687469482422 87.78125 87.3375015258789 87.2062530517578 85.8499984741211 84.8499984741211 84.2874984741211 84.4812469482422 84.7687530517578 84.2687530517578 80.78125 77.1812515258789 74.0562515258789 70.2874984741211 66.8874969482422 63.4249992370605 61.5562515258789 60 58.3562507629395 57.8937492370605 57.7125015258789 57.21875 58.0562515258789 58.3812484741211 58.53125 57.7000007629395 56.2999992370605 54.09375 50.5 47.1187515258789 43.3812484741211 40.6749992370605 
39.6062507629395 33.5374984741211 31.3250007629395 30.1687507629395 29.5750007629395 30.9562492370605 32.4375 34.5625 38.2374992370605 41.8875007629395 45.8062515258789 50.8812484741211 55.9375 60.84375 66.6374969482422 72.8562469482422 78.2375030517578 83.3874969482422 88.0625 92.3000030517578 92.15625 91.34375 90.9375 89.6875 87.375 85.78125 85.4437484741211 84.7624969482422 83.5562515258789 78.8125 73.9187469482422 69.5749969482422 64.8812484741211 61.5125007629395 57.96875 55.8375015258789 54.0374984741211 52.2125015258789 51.5625 51.2937507629395 51.1124992370605 51.8312492370605 52.5250015258789 52.3624992370605 51.5437507629395 50.0687522888184 48.21875 44.2374992370605 40.3687515258789 36.4937515258789 33.8875007629395 
42.3875007629395 36.9562492370605 35.0499992370605 34.0187492370605 33.7562484741211 34.8875007629395 36.625 38.5687484741211 42.3125 45.8125 49.1875 53.7625007629395 58.4437484741211 62.8250007629395 68.375 74.0374984741211 79.4562530517578 84.1500015258789 87.9749984741211 91.5 90.875 89.5374984741211 88.5999984741211 87.1937484741211 85 82.9749984741211 82.2687530517578 81.6500015258789 79.9499969482422 74.6999969482422 69.9749984741211 65.125 61.28125 57.4562492370605 53.9249992370605 51.375 49.1937484741211 47.5812492370605 46.9500007629395 46.7125015258789 46.4000015258789 46.9375 47.6812515258789 47.9124984741211 46.9437484741211 45.5499992370605 43.8062515258789 40.0499992370605 35.7625007629395 31.7875003814697 29.4312496185303 
44.7874984741211 40.0187492370605 39.0625 38.4312515258789 38.5875015258789 39.65625 41.0812492370605 43.2062492370605 47.1312484741211 50.6312484741211 53.3499984741211 57.1375007629395 61.0625 64.8125 70.1875 75.7375030517578 81.0374984741211 84.3625030517578 87.3624954223633 90.3625030517578 89.2125015258789 87.1374969482422 85.03125 83.0124969482422 80.8375015258789 78.8687515258789 78.15625 76.7249984741211 75.3125 70.5437469482422 65.53125 60.9375 56.5750007629395 52.6812515258789 48.9500007629395 46.8187484741211 44.7125015258789 42.6812515258789 42.0374984741211 41.59375 40.84375 41.7625007629395 42.3187484741211 42.6062507629395 41.875 40.9937515258789 39.1437492370605 35.5750007629395 31.4437503814697 27.6062507629395 25.28125 
48.53125 43.7374992370605 41.8999977111816 42.0562477111816 43.0999984741211 44.2249984741211 45.5562515258789 47.8125 52.0875015258789 55.9187507629395 57.4000015258789 59.8624992370605 63.0437507629395 66.6062469482422 71.8125 77.4000015258789 82.1812515258789 84.7687530517578 86.5562515258789 87.7750015258789 86.6687469482422 84.0437469482422 81.4875030517578 79.6187515258789 76.5687484741211 74.28125 72.46875 71.7562484741211 70.7249984741211 65.4749984741211 60.46875 55.9562492370605 51.8125 48.0374984741211 44.34375 42.0875015258789 39.8624992370605 37.7374992370605 37.09375 36.0625 35.3062515258789 35.9249992370605 36.6812515258789 37.1875 36.8187484741211 35.9812507629395 34.4749984741211 30.7624988555908 27.0187492370605 23.65625 21.3812503814697 
52.1062507629395 48.0437507629395 46.28125 45.1312484741211 46.6437492370605 48.6749992370605 50.3937492370605 52.3937492370605 56.3499984741211 60.2062492370605 60.9625015258789 62.9937515258789 66.1312484741211 69.3625030517578 73.6937484741211 78.2312469482422 82.4312515258789 83.7937469482422 84.78125 84.6687469482422 82.8812484741211 80.5374984741211 77.9250030517578 75.1937484741211 72.5749969482422 69.84375 68.1500015258789 67.0250015258789 65.7375030517578 60.75 55.6375007629395 51.9937515258789 48.1124992370605 44.7374992370605 41.2562484741211 39.3312492370605 37.2562484741211 35.2562484741211 34.6375007629395 33.5499992370605 31.9437503814697 32.4312515258789 33.0125007629395 33.5250015258789 33.7062492370605 32.8812484741211 31.25 27.7000007629395 24.34375 21.1812496185303 19.1937503814697 
56.2999992370605 53.4000015258789 51.71875 50.4937515258789 51.0499992370605 52.2999992370605 53.9124984741211 55.59375 58.0687484741211 59.8812484741211 61.8375015258789 64.8249969482422 68.40625 71.7062530517578 75.6374969482422 79.625 82.8625030517578 82.7937469482422 81.8249969482422 81.53125 79.4312515258789 76.84375 74.1937484741211 71.1125030517578 68.2437515258789 65.7687530517578 63.7437515258789 62.1624984741211 60.03125 55.5250015258789 51.2000007629395 47.5687484741211 44.3312492370605 41.3937492370605 38.4812507629395 36.4874992370605 34.4625015258789 32.6500015258789 32.3250007629395 30.8374996185303 28.8374996185303 28.9624996185303 29.3687496185303 29.6687507629395 29.96875 29.5812492370605 28.3687496185303 24.9249992370605 21.71875 18.9874992370605 17.5249996185303 
61.2437515258789 58.7874984741211 57.5437507629395 57.1875 57.625 57.9812507629395 57.7374992370605 57.0812492370605 57.2874984741211 58.7125015258789 61.9749984741211 66.2125015258789 70.3125 73.84375 77.1875 80.59375 82.84375 81.4124984741211 79.5187530517578 77.7750015258789 76.1937484741211 73.78125 70.5749969482422 67.3499984741211 64.6500015258789 61.1687507629395 58.8250007629395 56.7750015258789 54.8062515258789 50.3687515258789 46.375 43.4625015258789 40.7062492370605 38.0125007629395 35.4437484741211 33.4625015258789 31.6687507629395 29.7062492370605 28.6124992370605 26.9812507629395 25.1187496185303 25.0750007629395 25.2312507629395 25.34375 25.6812496185303 25.90625 25.1749992370605 22.15625 19.2749996185303 16.9562492370605 15.6374998092651 
66.0250015258789 64.2687530517578 63.6062507629395 63.3937492370605 63.5562515258789 63.4187507629395 62.6749992370605 61.2437515258789 59.3687515258789 59.3375015258789 63.2750015258789 68.1500015258789 72.8687515258789 76.53125 78.6125030517578 80.21875 81.09375 79.875 79.0500030517578 77.2562484741211 74.4812469482422 71.8937530517578 68.1999969482422 65.4187469482422 62.0062484741211 58.0812492370605 55.1875 53.0999984741211 50.96875 46.5250015258789 43.2374992370605 41.0875015258789 38.3875007629395 35.7874984741211 33.3562507629395 31.7875003814697 30.1499996185303 28.3312492370605 27.0062503814697 25.5062503814697 23.71875 23.3374996185303 23.3374996185303 23.2374992370605 23.5 23.7749996185303 23.46875 20.9249992370605 18.34375 16.2625007629395 15.3874998092651 
71.15625 69.5374984741211 69.1374969482422 69.1812515258789 69.5687484741211 69.6500015258789 68.4937515258789 66.5812530517578 65.4312515258789 65.75 68 71.5812530517578 76.2437515258789 79.6062469482422 79.8499984741211 79.6187515258789 79.0875015258789 78.5062484741211 77.9749984741211 77.1812515258789 74.2125015258789 70.8187484741211 66.4937515258789 63.0875015258789 58.9187507629395 55.0125007629395 52.3312492370605 49.7687492370605 47.3187484741211 43.0625 40.28125 38.5250015258789 36.1937484741211 33.9874992370605 31.8562507629395 30.5062503814697 29.1812496185303 27.4187507629395 26.0687503814697 24.5375003814697 22.875 22.2875003814697 21.8250007629395 21.3187503814697 21.71875 22.1625003814697 21.9562492370605 19.9937496185303 17.7437496185303 15.9750003814697 14.9750003814697 
76.7562484741211 75.4499969482422 74.9749984741211 75.1062469482422 75.53125 76.3874969482422 75.5437469482422 73.1687469482422 72.0812530517578 72.1187515258789 73.8000030517578 76.5812530517578 79.9437484741211 82.4312515258789 80.7624969482422 78.5625 76.84375 76.6875 76.8812484741211 77.0124969482422 75.3812484741211 71.09375 65.5500030517578 60.2062492370605 56.2062492370605 52.78125 50.0999984741211 47.59375 44.71875 40.8562507629395 38.4749984741211 36.9187507629395 34.8937492370605 32.7999992370605 30.6749992370605 29.3562507629395 28.0499992370605 26.5874996185303 25.4750003814697 23.9624996185303 22.2312507629395 21.4312496185303 20.7124996185303 20.0249996185303 20.1937503814697 20.8500003814697 20.65625 18.8999996185303 17.1124992370605 15.4250001907349 14.4250001907349 
82.5562515258789 81.1750030517578 80.6750030517578 81.1624984741211 81.6999969482422 82.8312530517578 82.6750030517578 80.2750015258789 79.1437530517578 79.0124969482422 79.7625045776367 80.8562469482422 81.3312530517578 81.9250030517578 80.0062484741211 77.8312530517578 76.3187484741211 76.3562469482422 77.2624969482422 78.5687484741211 77.71875 73.1687469482422 66.6062469482422 60.1500015258789 55.1749992370605 51.3062515258789 48.5499992370605 46.1937484741211 44.03125 40.6812515258789 38.1812515258789 36.3875007629395 34.21875 32.0999984741211 30.2312507629395 29.09375 27.9500007629395 26.8187503814697 25.65625 24.2562503814697 22.7000007629395 21.6875 20.7625007629395 19.9249992370605 19.7687492370605 19.6062507629395 19.3999996185303 18.3624992370605 16.8312492370605 15.4937496185303 14.4250001907349 
88.4437484741211 87.1875 86.6999969482422 86.6375045776367 86.7624969482422 87.7687530517578 87.4875030517578 85.9749984741211 85.2312469482422 85.4000015258789 85.5625 84.7687530517578 83.0749969482422 80.2937469482422 77.90625 76.1750030517578 75.125 76.0500030517578 77.3562469482422 78.75 78.40625 73.8187484741211 66.6812515258789 60.3624992370605 54.3937492370605 49.78125 47.5875015258789 45.3624992370605 43.40625 40.5499992370605 38.1812515258789 36.2625007629395 33.7562484741211 31.5125007629395 29.7312507629395 28.7937507629395 27.9437503814697 27.0249996185303 26.1062507629395 24.6062507629395 23.21875 22.1875 20.8187503814697 18.96875 18.7749996185303 19.2749996185303 19.2312488555908 17.9812507629395 16.4437503814697 15.3874998092651 14.5500001907349 
93.9375 92.0749969482422 91.46875 91.15625 91.1500015258789 91.5500030517578 91.5062484741211 90.9124984741211 91.0124969482422 91.0124969482422 90.6937484741211 86.9812469482422 83.1937484741211 79.0062484741211 75.2062530517578 73.6875 73.2375030517578 74.21875 75.4937515258789 76.4499969482422 75.1750030517578 70.9812469482422 65.0374984741211 59.1749992370605 53.7562484741211 49.3312492370605 47.3250007629395 45.2562484741211 43.1062507629395 40.4187507629395 38.2999992370605 36.3499984741211 33.5499992370605 31.0874996185303 29.4437503814697 28.8125 28.1437492370605 27.7374992370605 26.6812496185303 25.4937496185303 23.8250007629395 21.9812507629395 20.1875 18.9562492370605 19.0687503814697 19.46875 19.8624992370605 18.8187503814697 17.1749992370605 15.8000001907349 14.7375001907349 
96.5812530517578 94.7062530517578 94.3000030517578 94.1374969482422 94.1125030517578 94.5250015258789 95.0124969482422 94.8249969482422 94.65625 94.3562469482422 93.3874969482422 88.7437515258789 83.6312484741211 78.5062484741211 73.7375030517578 72.0625 72.1875 73.4562530517578 74.8812484741211 75.65625 73.625 69.59375 64.4625015258789 59.5750007629395 55.1312484741211 51.1062507629395 48.84375 46.5562515258789 44.2374992370605 41.4124984741211 39.0750007629395 36.9249992370605 34.0562515258789 31.4500007629395 29.5125007629395 28.8624992370605 28.6375007629395 28.6625003814697 27.9812507629395 26.4562492370605 24.3125 22.65625 21.3125 20.2062511444092 19.8999996185303 20.0499992370605 20.1749992370605 19.40625 18.2562503814697 16.8312492370605 15.5437498092651 
98.2750015258789 96.4562530517578 96.5687484741211 96.5749969482422 96.7874984741211 97.6687469482422 98.03125 98.09375 98.2687530517578 98.2375030517578 96.5812530517578 91.0374984741211 85.0374984741211 78.7312469482422 73.4875030517578 70.2062530517578 71.5062484741211 73.6937484741211 75.0749969482422 75.6500015258789 73.4749984741211 69.53125 64.59375 60.3062515258789 56.4375 53.2062492370605 51.1749992370605 48.65625 45.6312484741211 42.4562492370605 39.9874992370605 37.8125 34.6375007629395 32.0625 29.7124996185303 29.4562492370605 29.65625 29.0750007629395 28.3374996185303 26.9437503814697 25.4437503814697 24.0499992370605 22.5750007629395 20.84375 20.8624992370605 21.1187496185303 21.2749996185303 20.28125 19.0187492370605 17.875 16.7437496185303 
99.5749969482422 98.3312530517578 98.375 98.6062469482422 99.3187484741211 100.356246948242 101.368751525879 101.606254577637 101.881248474121 101.556251525879 100.018753051758 94.0500030517578 87.2312469482422 80.5625 75.6875 72.71875 72.2062530517578 73.90625 75.8062515258789 76.6750030517578 74.1812515258789 70.0187530517578 65.0500030517578 60.8624992370605 57.5374984741211 55.25 54 50.7437515258789 46.6875 43.3937492370605 41.0812492370605 39.4437484741211 35.9375 32.9812507629395 31.5687503814697 31.8687496185303 31.3187503814697 30.9500007629395 30.3812503814697 28.7062492370605 27.3500003814697 25.8562507629395 23.6812496185303 22.1124992370605 22.0750007629395 22.2124996185303 22.21875 21.4187507629395 20.4624996185303 19.2875003814697 18.3937492370605 
99.1812515258789 98.0999984741211 98.625 99.2687530517578 99.8687515258789 101.65625 103.056251525879 103.5 104.112503051758 104.018753051758 102.712501525879 97.0875015258789 90.0562515258789 84.0875015258789 80.1812515258789 77.3125 75.8937530517578 75.3499984741211 78 79.2624969482422 76.8249969482422 71.6312484741211 66.0687484741211 62.4124984741211 59.6812515258789 57.65625 57.5750007629395 53.4437484741211 48.2312507629395 44.1687507629395 41.65625 40.0625 37.7750015258789 36.2437515258789 34.9500007629395 33.5812492370605 33.1124992370605 32.5812492370605 31.15625 30.2124996185303 28.6437492370605 27.0562496185303 25.2124996185303 23.7374992370605 23.6124992370605 23.6499996185303 23.6124992370605 22.8562507629395 22.0687503814697 20.8500003814697 20.3250007629395 
98.2687530517578 97.7874984741211 98.5062484741211 99.4499969482422 100.543746948242 102.462501525879 103.912498474121 105.074996948242 106.412498474121 107.262496948242 106.106246948242 100.668746948242 94.125 88.65625 84.59375 81.9312515258789 80.2937469482422 78.9375 80.1125030517578 81.6374969482422 79.7125015258789 75.1812515258789 67.1750030517578 63.7687492370605 61.3624992370605 59.1875 58.0999984741211 54.4749984741211 49.6812515258789 45.2687492370605 42.1937484741211 41.8562507629395 41.3187484741211 39.4500007629395 37.25 36.34375 35.2625007629395 34.1062507629395 32.9437484741211 31.6187496185303 29.96875 28.8812503814697 27.0125007629395 25.5249996185303 25.3875007629395 25.4249992370605 25.2437496185303 24.6375007629395 23.7374992370605 22.3500003814697 22.4375 
97.3125 97.2874984741211 98.125 99.4562530517578 100.918746948242 103.306251525879 105.318748474121 106.875 109.099998474121 110.868751525879 110.875 106.168746948242 100.162498474121 94.2437515258789 90.09375 86.6437530517578 83.4312515258789 83.1875 83.78125 84.6937484741211 80.9875030517578 74.7062530517578 68.5374984741211 65.1437530517578 62.2437515258789 59.1124992370605 57.1687507629395 54.8812484741211 50.7625007629395 46.875 44.7937507629395 45.9437484741211 44.6624984741211 42.9437484741211 40.8562507629395 39.3187484741211 37.9625015258789 36.6062507629395 34.9937515258789 33.2062492370605 31.4249992370605 30.2999992370605 28.7000007629395 27.46875 27.2625007629395 27.28125 26.8999996185303 26.2374992370605 25.4624996185303 24.2999992370605 24.2875003814697 
97.2687530517578 98.0500030517578 99.6750030517578 101.400001525879 102.849998474121 105.668746948242 108.53125 110.925003051758 113.800003051758 115.737503051758 116.28125 112.743751525879 107.824996948242 101.824996948242 97.1187515258789 92.4000015258789 88.3625030517578 86.3625030517578 86.5625 85.8000030517578 82.125 76.7312469482422 70.7937469482422 67.4375 64.5062484741211 61.2562484741211 59.1812515258789 56.1749992370605 52.9312515258789 51.8375015258789 51.4500007629395 52.375 50.2312507629395 47.84375 45.5125007629395 43.9937515258789 42.0250015258789 40.0437507629395 37.8250007629395 35.6375007629395 33.3250007629395 31.8374996185303 30.2687492370605 28.7562503814697 28.4500007629395 28.2312507629395 27.9125003814697 27.46875 26.5750007629395 26.0812492370605 26.1312503814697 
97.9937515258789 98.4000015258789 100.581253051758 102.8125 105.056251525879 108.150001525879 111.737503051758 114.724998474121 118.625 121.356246948242 122.53125 120.631248474121 116.974998474121 111.368751525879 105.5625 99.8000030517578 95.4000015258789 91.96875 90.0687484741211 88.3687515258789 83.0875015258789 77.4875030517578 72.2937469482422 68.8125 65.4812545776367 62.2750015258789 61.0875015258789 58.9000015258789 56.9812507629395 57.1937484741211 57.4437484741211 58.5625 56 53.6312484741211 51.3624992370605 49.3187484741211 46.8687515258789 44.2437515258789 41.1312484741211 38.3250007629395 35.4500007629395 33.5625 31.78125 30.2062492370605 29.8500003814697 29.3374996185303 28.8875007629395 28.5062503814697 28.1312503814697 27.9874992370605 28.25 
98.90625 100.137496948242 102.387496948242 104.9375 107.587501525879 110.75 114.118751525879 118.262496948242 123.09375 126.262496948242 128.693756103516 128.387496948242 128.037506103516 123.393753051758 115.03125 107.393753051758 101.618751525879 97.1875 93.6687469482422 90.4749984741211 84.8562469482422 78.9375 73.5062484741211 69.8937530517578 66.9187469482422 64.0687484741211 63.0250015258789 61.9500007629395 60.6437492370605 61.6937484741211 63.3687515258789 65.0062484741211 62.7000007629395 60.1062507629395 57.34375 54.9375 51.9812507629395 48.2625007629395 44.3812484741211 40.8875007629395 37.625 35.34375 33.2874984741211 31.4750003814697 30.9312496185303 30.6062507629395 30.1187496185303 29.8125 29.5499992370605 29.7374992370605 30.5187492370605 
100.756248474121 102.137496948242 104.574996948242 106.775001525879 109.675003051758 113.287498474121 116.868751525879 121.162498474121 125.537498474121 129.131256103516 132.1875 135.068756103516 137.231246948242 132.46875 122.418746948242 113.681251525879 106.84375 101.625 96.9749984741211 92.46875 86.7249984741211 80.8125 75.1750030517578 71.7437515258789 68.9749984741211 66.3000030517578 66.5875015258789 65.5187530517578 65.2249984741211 67.0500030517578 69.9000015258789 72.2750015258789 69.6437530517578 66.4875030517578 63.4249992370605 60.5625 56.6687507629395 51.4937515258789 47.0187492370605 42.8937492370605 39.09375 36.65625 34.4874992370605 32.6062507629395 32.7875022888184 32.5187492370605 32.0062484741211 31.3624992370605 31.5687503814697 31.3125 32.2374992370605 
104.237503051758 105.0625 107.387496948242 109.650001525879 112.912498474121 115.862503051758 118.856246948242 122.537498474121 126.925003051758 130.574996948242 134.137496948242 136.350006103516 138.181243896484 135.318756103516 126.681251525879 118.050003051758 110.84375 104.712501525879 99.5374984741211 94.4749984741211 88.4250030517578 82.1312484741211 76.9625015258789 73.5250015258789 70.6937484741211 69.0187530517578 69.5124969482422 69.6374969482422 69.7624969482422 72.8499984741211 76.2125015258789 79.1437530517578 76.2312469482422 72.5999984741211 68.7375030517578 64.4812469482422 59.6312484741211 53.7000007629395 48.90625 44.5750007629395 40.3562507629395 37.7999992370605 35.78125 34.1124992370605 34.2625007629395 34.3562507629395 33.4124984741211 33.5562515258789 33.4562492370605 33.3500022888184 34.2937507629395 
109.512496948242 110.3125 110.837501525879 113.162498474121 115.400001525879 117.606246948242 119.837501525879 122.831253051758 126.6875 130.25 133.443756103516 135.981246948242 137.21875 135.662506103516 128.725006103516 121.074996948242 114.256248474121 107.918746948242 102.3125 96.9749984741211 90.6999969482422 84.4375 78.8874969482422 75.0500030517578 72.8562469482422 71.8375015258789 73.1687469482422 74.2062530517578 75.21875 78.9375 82.75 85.9187469482422 82.6500015258789 77.9124984741211 73.3062515258789 67.8624954223633 61.8687515258789 55.625 50.8687515258789 46.2312507629395 41.8624992370605 39.2312507629395 36.8375015258789 35.3687515258789 35.8499984741211 35.6437492370605 36.0187492370605 36.1500015258789 35.875 36.0687484741211 36.8624992370605 
115.643753051758 115.081253051758 114.931251525879 115.71875 116.525001525879 117.918746948242 120.449996948242 122.668746948242 125.28125 128.631256103516 132.306243896484 135.262496948242 136.962493896484 136.625 130.6875 123.368751525879 117.0625 111.118751525879 105.668746948242 99.9812469482422 93.8937530517578 87.8312530517578 82.28125 78.7937469482422 77.5062484741211 76.8562469482422 78.5374984741211 80.1500015258789 82.0625 85.4312515258789 89.5250015258789 92.5124969482422 88.4499969482422 82.6187515258789 76.4250030517578 70.3312530517578 63.9437522888184 57.3812484741211 52.8499984741211 48.3062515258789 43.9187507629395 41.0999984741211 38.6375007629395 36.8125 37.3499984741211 38.28125 38.9562492370605 39 39.2374992370605 39.1312484741211 40.0625 
122.056251525879 120.118751525879 118.743751525879 117.793746948242 117.53125 118.056251525879 119.84375 121.918746948242 124.612503051758 127.637496948242 130.4375 133.912506103516 136.362503051758 136.943756103516 132.125 125.637496948242 119.487503051758 114.243751525879 108.887496948242 103.568748474121 98.1500015258789 92.4124984741211 88.0875015258789 85.4250030517578 83.8562469482422 82.9875030517578 84.6875 86.8687515258789 88.9937515258789 92.1937484741211 95.6687469482422 98.2937469482422 93.1875 85.8937530517578 79.0562515258789 72.4937515258789 65.8312530517578 59.46875 54.6187515258789 50.5562515258789 46.5250015258789 43.625 40.3125 38.2000007629395 39.4874992370605 40.8687515258789 41.7750015258789 42.6187515258789 42.9187507629395 42.8499984741211 43.5499992370605 
128.068756103516 124.724998474121 121.375 119.137496948242 117.743751525879 117.693748474121 118.824996948242 120.556251525879 123.706253051758 126.425003051758 129.15625 132.71875 136.118743896484 137.4375 133.237503051758 128.199996948242 123.21875 117.75 112.643753051758 107.662498474121 103.09375 98.2125015258789 94.6875 92.7624969482422 91.1500015258789 90.09375 92.1374969482422 94.1750030517578 96.5437469482422 98.9375 101.862503051758 103.637496948242 97.0562515258789 88.9250030517578 81.5374984741211 74.6750030517578 67.9187469482422 61.2999992370605 56.4500007629395 52.1187515258789 48.4625015258789 45.34375 42.3624992370605 40.9187507629395 42.6937484741211 44.125 45.3812484741211 46.7625007629395 47.2874984741211 47.2937507629395 47.4124984741211 
131.050003051758 126.550003051758 122.331253051758 118.243751525879 116.543746948242 116.699996948242 117.887496948242 119.724998474121 122.800003051758 125.181251525879 128.09375 132.181243896484 136.149993896484 138.756256103516 135.856246948242 132.125 127.462501525879 123.050003051758 117.956253051758 113.275001525879 109.368751525879 106.087501525879 103.287498474121 101.349998474121 100.012496948242 99.4375 101.349998474121 103.118751525879 104.962501525879 106.637496948242 108.193748474121 108.6875 101.612503051758 93.5250015258789 85.71875 78.3249969482422 71.1374969482422 64.7750015258789 59.2750015258789 54.6062507629395 50.84375 49.3187484741211 47.3562507629395 46.5625 47.5187492370605 49.9874992370605 51.9625015258789 53.7937507629395 54.3375015258789 54.0750007629395 53.8499984741211 
132.681243896484 127.412498474121 122.693748474121 118.224998474121 115.5625 116.324996948242 117.581253051758 119.199996948242 121.637496948242 124.625 127.856246948242 132.356246948242 137.206253051758 139.806243896484 138.46875 136.243743896484 133.556243896484 129.074996948242 123.743751525879 120.337501525879 117.53125 114.981246948242 112.818748474121 111.181251525879 109.71875 109.506248474121 110.925003051758 112.65625 113.943748474121 114.15625 114.493751525879 113.9375 106.306251525879 98.4749984741211 90.1062469482422 82.3562469482422 75.1437530517578 68.9937515258789 63.0562515258789 56.7249984741211 53.3562507629395 53.2999992370605 52.6687507629395 52.1437492370605 53.4437484741211 57.6375007629395 60.6375007629395 62.4562492370605 62.7249984741211 61.7999992370605 61.5437507629395 
133.456253051758 128.056243896484 123.168746948242 119.275001525879 116.96875 116.537498474121 117.506248474121 118.675003051758 121.112503051758 123.987503051758 127.481246948242 132.6875 137.831253051758 141.793746948242 142.5 141.956253051758 140.456253051758 136.331253051758 131.949996948242 129.006256103516 126.887496948242 124.675003051758 122.724998474121 121.243751525879 120.456253051758 119.96875 120.881248474121 122.268753051758 122.912498474121 122.243751525879 121.243751525879 119.131248474121 111.400001525879 103.068748474121 95.2249984741211 87.375 80.0437469482422 73.3312530517578 66.8687515258789 61.3062515258789 58.7999992370605 59.5625 59.8250007629395 60.7437515258789 63.2374992370605 69.5 73.0374984741211 74.1312484741211 72.8499984741211 71.0062484741211 69.8375015258789 
131.975006103516 127.25 122.96875 119.737503051758 117.53125 116.631248474121 117.09375 118.050003051758 120.400001525879 123.53125 128.412506103516 133.9375 140.318756103516 146.649993896484 148.556243896484 149.743743896484 149.324996948242 146.956253051758 143.59375 140.862503051758 138.868743896484 136.21875 133.662506103516 132.262496948242 131.649993896484 131.0625 131.756256103516 132.637496948242 133.431243896484 131.600006103516 129.40625 126.293746948242 118.349998474121 109.943748474121 102.550003051758 95.0187530517578 88.0562515258789 81.0625 74.96875 71.4937515258789 69.3687515258789 70.3812484741211 71.8125 74.2437515258789 80.34375 89.5812530517578 92.6374969482422 89.90625 86.6687469482422 83.0749969482422 81.1937484741211 
129.731246948242 125.887496948242 122.387496948242 119.96875 117.712501525879 116.737503051758 116.349998474121 117.224998474121 119.743751525879 122.981246948242 128.037506103516 135.5 143.675003051758 150.793746948242 154.543746948242 157.681243896484 159.743743896484 158.318756103516 155.856246948242 153.6875 151.362503051758 148.475006103516 145.65625 143.962493896484 143.262496948242 142.387496948242 143.137496948242 143.543746948242 143.931243896484 140.987503051758 137.675003051758 134.074996948242 126.150001525879 117.887496948242 110.743751525879 103.699996948242 96.4312515258789 89.0687484741211 84.8625030517578 82.7125015258789 80.8562469482422 82.3937530517578 85.375 89.2562484741211 97.0062484741211 106.368751525879 108.168746948242 103.993751525879 99.6812515258789 95.3312530517578 92.6500015258789 
128.462493896484 125.25 122.412498474121 120.037498474121 118.193748474121 116.96875 116.043746948242 116.556251525879 118.212501525879 122.037498474121 128.137496948242 137.418746948242 147.1875 156.668746948242 162.6875 166.737503051758 170.774993896484 170.381256103516 168.625 166.787506103516 164.649993896484 161.4375 158.037506103516 155.631256103516 154.106246948242 153.518753051758 153.600006103516 154.262496948242 154.056243896484 150.21875 146.3125 141.774993896484 133.768753051758 126.287498474121 118.731246948242 111.368751525879 104.21875 99.0500030517578 95.9000015258789 93.7937469482422 92.78125 94.4000015258789 97.71875 101.868751525879 108.806251525879 114.481246948242 116.443748474121 114.393753051758 110.487503051758 106.556251525879 103.8125 
129.768753051758 126.631248474121 124.143753051758 121.75 119.90625 118.831253051758 117.862503051758 117.112503051758 117.912498474121 120.868751525879 127.962501525879 138.71875 151.043746948242 162.912506103516 170.09375 176.987503051758 181.65625 182.412506103516 182 181.543746948242 178.96875 174.199996948242 169.862503051758 167.125 165.137496948242 163.831253051758 163.8125 164.475006103516 164.237503051758 159.175003051758 155.199996948242 150.112503051758 142.84375 135.675003051758 127.837501525879 120.71875 116.174995422363 111.387496948242 108.262496948242 106.824996948242 106.425003051758 107.831253051758 110.543746948242 114.474998474121 119.8125 123.449996948242 125.275001525879 124.331253051758 121.306251525879 117.824996948242 115.043746948242 
131.481246948242 128.681243896484 126.606246948242 124.606246948242 122.699996948242 121.71875 120.331253051758 119.006248474121 118.587501525879 119.050003051758 127.743751525879 143.5 157.237503051758 168.9375 177.875 186.137496948242 192.475006103516 193.818756103516 194.1875 193.868743896484 190.712493896484 185.537506103516 180.893753051758 177.600006103516 175.118743896484 174.018753051758 173.15625 174.193756103516 173.387496948242 168.537506103516 163.725006103516 159.368743896484 152.175003051758 145.581253051758 138.21875 132.4375 128.487503051758 124.625 122.243751525879 120.018753051758 119.131248474121 120.081253051758 122.318748474121 125.987503051758 130.34375 132.324996948242 134.087493896484 133.887496948242 131.587493896484 128.193756103516 125.28125 
133.793746948242 131.006256103516 129.068756103516 127.543746948242 125.824996948242 125.181251525879 124.34375 123.287498474121 123 122.59375 136.199996948242 153.881256103516 165.831253051758 176.78125 186.28125 195.425003051758 202.856246948242 204.28125 204.331253051758 202.556243896484 199.90625 195.456253051758 191.087493896484 186.949996948242 184.537506103516 183.25 182.231246948242 183.112503051758 182.606246948242 178.100006103516 171.21875 166.393753051758 160.381256103516 154.506256103516 148.162506103516 144.050003051758 141.050003051758 137.581253051758 136.3125 134.6875 132.125 132.943756103516 133.512496948242 135.487503051758 138.800003051758 140.618743896484 141.925003051758 142.631256103516 139.887496948242 137.125 134.96875 
130.96875 129.118743896484 128.600006103516 128.006256103516 127.168746948242 127.612503051758 128.387496948242 129.237503051758 132.949996948242 141.456253051758 158.043746948242 167.606246948242 176.287506103516 186.193756103516 194.693756103516 202.975006103516 210.175003051758 211.618743896484 210.912506103516 209.668746948242 206.412490844727 201.831253051758 198.21875 194.71875 191.324996948242 190 188.868743896484 189.125 188.712493896484 184.28125 178.787506103516 174.043746948242 168.625 163.381256103516 160.018753051758 157.03125 153.550003051758 151.431243896484 149.712493896484 145.875 142.75 143.293746948242 142.1875 143.4375 145.9375 146.818756103516 145.731246948242 146.425003051758 144.475006103516 142.618743896484 140.962493896484 
127.168746948242 126.65625 127.28125 127.762504577637 128.768753051758 131.149993896484 133.412506103516 137.081253051758 143.943756103516 153.824996948242 166.368743896484 177.068756103516 185.981246948242 195.412506103516 203.387496948242 210.706253051758 217.875 218.875 218.100006103516 217.03125 212.881256103516 208.300003051758 203.925003051758 200.175003051758 197.912506103516 195.987503051758 194.524993896484 194.706253051758 193.987503051758 189.762496948242 184.806243896484 183.193756103516 180.418746948242 176.256256103516 173.975006103516 170.837493896484 167.1875 164.306259155273 162.643753051758 157.368743896484 153.506256103516 152.9375 151.09375 150.112503051758 151.225006103516 151.306243896484 150.912506103516 151.475006103516 150.287506103516 148.306243896484 146.5625 
122.768753051758 123.293746948242 125.162498474121 127.212501525879 129.268753051758 132.581253051758 136.725006103516 142.912506103516 150.725006103516 160.493743896484 171.606246948242 182.4375 193.475006103516 202.524993896484 210.5625 217.518753051758 224.131256103516 225.925003051758 225.175003051758 223.568756103516 218.981246948242 213.681243896484 208.75 205.387496948242 204.59375 201.850006103516 199.90625 199.34375 198.212493896484 194.737503051758 192.693756103516 194.081253051758 191.662506103516 189.731246948242 188.487503051758 186.268753051758 182.587493896484 178.706253051758 175.462493896484 169.112503051758 163.90625 161.556243896484 157.956253051758 156.743743896484 157.118743896484 157.681243896484 156.53125 155.581253051758 155.356246948242 154.199996948242 152.456253051758 
114.449996948242 115.5625 117.787498474121 120.09375 122.775001525879 126.612503051758 131.831253051758 138.149993896484 146.987503051758 156.0625 167.037506103516 178.25 189.90625 200.324996948242 209.068756103516 218.287506103516 226.050003051758 229.006256103516 229.9375 227.34375 220.600006103516 216.0625 210.8125 207.331253051758 206.193756103516 204.112503051758 201.618743896484 200.524993896484 200.893753051758 200.368743896484 196.587493896484 199.949996948242 200.006256103516 202.631256103516 204.3125 200.943756103516 197.443756103516 193.043746948242 187.4375 179.806243896484 173.118743896484 167.449996948242 163.012496948242 162.800003051758 163.574996948242 163.949996948242 161.912506103516 160.09375 160.212493896484 158.293746948242 156.487503051758 
105.518753051758 106.75 109.206253051758 111.574996948242 114.03125 118.78125 124.387504577637 130.931243896484 139.875 149.15625 159.800003051758 171.668746948242 184.481246948242 195.725006103516 206.550003051758 217.256256103516 226.318756103516 231.931243896484 234.300003051758 230.212493896484 222.175003051758 215.425003051758 210.59375 209.337493896484 207.962493896484 205.887496948242 202.993743896484 201.756256103516 202.331253051758 202.131256103516 201.731246948242 201.537506103516 204.368743896484 211.53125 218.53125 220.850006103516 214.381256103516 208.256256103516 200 190.631256103516 182.918746948242 176.875 172.475006103516 170.46875 170.850006103516 169.600006103516 167.40625 165.725006103516 165.293746948242 163.399993896484 161.475006103516 
96.8249969482422 98.3562469482422 100.743751525879 102.8125 105.743751525879 110.431251525879 115.824996948242 122.518753051758 131.262496948242 141.274993896484 152.337493896484 165.318756103516 177.712493896484 191.143753051758 203.475006103516 215.456253051758 226.181243896484 232.987503051758 238.737503051758 235.399993896484 225.737503051758 217.168746948242 212.137496948242 210.237503051758 209.631256103516 207.649993896484 204.75 204.25 203.84375 204.725006103516 204.306243896484 204.418746948242 207.024993896484 217.225006103516 230.84375 240.662506103516 233.987503051758 223.625 212.949996948242 202.568756103516 194.162506103516 187.668746948242 182.337493896484 180.087493896484 179.118743896484 176.681243896484 174.737503051758 172 169.806243896484 168.981246948242 167.28125 
90.5500030517578 92.0562515258789 94.3812484741211 96.1500015258789 98.8812484741211 103.5 108.293746948242 114.631248474121 123.331253051758 133.618743896484 144.78125 157.981246948242 171.287506103516 185.125 198.28125 211.037506103516 222.193756103516 228.787506103516 234.443756103516 233.868743896484 226.087493896484 219.550003051758 213.481246948242 210.9375 210.8125 208.75 206.25 205.3125 205.612503051758 207.306243896484 207.375 206.956253051758 211.5 220.824996948242 233.699996948242 246.25 243.787506103516 232.237503051758 221.375 212.5625 203.6875 197.537506103516 192.625 187.862503051758 186.918746948242 184.887496948242 181.78125 178.743743896484 174.737503051758 173.75 172.875 
