ncols        51
nrows        45
xllcorner    -63.500000000000
yllcorner    -7.500000000000
cellsize     0.166666666667
NODATA_value -99
49.1812515258789 43.2125015258789 39.6875 37.6187515258789 35.7874984741211 36.1124992370605 36.46875 37.1500015258789 39.78125 42.5062484741211 45.5812492370605 50.2999992370605 55.3375015258789 59.625 65.5875015258789 71.3562469482422 76.8187484741211 80.1312484741211 83.15625 86.0062484741211 86.1937484741211 85.8125 85.8249969482422 85.0187530517578 84.6062469482422 84.6125030517578 85.5187530517578 86.5124969482422 86.5437469482422 82.7687530517578 78.7437515258789 75.3562469482422 72.2437515258789 69.6750030517578 67.03125 65.8562469482422 64.9812469482422 63.9312515258789 63.4249992370605 63.09375 62.2625007629395 61.9625015258789 60.9749984741211 60.0812492370605 59.6624984741211 58.8375015258789 57.34375 55.2937507629395 53.5187492370605 51.0187492370605 48.6312484741211 
50.15625 43.96875 40.9249992370605 38.9312515258789 37.5437507629395 38.0062484741211 38.53125 39.8250007629395 42.75 45.6749992370605 48.9124984741211 53.5499992370605 58.2000007629395 62.7249984741211 68.1875 74.1875 79.3125 84.2874984741211 88.8375015258789 92.96875 92.8812484741211 92.1750030517578 91.9124984741211 91.1437530517578 89.3187484741211 88.2249984741211 88.4187469482422 88.28125 87.71875 84.2125015258789 80.65625 77.7312469482422 74.46875 72.7750015258789 70.8499984741211 70.2375030517578 70.0187530517578 69.6312484741211 69.3687515258789 69.4000015258789 69.25 68.6875 67.9124984741211 66.34375 65.6687469482422 64.4437484741211 62.9249992370605 59.78125 56.8937492370605 53.4437484741211 50.1437492370605 
52.8499984741211 47.2437515258789 44.6875 43.0187492370605 42.2562484741211 43.0437507629395 44.53125 46.2125015258789 49.65625 52.7874984741211 55.7000007629395 59.8375015258789 64.0749969482422 68.03125 73.0625 78.25 83.2562484741211 87.6937484741211 91.2562484741211 94.6500015258789 94.21875 93.1374969482422 92.4937515258789 91.6624984741211 90.0062484741211 88.46875 88.1187515258789 87.8187484741211 86.5437469482422 82.6125030517578 79.4375 76.1875 74.1062469482422 72.0999984741211 70.4812469482422 69.6812515258789 69.3625030517578 69.7249984741211 69.8375015258789 70.3000030517578 70.3187484741211 69.7562484741211 69.21875 68.2562484741211 67.0374984741211 65.4562530517578 63.5687484741211 60.28125 56.1812515258789 52.0187492370605 48.5374984741211 
54.75 49.6500015258789 48.3812484741211 47.34375 47.3375015258789 48.6937484741211 50.6124992370605 53.2750015258789 57.5 61.125 63.6812515258789 66.9625015258789 70.3562469482422 73.5875015258789 78.2312469482422 83.0812530517578 87.7687530517578 90.7062530517578 93.3687515258789 96.2062530517578 95.4250030517578 93.7624969482422 92.0500030517578 90.7062530517578 89.1374969482422 87.6999969482422 87.09375 85.625 84.40625 80.9000015258789 77.3687515258789 74.3312530517578 71.6937484741211 69.7312469482422 68.0125045776367 68.1062469482422 68.2312469482422 68.4187469482422 68.9812469482422 69.5562515258789 69.2937545776367 69.6374969482422 69.0562515258789 68.3187484741211 66.9875030517578 65.6624984741211 63.0062484741211 59.3875007629395 54.9249992370605 50.3499984741211 46.40625 
58.125 52.7312507629395 50.4812507629395 50.5499992370605 51.8062515258789 53.8937492370605 56.4375 59.9874992370605 65.2874984741211 69.8562469482422 71.3312530517578 73.0999984741211 75.7312469482422 78.7375030517578 83.0250015258789 87.7687530517578 91.7937469482422 93.9625015258789 95.3687515258789 96.3562469482422 95.8499984741211 93.7937469482422 91.7874984741211 90.6812515258789 88.1999969482422 86.4000015258789 84.28125 83.34375 82.3249969482422 78.0999984741211 74.4625015258789 71.4250030517578 69.1374969482422 67.4375 66.0187530517578 66.1875 66.5625 67.0500030517578 68.1687469482422 68.2312469482422 68.3937530517578 68.5500030517578 68.5875015258789 68.2624969482422 67.0812530517578 65.1437530517578 62.40625 57.84375 53.3187484741211 48.9187507629395 44.5 
60.6187515258789 55.84375 53.7125015258789 52.2687492370605 54.1124992370605 57.4874992370605 60.7312507629395 64.2562484741211 69.4875030517578 74.5250015258789 75.4937515258789 77.0437469482422 79.8125 82.6812515258789 86.2874984741211 90.1187515258789 93.7750015258789 95.0374984741211 96.0437469482422 95.9375 94.8249969482422 93.1937484741211 91.1624984741211 89 86.9562530517578 84.5125045776367 82.34375 80.7375030517578 79.28125 75.2249984741211 71.28125 69.2687530517578 67.1812515258789 66.0124969482422 64.8125 65.4749984741211 66.1624984741211 67.0187530517578 68.5187530517578 68.8625030517578 67.7062530517578 67.875 67.7937469482422 67.7062530517578 67.2249984741211 64.7937469482422 61.3062515258789 56.375 51.9937515258789 47.3375015258789 42.9187507629395 
63.6937484741211 59.9874992370605 57.9625015258789 56.4874992370605 57.2062492370605 59.84375 63.125 66.4562530517578 70.1937484741211 73.0687484741211 75.9124984741211 78.9000015258789 82.5062484741211 85.7437515258789 89.3000030517578 92.8874969482422 95.84375 96.0625 95.4250030517578 95.6437530517578 94.3125 92.4749984741211 90.4312515258789 87.8062515258789 85.2937469482422 83.0437469482422 80.3000030517578 77.9375 75.2624969482422 71.5999984741211 68.4812469482422 66.34375 64.96875 64.2874984741211 63.8375015258789 64.3687515258789 64.9812469482422 66.2125015258789 68.7624969482422 68.6875 66.9437484741211 66.6812515258789 66.5187530517578 66.1875 65.6750030517578 63.7249984741211 60.4874992370605 55 50.1875 45.8250007629395 42.0187492370605 
67.5687484741211 64.125 62.5999984741211 62.1187515258789 62.7562484741211 64.5687484741211 65.90625 66.6624984741211 67.9749984741211 70.59375 75.3000030517578 80.1187515258789 84.5875015258789 88.3812484741211 91.71875 95.125 97.3874969482422 96.6187515258789 95.5187530517578 94.5875015258789 94.0749969482422 92.5437469482422 89.90625 86.9625015258789 84.5749969482422 80.8625030517578 77.4749984741211 74.3312530517578 71.6624984741211 67.8187484741211 64.8874969482422 63.4874992370605 62.6312484741211 62.1687507629395 62.0625 62.4562492370605 63.3812484741211 64.1374969482422 65.3812484741211 65.28125 64.03125 63.8312492370605 63.5687484741211 63.0625 62.3624992370605 61.3687515258789 58.6687507629395 53.2750015258789 48.4187507629395 44.2687492370605 40.2625007629395 
71.34375 68.6125030517578 67.8062515258789 67.5562515258789 67.9375 69.2562484741211 70.0562515258789 69.9875030517578 68.9124984741211 69.8625030517578 75.3499984741211 81.0437469482422 86.3937530517578 90.53125 93.1500015258789 95.2249984741211 96.6312484741211 96.4375 96.9124984741211 96.1624984741211 94.4749984741211 92.9625015258789 89.875 87.4749984741211 84.0625 79.6875 75.4187469482422 72.0875015258789 69.0500030517578 64.6624984741211 62.2000007629395 61.4187507629395 60.3499984741211 59.7437515258789 59.4812507629395 60.2249984741211 61.0625 61.6500015258789 62.3562507629395 62.6187515258789 61.7374992370605 61.2437515258789 61.1812515258789 60.7062492370605 59.7750015258789 58.75 56.8562507629395 51.90625 47.0437507629395 42.9562492370605 39.7249984741211 
75.4749984741211 72.8937530517578 72.4000015258789 72.53125 73.2000045776367 74.7375030517578 75.1187515258789 74.5187530517578 74.4187469482422 75.8562469482422 79.34375 83.5875015258789 88.96875 92.9499969482422 94.1937484741211 95.0187530517578 95.53125 96.4375 97.4812469482422 98.2874984741211 96.6624984741211 94.3812484741211 90.6437530517578 87.4124984741211 82.9124984741211 78.40625 74.3062515258789 70.1875 66.5124969482422 61.8499984741211 59.5 58.7750015258789 57.9312515258789 57.5562477111816 57.4500007629395 58.2687492370605 59.2312507629395 59.4812507629395 60.1062507629395 60.3312492370605 59.90625 59.5125007629395 58.9249992370605 57.9249992370605 57.3812484741211 56.6812515258789 54.8250007629395 50.6500015258789 46.0374984741211 42.15625 38.2312507629395 
80.0374984741211 77.8187484741211 77.3312530517578 77.6062469482422 78.4000015258789 80.75 81.4499969482422 80.4124984741211 80.4499969482422 81.625 84.5625 87.9875030517578 92.0062484741211 95.21875 94.8812484741211 94.1812515258789 94.0187530517578 95.7750015258789 97.9562530517578 100.237503051758 100.743751525879 97.6812515258789 92.53125 86.5250015258789 82.1875 78.28125 73.9937515258789 69.7750015258789 65.3125 60.65625 58.3250007629395 57.3624992370605 56.7125015258789 56.2374992370605 55.7937507629395 56.21875 56.8125 57.2249984741211 58.34375 58.6687507629395 58.25 57.8375015258789 57.2687492370605 56.2374992370605 55.09375 54.90625 52.9375 48.7000007629395 44.5875015258789 40.3937492370605 36.3062515258789 
85.0562515258789 82.8187484741211 82.3625030517578 83.1187515258789 84.03125 86.5875015258789 87.9437484741211 86.8249969482422 86.8562469482422 87.8625030517578 89.7437515258789 91.6999969482422 92.8312454223633 94.3062515258789 93.8312530517578 93.2249984741211 93.4499969482422 95.5749969482422 98.90625 103 105.03125 102.15625 95.9375 88.4000015258789 82.6312484741211 78.0374984741211 73.4625015258789 69.3249969482422 65.6750030517578 61.3312492370605 58.3375015258789 56.6187515258789 55.4249992370605 54.53125 54.1187515258789 54.5374984741211 54.9500007629395 55.5499992370605 56.5125007629395 57.1187515258789 57.2312507629395 56.7062492370605 56.0187492370605 55.0374984741211 53.0875015258789 50.8312492370605 48.7874984741211 46.0875015258789 42.4000015258789 38.9500007629395 34.8375015258789 
90.1374969482422 88.1437530517578 87.7874984741211 88.0374984741211 88.5562515258789 90.8812484741211 91.9562530517578 91.7125015258789 92.125 93.4187469482422 94.6937484741211 94.9312515258789 94.1687469482422 92.2249984741211 91.2312469482422 91.09375 91.8499984741211 95.2437515258789 99.2687530517578 103.724998474121 106.925003051758 104.46875 97.7937469482422 90.5187530517578 83.2687530517578 77.5250015258789 73.65625 69.5124969482422 65.9562530517578 61.90625 58.6875 56.3499984741211 54.3125 52.8875007629395 52.2312507629395 52.5750007629395 53.0750007629395 53.6749992370605 55.0374984741211 55.4500007629395 56.0687484741211 55.8250007629395 54.4312515258789 51.1437492370605 49.15625 48.7062492370605 47.09375 43.7437515258789 39.8250007629395 36.90625 33.5250015258789 
94.8312530517578 92.3375015258789 91.9187469482422 91.9562530517578 92.4250030517578 93.9749984741211 95.1812515258789 95.7687530517578 97.03125 98.1374969482422 98.8937530517578 96.3375015258789 93.6500015258789 90.4375 87.8249969482422 87.8874969482422 89.2874984741211 92.8375015258789 96.9375 100.943748474121 103.231246948242 101.662498474121 97 90.4437484741211 84.0374984741211 78.5562515258789 74.8375015258789 70.6937484741211 66.6812515258789 62.4000015258789 59.1062507629395 56.3062515258789 53.5187492370605 51.4500007629395 50.7249984741211 51.2312507629395 51.7374992370605 52.9249992370605 53.8812484741211 54.8937492370605 54.9249992370605 53.0437507629395 50.9375 49.5812492370605 48.5437507629395 47.78125 47.2562484741211 44.1500015258789 39.9000015258789 36.1312484741211 32.3687515258789 
96.7937469482422 94.3874969482422 94.2125015258789 94.4124984741211 94.8562469482422 96.375 98.0500030517578 99.0250015258789 99.9875030517578 100.731246948242 100.818748474121 97.3125 93.2687530517578 89.1687469482422 85.375 85.1125030517578 87.0749969482422 90.8937530517578 95.1437530517578 98.9250030517578 100.518753051758 99.5812530517578 96.5124969482422 91.4875030517578 86.5875015258789 81.7937469482422 77.5374984741211 73 68.5625 63.7062492370605 59.7937507629395 56.3687477111816 53.4000015258789 51.0062484741211 49.59375 49.8812484741211 50.9375 52.625 53.7249984741211 53.4437484741211 51.8812484741211 50.96875 50.5437507629395 50.1437492370605 48.2437515258789 47.0062484741211 45.8125 43.3125 40.0750007629395 36.21875 32.09375 
97.8375015258789 95.5749969482422 95.9625015258789 96.3562469482422 97.0500030517578 98.96875 100.462501525879 101.618751525879 102.925003051758 103.962501525879 103.3125 98.8937530517578 93.9875030517578 88.5812530517578 84.2624969482422 82.0625 85.25 90.1062469482422 94.25 97.78125 99.5374984741211 99.2312469482422 96.90625 92.8249969482422 88.8312530517578 85.3000030517578 81.3499984741211 76.3375015258789 70.6624984741211 64.9812469482422 60.5125007629395 56.8375015258789 53.3125 50.8687515258789 48.6937484741211 49.4812507629395 51.0437507629395 51.4124984741211 51.7437515258789 50.96875 50.1875 50.25 50.2374992370605 48.9937515258789 48.0374984741211 47.0625 46.0562515258789 43.0062484741211 39.5250015258789 36.2374992370605 32.40625 
98.4625015258789 96.84375 97.2062530517578 97.8562469482422 99.03125 101.099998474121 103.206253051758 104.512496948242 105.887496948242 106.612503051758 106.087501525879 101.306251525879 95.5625 89.84375 85.9187469482422 84.0437469482422 85.0625 89.2562484741211 93.9499969482422 97.8562469482422 99.5749969482422 99.5124969482422 97.65625 93.75 90.5749969482422 88.5749969482422 85.78125 79.4562530517578 72.0437469482422 65.9312515258789 61.40625 58.2999992370605 54.2062492370605 51.1749992370605 50.4500007629395 52.03125 52.2625007629395 52.8125 52.9749984741211 51.2562484741211 50.3375015258789 50.5750007629395 49.6500015258789 49.2374992370605 48.3250007629395 47.2000007629395 45.9625015258789 43.2437515258789 40.3125 36.9749984741211 33.5625 
97.3312530517578 95.9250030517578 96.7562484741211 97.8375015258789 98.9625015258789 101.793746948242 104.337501525879 105.887496948242 107.612503051758 108.587501525879 108.3125 103.831253051758 97.8000030517578 92.7937469482422 89.9437484741211 88.1875 88.0999984741211 89.4625015258789 94.8687515258789 99.0625 101.324996948242 100.449996948242 98.3874969482422 95.3125 93.0124969482422 91.3562469482422 90.2437515258789 82.4749984741211 73.21875 65.7687530517578 60.8250007629395 57.7062492370605 55.4749984741211 54.65625 54.2437515258789 53.2937507629395 53.7374992370605 54.125 52.9625015258789 52.6375007629395 51.4187507629395 51.0750007629395 50.4187507629395 49.8624992370605 48.9312515258789 47.84375 46.6500015258789 43.9437484741211 41.3125 37.84375 35.1500015258789 
95.6437530517578 94.8625030517578 95.9312515258789 97.3249969482422 98.9875030517578 101.974998474121 104.612503051758 106.956253051758 109.456253051758 111.425003051758 111.318748474121 106.918746948242 101.324996948242 96.8187484741211 93.7624969482422 92.2062530517578 91.84375 92.1374969482422 95.5374984741211 99.8812484741211 103.231246948242 103.900001525879 99.0437469482422 96.3812484741211 94.4812469482422 92.53125 89.6999969482422 82.6812515258789 74.0812530517578 66.0250015258789 60.1500015258789 58.6812515258789 59.0062484741211 57.8687515258789 56.1937484741211 56.0562515258789 55.6875 55.2125015258789 54.7312507629395 54.0250015258789 52.8624992370605 53.0062484741211 51.7312507629395 50.7062492370605 49.8499984741211 48.9874992370605 47.6875 45.2000007629395 42.2687492370605 38.5 36.9500007629395 
93.90625 93.5875015258789 94.7937469482422 96.6187515258789 98.6624984741211 102.168746948242 105.412498474121 108.21875 111.637496948242 114.550003051758 115.693748474121 112.018753051758 106.925003051758 101.849998474121 98.7687530517578 96.3375015258789 94.1750030517578 95.6437530517578 98.2125015258789 101.743751525879 103.087501525879 101.849998474121 99.8874969482422 97.2750015258789 94.5875015258789 91.0187530517578 86.84375 81.8687515258789 74.2624969482422 66.8812484741211 62.2937507629395 62.7062492370605 62.0187492370605 61.1937484741211 59.8375015258789 58.9312515258789 58.2874984741211 57.7062492370605 56.7750015258789 55.5999984741211 54.4000015258789 54.0562515258789 52.8062515258789 51.8375015258789 51.0374984741211 50.3687515258789 48.8375015258789 46.21875 43.3624992370605 39.9312515258789 38.2374992370605 
92.9000015258789 93.3562469482422 95.4000015258789 97.6624984741211 99.78125 103.737503051758 107.943748474121 111.637496948242 115.787498474121 118.925003051758 120.65625 118.1875 114.287498474121 109.125 105.518753051758 101.793746948242 98.78125 98.4375 100.650001525879 102.256248474121 103.3125 102.837501525879 100.9375 98.4375 95.8062515258789 92.2437515258789 87.875 81.8562469482422 75.6062469482422 71.9937515258789 69.5062484741211 69.2937469482422 67.4937515258789 65.8062515258789 64.1812515258789 63.5374984741211 62.2312507629395 60.9812507629395 59.4500007629395 57.9437484741211 56.1500015258789 55.28125 54.0999984741211 52.7312507629395 51.8687515258789 50.9187507629395 49.6312484741211 47.2625007629395 44.1437492370605 41.6749992370605 39.7562484741211 
92.5999984741211 92.6937484741211 95.3312530517578 98.1999969482422 101.137496948242 105.5 110.418746948242 114.793746948242 119.981246948242 123.96875 126.393753051758 125.668746948242 123.09375 118.431251525879 113.737503051758 109.025001525879 105.762504577637 104.043746948242 104.050003051758 104.662498474121 103.381248474121 102.068748474121 100.699996948242 98.0562515258789 95.0124969482422 91.65625 88.6624984741211 83.8625030517578 79.4875030517578 77.3874969482422 75.4187469482422 75.1749954223633 72.8499984741211 71.2375030517578 69.8187484741211 68.6750030517578 67.0124969482422 65.125 62.5812492370605 60.4937515258789 58.1375007629395 56.7374992370605 55.3250007629395 53.9812507629395 53.15625 51.8375015258789 50.4749984741211 48.0687484741211 45.625 43.6124992370605 41.6124992370605 
92.5437469482422 93.3874969482422 96.15625 99.3812484741211 102.8125 107.268753051758 112.050003051758 117.618751525879 123.775001525879 128.25 131.981246948242 132.90625 133.793746948242 130.225006103516 122.987503051758 116.400001525879 111.787498474121 109.181251525879 107.556251525879 106.543746948242 104.5 102.293746948242 100.112503051758 97.3125 94.8874969482422 92.15625 89.3562469482422 86.1500015258789 82.5562515258789 81.3937530517578 80.9562530517578 81.0999984741211 79.125 77.2874984741211 75.3062515258789 73.9437484741211 71.90625 68.8312530517578 65.5437469482422 62.7750015258789 60.1875 58.2874984741211 56.5250015258789 54.9312515258789 53.9187507629395 53.03125 51.65625 49.3125 46.9249992370605 45.2437515258789 43.6875 
93.3812484741211 94.5374984741211 97.4437484741211 100.268753051758 103.881248474121 108.762496948242 113.793746948242 119.556251525879 125.293746948242 130.274993896484 134.712493896484 138.962493896484 142.53125 138.912506103516 130.087493896484 122.512496948242 116.912498474121 113.556251525879 110.787498474121 108.28125 105.743751525879 103.118751525879 100.21875 97.53125 95.2562484741211 92.6687469482422 91.6750030517578 88.4749984741211 86.1937484741211 85.9499969482422 86.90625 87.8062515258789 85.4562530517578 82.9187469482422 80.6437530517578 79.0437469482422 76.1500015258789 71.5562515258789 67.8125 64.5062484741211 61.4562492370605 59.5125007629395 57.7750015258789 56.15625 56.3375015258789 55.4812507629395 53.9874992370605 50.9625015258789 49.2437515258789 46.7750015258789 45.2687492370605 
95.7437515258789 96.5749969482422 99.3249969482422 102.15625 106.03125 110.300003051758 114.762496948242 119.962501525879 125.743751525879 130.824996948242 135.868743896484 139.4375 142.625 141.043746948242 133.84375 126.550003051758 120.712501525879 116.462501525879 113.15625 110.006248474121 106.800003051758 103.243751525879 100.581253051758 97.6812515258789 95.1687469482422 93.8187484741211 93.0124969482422 91.3687515258789 89.5999984741211 90.8375015258789 92.34375 93.75 91.0875015258789 88.0250015258789 84.8062515258789 81.6937484741211 77.9625015258789 72.7687530517578 69 65.71875 62.40625 60.4937515258789 59.1812515258789 58.0812492370605 58.1124992370605 57.7625007629395 55.4749984741211 53.6437492370605 51.3312492370605 48.9749984741211 47.3250007629395 
99.59375 100.481246948242 101.599998474121 104.46875 107.356246948242 110.9375 114.71875 119.262496948242 124.556251525879 129.612503051758 134.287506103516 138.231246948242 140.787506103516 140.581253051758 135.231246948242 129.137496948242 123.831253051758 119.431251525879 115.737503051758 112.293746948242 108.518753051758 104.631248474121 101.087501525879 97.5 95.6750030517578 95.0562515258789 95.25 94.6750030517578 93.9375 95.8812484741211 97.8187484741211 99.4562530517578 96.3562469482422 92.03125 87.9499969482422 83.5875015258789 78.6875 73.4375 70.0500030517578 66.6999969482422 63.5062484741211 61.6999969482422 60.0437507629395 59.3812484741211 60 59.0750007629395 58.8937492370605 56.8687515258789 54.1062507629395 52.0125007629395 49.9375 
103.09375 102.650001525879 103.324996948242 104.981246948242 106.775001525879 109.731254577637 113.893753051758 117.793746948242 122 126.925003051758 132.21875 136.600006103516 139.699996948242 140.768753051758 136.581253051758 130.862503051758 126.162498474121 122.268753051758 118.743751525879 114.956253051758 111.118751525879 107.1875 103.349998474121 100.025001525879 99.1125030517578 98.6812515258789 99.1062469482422 99.1374969482422 99.3812484741211 100.931251525879 103.293746948242 104.756248474121 100.824996948242 95.3375015258789 89.5124969482422 84.3687515258789 78.9625015258789 73.3249969482422 70.3375015258789 67.3062515258789 64.3375015258789 62.6062507629395 61.1375007629395 60.3125 61.1937484741211 62.40625 62.8125 60.3250007629395 57.9124984741211 55.0499992370605 52.875 
106.556251525879 104.724998474121 104.556251525879 104.943748474121 105.993751525879 108.306251525879 111.893753051758 115.806251525879 120.1875 124.912498474121 129.40625 134.368743896484 138.28125 140.337493896484 137.3125 132.53125 128.068756103516 124.949996948242 121.612503051758 118.193748474121 114.943748474121 111.175003051758 108.606246948242 106.0625 104.568748474121 103.606246948242 103.84375 104.318748474121 104.674995422363 106.162498474121 107.90625 109.125 104.0625 96.9875030517578 90.4625015258789 84.7437515258789 78.8874969482422 73.46875 70.1750030517578 67.9250030517578 65.6374969482422 64.2375030517578 61.8875007629395 60.9375 63.3250007629395 65.5374984741211 66.53125 64.8187484741211 62.0374984741211 58.7687492370605 55.9562492370605 
110.037498474121 106.849998474121 105.131248474121 104.581253051758 104.78125 106.650001525879 109.712501525879 113.3125 118.199996948242 122.6875 127.243751525879 132.34375 137.268753051758 140.143753051758 137.756256103516 134.518753051758 131.318756103516 127.993751525879 124.949996948242 121.949996948242 119.46875 116.493751525879 114.6875 112.831253051758 110.993751525879 109.556251525879 109.974998474121 110.0625 110.574996948242 111.224998474121 112.550003051758 112.881248474121 106.237503051758 98.2750015258789 91.125 84.9250030517578 78.8687515258789 73.0374984741211 69.8187484741211 67.2562484741211 65.5687484741211 64.1062469482422 62.5875015258789 63.0374984741211 66.4000015258789 68.90625 70.6437530517578 69.4000015258789 66.5187530517578 63.0125007629395 59.1875 
113.762496948242 109.28125 106.537498474121 104.09375 103.768753051758 105.512496948242 108.25 111.681251525879 116.425003051758 120.59375 125.256248474121 130.956253051758 136.53125 140.75 139.662506103516 137.712493896484 134.818756103516 132.600006103516 129.600006103516 126.931251525879 125.081253051758 123.831253051758 122.75 120.59375 118.78125 117.59375 117.712501525879 117.368751525879 117.1875 117.25 117.293746948242 116.443748474121 109.068748474121 100.918746948242 93.125 86.03125 79.1937484741211 73.3812484741211 69.1937484741211 66.0374984741211 63.9437484741211 64.4625015258789 64.3937530517578 65.6624984741211 67.8812484741211 71.8937530517578 74.7687530517578 74.4187469482422 71.8937530517578 68.3687515258789 64.1500015258789 
116.8125 111.362503051758 107.818748474121 104.675003051758 103.162498474121 105.074996948242 107.543746948242 110.40625 114.5 119.181251525879 124.143753051758 130.3125 136.850006103516 141.150009155273 141.587493896484 141.143753051758 140.206253051758 137.881256103516 134.675003051758 133.40625 132.681243896484 132.193756103516 131.71875 129.618743896484 127.331253051758 126.268753051758 125.668754577637 125.168746948242 124.324996948242 123 121.943748474121 120.143753051758 112.03125 103.881248474121 95.2249984741211 87.4375 80.25 74.3562469482422 69.4625015258789 64.21875 62.2999992370605 64.3312530517578 65.7750015258789 67.2624969482422 69.8562469482422 76.09375 80.3624954223633 80.34375 77.9875030517578 74.1437530517578 69.9812469482422 
119.675003051758 113.787498474121 109.731246948242 106.706253051758 105.143753051758 105.618751525879 107.449996948242 109.568748474121 113.487503051758 117.956253051758 123.074996948242 129.943740844727 136.793746948242 142.518753051758 144.96875 146.143753051758 146.40625 144.46875 142.262496948242 141.537506103516 141.512496948242 141.287506103516 140.943756103516 138.699996948242 136.90625 135.231246948242 133.925003051758 132.943756103516 131.34375 129.28125 127.025001525879 123.706253051758 115.28125 106.349998474121 97.9375 89.7562484741211 82.1437530517578 75.3312530517578 69.6937484741211 65.0875015258789 63.8125 66.4437484741211 68.6750030517578 71.6750030517578 75.6812515258789 84.15625 89.0749969482422 88.6125030517578 85.0124969482422 80.6999969482422 75.7562484741211 
123.818748474121 118.3125 114.143753051758 111.09375 109.037498474121 108.625 109.537498474121 111.006248474121 114.256248474121 118.362503051758 124.231246948242 131.087493896484 138.90625 146.706253051758 150.268753051758 153.168746948242 154.487503051758 154.350006103516 153.21875 152.706253051758 152.774993896484 152.012496948242 150.899993896484 148.606246948242 146.84375 144.887496948242 143.231246948242 141.643753051758 140.15625 136.893753051758 133.393753051758 129.043746948242 120.137496948242 110.793746948242 102.518753051758 94.3687515258789 86.8249969482422 79.4187469482422 73.8062515258789 70.9249954223633 69.5062484741211 71.78125 74.6999969482422 78.6999969482422 86.2624969482422 97.2937469482422 101.412498474121 97.3125 92.4625015258789 87.1937484741211 82.3562469482422 
127.693748474121 122.862503051758 118.724998474121 115.775001525879 113.0625 112.056251525879 111.668746948242 112.537498474121 115.318748474121 118.875 124.287498474121 132.649993896484 141.868743896484 150.162506103516 155.493743896484 160.293746948242 164.087493896484 164.875 164.649993896484 164.725006103516 164.362503051758 163.274993896484 161.824996948242 159.087493896484 157.068756103516 154.675003051758 153.006256103516 150.837493896484 148.881256103516 144.46875 139.824996948242 134.918746948242 125.712501525879 116.193748474121 107.831253051758 99.8312530517578 91.6687469482422 83.6062469482422 79.3687515258789 77.1937484741211 75.4250030517578 77.5437469482422 81.21875 85.8250045776367 94.3249969482422 104.574996948242 107.243751525879 102.662498474121 97.84375 92.8375015258789 88.3249969482422 
132.356246948242 128 123.96875 120.425003051758 117.525001525879 115.737503051758 114.306251525879 114.381248474121 115.737495422363 119.243751525879 125.099998474121 134.862503051758 145.293746948242 155.556243896484 163.018753051758 168.612503051758 174.331253051758 176.056243896484 176.506256103516 176.837493896484 176.587493896484 175.125 172.925003051758 169.3125 166.3125 164.162506103516 161.75 159.837493896484 157.268753051758 151.90625 146.625 140.693756103516 131.131256103516 122.018753051758 112.943748474121 104.356246948242 96.0500030517578 89.6437530517578 85.9437484741211 83.25 81.6374969482422 83.1437530517578 86.3000030517578 90.3125 97.2750015258789 103.268753051758 105.875 104.256248474121 100.893753051758 97.2750015258789 93.8062515258789 
139.318740844727 135.024993896484 131.106246948242 127.356246948242 124.224998474121 122.099998474121 120.162498474121 118.493751525879 118.59375 120.887496948242 127.381248474121 138.125 150.525009155273 162.581253051758 170.668746948242 178.600006103516 184.4375 187.137496948242 188.762496948242 190.356246948242 189.462493896484 186.131256103516 182.793746948242 178.975006103516 175.643753051758 172.899993896484 170.59375 168.868743896484 166.399993896484 159.631256103516 154.068756103516 147.375 138.262496948242 129.1875 119.625 111.15625 105.175003051758 99.0250015258789 95.0374984741211 92.6750030517578 91.2312469482422 92.03125 94.0374984741211 97.1125030517578 101.962501525879 105.481246948242 107.474998474121 107.162498474121 105.006248474121 102.368751525879 99.9749984741211 
146.618743896484 142.71875 139.131256103516 135.631256103516 132.21875 129.725006103516 126.849998474121 124.131248474121 122.568748474121 121.943748474121 129.793746948242 145.112503051758 158.387496948242 169.612503051758 178.856246948242 187.556243896484 194.475006103516 197.475006103516 199.737503051758 201.199996948242 199.462493896484 195.431243896484 191.574996948242 187.381256103516 183.743743896484 181.443756103516 178.506256103516 177.4375 174.568756103516 167.850006103516 161.199996948242 154.993743896484 145.668746948242 136.899993896484 127.537498474121 120.256248474121 114.71875 109.3125 105.768753051758 102.462501525879 100.300003051758 100.206253051758 101.206253051758 103.449996948242 106.84375 108.368751525879 109.8125 110.256248474121 109 106.84375 105.40625 
154.931243896484 150.943756103516 147.324996948242 144.137496948242 140.71875 138.09375 135.28125 132.331253051758 130.368743896484 128.412506103516 141.087493896484 157.918746948242 168.737503051758 178.59375 187.800003051758 196.743743896484 204.199996948242 206.956253051758 208.587493896484 208.293746948242 206.756256103516 203.212493896484 199.481246948242 194.587493896484 191.256256103516 189 186.181243896484 185.237503051758 182.850006103516 176.34375 167.512496948242 160.631256103516 152.25 143.975006103516 135.399993896484 129.581253051758 124.849998474121 119.71875 116.943748474121 113.881248474121 110.106246948242 109.456253051758 108.637496948242 109.025001525879 111.112503051758 112.068748474121 112.768753051758 113.993751525879 112.5625 111.206253051758 111.206253051758 
159.324996948242 155.862503051758 153.300003051758 150.637496948242 147.631256103516 145.675003051758 144.0625 142.649993896484 144.356246948242 151.175003051758 166.443756103516 174.418746948242 181.456253051758 189.800003051758 197.493743896484 205.050003051758 211.731246948242 213.993743896484 214.318756103516 214.087493896484 211.550003051758 207.612503051758 204.46875 200.412506103516 196.324996948242 194.256256103516 191.743743896484 190.550003051758 188.643753051758 182.368743896484 175.006256103516 168.375 160.800003051758 153.324996948242 147.675003051758 142.881256103516 137.65625 133.706253051758 130.487503051758 125.46875 121.131248474121 120.337501525879 118.199996948242 118.099998474121 119.668746948242 119.981246948242 118.868751525879 120.074996948242 119.275001525879 118.612503051758 118.943748474121 
163.09375 160.518753051758 158.662506103516 156.606246948242 155.15625 154.78125 154.237503051758 155.393753051758 159.850006103516 167.53125 177.975006103516 186.71875 193.543746948242 200.96875 207.631256103516 213.681243896484 219.831253051758 221.087493896484 220.787506103516 220.175003051758 216.393753051758 212.181243896484 208.050003051758 203.899993896484 201.1875 198.774993896484 196.34375 195.487503051758 193.668746948242 187.84375 181.206253051758 177.837493896484 173.050003051758 166.831253051758 162.462493896484 157.512496948242 152.112503051758 147.4375 144.212493896484 137.875 132.875 131.243743896484 128.612503051758 126.818748474121 127.4375 127.318748474121 126.931251525879 128.0625 127.862495422363 127.050003051758 127.118751525879 
166.96875 164.993743896484 164.012496948242 163.262496948242 162.443756103516 162.518753051758 163.59375 167.0625 171.9375 178.862503051758 187.193756103516 195.631256103516 204.21875 210.699996948242 216.818756103516 221.881256103516 226.837493896484 228.237503051758 227.28125 225.53125 221.018753051758 215.806243896484 210.925003051758 207.356246948242 206.306243896484 203.306243896484 200.75 199.556243896484 197.71875 192.862503051758 189.356246948242 189.125 184.943756103516 181.168746948242 178.018753051758 173.918746948242 168.456253051758 162.837493896484 158.168746948242 150.800003051758 144.587493896484 141.53125 137.462493896484 135.625 135.768753051758 136.225006103516 135.306243896484 135.193740844727 135.793746948242 135.637496948242 135.512496948242 
170.118743896484 168.743743896484 167.949996948242 167.206253051758 166.893753051758 167.162506103516 169.168746948242 172.418746948242 178.018753051758 183.6875 191.46875 199.53125 207.912506103516 214.887496948242 220.550003051758 226.762496948242 231.600006103516 233.024993896484 232.625 228.881256103516 221.975006103516 217.412506103516 212.131256103516 208.5 207.237503051758 204.975006103516 202.112503051758 200.618743896484 200.5 198.949996948242 194.037506103516 196.143753051758 194.712493896484 195.618743896484 195.550003051758 190.53125 185.393753051758 179.456253051758 172.706253051758 164.181243896484 156.706253051758 150.71875 145.962493896484 145.074996948242 145.65625 145.9375 144.193756103516 143.206253051758 144.043746948242 143.056243896484 142.631256103516 
173.699996948242 172.318756103516 171.699996948242 170.806243896484 169.881256103516 170.993743896484 173.15625 176.375 181.675003051758 187.125 194.043746948242 201.943756103516 210.631256103516 217.399993896484 223.956253051758 230.34375 235.168746948242 238.018753051758 237.768753051758 231.449996948242 223.006256103516 216.168746948242 211.256256103516 209.943756103516 208.5 206.324996948242 203.25 201.8125 202.125 201.243743896484 200.074996948242 199.074996948242 200.693756103516 206.443756103516 211.893753051758 212.581253051758 204.743743896484 197.337493896484 188.162506103516 178.068756103516 169.693756103516 163.34375 158.600006103516 156.175003051758 156.393753051758 155.193756103516 153.237503051758 152.25 152.456253051758 151.375 150.612503051758 
177.762496948242 176.856246948242 175.912506103516 174.324996948242 173.981246948242 174.512496948242 175.987503051758 179.149993896484 183.693756103516 189.631256103516 196.581253051758 204.824996948242 211.899993896484 219.993743896484 226.862503051758 233.193756103516 238.368743896484 241.1875 243.193756103516 236.481246948242 226.162506103516 217.40625 212.243743896484 210.3125 209.712493896484 207.712493896484 204.774993896484 204.25 203.78125 204.3125 203.512496948242 203.181243896484 204.918746948242 214.024993896484 226.381256103516 234.699996948242 226.831253051758 215.46875 204.03125 193.006256103516 183.981246948242 177.199996948242 171.574996948242 168.943756103516 167.912506103516 165.59375 163.793746948242 161.699996948242 160.15625 159.96875 159.193756103516 
183.399993896484 182.637496948242 181.725006103516 179.587493896484 178.918746948242 179.262496948242 179.518753051758 182.050003051758 186.100006103516 192 198.637496948242 206.125 213.15625 220.59375 227.181243896484 233.137496948242 237.587493896484 239.28125 240.368743896484 235.731246948242 226.943756103516 219.96875 213.550003051758 210.9375 210.8125 208.75 206.25 205.3125 205.59375 207.074996948242 206.90625 206.199996948242 210.137496948242 218.712493896484 230.706253051758 242.074996948242 238.587493896484 226.256240844727 214.787506103516 205.356246948242 195.962493896484 189.512496948242 184.324996948242 179.318756103516 178.356246948242 176.387496948242 173.46875 170.931243896484 167.518753051758 167.024993896484 166.875 
