ncols        51
nrows        45
xllcorner    -63.500000000000
yllcorner    -7.500000000000
cellsize     0.166666666667
NODATA_value -99
124.356246948242 116.837501525879 109.84375 104.775001525879 99.0500030517578 94.8625030517578 90.4562530517578 85.71875 82.7687530517578 80.3625030517578 79.4499969482422 79.5062484741211 80.3249969482422 80.4312515258789 81.7750015258789 83.375 85.2437515258789 86.1999969482422 88.0562515258789 89.9375 92.0875015258789 93.9562530517578 95.9875030517578 98.8937530517578 101.9375 104.96875 109.8125 115.150001525879 120.800003051758 127.050003051758 132.875 139.625 145.356246948242 150.725006103516 155.431259155273 158.693756103516 159.918746948242 160.537506103516 158.074996948242 155.6875 152.800003051758 149.168746948242 145.493743896484 141.106246948242 138.518753051758 134.112503051758 130.518753051758 126.318748474121 123.212501525879 120.018753051758 118.75 
126.306251525879 119.106246948242 114.275001525879 110.46875 106.506248474121 102.118751525879 97.2624969482422 93.9000015258789 92.03125 90.1875 88.9937515258789 88.4749984741211 88.9812469482422 89.3249969482422 90.3000030517578 91.6812515258789 93.4124984741211 95.3937454223633 97.8125 101.081253051758 103.337501525879 105.318748474121 108.03125 111.143753051758 114.400001525879 117.631248474121 122.087501525879 126.662498474121 131.693756103516 138.637496948242 145.006256103516 152.3125 157.137496948242 162.625 168.125 168.90625 171.412506103516 172.193756103516 168.668746948242 165.493743896484 161.912506103516 157.675003051758 153.46875 147.393753051758 143.506256103516 138.524993896484 134.71875 129.737503051758 125.793746948242 121.375 119.34375 
125.706253051758 119.71875 116.443748474121 113.824996948242 111.237503051758 107.84375 104.949996948242 103.15625 102.256248474121 100.974998474121 99.6125030517578 99.1062469482422 99.6875 100 100.974998474121 101.793746948242 103.481246948242 105.287498474121 107.818748474121 110.75 113.40625 116.21875 119.431251525879 122.65625 126.15625 130.425003051758 134.699996948242 138.762496948242 143.8125 149.637496948242 156.199996948242 163.399993896484 169.649993896484 173.856246948242 178.643753051758 180.625 181.587493896484 181.681243896484 178.8125 175.34375 171.137496948242 165.981246948242 160.149993896484 154.787506103516 149.331253051758 142.868743896484 138.425003051758 133.625 128.225006103516 122.737503051758 120.168746948242 
123.574996948242 119.349998474121 118.400001525879 116.46875 115.543746948242 113.887496948242 112.849998474121 112.618751525879 112.612503051758 112.681251525879 111.78125 111.400001525879 111.456253051758 111.800003051758 112.306251525879 113.287498474121 114.65625 115.543746948242 117.831253051758 121.512496948242 124.793746948242 127.949996948242 130.706253051758 134.537506103516 138.106246948242 143.068756103516 147.300003051758 150.537506103516 155.574996948242 161.962493896484 167.981246948242 173.943756103516 180.462493896484 185.962493896484 190.006256103516 191.300003051758 191.037506103516 191.037506103516 188.96875 185.074996948242 179.762496948242 173.8125 167.193756103516 161.537506103516 155.100006103516 148.324996948242 142.256256103516 136.725006103516 131.125 124.849998474121 120.668746948242 
126.856246948242 120.862503051758 118.699996948242 118.84375 119.643753051758 120.03125 120.349998474121 121.456253051758 123.362503051758 124.637496948242 123.818748474121 123.037498474121 123.612503051758 124.199996948242 124.40625 125.087501525879 125.987503051758 126.637496948242 128.962493896484 133.09375 136.887496948242 139.581253051758 142.456253051758 146.550003051758 150.518753051758 155.975006103516 158.800003051758 161.762496948242 166.399993896484 173.03125 179.324996948242 184.5625 190.193756103516 195.59375 199.637496948242 201.112503051758 201.600006103516 200.918746948242 198.6875 194.331253051758 188.518753051758 181.59375 174.712493896484 167.243743896484 160.75 153.268753051758 145.487503051758 139.393753051758 133.03125 127.237503051758 121.21875 
129.793746948242 124.806251525879 122.068748474121 120.331253051758 122.043746948242 124.375 126.118751525879 127.618751525879 129.71875 131.487503051758 131.256256103516 131.3125 132.84375 133.918746948242 135.28125 136.40625 137.931243896484 138.206253051758 141.787506103516 145.425003051758 148.181243896484 151.431243896484 154.037490844727 157.943756103516 161.912506103516 166.356246948242 170.118743896484 172.8125 176.331253051758 182.481246948242 188.831253051758 194.868743896484 198.006256103516 201.462493896484 207.125 208.71875 208.762496948242 209.862503051758 208.056243896484 202.393753051758 194.012496948242 186.881256103516 178.568756103516 171.693756103516 165.71875 157.293746948242 148.25 140.487503051758 135.21875 128.824996948242 122.662498474121 
134.068756103516 129.5625 127.275001525879 125.268753051758 125.443748474121 127.46875 130.012496948242 131.875 133.393753051758 134.331253051758 136.59375 138.324996948242 141.649993896484 143.675003051758 145.768753051758 148.03125 151.15625 154.46875 158.46875 160.5625 161.693756103516 164.287506103516 166.0625 169.024993896484 173.40625 177 179.768753051758 183.581253051758 186.837493896484 191.931243896484 197.712493896484 203.087493896484 206.543746948242 208.831253051758 212.199996948242 213.21875 214.306243896484 215.337493896484 216.112503051758 209.068740844727 198.912506103516 190.3125 182.568756103516 174.90625 167.887496948242 160.356246948242 152.143753051758 143.387496948242 136.637496948242 130.212493896484 124.618751525879 
138.524993896484 134.274993896484 132.568756103516 132.050003051758 132.625 133.824996948242 134.587493896484 134.350006103516 134.268753051758 136.693756103516 141.574996948242 146.15625 150.21875 154.337493896484 156.943756103516 160.262496948242 164.112503051758 169.706253051758 174.637496948242 174.0625 174.037506103516 175.024993896484 176.199996948242 178.368743896484 183.162506103516 187.337493896484 189.287506103516 192.337493896484 196.949996948242 202.175003051758 205.862503051758 210.375 213.475006103516 214.774993896484 217.962509155273 216.818756103516 217.306243896484 217.206253051758 215.768753051758 209.625 201.0625 192.512496948242 184.837493896484 176.949996948242 168.518753051758 162.925003051758 156.131256103516 147.050003051758 139.118743896484 132.337493896484 124.743751525879 
144.412506103516 140.75 139.75 139.699996948242 139.993743896484 141.662506103516 142.337493896484 141.368743896484 139.21875 140.512496948242 147.106246948242 153.231246948242 158.449996948242 162.762496948242 165.824996948242 169.225006103516 173.256256103516 179.03125 183.850006103516 182.712493896484 180.887496948242 181.78125 183.493743896484 187.524993896484 191.618743896484 195.318756103516 197.137496948242 200.40625 204.018753051758 207.875 212.449996948242 215.125 216.96875 218.681243896484 220.181243896484 218.981246948242 217.300003051758 215.081253051758 212.181243896484 207.300003051758 199.100006103516 191.600006103516 185.425003051758 178.743743896484 171.774993896484 164.925003051758 159.037506103516 149.837493896484 141.268753051758 134.09375 128.237503051758 
149.543746948242 146.837509155273 146.5625 147.399993896484 147.993743896484 149.868743896484 151.0625 151.006256103516 151.137496948242 152.862503051758 157.524993896484 161.84375 167.675003051758 171.125 174.506256103516 177.481246948242 180.574996948242 184.206253051758 187 187.087493896484 186.331253051758 187.412506103516 189.78125 194.756256103516 198.543746948242 202 203.9375 206.699996948242 210.568756103516 213.643753051758 216.137496948242 218.074996948242 218.862503051758 219.15625 220.46875 220.143753051758 217.199996948242 213.850006103516 209.199996948242 204.043746948242 197.487503051758 191.756256103516 185.237503051758 179.262496948242 173.662506103516 168.612503051758 160.587493896484 151.137496948242 142.675003051758 135.6875 127.587501525879 
155.737503051758 153.524993896484 153.300003051758 153.887496948242 155.612503051758 158.818756103516 160.868743896484 161.068756103516 161.868743896484 164.449996948242 168.649993896484 172.949996948242 177.237503051758 180.631256103516 182.78125 185.050003051758 186.712493896484 188.768753051758 189.731246948242 189.712493896484 191.143753051758 192.956253051758 196.09375 199.106246948242 205.774993896484 209.600006103516 210.568756103516 211.5625 213.243743896484 215.662506103516 217.462493896484 219.431243896484 219.793746948242 219.693756103516 220.03125 218.337493896484 215.306259155273 211.649993896484 208.206253051758 202.737503051758 196.587493896484 191.168746948242 186.206253051758 181.418746948242 175.699996948242 172.412506103516 162.100006103516 150.831253051758 141.699996948242 132.75 124.65625 
161.806243896484 159.625 159.824996948242 161.293746948242 163.225006103516 166.862503051758 170.006256103516 170.987503051758 172.225006103516 175.699996948242 180.143753051758 184.518753051758 186.71875 188.893753051758 190.637496948242 191.306243896484 191.993743896484 192.131256103516 192.274993896484 192.493743896484 193.537506103516 196.643753051758 201.912506103516 206.024993896484 212.137496948242 215.899993896484 215.393753051758 214.662506103516 214.518753051758 215.981246948242 216.918746948242 218.381256103516 218.462493896484 218.71875 219.199996948242 217.637496948242 214.462493896484 211.131256103516 207.074996948242 201.84375 195.887496948242 191.081253051758 186.487503051758 181.725006103516 174.712493896484 166.606246948242 156.9375 148.050003051758 139.881256103516 132.743743896484 123.543746948242 
167.668746948242 166.100006103516 166.806243896484 168.106246948242 170.556259155273 173.893753051758 176.837509155273 179.149993896484 181.268753051758 185.524993896484 190.493743896484 194.618743896484 196.206253051758 196.243743896484 197.606246948242 197.568756103516 197.118743896484 197.287506103516 196.75 195.84375 195.193740844727 199.737503051758 207.543746948242 212.712493896484 216.649993896484 218.793746948242 217.818756103516 216.837493896484 216.100006103516 215.050003051758 214.868743896484 215.175003051758 214.824996948242 215.5 216.34375 216.024993896484 214.100006103516 211.100006103516 206.8125 200.600006103516 194.1875 190.800003051758 185.568756103516 177.75 170.587493896484 164.53125 155.050003051758 145.024993896484 136.431243896484 131.212493896484 124.59375 
172.362503051758 171.112503051758 171.9375 173.65625 175.831253051758 179.212493896484 182.3125 186.112503051758 189.949996948242 193.975006103516 197.712493896484 201.050003051758 203.143753051758 203.537506103516 203.193756103516 203.949996948242 202.912506103516 202.162506103516 201.21875 200.431243896484 201.675003051758 206.287506103516 213.087493896484 216.987503051758 220.112503051758 222.106246948242 221.324996948242 218.074996948242 215.399993896484 212.84375 211.475006103516 210.381256103516 210.675003051758 211.21875 213.175003051758 213.524993896484 213 212.181243896484 209.206253051758 204.456253051758 195.300003051758 187.581253051758 181.443756103516 176.3125 170.943756103516 162.887496948242 156.21875 147.581253051758 137.59375 130.612503051758 126.268753051758 
176.0625 174.962493896484 176.493743896484 178.337493896484 180.956253051758 184.362503051758 188.649993896484 192.84375 196.787506103516 200.337493896484 203.868743896484 207.15625 208.737503051758 209.706253051758 209.056243896484 209.631256103516 207.818756103516 206.774993896484 205.693756103516 206.418746948242 208.5 213.112503051758 218.493743896484 221.212493896484 223.850006103516 225.018753051758 223.193756103516 219.40625 215.149993896484 209.737503051758 206.018753051758 204.662506103516 205.225006103516 206.806243896484 209.699996948242 209.762496948242 211.806243896484 214.918746948242 216.681243896484 212.012496948242 201.243743896484 192.149993896484 184.943756103516 178.84375 170.412506103516 162.112503051758 153.8125 147.074996948242 139.824996948242 131.675003051758 125.068748474121 
178.399993896484 177.856246948242 179.837493896484 182.600006103516 185.53125 189.581253051758 194.100006103516 197.800003051758 201.862503051758 206.481246948242 209.725006103516 212.525009155273 214.287506103516 215.175003051758 215.050003051758 213.631256103516 211.737503051758 211.71875 210.762496948242 211.412506103516 215.037506103516 219.318756103516 224.256256103516 225.850006103516 227.96875 229.887496948242 227.012496948242 221.824996948242 215.09375 206.418746948242 200.568756103516 197.081253051758 196.25 197.943756103516 200.287506103516 202.375 207.693756103516 215.412506103516 222.518753051758 219.78125 209.068756103516 197.875 188.112503051758 177.787506103516 169.806243896484 161.912506103516 154.543746948242 147.600006103516 139.40625 131.506256103516 124.162498474121 
179.987503051758 180.137496948242 181.637496948242 185.206253051758 189.09375 193.037506103516 198.149993896484 203.193756103516 208.056243896484 212.149993896484 215.462493896484 217.606246948242 219.225006103516 220.043746948242 220.087493896484 218.175003051758 214.53125 214.649993896484 215.243743896484 216.09375 220.443740844727 225.262496948242 230.21875 230.8125 232.643753051758 235.125 232.40625 224.824996948242 213.537506103516 201.993743896484 194.043746948242 190.143753051758 187.443756103516 185.418746948242 185.912506103516 190.212493896484 200.231246948242 216.056243896484 234.456253051758 228.28125 214.443756103516 200.850006103516 187.449996948242 177.53125 169.137496948242 161.412506103516 154.581253051758 147.40625 140.537506103516 133.112503051758 126.681251525879 
179.850006103516 180.668746948242 182.806243896484 187.074996948242 191.587493896484 196.8125 202.125 206.975006103516 211.912506103516 217.068756103516 221.118743896484 223.106246948242 223.768753051758 224.40625 223.893753051758 221.587493896484 217.981246948242 215.068756103516 217.6875 218.881256103516 224.668746948242 230.024993896484 234.756256103516 235.675003051758 237.28125 239.78125 238.481246948242 227 211.206253051758 195.768753051758 185.199996948242 180.106246948242 179.231246948242 178.6875 175.737503051758 173.0625 190.693756103516 211.412506103516 225.699996948242 223.931243896484 210.643753051758 197.487503051758 186.293746948242 177.418746948242 169.262496948242 162.631256103516 156.149993896484 149.481246948242 142.762496948242 136.40625 131.606246948242 
178.506256103516 179.831253051758 183.15625 188.050003051758 193.306243896484 199.25 204.943756103516 211.162506103516 216.668746948242 222.137496948242 225.431243896484 226.4375 227.75 228.931243896484 227.681243896484 224.84375 221.324996948242 218.287506103516 217.381256103516 219.475006103516 227.399993896484 235.78125 237.993743896484 239.668746948242 242.018753051758 243.881256103516 240.15625 228.756256103516 211.337493896484 192.112503051758 177.331253051758 176.331253051758 179.15625 178.412506103516 174.856246948242 175.71875 189.274993896484 203.981246948242 214.368743896484 212.949996948242 203.324996948242 192.587493896484 183.431243896484 176.475006103516 170 164.074996948242 157.512496948242 152.043746948242 146.300003051758 139.537506103516 137.09375 
176.324996948242 178.4375 181.962493896484 187.53125 193.868743896484 201.125 208.056243896484 214.931243896484 221.262496948242 225.90625 229.774993896484 232.043746948242 233.581253051758 233.537506103516 230.887496948242 226.268753051758 221.850006103516 220.412506103516 219.84375 221.456253051758 227.574996948242 234.03125 240.543746948242 243.0625 245.199996948242 246.149993896484 241.3125 231.9375 215.893753051758 196.506256103516 183.631256103516 182.806243896484 184.487503051758 185.887496948242 186.887496948242 188.068756103516 195.574996948242 204.28125 209.050003051758 206.931243896484 198.487503051758 187.506256103516 181.46875 176.581253051758 171.137496948242 165.862503051758 160.618759155273 156.018753051758 150.993743896484 145.268753051758 142.550003051758 
173.487503051758 177.037506103516 181.931243896484 188.068756103516 195.175003051758 203.350006103516 211.231246948242 218.737503051758 225.662506103516 230.774993896484 233.881256103516 235.71875 236.712493896484 235.787506103516 232.65625 227.850006103516 223.162506103516 220.481246948242 220.481246948242 221.237503051758 227.725006103516 234.662506103516 241.018753051758 244.524993896484 248.956253051758 251.675003051758 247.893753051758 237.681243896484 223.949996948242 210.225006103516 199.862503051758 196.09375 195.306243896484 196.550003051758 198.375 200.381256103516 204.712493896484 209.412506103516 211.043746948242 207.762496948242 200.1875 191.081253051758 184.375 178.518753051758 173.337493896484 168.84375 164.71875 160.96875 156.15625 152.824996948242 149.237503051758 
170.731246948242 173.887496948242 180.125 188.418746948242 196.893753051758 205.59375 214.625 223.243743896484 230.012496948242 234.868743896484 237.050003051758 237.893753051758 237.987503051758 236.21875 233.543746948242 229.512496948242 225.625 223.425003051758 222.475006103516 222.462493896484 226.118743896484 232.300003051758 239.512496948242 243.3125 248.518753051758 254.856246948242 256.181243896484 247.887496948242 235.762496948242 224.581253051758 215.518753051758 210.337493896484 207.512496948242 207.712493896484 207.899993896484 209.024993896484 213.225006103516 218.356246948242 218.5 212.956253051758 205.324996948242 196.481246948242 189.024993896484 182.612503051758 177.449996948242 173.506256103516 169.631256103516 166.556243896484 163.8125 162.100006103516 157.737503051758 
168.649993896484 173.106246948242 179.4375 188.175003051758 198.043746948242 208.28125 217.693756103516 227.462493896484 235.443756103516 239.199996948242 240.350006103516 239.46875 239.350006103516 237.568756103516 234.756256103516 231 227.087493896484 224.512496948242 223.25 221.899993896484 224.40625 228.899993896484 234.231246948242 238.487503051758 245.225006103516 254.793746948242 260.556243896484 254.831253051758 244.449996948242 235.931243896484 228.962493896484 223.993743896484 220.737503051758 218.5 216.956253051758 215.337493896484 219.962493896484 228.862503051758 228.300003051758 220.537506103516 211.5625 202.050003051758 194.118743896484 187.15625 181.225006103516 177.806243896484 174.243743896484 173.175003051758 172.831253051758 171.818756103516 167.600006103516 
167.831253051758 171.9375 178.337493896484 187.787506103516 198.925003051758 209.75 220.356246948242 230.03125 237.449996948242 240.375 241.293746948242 240.993743896484 240.75 239.46875 236.40625 232.550003051758 228.875 226.34375 224.231246948242 222.112503051758 222.287506103516 224.756256103516 227.600006103516 231.987503051758 238.443756103516 247.393753051758 253.412506103516 253.043746948242 249.162506103516 244.068756103516 240.162506103516 235.756256103516 233.368743896484 230.5 228.168746948242 224.181243896484 227.774993896484 236.381240844727 235.649993896484 227.618743896484 217.818756103516 208.181243896484 199.318756103516 191.556243896484 186.324996948242 182.524993896484 179.943756103516 178.59375 182.46875 184.081253051758 180.65625 
169.356246948242 172.606246948242 178.556243896484 190.206253051758 203.331253051758 213.581253051758 223.425003051758 231.71875 237.606246948242 241.1875 242.600006103516 242.118743896484 241.706253051758 240.456253051758 237.824996948242 234.331253051758 230.65625 228.074996948242 225.306259155273 222.356246948242 220.568756103516 219.981246948242 220.768753051758 223.78125 230.443756103516 240.09375 246.9375 250.25 250.806243896484 250.143753051758 249.381256103516 246.993743896484 245.693756103516 243.162506103516 239.8125 237.212493896484 239.737503051758 242.8125 240.931243896484 234.393753051758 224.731246948242 214.768753051758 204.850006103516 197.637496948242 190.199996948242 186.556243896484 182.550003051758 185.537506103516 189 196.356246948242 194.012496948242 
174.625 179.75 186.15625 197.46875 208.737503051758 217.925003051758 225.987503051758 232.975006103516 238.043746948242 240.956253051758 242.21875 242.5625 242.09375 241.043746948242 239.162506103516 236.137496948242 232.3125 229.600006103516 226.512496948242 222.818756103516 220.537506103516 216.800003051758 213.856246948242 214.324996948242 222.881256103516 234.118759155273 243.106246948242 248.90625 252.556243896484 254.856246948242 256.512512207031 258.081237792969 258.575012207031 255.675003051758 252.850006103516 250.181243896484 251.0625 252.0625 249.21875 243.274993896484 233.887496948242 221.649993896484 209.756256103516 200.774993896484 194.112503051758 189.106246948242 192.1875 196.037506103516 197.425003051758 200.618743896484 197 
180.181243896484 185.787506103516 194.006256103516 204.581253051758 214.506256103516 222.143753051758 228.012496948242 233.237503051758 236.693740844727 239.899993896484 242.456253051758 243.112503051758 242.637496948242 242.231246948242 240.831253051758 238.681243896484 235.600006103516 233.050003051758 230.024993896484 225.5 221.96875 216.899993896484 211.756256103516 209.800003051758 219.71875 231.162506103516 240.762496948242 247.768753051758 253.84375 257.825012207031 262.09375 266.09375 269.199981689453 266.9375 264.493743896484 262.643737792969 261.987487792969 261.850006103516 258.712493896484 253.699996948242 244.899993896484 230.03125 214.3125 203.581253051758 201.887496948242 204.556243896484 208.024993896484 208.71875 208.668746948242 206.337493896484 200.756256103516 
186.556243896484 192.737503051758 201.993743896484 212.100006103516 220.675003051758 226.774993896484 231.074996948242 233.993743896484 236.28125 238.662506103516 240.6875 241.818756103516 242.943756103516 243.418746948242 242.675003051758 240.756256103516 238.800003051758 236.293746948242 233.712493896484 229.537506103516 225.931243896484 221.362503051758 218.300003051758 217.806243896484 224.056243896484 233.162506103516 241.168746948242 247.756256103516 254 259.056243896484 263.956237792969 268.3125 272.274993896484 273.318756103516 273.087493896484 272.112487792969 272.037506103516 272.262512207031 270.21875 266.887512207031 259.6875 243.081253051758 220.431243896484 207.925003051758 213.9375 221.28125 225.8125 225.068756103516 221.356246948242 215.762496948242 208.237503051758 
192.074996948242 199.056243896484 209.350006103516 220.193756103516 227.512496948242 230.893753051758 232.887496948242 234.3125 235.618743896484 236.856246948242 239.15625 241.28125 243 244.581253051758 244.168746948242 243.899993896484 242.768753051758 240.981246948242 238.693740844727 235.106246948242 231.756256103516 228.21875 226.743743896484 226.168746948242 230.475006103516 237.225006103516 243.612503051758 249.456253051758 255.4375 260.068756103516 264.662506103516 268.71875 273.581237792969 276.493743896484 278.887512207031 279.756256103516 281.28125 282.137512207031 280.368743896484 278.918762207031 275.225006103516 256.34375 232.962493896484 223.543746948242 230.037506103516 237.237503051758 242.625 240.28125 235.34375 227.21875 217.050003051758 
198.274993896484 205.018753051758 216.081253051758 227.8125 235.475006103516 234.875 233.787506103516 233.8125 233.975006103516 234.4375 236.631256103516 238.868743896484 242.331253051758 245.537506103516 246.306243896484 246.356246948242 246.475006103516 246.893753051758 245.381256103516 241.918746948242 238.487503051758 235.643753051758 233.8125 233.524993896484 236.643753051758 241.824996948242 245.581253051758 250.862503051758 255.71875 260.318756103516 264.818756103516 268.825012207031 274.887512207031 279.056243896484 282.950012207031 284.681243896484 287.262512207031 288.875 287.950012207031 286.368743896484 281.706237792969 268.887512207031 251.893753051758 243.987503051758 243.125 252.162506103516 258.962493896484 258.53125 251.487503051758 240.53125 228.199996948242 
202.893753051758 209.037506103516 218.837493896484 229.956253051758 236.162506103516 233.637496948242 231.556243896484 230.231246948242 229.643753051758 230.987503051758 233.350006103516 236.637496948242 241.3125 245.356246948242 246.931243896484 248.481246948242 250.618743896484 251.206253051758 251.5625 248.706253051758 245.074996948242 242.243743896484 240.800003051758 240.03125 241.681243896484 245.118743896484 247.975006103516 252.018753051758 255.962493896484 260.90625 265.299987792969 269.362487792969 275.443756103516 281.037506103516 285.756256103516 288.912506103516 292.868743896484 295.575012207031 294.606262207031 291.868743896484 288.887512207031 280.893737792969 270.237487792969 260.787506103516 257.075012207031 272.006256103516 282.006256103516 280.962493896484 271.081237792969 256.637512207031 241.34375 
206.6875 210.837493896484 218.087493896484 224.418746948242 227.25 226.862503051758 225.631256103516 223.893753051758 224.056243896484 225.368743896484 228.537506103516 233.425003051758 239.5 244.6875 248.168746948242 251 252.5625 253.381256103516 253.943756103516 252.206253051758 249.71875 247.34375 245.512496948242 244.331253051758 246.28125 248.356246948242 249.806243896484 252.949996948242 256.40625 261.487487792969 265.893737792969 270.225006103516 275.4375 281.575012207031 287.606262207031 292.850006103516 296.975006103516 300.137512207031 299.881256103516 298.424987792969 299.118743896484 296.225006103516 291.643737792969 287.018737792969 286.84375 307.174987792969 317.237487792969 309.587493896484 293.068756103516 273.443756103516 254.699996948242 
212.518753051758 213.975006103516 217.362503051758 220.96875 222.043746948242 221.268753051758 219.112503051758 216.78125 216.818756103516 218.868743896484 224.543746948242 230.550003051758 238.362503051758 246.162490844727 250.237503051758 252.975006103516 254.368743896484 256.03125 255.181243896484 254.03125 252.3125 250.9375 249.449996948242 247.824996948242 249.012496948242 251.024993896484 251.918746948242 253.256256103516 256.549987792969 261.137512207031 266.056243896484 270.568756103516 276.043762207031 282.149993896484 288.5 293.993743896484 298.962493896484 303.162506103516 303.931243896484 307.225006103516 309.8125 311.174987792969 313.8125 319.649993896484 333.293762207031 360.862487792969 362.1875 339.125 313.518737792969 289.537506103516 267.956237792969 
217.818756103516 216.975006103516 218.006256103516 218.356246948242 216.662506103516 214.862503051758 212.393753051758 209.506256103516 209.199996948242 211.393753051758 217.3125 227.012496948242 237.456253051758 246.012496948242 251.3125 254.362503051758 256.631256103516 258.1875 256.799987792969 255.693756103516 254.425003051758 253.074996948242 251.449996948242 249.925003051758 250.175003051758 251.512496948242 252.606246948242 253.90625 257 260.912506103516 265.649993896484 270.806243896484 276.318756103516 282.506256103516 288.412506103516 293.96875 300.087493896484 303.975006103516 308.125 313.856262207031 319.299987792969 324.424987792969 332.274993896484 345.21875 364.412506103516 391.1875 388.799987792969 359.799987792969 331.299987792969 303.575012207031 279.84375 
222.481246948242 220.262496948242 218.987503051758 216.475006103516 213.168746948242 209.899993896484 206.043746948242 202.274993896484 200.637496948242 202.987503051758 210.625 222.918746948242 237.012496948242 248.581253051758 254.443756103516 257.774993896484 259.618743896484 260.274993896484 259.325012207031 256.90625 256.387512207031 254.350006103516 253.550003051758 251.443756103516 250.6875 251.606246948242 252.393753051758 253.956253051758 256.600006103516 260.53125 265.381256103516 270.53125 276.293762207031 282.712493896484 288.393737792969 293.368743896484 298.84375 305.237487792969 311.537506103516 317.6875 325.34375 332.475006103516 342.549987792969 356.831237792969 373.087493896484 384.431243896484 382.875 362.924987792969 337.318756103516 312.700012207031 290.012512207031 
228.350006103516 225.106246948242 222.175003051758 218.449996948242 213.693756103516 209.362503051758 203.75 198.006256103516 194.475006103516 194.693756103516 203.699996948242 219.9375 237.925003051758 251.337493896484 258.174987792969 261.8125 263.381256103516 263.412506103516 261.075012207031 257.8125 256.625 255.543746948242 253.699996948242 251.568756103516 251.112503051758 251.425003051758 252.418746948242 253.75 256.03125 260.262512207031 265.456237792969 270.09375 275.950012207031 281.493743896484 286.625 290.681243896484 297.575012207031 303.881256103516 309.924987792969 316.731231689453 324.712493896484 333.287506103516 342.5 355.125 366.387512207031 373.231262207031 371.068756103516 356.912506103516 337.793762207031 317.206237792969 297.375 
234 230.15625 226.381256103516 222.087493896484 216.918746948242 211.768753051758 205.675003051758 197.975006103516 190.987503051758 185.96875 198.637496948242 223.21875 242.162506103516 254.9375 262.193756103516 265.90625 267.631256103516 266.443756103516 263.762512207031 259.743743896484 257.53125 255.399993896484 253.162506103516 251 250.018753051758 250.462493896484 251.03125 253.262496948242 256.081237792969 260.418762207031 265.225006103516 269.631256103516 275.024993896484 280.575012207031 284.9375 290.112487792969 296.243743896484 301.924987792969 306.618743896484 312.899993896484 320.243743896484 328.318756103516 337.15625 348.243743896484 355.575012207031 359.262512207031 359.25 349.243743896484 335.899993896484 319.143737792969 303.274993896484 
238.606246948242 234.793746948242 231.100006103516 226.5625 221.868743896484 216.15625 210.556243896484 203.28125 196.487503051758 188.774993896484 212.237503051758 238.756256103516 252.618759155273 262.324981689453 268.212493896484 271.493743896484 272.243743896484 270.649993896484 266.424987792969 261.981262207031 257.768737792969 254.456253051758 252.043746948242 249.662506103516 248.318756103516 248.581253051758 250.375 252.6875 255.5625 260.350006103516 264.506256103516 269.081237792969 274.231262207031 279.481231689453 283.556243896484 288.431243896484 293.712493896484 298.25 302.962493896484 308.112487792969 313.993743896484 321.125 328.456237792969 337.774993896484 344.75 347.962493896484 349.262512207031 343.59375 332.356262207031 321.100006103516 308.412506103516 
239.856246948242 236.4375 233.706253051758 230.487503051758 226.462493896484 222.206253051758 218.40625 215.381240844727 215.987503051758 226.168746948242 254.199996948242 262.587493896484 267.149993896484 272.924987792969 276.806243896484 279.037506103516 279.081237792969 275.4375 270.149993896484 264.34375 258.418762207031 253.225006103516 249.824996948242 247.6875 246.881256103516 247.387496948242 249.0625 252.037506103516 255.362503051758 260.4375 265.512512207031 268.981262207031 273.700012207031 278.350006103516 283.362518310547 287.637512207031 291.8125 295.668762207031 299.181243896484 302.950012207031 308.256256103516 313.53125 319.137512207031 326.081237792969 331.481262207031 334.993743896484 335.168762207031 332.856262207031 327.018737792969 319.049987792969 309.756256103516 
241.675003051758 238.712493896484 236.824996948242 234.668746948242 232.193756103516 230.53125 229.568756103516 231.149993896484 236.456253051758 248.493743896484 266.131256103516 275.756256103516 279.537506103516 283.706237792969 286.756256103516 287.625 286.487487792969 282.168762207031 274.837493896484 267.325012207031 258.206237792969 250.649993896484 245.706253051758 243.1875 243.649993896484 245.306243896484 248.237503051758 251.975006103516 255.59375 261.087493896484 265.575012207031 270.200012207031 275.056243896484 279.137512207031 283.037506103516 285.662506103516 289.481262207031 292.299987792969 294.662506103516 296.893737792969 300.100006103516 304.418762207031 309.268737792969 314.649993896484 319.618743896484 322.306243896484 323.600006103516 323.293762207031 320.018737792969 315.618743896484 309.412506103516 
243.5 241.337493896484 240.256256103516 238.918746948242 238 238.081253051758 239.712493896484 244.100006103516 251.431243896484 261.981262207031 274.056243896484 283.106262207031 288.950012207031 293.481262207031 295.450012207031 296.100006103516 294.274993896484 288.875 280.1875 269.756256103516 257.393737792969 247.081253051758 240.65625 238.668746948242 240.512496948242 243.1875 247.331253051758 252.181243896484 256.862487792969 262.075012207031 267.787506103516 273.049987792969 277.049987792969 280.868743896484 283.375 284.649993896484 286.46875 288.206237792969 290.137512207031 291.15625 293.03125 295.6875 298.506256103516 303.293762207031 308.318756103516 312.274993896484 314.118743896484 315.200012207031 314.975006103516 311.674987792969 308.40625 
245.318756103516 243.625 242.875 241.987503051758 241.256256103516 242.518753051758 245.862503051758 251.181259155273 259.40625 268.662506103516 278.612487792969 287.299987792969 294.8125 299.799987792969 301.737487792969 302.981262207031 302.25 296.862487792969 287.6875 273.043762207031 255.568756103516 242.412506103516 235.418746948242 234.731246948242 238.181243896484 241.71875 246.550003051758 251.681243896484 258.262512207031 264.71875 269.881256103516 275.668762207031 279.450012207031 282.887512207031 284.575012207031 284.049987792969 284.868743896484 285.662506103516 286.668762207031 286.543762207031 287.299987792969 286.96875 288.725006103516 294.556243896484 300.631256103516 304.387512207031 306.487487792969 307.756256103516 309.575012207031 309.137512207031 308.068756103516 
247.09375 245.331253051758 245.074996948242 244.199996948242 244.475006103516 246.787506103516 250.975006103516 256.506256103516 264.225006103516 272.912506103516 282.6875 291.1875 298.956237792969 304.65625 308.387512207031 310.65625 310.075012207031 306.731262207031 298.668762207031 278.625 253.975006103516 234.331253051758 228.949996948242 232.0625 236.850006103516 241.649993896484 246.362503051758 252.53125 259.118743896484 266.100006103516 272.606262207031 277.825012207031 281.881256103516 284.024993896484 284.725006103516 284.200012207031 283.543762207031 283.725006103516 283.65625 283.850006103516 283.481262207031 283.40625 284.587493896484 288.90625 294.262512207031 297.100006103516 298.868743896484 300.625 302.912506103516 303.5625 306.34375 
249.931243896484 247.9375 247.149993896484 246.112503051758 248.056243896484 250.931243896484 255.056243896484 261.168762207031 268.53125 276.918762207031 285.90625 295.03125 303.206237792969 310.3125 314.625 316.043762207031 316.518737792969 313.931243896484 309.068756103516 286.256256103516 257.787506103516 233.824996948242 228.631256103516 232.324996948242 237.587493896484 242.587493896484 247.587493896484 253.524993896484 259.993743896484 267.731262207031 274.625 280.325012207031 283.875 284.850006103516 284.381256103516 284.481262207031 282.631256103516 281.78125 282.524993896484 282.056243896484 282.306243896484 282.0625 283.450012207031 286.46875 289.40625 291.618743896484 293.350006103516 293.768737792969 295.125 298.287506103516 302.731262207031 
253.118743896484 251.168746948242 250.050003051758 249.462493896484 251.262496948242 254.862503051758 258.875 264.556243896484 271.581237792969 280.550018310547 289.831237792969 299.1875 308.21875 315.200012207031 318.71875 319.862487792969 318.931243896484 315.056243896484 307.256256103516 288.131256103516 264.868743896484 247.21875 237.875 237.5625 241.1875 245.5 249.875 255.25 261.381256103516 268.4375 274.943756103516 280.856231689453 283.84375 283.693756103516 283.881256103516 283.649993896484 281.6875 280.950012207031 281.125 281.206237792969 281.431243896484 281.706237792969 282.90625 285.09375 287.143737792969 288.231262207031 289.256256103516 289.356262207031 288.15625 290.424987792969 297.21875 
