ncols        51
nrows        45
xllcorner    -63.500000000000
yllcorner    -7.500000000000
cellsize     0.166666666667
NODATA_value -99
156.28125 146.268753051758 139.481246948242 137.412506103516 133.993743896484 131.15625 126.199996948242 121.375 118.056251525879 117.15625 118.862503051758 123.043746948242 127.743751525879 131.100006103516 136.743743896484 142.6875 150.387496948242 154.875 161.40625 167.493743896484 172.918746948242 177.306243896484 182.65625 187.862503051758 195.225006103516 203.012496948242 212.943756103516 226.625 240.09375 252.831237792969 270.456237792969 285.799987792969 303.081237792969 323.637512207031 343.5 359.462493896484 373.462493896484 387.806243896484 399.53125 408.737487792969 417.981262207031 424.075012207031 427.46875 431.59375 426.918762207031 424.587493896484 419.212493896484 406.731262207031 393.274993896484 383.649993896484 373.950012207031 
163.956253051758 155.143753051758 152.743743896484 151.9375 150.512496948242 147.4375 142.381256103516 138.300003051758 136.881256103516 136.337493896484 137.743743896484 141.175003051758 145.125 148.456253051758 153.431243896484 159.131256103516 166.131240844727 173.412506103516 180.918746948242 188.399993896484 193.981246948242 198.949996948242 205.112503051758 211.412506103516 218.506256103516 226.487503051758 235.581253051758 248.587493896484 260.75 274.918762207031 292.018768310547 311.068756103516 327.8125 350.868743896484 369.399993896484 387.362487792969 404.793731689453 420.306243896484 432.168762207031 440.850006103516 451.21875 456.649993896484 459.325012207031 462.0625 457.181243896484 453.206237792969 445.049987792969 428.731262207031 413.537506103516 400.53125 387.193756103516 
170.743743896484 164.274993896484 165.087493896484 166.993743896484 167.28125 165.15625 162.862503051758 161.1875 160.681243896484 161.0625 160.862503051758 162.71875 165.856246948242 168.675003051758 173.125 179.162506103516 185.537506103516 192.774993896484 199.475006103516 206.425003051758 212.912506103516 219.331253051758 225.262496948242 233.350006103516 242.15625 249.737503051758 258.774993896484 270.71875 281.049987792969 294.131256103516 311.762512207031 330.325012207031 349.100006103516 369.612487792969 392.78125 409.200012207031 428.618743896484 448.4375 460.368743896484 471.462493896484 481.850006103516 485.356262207031 486.481262207031 486.28125 482.056243896484 475.03125 466.106262207031 447.53125 430.243743896484 415.399993896484 400.899993896484 
175.850006103516 172.543746948242 178.112503051758 182.587493896484 185.643753051758 184.487503051758 184.1875 184.912506103516 186.881256103516 187.912506103516 186.6875 186.175003051758 186.899993896484 188.5 192.987503051758 198.574996948242 205.887496948242 212.96875 219.306243896484 225.262496948242 233.293746948242 239.643753051758 244.956253051758 254.212493896484 264.375 273.09375 281.649993896484 290.15625 299.331237792969 312.893737792969 327.956237792969 347.943756103516 366.756256103516 387.606262207031 410.631256103516 431.581237792969 453.693756103516 475.924987792969 491.243743896484 502.387512207031 510.581268310547 513.96875 513.974975585938 510.850006103516 505.006256103516 495.112487792969 485.137481689453 466.262512207031 444.25 428.012512207031 413.03125 
186.53125 183.600006103516 189.1875 197.21875 203.087493896484 203.456253051758 203.556243896484 206.206253051758 211.137496948242 214.550003051758 211.756256103516 208.112503051758 207.393753051758 209.425003051758 212.818756103516 218.893753051758 225.693756103516 233.199996948242 237.912506103516 242.399993896484 251.487503051758 257.918762207031 265.106262207031 276.106262207031 287.049987792969 297 302.787506103516 309.668762207031 320.331237792969 330.743743896484 346.443756103516 363.174987792969 385.100006103516 407.943756103516 431.737487792969 455.043762207031 478.725006103516 502.049987792969 519.650024414062 530.537475585938 540.950012207031 540.568725585938 538.056274414062 534.918762207031 525.293762207031 513.549987792969 501.850006103516 479.875 456.612487792969 437.862487792969 423.662506103516 
198.337493896484 197.71875 205.368743896484 211.787506103516 215.449996948242 216.412506103516 216.818756103516 218.975006103516 224.606246948242 229.712493896484 224.75 220.712493896484 221.181243896484 222.5625 226.612503051758 232.53125 239.506256103516 246.762496948242 252.606246948242 257.012512207031 266.387512207031 275.243743896484 284.174987792969 294.943756103516 306.200012207031 317.618743896484 323.006256103516 327.78125 335.125 346.475006103516 360.09375 376.75 396.243743896484 422.706237792969 449.049987792969 471.587493896484 498.143737792969 522.237487792969 540.487487792969 554.306274414062 561.568725585938 561.168762207031 557.912475585938 553.075012207031 540.9375 525.8125 511.299987792969 488.53125 465.012512207031 442.418762207031 422.443756103516 
209.368743896484 210.28125 217.65625 222.456253051758 224.300003051758 224.15625 223.893753051758 223.425003051758 224.487503051758 225.681243896484 226.537506103516 227.024993896484 229.618743896484 232.625 237.518753051758 243.443756103516 250.356246948242 256.6875 262.350006103516 269.868743896484 279.924987792969 291.568756103516 301.887512207031 313.46875 325.700012207031 336.5 341.418762207031 344.693756103516 348.556243896484 357.543762207031 373.368743896484 388.737487792969 408.350006103516 432.068756103516 459.075012207031 484.100006103516 509.46875 534.625 558.5 570.381225585938 572.825012207031 572.737487792969 569.174987792969 564.287475585938 554.887512207031 535.0625 516.96875 493.237487792969 463.850006103516 442.818756103516 425.143737792969 
217.774993896484 219.925003051758 225.75 230.618743896484 233.5 232.462493896484 228.524993896484 222.4375 217.375 218.199996948242 224.537506103516 230.306243896484 236.524993896484 241.949996948242 247.212493896484 253.34375 258.524993896484 263.975006103516 270.456237792969 279.024993896484 292.15625 306.143737792969 319.193756103516 331.081237792969 345.606262207031 355.287506103516 357.600006103516 359.299987792969 360.418762207031 368.212493896484 380.962493896484 398.950012207031 417.28125 440.475006103516 466.71875 491.106262207031 516.706237792969 541.450012207031 563.525024414062 574.53125 578.637512207031 578.28125 574.918762207031 569.631225585938 558.181274414062 538.3125 513.318725585938 484.206237792969 460.524993896484 437.143737792969 419.012512207031 
226.074996948242 228.693756103516 234.625 239.375 241.443756103516 239.581253051758 234.556243896484 226.3125 215.762496948242 213.550003051758 223.9375 233.199996948242 242.112503051758 247.65625 253.518753051758 259.799987792969 264.774993896484 270.387512207031 278.5625 287.637512207031 299.693756103516 316.568756103516 331.362487792969 349.28125 364.368743896484 372.862487792969 371.143737792969 369.424987792969 370.862487792969 375.931243896484 387.556243896484 403.856262207031 421.412506103516 442.431243896484 465.700012207031 490.3125 517.487487792969 540.956237792969 561.5625 571.981262207031 576.743774414062 576.21875 574.193725585938 568.875 553.162475585938 533.012512207031 508.46875 477.037506103516 449.512512207031 424.793762207031 406.825012207031 
234.574996948242 237.568756103516 242.768753051758 247.068756103516 249.631256103516 248.006256103516 243.862503051758 236.800003051758 229.043746948242 227.40625 233.568756103516 239.943756103516 248.268753051758 254.431243896484 259.831237792969 265.856262207031 271.3125 277.131256103516 284.768737792969 293.90625 307.1875 325.868743896484 345.556243896484 367.818756103516 381.375 389.237487792969 386.081237792969 381.78125 379.600006103516 381.481262207031 389.837493896484 406.231262207031 424.262512207031 445.462493896484 467 489.5 514.193725585938 537.912475585938 558.168762207031 570.543762207031 577.049987792969 577.681274414062 572.168762207031 560.299987792969 545.637512207031 529.0625 505.581237792969 473.262512207031 441.21875 415.368743896484 395.387512207031 
242.831253051758 246.574996948242 250.818756103516 255.0625 258.481262207031 258.25 255.40625 249.387496948242 244.59375 243.918746948242 246.75 251.550003051758 257.118743896484 263.200012207031 268.018737792969 272.725006103516 277.424987792969 283.3125 289.71875 298.612487792969 314.981262207031 335.5625 360.287506103516 381.59375 400.443756103516 404.612487792969 399.15625 395.668762207031 390.643737792969 388.524993896484 395.912506103516 408.806243896484 425.03125 444.78125 465.75 486.0625 508.40625 530.987487792969 551.025024414062 566.375 573.875 572.174987792969 563.793762207031 550.40625 534.512512207031 518.068725585938 492.706237792969 457.018737792969 427.100006103516 407.168762207031 384.612487792969 
249.550003051758 253.681243896484 257.899993896484 262.799987792969 265.706237792969 267.362487792969 266.881256103516 263.049987792969 259.850006103516 258.731262207031 260.137512207031 263.193756103516 266.837493896484 271.737487792969 278.143737792969 282.549987792969 284.868743896484 289.481262207031 295.431243896484 303.225006103516 317.9375 340.431243896484 369.28125 397.368743896484 413.612487792969 410.293762207031 402.806243896484 398.762512207031 397.162506103516 398.424987792969 400.612487792969 408.950012207031 422.506256103516 439.5625 457.706237792969 479.450012207031 502.274993896484 524.181274414062 542.599975585938 559.737487792969 569.03125 564.462524414062 550.037475585938 527.4375 505.700012207031 484.34375 457.475006103516 430.600006103516 410.118743896484 395.543762207031 373.856262207031 
256.012512207031 260.012512207031 264.681243896484 268.825012207031 272.618743896484 275.693756103516 276.125 274.799987792969 272.5 272.6875 274.9375 277 280.450012207031 282.53125 287.737487792969 291.462493896484 292.837493896484 297.424987792969 303.581237792969 309.331237792969 320.731231689453 342.924987792969 371.325012207031 395.668762207031 403.293762207031 402.28125 403.149993896484 403.03125 403.78125 405.65625 407.068756103516 409.787506103516 419.225006103516 433.556243896484 449.568756103516 468.75 491.043762207031 512.924987792969 533.15625 552.65625 565.049987792969 557.0625 530.09375 502.256256103516 476.125 461.068756103516 440.90625 415.837493896484 397.693756103516 386.78125 376.774993896484 
261.043762207031 265.643737792969 270.193756103516 274.418762207031 279.075012207031 281.46875 283.993743896484 285.806243896484 286.350006103516 287.200012207031 288.993743896484 291.068756103516 293.225006103516 296.212493896484 297.28125 300.600006103516 301.4375 305.049987792969 310.193756103516 316.681243896484 330.774993896484 350.28125 372.71875 389.21875 396.799987792969 401.337493896484 404.106262207031 405.643737792969 407.206237792969 408.96875 411.299987792969 412.25 416.262512207031 425.137512207031 438.318756103516 457.90625 481.03125 501.75 520.5 537.893737792969 548.737487792969 532.287475585938 508.993743896484 487.668762207031 465.350006103516 448.943756103516 432.774993896484 415.193756103516 397.643768310547 389.200012207031 385.46875 
264.181243896484 267.825012207031 272.787506103516 278.743743896484 284.237487792969 287.424987792969 291.924987792969 295.850006103516 297.137512207031 298.712493896484 301.600006103516 303.78125 306.024993896484 308.46875 307.306243896484 309.424987792969 309.706237792969 314.118743896484 318.137512207031 324.018737792969 338.987487792969 356.587493896484 374.768737792969 388.006256103516 397.6875 406.318756103516 409.212493896484 410.84375 413.46875 415.375 413.481262207031 411.637512207031 414.8125 416.674987792969 424.381256103516 446.056243896484 471.306243896484 492.193756103516 504.956237792969 512.868774414062 512.237487792969 504.043762207031 494.731262207031 478.462493896484 460.712493896484 446.412506103516 434.375 417.975006103516 404.787506103516 392.643737792969 385.96875 
264.96875 269.112487792969 275.112487792969 281.774993896484 288.331237792969 294.262512207031 299.274993896484 303.768737792969 307.774993896484 311.25 313.768737792969 317.131256103516 319.887512207031 321.71875 320.537506103516 319.356262207031 318.537506103516 322.693756103516 326.143737792969 332.206237792969 345.9375 361.487487792969 377.53125 388.875 398.399993896484 408.481262207031 412.649993896484 416.149993896484 421.081237792969 422.181243896484 420.799987792969 416.668762207031 414.950012207031 415.368743896484 419.681243896484 448.274993896484 470.475006103516 480.799987792969 486.043762207031 489.5625 487.768737792969 484.25 478.662506103516 467.649993896484 452.981262207031 441.118743896484 428.856262207031 412.96875 399.981262207031 387.700012207031 378.481262207031 
265.962493896484 270.993743896484 276.762512207031 284.524993896484 292.681243896484 299.618743896484 307.162506103516 313.162506103516 317.912506103516 322.543762207031 325.5625 330.15625 333.956237792969 334.850006103516 334.693756103516 331.53125 326.862487792969 328.637512207031 332.956237792969 338.149993896484 350.943756103516 365.8125 381.087493896484 391.287506103516 401.137512207031 408.899993896484 414.131256103516 419.981262207031 424.774993896484 427.875 427.293762207031 423.106262207031 421.912506103516 426.806243896484 446.537506103516 469.893737792969 478.887512207031 477.962493896484 474.337493896484 471.806243896484 472.200012207031 469.893737792969 463.362487792969 454.787506103516 444.575012207031 434.46875 422.950012207031 409.668762207031 398.587493896484 383.556243896484 373.174987792969 
264.887512207031 270.75 278.606262207031 288.137512207031 297.537506103516 305.387512207031 313.3125 321.075012207031 327.168762207031 332.34375 336.78125 343.28125 346.3125 348.412506103516 347.181243896484 342.193756103516 336.762512207031 331.037506103516 337.368743896484 341.612487792969 354.375 366.90625 378.881256103516 388.024993896484 397.318756103516 407.893737792969 412.037506103516 420.012512207031 427.962493896484 431.337493896484 429.1875 418.456237792969 419.575012207031 431.53125 458.668762207031 493.443756103516 486.693756103516 473.681243896484 464.368743896484 461.993743896484 458.549987792969 455.9375 451.612487792969 444.487487792969 435.237487792969 427.96875 418.887512207031 407.556243896484 397.887512207031 382.006256103516 372.493743896484 
262.993743896484 269.831237792969 278.662506103516 289.59375 301.256256103516 311.418762207031 320.881256103516 329.774993896484 336.15625 342.037506103516 347.137512207031 351.59375 357.375 361.25 357.431243896484 350.649993896484 343.225006103516 335.987487792969 336.037506103516 340.256256103516 353.46875 366.100006103516 371.037506103516 380.424987792969 391.15625 403.125 409.962493896484 416.674987792969 426.043731689453 431.725006103516 431.399993896484 416.087493896484 409.924987792969 411.018737792969 428.637512207031 457.693756103516 459.662506103516 455.043762207031 452.912506103516 449.9375 447.981262207031 444.399993896484 441.350006103516 436.399993896484 428.21875 422.024993896484 415.731262207031 406.450012207031 396.893737792969 376.90625 372.5 
258.5 267.268737792969 277.443756103516 289.931243896484 303.637512207031 316.412506103516 327.887512207031 338.25 345.368743896484 350.837493896484 355.59375 359.743743896484 366.837493896484 373.012512207031 365.543762207031 353.100006103516 341.424987792969 338.543762207031 336.018737792969 338.043762207031 346.018737792969 353.662506103516 362.256256103516 370.549987792969 381.149993896484 392.337493896484 400.612487792969 409.981262207031 417.3125 419.518737792969 415.65625 404.337493896484 389.181243896484 375.5 371.118743896484 393.368743896484 419.174987792969 431.443756103516 437.674987792969 439.943756103516 438.568756103516 435.450012207031 433.993743896484 430.868743896484 424.606262207031 419.668762207031 414.412506103516 405.03125 393.418762207031 373.337493896484 372.143737792969 
253.193756103516 264.881256103516 278.03125 292.125 307.049987792969 321.787506103516 335.737487792969 347.424987792969 355.206237792969 358.618743896484 359.212493896484 361.28125 364.162506103516 368.837493896484 362.412506103516 349.46875 338.193756103516 331.912506103516 330.125 329.375 335.868743896484 343.456237792969 349.975006103516 359.600006103516 370.575012207031 381.90625 390.21875 397.600006103516 404.162506103516 405.799987792969 400.231262207031 388.868743896484 371.53125 349.375 328.325012207031 355.112487792969 393.012512207031 415.625 427.643737792969 432.293762207031 432.931243896484 431.712493896484 428.268737792969 425.606262207031 421.743743896484 417.543762207031 413.34375 404.556243896484 388.287506103516 374.931243896484 372 
248.631256103516 261.256256103516 277.106262207031 293.112487792969 310.056243896484 327.012512207031 342.981262207031 357.149993896484 365.331237792969 365.174987792969 359.556243896484 355.450012207031 352.587493896484 352.768737792969 349.174987792969 342.600006103516 336.674987792969 330.837493896484 326.899993896484 323.856262207031 324.712493896484 327.493743896484 334.15625 342.331237792969 353.25 366.831237792969 380.081237792969 388.274993896484 394.806243896484 395.431243896484 388.868743896484 378.1875 365.037506103516 351.731262207031 345.806243896484 363.112518310547 392.5625 414.549987792969 426.8125 430.137512207031 429.631256103516 428.306243896484 425.762512207031 423.450012207031 420.668762207031 417.40625 413.806243896484 404.612487792969 387.668762207031 380.918762207031 372.393737792969 
247.368743896484 261.75 277.981262207031 295.581237792969 313.34375 330.174987792969 346.493743896484 364.662506103516 376.28125 370.643737792969 359.03125 346.731262207031 337.462493896484 336.21875 337.181243896484 335.350006103516 331.506256103516 326.131256103516 320.837493896484 316.237487792969 314.15625 312.40625 313.899993896484 321.0625 334.125 350.056243896484 364.956237792969 375.881256103516 382.931243896484 382.862487792969 378.631256103516 374.106262207031 370.875 367.168762207031 372.337493896484 387.03125 406.731262207031 422.231262207031 430.100006103516 431.081237792969 428.637512207031 426.399993896484 424.068756103516 420.806243896484 418.612487792969 417.34375 415.21875 405.149993896484 392.65625 385.75 374.887512207031 
250.274993896484 264.149993896484 280.612487792969 298.412506103516 316.174987792969 331.649993896484 348.431243896484 365.575012207031 374.924987792969 366.637512207031 352.037506103516 339.068756103516 324.912506103516 324.375 328.0625 328.625 326.9375 322.0625 314.606262207031 308.0625 303.331237792969 298.668762207031 296.90625 302.556243896484 312.818756103516 327.537506103516 343.487487792969 358.043762207031 368.768737792969 373.6875 375.912506103516 376.350006103516 378.787506103516 382.637512207031 392.256256103516 407.850006103516 423.068756103516 430.25 432.174987792969 431.018737792969 428.162506103516 424.21875 421.174987792969 416.518737792969 416.262512207031 416.081237792969 415.15625 403.424987792969 399.818756103516 387.4375 376.643737792969 
258.581237792969 270.450012207031 284.3125 301.631256103516 320.143737792969 334.431243896484 347.174987792969 359.293762207031 363.931243896484 359.081237792969 349.537506103516 336.993743896484 327.918762207031 324.918762207031 324.725006103516 325.637512207031 323.6875 318.649993896484 311.193756103516 301.587493896484 292.9375 285.293762207031 279.706237792969 281.231262207031 291.443756103516 308.956237792969 325.024993896484 343.193756103516 357.018737792969 368.21875 374.456237792969 379.056243896484 386.387512207031 394.112487792969 403.875 413.318756103516 424.825012207031 430.806243896484 430.981262207031 431.143737792969 428.287506103516 423.106262207031 416.899993896484 414.518737792969 408.981262207031 409.112487792969 407.487487792969 410.081237792969 406.774993896484 392.5625 379.1875 
271.200012207031 282.393768310547 292.46875 308.024993896484 323.043762207031 334.424987792969 344.231262207031 352.631256103516 354.700012207031 351.506256103516 345.306243896484 338.03125 331.825012207031 327.543762207031 325.8125 325.943756103516 322.706237792969 317.581237792969 310.068756103516 297.587493896484 287.487487792969 274.78125 263.53125 260.21875 271.96875 292.231262207031 312.881256103516 331.206237792969 348.137512207031 362.950012207031 373.868743896484 383.59375 394.40625 401.756256103516 409.149993896484 415.65625 423.674987792969 428.862487792969 430.143737792969 429.681243896484 427.662506103516 420.793762207031 410.618743896484 406.262512207031 401.799987792969 401.875 415.993743896484 420.21875 413.762512207031 402.662506103516 387.5625 
286.931243896484 293.450012207031 302.137512207031 312.737487792969 323.399993896484 332.056243896484 338.606262207031 344.0625 345.543762207031 345.149993896484 342.825012207031 338.418762207031 334.325012207031 331.40625 329.899993896484 328.606262207031 326.962493896484 320.200012207031 311.149993896484 299.918762207031 286.59375 271.65625 254.975006103516 248.793746948242 263.90625 283.3125 304.4375 322.393737792969 339.943756103516 356.106262207031 370.149993896484 384.71875 398.768737792969 404.40625 409.59375 415.318756103516 422.518737792969 426.837493896484 428.818756103516 429.649993896484 426.206237792969 417.6875 405.625 398.456237792969 403.662506103516 414.9375 429.1875 429.299987792969 423.737487792969 408.1875 395.225006103516 
304.362487792969 307.631256103516 312.875 319.356262207031 324.5 329.793762207031 335.799987792969 339.293762207031 340.631256103516 341.287506103516 339.875 337.418731689453 335.743743896484 334.512512207031 333.268737792969 331.793762207031 330.625 326.112487792969 317.481262207031 306.493743896484 293.012512207031 277.149993896484 265.15625 260.662506103516 269.075012207031 283.818756103516 301.618743896484 318.931243896484 335.043762207031 349.524993896484 363.524993896484 377.412506103516 391.649993896484 398.674987792969 405.212493896484 411.59375 416.793762207031 422.850006103516 426.674987792969 430.331237792969 431.600006103516 421.318756103516 404.581237792969 396.375 413.424987792969 427.96875 441.631256103516 439.674987792969 432.087493896484 415.481262207031 400.637512207031 
320.524993896484 321.356262207031 323.0625 324.5625 327.899993896484 330.306243896484 332.231262207031 334.40625 336.34375 337.087493896484 337.78125 337.225006103516 336.806243896484 337.412506103516 337.862487792969 338.162506103516 339.106262207031 335.193756103516 328.231262207031 318.331237792969 304.825012207031 289.737518310547 279.287506103516 274.131256103516 278.931243896484 287.768768310547 301.706237792969 316.756256103516 331.106231689453 344.53125 356.043762207031 367.875 381.637512207031 391.181243896484 399.625 406.375 411 417.200012207031 421.962493896484 425.65625 432.087493896484 421.818756103516 405.612487792969 407.212493896484 428.037506103516 443.106262207031 454.112487792969 452.100006103516 440.65625 424.918762207031 404.200012207031 
332.268737792969 330.487487792969 328.90625 327.475006103516 327.762512207031 327.162506103516 328.143737792969 329.418762207031 331.512512207031 332.46875 333.943756103516 335.956237792969 338.375 340.674987792969 342.387512207031 344.081237792969 345.931243896484 347.806243896484 343.243743896484 331.081237792969 316.862487792969 302.962493896484 292.15625 287.262481689453 288.237487792969 293.975006103516 304.893737792969 316.3125 327.350006103516 338.368743896484 348.899993896484 358.418762207031 370.78125 382.837493896484 392.668762207031 398.600006103516 403.243743896484 410.006256103516 410.200012207031 412.912506103516 419.393737792969 420.043731689453 414.875 422.912506103516 433.768737792969 452.6875 465.6875 462.112487792969 449.324981689453 432.806243896484 411.387512207031 
340.331237792969 335.899993896484 331.768737792969 329.049987792969 327.424987792969 324.618743896484 325.256256103516 325.381256103516 326.962493896484 328.424987792969 330.706237792969 333.443756103516 337.606262207031 340.618743896484 344.174987792969 348.262512207031 353.931243896484 357.381256103516 357.393737792969 344.950012207031 329.78125 314.506256103516 304.118743896484 298 295.993743896484 300.1875 307.15625 314.65625 323.637512207031 332.831237792969 342.1875 351.918762207031 363.700012207031 375.518737792969 385.881256103516 390.481262207031 395.287506103516 402.387512207031 400.46875 394.818756103516 403.143737792969 415.125 422.181243896484 432.018737792969 442.931243896484 467.487487792969 479.4375 475.174987792969 460.825012207031 441.137512207031 417.487487792969 
345.143737792969 338.712493896484 332.681243896484 328.056243896484 325.193756103516 321.625 321.537506103516 320.25 321.481262207031 323.206237792969 325.868743896484 329.424987792969 333.725006103516 339.475006103516 345.4375 351.75 355.787506103516 359.09375 359.387512207031 351.9375 336.96875 323.731262207031 311.993743896484 304.712493896484 303.393737792969 304.1875 307.631256103516 313.793762207031 319.125 327.825012207031 336.793762207031 345.818756103516 356.075012207031 367.450012207031 377.787506103516 382.806243896484 389.418762207031 395.268737792969 390.318756103516 388.806243896484 401.3125 418.450012207031 431.068756103516 447.987487792969 462.725006103516 489.40625 502.043762207031 492.856262207031 472.25 448.225006103516 422.424987792969 
344.5625 338.206237792969 331.600006103516 326.318756103516 321.71875 319 317 314.6875 314.443756103516 316.8125 322.412506103516 325.768737792969 331.493743896484 340.225006103516 346.493743896484 352.143737792969 355.381256103516 358.71875 357.643737792969 352.1875 341.118743896484 329 317.225006103516 311.318756103516 308.518737792969 307.487487792969 309.193756103516 313.206237792969 318.206237792969 325.149993896484 332.737487792969 340.600006103516 350.862487792969 361.518737792969 370.28125 377.868743896484 384.975006103516 389.868743896484 387.543762207031 395.1875 407.96875 424.25 440.643737792969 459.53125 485.231262207031 518.737487792969 526.693725585938 504.5 478.193756103516 452.056243896484 423.793762207031 
342.706237792969 336.15625 330.956237792969 325.65625 320.668762207031 316.331237792969 312.631256103516 309.475006103516 308.212493896484 309.887512207031 315.225006103516 322.087493896484 329.424987792969 336.768737792969 342.850006103516 349.825012207031 355.231262207031 357.53125 355.049987792969 350.4375 342.137512207031 331.256256103516 321.512512207031 314.4375 310.956237792969 308.149993896484 309.556243896484 311.806243896484 316.931243896484 322.331237792969 327.818756103516 335.737487792969 346.068756103516 355.681243896484 365.600006103516 373.475006103516 380.212493896484 385.037506103516 389.756256103516 399.28125 410.287506103516 426.168762207031 446.181243896484 466.837493896484 495.262512207031 525.606262207031 528.775024414062 504.412506103516 477.662506103516 451.731262207031 424.668762207031 
340.84375 335.143737792969 330.424987792969 324.6875 317.806243896484 313.231262207031 307.887512207031 304.5 300.975006103516 300.90625 307.325012207031 317 327.112487792969 335.331237792969 343.012512207031 348.512512207031 353.899993896484 355.40625 353.03125 348.59375 341.84375 331.575012207031 322.125 314.706237792969 311.125 308.399993896484 308.206237792969 310.518737792969 313.4375 318.774993896484 324.774993896484 331.875 341.106262207031 350.818756103516 359.462493896484 366.40625 373.462493896484 383.549987792969 391.075012207031 400 410.774993896484 423.956237792969 442.381256103516 462.575012207031 485.487487792969 502.34375 504.293762207031 489.943756103516 468.787506103516 445.893737792969 422.299987792969 
339.412506103516 333.681243896484 328.706237792969 323.200012207031 316.875 311.03125 305.637512207031 299.443756103516 293.393737792969 292.612487792969 298.875 310.5625 324.381256103516 335.462493896484 342.1875 347.524993896484 350.799987792969 351.34375 349.943756103516 346.693756103516 339.524993896484 329.299987792969 319.40625 313.168762207031 309.256256103516 306.237487792969 305.993743896484 308.481262207031 311.375 316.131256103516 322.487487792969 328.837493896484 336.368743896484 346.168762207031 354.1875 360.568756103516 370.15625 380.075012207031 385.868743896484 395.231262207031 406.456237792969 417.793762207031 431.493743896484 449.912506103516 465.924987792969 475.393737792969 477.162506103516 468.975006103516 453.618743896484 437.024993896484 415.46875 
336.65625 332.162506103516 327.975006103516 322.556243896484 317.287506103516 311.681243896484 304.931243896484 297.668762207031 288.78125 282.837493896484 291.993743896484 310.762512207031 326.03125 335.8125 342.34375 345.518737792969 346.756256103516 346.387512207031 345.393737792969 340.34375 333.774993896484 324.174987792969 315.131256103516 308.200012207031 304.212493896484 301.8125 302.106262207031 305.643737792969 308.481262207031 313.756256103516 319.518737792969 325.399993896484 333.625 342.893737792969 349.887512207031 357.40625 366.862487792969 376.625 382.40625 388.356262207031 396.71875 406.28125 418.387512207031 433.368743896484 446.075012207031 451.774993896484 453.487487792969 448.512512207031 438.418762207031 425.318756103516 408.987487792969 
334.712493896484 331.6875 327.456237792969 323.081237792969 319.418762207031 314.381256103516 307.90625 299.78125 292.143737792969 283.674987792969 300.943756103516 320.668762207031 331.3125 338.918762207031 342.006256103516 343.587493896484 341.818756103516 340.1875 337.4375 331.274993896484 323.350006103516 314.912506103516 308.262512207031 301.71875 298.325012207031 296.987487792969 297.65625 302.1875 306.118743896484 311.299987792969 316.081237792969 321.506256103516 329.518737792969 338.756256103516 344.875 353.637512207031 362.625 369.899993896484 376.493743896484 382.756256103516 387.299987792969 396.018737792969 404.131256103516 412.018737792969 422.125 427.962493896484 431.081237792969 430.924987792969 424.056243896484 413.512512207031 403.575012207031 
332.40625 330.318756103516 327.631256103516 324.543762207031 321.831237792969 316.806243896484 312.943756103516 307.943756103516 306.3125 313.393737792969 332.568756103516 337.362487792969 338.918762207031 341.612487792969 342.424987792969 341.462493896484 337.912506103516 334.024993896484 328.6875 320.962493896484 311.725006103516 303.893737792969 297.987487792969 293.287506103516 291.181243896484 291.356262207031 293.600006103516 297.993743896484 302.9375 308.681243896484 314.962493896484 319.762512207031 326.787506103516 335.8125 345.15625 351.768737792969 358.524993896484 366.225006103516 370.137481689453 373.549987792969 377.043762207031 385.018737792969 390.806243896484 397.706237792969 404.306243896484 409.231262207031 411.9375 411.21875 408.518737792969 405.081237792969 395.618743896484 
330.787506103516 329.899993896484 328.293762207031 325.668762207031 324.618743896484 323.018737792969 319.868743896484 319.987487792969 321.924987792969 328.274993896484 338 343.518737792969 344.9375 344.487518310547 343.731262207031 340.237487792969 334.912506103516 328.5625 320.131256103516 311.456237792969 301.212493896484 293.243743896484 286.524993896484 282.875 283.131256103516 284.875 287.731262207031 293.450012207031 299.043762207031 304.9375 310.5625 318.59375 328.262512207031 336.200012207031 344.6875 351.049987792969 355.350006103516 360.8125 364.787506103516 364.837493896484 365.962493896484 372.368743896484 377.087493896484 381.825012207031 387.037506103516 392.600006103516 397.162506103516 399.368743896484 398.131256103516 395.981262207031 390.1875 
328.450012207031 329.59375 328.950012207031 328.268737792969 327.1875 326.331237792969 325.59375 328.75 331.818756103516 337.299987792969 342.549987792969 346.693756103516 348.15625 346.693756103516 344.8125 340.818756103516 333.743743896484 325.087493896484 314.424987792969 302.549987792969 290.431243896484 281.25 274.993743896484 272.424987792969 275.331237792969 278.581237792969 282.28125 288.725006103516 295.931243896484 302.96875 310.387512207031 320.893737792969 329.518737792969 337.475006103516 345.118743896484 350.037506103516 353.149993896484 357.375 359.012512207031 356.237487792969 356.412506103516 358.606262207031 360.693756103516 365.918762207031 372.418762207031 379.274993896484 383.743743896484 385.137512207031 387.168762207031 387.799987792969 384.774993896484 
325.850006103516 327.799987792969 328.556243896484 329.506256103516 329.725006103516 330.081237792969 331.100006103516 334.162506103516 337.5625 341.443756103516 345.556243896484 349.662506103516 351.450012207031 350.018737792969 347.568756103516 342.643737792969 336.137512207031 325.881256103516 314.418762207031 299.1875 282.168762207031 269.9375 264.049987792969 264.112487792969 269.706237792969 273.881256103516 278.837493896484 285.912506103516 294.818756103516 303.743743896484 309.393737792969 321.168762207031 330.106262207031 339.674987792969 348.806243896484 350.981262207031 352.893737792969 356.075012207031 356.274993896484 352.475006103516 349.931243896484 347.131256103516 347.193756103516 354.806243896484 361.737487792969 369.318756103516 372.981262207031 374.600006103516 377.931243896484 378.143737792969 375.875 
323.837493896484 327.09375 329.206237792969 329.4375 330.893737792969 333.243743896484 335.65625 337.174987792969 339.918762207031 343.606262207031 348.206237792969 351.96875 353.956237792969 353.399993896484 350.581237792969 346.09375 337.981262207031 330.568756103516 318.706237792969 297.618743896484 274.206237792969 256.34375 253.03125 258.375 265.587493896484 271.462493896484 277.381256103516 283.412506103516 292.862487792969 302.162506103516 310.59375 318.475006103516 327.587493896484 339.21875 350.568756103516 357.293762207031 356.037506103516 356.418762207031 354.450012207031 349.706237792969 347.331237792969 344.28125 342.556243896484 346.368743896484 354.756256103516 359.637512207031 363.299987792969 365.643737792969 369.662506103516 370.618743896484 370.25 
322.387512207031 326.587493896484 329.3125 329.956237792969 333.106262207031 335.262512207031 337.443756103516 340.274993896484 342.793762207031 346.274993896484 351.225006103516 355.34375 356.84375 355.993743896484 353.318756103516 348.018737792969 341.037506103516 334.243743896484 325.518737792969 301.981262207031 275.318756103516 253.387496948242 251.28125 256.456237792969 263.693756103516 270.162506103516 276.081237792969 283.356262207031 292.318756103516 302.100006103516 309.28125 317.21875 326.643737792969 338.693756103516 351.725006103516 363.306243896484 361.568756103516 358.256256103516 353.806243896484 349.712493896484 346.662506103516 344.5625 341.875 344.168762207031 349.262512207031 352.475006103516 356.5625 357.762512207031 359.006256103516 362.868743896484 364.512512207031 
322.524993896484 327.40625 329.78125 331.78125 334.625 336.662506103516 338.6875 341.581237792969 345.012512207031 348.774993896484 352.206237792969 357.731262207031 361.137512207031 361.21875 359.193756103516 352.243743896484 344.587493896484 334.96875 324.03125 304.412506103516 281.850006103516 266.231262207031 258.862487792969 261.143737792969 267.387512207031 272.375 277.78125 285.28125 293.893737792969 303.90625 310.924987792969 317.481262207031 325.825012207031 336.09375 348.625 360.84375 361.90625 357.518737792969 352.75 349.962493896484 346.368743896484 344.206237792969 343.375 341.78125 346.424987792969 348.475006103516 350.0625 351.78125 351.125 353.162506103516 358.106262207031 
