ncols        51
nrows        45
xllcorner    -63.500000000000
yllcorner    -7.500000000000
cellsize     0.166666666667
NODATA_value -99
91.5749969482422 82.1312484741211 77.0437469482422 74.0062484741211 70.7750015258789 69.3062515258789 67.2562484741211 65.4812469482422 64.8312530517578 64.9875030517578 66.1999969482422 68.4250030517578 70.4499969482422 71.6875 74.25 76.7937469482422 79.0999984741211 80.2249984741211 81.7062530517578 82.7312469482422 82.40625 81.4812469482422 80.9124984741211 81.1312484741211 81.7249984741211 82.7687530517578 84.8187484741211 87.28125 89.9937515258789 91.4749984741211 93.0749969482422 94.8687515258789 97.2937469482422 100.150001525879 103.4375 106.425003051758 109.400001525879 112.131248474121 113.9375 115.425003051758 116.806251525879 117.537498474121 117.112503051758 115.756248474121 114.087501525879 111.306251525879 108.206253051758 102.8125 97.4187469482422 91.3562469482422 85.8062515258789 
93.8187484741211 84.3499984741211 80 77.5625 75.4937515258789 73.4187469482422 71.3625030517578 70.1187515258789 70.2125015258789 70.3687515258789 70.84375 72.2624969482422 73.5625 74.5812530517578 76.6374969482422 78.9437484741211 80.5437469482422 82.7937469482422 85.2375030517578 87.3937530517578 86.8874969482422 86.2062530517578 85.78125 86.0374984741211 86.4625015258789 86.8249969482422 88.90625 91.1125030517578 93.1750030517578 93.8562469482422 95.7562484741211 98.2375030517578 101.456253051758 105.449996948242 109.043746948242 112.400001525879 116.518753051758 119.96875 122.275001525879 123.925003051758 125.731246948242 126.737503051758 126.487503051758 125.012496948242 122.925003051758 119.393753051758 115.462501525879 108.831253051758 101.587501525879 94.0500030517578 87.46875 
99.625 91.65625 87.375 85.2062530517578 83.2312469482422 81.3812484741211 79.8812484741211 79.2062530517578 79.65625 79.4250030517578 78.6875 78.7249984741211 78.7312469482422 78.5437469482422 79.9562530517578 81.59375 83.0812530517578 84.75 86.5437469482422 88.15625 87.6312484741211 87.4562530517578 87.1437530517578 87.4875030517578 88.0250015258789 88.8625030517578 90.7125015258789 92.8249969482422 94.0500030517578 95.1437530517578 97.3625030517578 99.5374984741211 103.056251525879 107.650001525879 112.081253051758 116.231246948242 120.793746948242 125.525001525879 128.774993896484 131.143753051758 133.550003051758 134.675003051758 134.71875 133.925003051758 130.850006103516 125.268753051758 120.212501525879 112.96875 104.143753051758 95.3687515258789 87.9937515258789 
104.787498474121 97.90625 94.6999969482422 91.7562484741211 89.8812484741211 88.5124969482422 88.09375 88.3687515258789 89.9937515258789 89.7437515258789 87.2312469482422 85.3125 83.5749969482422 82.28125 83.4875030517578 84.53125 85.4375 86.5562515258789 87.6687469482422 88.7312469482422 88.3937530517578 87.75 87.09375 87.9187469482422 88.71875 89.5875015258789 91.3125 93.0250015258789 94.2937469482422 95.3812484741211 97.5562515258789 100.231246948242 103.431251525879 107.743751525879 112.09375 118.181251525879 124.25 130.012496948242 134.512496948242 137.975006103516 140.199996948242 141.881256103516 142.431243896484 142.337493896484 137.412506103516 131.512496948242 124.037498474121 115.306251525879 105.693748474121 95.8687515258789 87.9375 
114.256248474121 105.699996948242 99.875 96.4937515258789 95.3062515258789 94.9000015258789 95.1062469482422 96.1125030517578 99.6937484741211 100.862503051758 95.7249984741211 90.8937530517578 87.875 86.03125 86.5500030517578 87 87.65625 87.4812469482422 87.5187530517578 87.8312530517578 87.9562530517578 87.2624969482422 86.6812515258789 87.9375 89.0374984741211 90.1062469482422 91.2125015258789 93.09375 94.7937469482422 95.2249984741211 97.1437530517578 99.5812530517578 103.449996948242 107.962501525879 113.1875 119.612503051758 126.731246948242 134.106246948242 139.175003051758 143.456253051758 146.393753051758 147.649993896484 149.106246948242 149.387496948242 144.431243896484 136.21875 126.40625 116.287498474121 105.462501525879 95.96875 87.0374984741211 
123.199996948242 115.087501525879 106.756248474121 100.181251525879 99.9250030517578 100.949996948242 101.125 101.806251525879 105.231246948242 107.525001525879 100.431251525879 94.6999969482422 91.6750030517578 89.3812484741211 89.0875015258789 89.4124984741211 89.1125030517578 88.0374984741211 87.40625 86.9250030517578 87.2249984741211 87.1750030517578 87.1500015258789 87.9250030517578 89.0124969482422 89.96875 90.7125015258789 91.8125 93.5875015258789 93.90625 95.6937484741211 98.7937469482422 102.425003051758 107.181251525879 112.606246948242 119.706253051758 127.425003051758 136.118743896484 143.306243896484 147.362503051758 148.693756103516 150.443756103516 151.818756103516 153.206253051758 150.768753051758 139.824996948242 126.849998474121 114.606246948242 104.506248474121 94.65625 86.4500045776367 
135.081253051758 126.806251525879 117.737495422363 109.856246948242 107.53125 106.425003051758 105.025001525879 103.224998474121 102.837501525879 101.118751525879 98.0875015258789 95.6500015258789 93.8625030517578 92.1875 91.4875030517578 91.3062515258789 90.5875015258789 88.3937530517578 86.5374984741211 85.6437530517578 86.4812469482422 87.1062469482422 87.3874969482422 88.2687530517578 89.3249969482422 90.0374984741211 90.6937484741211 91.1125030517578 91.7687530517578 92.5999984741211 94.3625030517578 96.9375 100.525001525879 105.525001525879 111.337501525879 118.09375 126.09375 135.1875 144.637496948242 147.512496948242 148.550003051758 149.087493896484 151.018753051758 153.556243896484 151.65625 140.606246948242 125.418746948242 111.28125 100.918746948242 91.7375030517578 84.6624984741211 
148.112503051758 139.331253051758 130.949996948242 124.256248474121 119.3125 115.449996948242 109.681251525879 102.381248474121 95.9437484741211 93.0500030517578 93.9000015258789 94.7874984741211 95.1624984741211 94.375 94.0374984741211 93.2562484741211 91.9625015258789 88.9499969482422 86.2750015258789 84.9499969482422 86.2750015258789 87.2687530517578 87.9312515258789 88.9500045776367 89.8312530517578 90.0187530517578 89.9437484741211 89.5187530517578 89.5374984741211 89.6687469482422 91.5812530517578 94.4124984741211 98.2312469482422 103.268753051758 108.574996948242 115.018753051758 121.724998474121 129.800003051758 136.693756103516 140.356246948242 141.706253051758 141.737503051758 142.581253051758 144.074996948242 141.100006103516 131.175003051758 118.481246948242 105.650001525879 95.3499984741211 87.40625 81.4437484741211 
159.8125 152.024993896484 144.581253051758 137.443756103516 131.524993896484 125.09375 116.956253051758 106.099998474121 94.9375 89.4250030517578 92.6937484741211 95.6812515258789 97.5 97.2125015258789 96.5250015258789 95.3187484741211 93.40625 90.9749984741211 88.8499984741211 87.0625 88.1437530517578 89.34375 89.2687530517578 90.4562530517578 90.5250015258789 89.8249969482422 88.6812515258789 88.6312484741211 88.4375 88.0374984741211 89.8312530517578 92.3375015258789 95.4375 99.5250015258789 103.850006103516 109.962501525879 116.262496948242 122.087501525879 126.625 129.818756103516 130.856246948242 129.600006103516 129.65625 128.543746948242 122.637504577637 115.25 106.393753051758 95.8625030517578 87.4375 81.3562469482422 78.3249969482422 
172.337493896484 165.012496948242 157.399993896484 150.862503051758 145.056243896484 137.5 127.806251525879 115.662498474121 105.037498474121 99.0374984741211 98.4250030517578 99.6312484741211 101.237503051758 101.143753051758 99.7874984741211 97.8812484741211 95.25 93.4187469482422 91.7249984741211 90.7562484741211 91.4187469482422 92.0500030517578 91.3249969482422 91.2750015258789 90.0187530517578 88.8000030517578 87.8687515258789 87.0187530517578 86.78125 86.4937515258789 87.3375015258789 89.5562515258789 92.28125 96.0187530517578 100.15625 105.349998474121 110.212501525879 114.493751525879 117.962501525879 119.481246948242 119.581253051758 117.387496948242 114.974998474121 112.224998474121 105.762496948242 98.4812469482422 91.9875030517578 84.9437484741211 78.4812469482422 73.6374969482422 70.1937484741211 
185.168746948242 178.018753051758 170.162506103516 163.643753051758 157.925003051758 152.112503051758 142.331253051758 128.5625 117.868751525879 111.087501525879 107.75 106.856246948242 106.381248474121 105.956253051758 103.699996948242 100.525001525879 97.5374984741211 96.0250015258789 94.9499969482422 94.5250015258789 96.0875015258789 95.7249984741211 93.8375015258789 91.5749969482422 90.3062515258789 89.28125 88.3312530517578 87.3187484741211 86.09375 85.6875 86.375 88.0687484741211 90.46875 93.5124969482422 96.5875015258789 100.5 104.206253051758 106.662498474121 108.90625 109.387496948242 108.462501525879 105.456253051758 102.693748474121 98.1812515258789 90.8937530517578 84.5999984741211 79.03125 73.7874984741211 68.3062515258789 63.4375 59.1875 
194.768753051758 187.350006103516 179.706253051758 173.756256103516 168.543746948242 163.475006103516 155.237503051758 140.318740844727 129.699996948242 121.875 116.762504577637 114.525001525879 112.5 111.118751525879 108.893753051758 105.331253051758 102.199996948242 100.599998474121 99.5124969482422 99.7062530517578 102.243751525879 101.037498474121 97.5687484741211 93.9875030517578 91.0812530517578 88.65625 87 86.5374984741211 85.9937515258789 85.875 85.78125 86.8937530517578 88.4499969482422 90.84375 93.4749984741211 96.28125 98.59375 100.387496948242 101.074996948242 100.756248474121 98.2562484741211 94.6937484741211 91.375 87.3249969482422 79.1875 71.8249969482422 67.53125 63.125 59.2562484741211 55.2999992370605 50.5999984741211 
202.918746948242 195.75 188.162506103516 181.543746948242 176.050003051758 170.112503051758 160.543746948242 148.712493896484 138.956253051758 131.918746948242 126.3125 122.34375 119.449996948242 116.018753051758 113.318748474121 110.275001525879 106.625 105.074996948242 103.90625 103.418746948242 106.474998474121 105.056251525879 100.5 96.3000030517578 90.0250015258789 86.4937515258789 86.9000015258789 86.5187530517578 86.4499969482422 86.0749969482422 85.6062469482422 85.5687484741211 86.8312530517578 88.2312469482422 90.21875 92.4812469482422 94.0062484741211 95.53125 96.0812530517578 93.6437530517578 90.6187515258789 87.6312484741211 83.53125 75.3249969482422 66.6750030517578 63.9500007629395 61.0687484741211 56.8624992370605 52.6312484741211 48.71875 44.4937515258789 
209.637496948242 202.199996948242 194.693756103516 187.668746948242 181.043746948242 174.34375 165.274993896484 155.768753051758 147.706253051758 140.475006103516 134.375 129.481246948242 125.349998474121 121.618751525879 117.400001525879 114.300003051758 110.268753051758 108.018753051758 106.006248474121 104.618751525879 106.256248474121 104.787498474121 101.706253051758 98.3187484741211 93.4375 90.1187515258789 89.3125 88.21875 87.3499984741211 85.8499984741211 84.5250015258789 84.2125015258789 84.875 85.8874969482422 87.4749984741211 89.5500030517578 91.1062469482422 92.9375 93.5187530517578 91.7062530517578 87.1062469482422 81.40625 76.875 71.6812515258789 64.6062469482422 61.3187484741211 59.6812515258789 55.84375 50.53125 45.6312484741211 40.7687492370605 
214.143753051758 206.756256103516 198.337493896484 191.206253051758 184.262496948242 177.243743896484 170.149993896484 161.949996948242 154 147.206253051758 141.300003051758 136.037506103516 131.425003051758 127.462501525879 122.787498474121 119.431251525879 114.856246948242 111.256248474121 107.9375 106.018753051758 106.643753051758 105.84375 104.193748474121 103.237503051758 101.0625 97.96875 94.9937515258789 91.90625 89.1812515258789 86.15625 83.7312469482422 82.5562515258789 82.9562530517578 84.3562469482422 85.8187484741211 87.4625015258789 89.8499984741211 93.7624969482422 96.9375 94.9562530517578 89.1437530517578 82.9749984741211 78.6374969482422 74.09375 67.1062469482422 62.3187484741211 58.6437492370605 54.5499992370605 49.7312507629395 44.3250007629395 39.3062515258789 
216.737503051758 208.737503051758 200.774993896484 193.774993896484 186.800003051758 180.75 174.100006103516 166.475006103516 159.550003051758 153.381256103516 146.90625 140.706253051758 136.012496948242 132.193756103516 128.024993896484 123.800003051758 117.912498474121 113.356246948242 109.306251525879 106.412498474121 106.0625 106.28125 106.756248474121 109.162498474121 108.699996948242 105.262496948242 101.143753051758 96.3499984741211 91.5625 86.5437469482422 82.9749984741211 80.5749969482422 80.4187469482422 81.6500015258789 82.46875 83.4499969482422 88.1125030517578 93.3562469482422 99.125 98.8312530517578 95.2312545776367 88.9250030517578 83.0437469482422 77.0437469482422 70.5999984741211 65.2624969482422 61.15625 55.5999984741211 49.9874992370605 44.7062492370605 40.2750015258789 
217.087493896484 209.375 202.837493896484 196.725006103516 189.862503051758 184.324996948242 178.449996948242 171.637496948242 165.268753051758 158.40625 151.568756103516 144.949996948242 139.293746948242 134.78125 130.143753051758 125.212501525879 118.212501525879 112.931251525879 108.756248474121 105.8125 104.962501525879 105.637496948242 108.168746948242 113.762496948242 116.018753051758 110.518753051758 105.65625 98.9749984741211 92.1937484741211 86.0562515258789 82.0124969482422 79.96875 77.9000015258789 76.8249969482422 76.6999969482422 79.9499969482422 85.7750015258789 96.2750015258789 108.0625 106.650001525879 102.4375 95.3499984741211 87.3937530517578 81.1437530517578 74.7375030517578 69.1687469482422 63.7687492370605 58.0187492370605 52.8562507629395 46.8375015258789 42.59375 
217.46875 210.268753051758 205.100006103516 199.53125 193.4375 189.056243896484 183.899993896484 177.262496948242 170.693756103516 163.850006103516 156.837493896484 149.006256103516 142.21875 136.068756103516 130.412506103516 124.443748474121 117.456253051758 111.606254577637 108.006248474121 104.84375 103.3125 103.324996948242 105.568748474121 111.881248474121 115.043746948242 111.574996948242 108.300003051758 100.824996948242 92.40625 84.5687484741211 79.5625 77.1374969482422 76.875 77.3249969482422 75.1500015258789 73.21875 83.2874984741211 96.1875 106.106246948242 109.068748474121 106.0625 99.7624969482422 92.2312469482422 85.9437484741211 79.1437530517578 73.5250015258789 67.9749984741211 61.5750007629395 56.1812515258789 49.9187507629395 45.75 
216.024993896484 210.78125 206.899993896484 202.618743896484 197.887496948242 193.887496948242 189.106246948242 183.268753051758 177.456253051758 169.787506103516 161.043746948242 152.637496948242 144.231246948242 136.475006103516 130.012496948242 124.400001525879 117.53125 111.099998474121 107.418746948242 103.831253051758 101.199996948242 101.706253051758 101.025001525879 106.449996948242 109.650001525879 109.449996948242 106.662498474121 100.349998474121 92.9124984741211 83.8249969482422 77 77.2249984741211 81.09375 81.1624984741211 79.6062469482422 79.5437469482422 86.53125 95.6750030517578 103.724998474121 107.831253051758 107.362503051758 104.762496948242 97.2562484741211 91.0749969482422 84.2249984741211 77.9000015258789 72.8625030517578 66.7312469482422 60.625 52.6875 49.65625 
213.331253051758 210.293746948242 207.59375 204.65625 201.456253051758 199.168746948242 195.78125 190.78125 184.537506103516 176.75 166.962493896484 156.668746948242 146.75 137.381256103516 130.300003051758 124.393753051758 117.143753051758 112.362503051758 108.625 105.768753051758 101.068748474121 98.4312515258789 98.8312530517578 102.962501525879 105.449996948242 104.849998474121 103.268745422363 100.099998474121 93.2624969482422 85.4000015258789 80.4375 83.2624969482422 86.7750015258789 90.125 92.3499984741211 92.4312515258789 94.8375015258789 99.6374969482422 104.4375 107.743751525879 109.287498474121 107.71875 101.974998474121 95.9124984741211 89.3937530517578 83.46875 78.1312484741211 71.5687484741211 64.4499969482422 57.1937484741211 53.6749992370605 
209.618743896484 209.681243896484 209.987503051758 209.225006103516 207.612503051758 206.006256103516 204.012496948242 199.862503051758 193.793746948242 184.806243896484 174.237503051758 162.537506103516 151.493743896484 140.393753051758 132.675003051758 125.756248474121 118.65625 113.018753051758 110.224998474121 106.762496948242 103.375 100.793746948242 98.9187469482422 101.25 103.493751525879 103.78125 103.168746948242 99.5187530517578 95.4124984741211 92.4250030517578 90.90625 92.7624969482422 95.8812484741211 100.331253051758 105.412498474121 104.84375 103.65625 105.206253051758 107.481246948242 109.75 111.074996948242 109.574996948242 105.418754577637 100.8125 94.8125 89.0999984741211 84.2312469482422 77.1999969482422 69.1437530517578 62.9937515258789 58.5999984741211 
206.206253051758 209.762496948242 212.268753051758 213.306243896484 213.600006103516 213.631256103516 212.443756103516 209.693756103516 204.768753051758 194.84375 182.393753051758 169.425003051758 157.475006103516 147.0625 138.318756103516 131.131256103516 124.743751525879 118.706253051758 114.3125 110.393753051758 105.306251525879 101.731246948242 99.6374969482422 100.643753051758 101.306251525879 101.293746948242 102.40625 101.431251525879 100.375 99.7874984741211 99.8375015258789 101.675003051758 104.268753051758 108.162498474121 110.993751525879 111.59375 110.256248474121 109.6875 110.5 112.206253051758 113.125 111.756248474121 109.099998474121 105.106246948242 100.206253051758 95.0562515258789 90.6812515258789 83.5374984741211 75.7312469482422 69.84375 64.375 
205.956253051758 213.256256103516 217.631256103516 219.837493896484 219.949996948242 220.600006103516 220.668746948242 219.956253051758 217.518753051758 205.381256103516 191.012496948242 176.243743896484 164.443756103516 154.762496948242 145.475006103516 137.600006103516 130.78125 124.731246948242 119.181251525879 113.987503051758 108.862503051758 103.893753051758 100.300003051758 100.487503051758 100.25 98.8937530517578 101.1875 103.40625 103.974998474121 105.337501525879 107.53125 110.400001525879 112.162498474121 114.868751525879 116.556251525879 116.712501525879 115.418746948242 113.543746948242 113.724998474121 116.34375 117.78125 116.618751525879 114.262496948242 110.425003051758 105.637496948242 101.574996948242 97.8000030517578 90.8125 82.7312469482422 76.3874969482422 71.3125 
210.412506103516 220.712493896484 227.475006103516 228.237503051758 227.493743896484 227.78125 227.125 226.65625 223.262496948242 211.393753051758 196.024993896484 182.050003051758 170.393753051758 160.556243896484 151.600006103516 143.518753051758 136.675003051758 129.862503051758 123.375 117.199996948242 111.75 106.724998474121 101.806251525879 100.949996948242 99.7375030517578 97.3687515258789 98.8562469482422 103.018753051758 106.800003051758 110.125 113.556251525879 116.981246948242 118.8125 120.556251525879 121.925003051758 122.875 122.03125 119.956253051758 120.581253051758 122.5625 124 123.012496948242 120.5 116.375 113.181251525879 110.018753051758 106.412498474121 98.5374984741211 92.1812515258789 83.1687469482422 77.7249984741211 
222.1875 232.300003051758 239.443756103516 237.512496948242 235.274993896484 234.231246948242 232.131256103516 229.168746948242 223.893753051758 214.050003051758 201.449996948242 188.418746948242 177.262496948242 167.425003051758 158.1875 150.293746948242 142.931243896484 135.481246948242 128.137496948242 121.3125 115.21875 108.881248474121 103.949996948242 102.300003051758 100.856246948242 99.7437515258789 101.775001525879 105.900001525879 110.268753051758 114.375 118.324996948242 121.518753051758 124.068748474121 125.53125 127.037498474121 127.8125 128.462493896484 128.631256103516 129.175003051758 131.306243896484 132.59375 131.21875 128.393753051758 125.03125 119.78125 116.912498474121 113.181251525879 110.631248474121 104.087501525879 92.125 85.9562530517578 
236.987503051758 244.625 246.237503051758 245.212493896484 241.637496948242 239.0625 235.631256103516 231.181243896484 225.65625 217.506256103516 205.143753051758 194.012496948242 183.243743896484 173.53125 164.981246948242 156.90625 149.618743896484 141.143753051758 133.237503051758 125.662498474121 119.0625 112.143753051758 106.59375 104.831253051758 103.599998474121 102.987503051758 105.96875 109.831253051758 114.150001525879 118.637496948242 121.96875 126.168746948242 129.081253051758 130.449996948242 132.475006103516 133.806243896484 135.25 136.993743896484 138.518753051758 140.850006103516 142.487503051758 141.237503051758 138.143753051758 135.006256103516 129.537506103516 123.443748474121 127.993751525879 126.381248474121 118.331253051758 107.512496948242 98.5812530517578 
253.287506103516 254.837493896484 254.050003051758 251.324996948242 246.881256103516 243.893753051758 239.306243896484 233.925003051758 227 217.962493896484 208.449996948242 198.425003051758 188.449996948242 179.143753051758 170.362503051758 162.743743896484 154.6875 146.393753051758 137.875 129.731246948242 122.681251525879 115.243751525879 109.043746948242 108.181251525879 106.84375 106.474998474121 109.706253051758 113.800003051758 118.431251525879 122.625 126.84375 130.206253051758 133.537506103516 135.574996948242 137.350006103516 139.768753051758 142.3125 145.043746948242 148.050003051758 152.018753051758 154.681243896484 154.487503051758 152.293746948242 149.368743896484 146.306243896484 148.012496948242 151.975006103516 144.018753051758 133.225006103516 120.40625 109.862503051758 
268.987487792969 266.693756103516 263.1875 258.774993896484 253.006256103516 248.693756103516 243.818756103516 236.90625 229.087493896484 220.675003051758 211.068756103516 201.806243896484 193.168746948242 183.699996948242 175.475006103516 167.893753051758 160.412506103516 151.100006103516 142.524993896484 134.5625 126.512496948242 118.493751525879 112.381248474121 111.043746948242 109.949996948242 109.987503051758 113.893753051758 118.493751525879 122.618751525879 126.625 130.268753051758 134.037506103516 137.512496948242 139.8125 142.775009155273 145.550003051758 148.524993896484 153.168746948242 157.21875 163.081253051758 168.981246948242 169.15625 166.181243896484 165.056243896484 168.862503051758 175.175003051758 176.393753051758 163.331253051758 148.324996948242 133.300003051758 120.637496948242 
283.4375 278.537506103516 271.725006103516 265.956237792969 259.068756103516 252.65625 245.956253051758 238.949996948242 231.143753051758 223.443756103516 214.856246948242 206.168746948242 197.524993896484 188.25 180.662506103516 173.125 165.931243896484 156.4375 147.350006103516 139.03125 130.225006103516 121.931251525879 115.318748474121 113.868751525879 112.96875 113.462501525879 117.699996948242 122.525001525879 127.59375 131.068756103516 133.9375 137.550003051758 141.1875 143.943756103516 147.275009155273 151.074996948242 154.887496948242 159.675003051758 164.162506103516 170.943756103516 178.925003051758 179.712493896484 177.6875 179.806243896484 187.225006103516 194.59375 194.743743896484 178.71875 162.699996948242 147.050003051758 130.600006103516 
288.081237792969 282.493743896484 274.575012207031 266.5 259.706237792969 252.09375 245.806243896484 239.793746948242 233.268753051758 225.274993896484 218.0625 209.40625 201.768753051758 193.1875 185.449996948242 178.537506103516 170.550003051758 161.743743896484 152.268753051758 142.856246948242 134.15625 125.699996948242 118.493751525879 116.775001525879 116.412498474121 117.618751525879 121.918746948242 126.643753051758 131.21875 134.568756103516 137.862503051758 141.318756103516 145.0625 148.762496948242 152.306243896484 156.462493896484 160.556243896484 166.050003051758 168.962493896484 174.193740844727 181.375 186.09375 187.431243896484 192.699996948242 198.387496948242 204.493743896484 204.731246948242 193.356246948242 177.925003051758 161.818756103516 143.524993896484 
290.056243896484 283.768737792969 275.893737792969 266.081237792969 259.268737792969 253.40625 247.143753051758 241.449996948242 234.737503051758 227.125 220.962493896484 213.612503051758 207.012496948242 198.887496948242 190.600006103516 183.643753051758 176.324996948242 166.706253051758 156.943756103516 147.59375 138.137496948242 129.393753051758 121.956253051758 120.287498474121 120.168746948242 121.1875 125.599998474121 130.375 134.768753051758 137.96875 141.59375 145.087493896484 149.162506103516 153.5625 157.706253051758 161.5 166.181243896484 171.96875 173.637496948242 173.90625 181.09375 189.587493896484 195.868743896484 201.5625 207.09375 214.3125 215.262496948242 206.25 192.337493896484 175.975006103516 158.637496948242 
287.862487792969 281.731262207031 272.818756103516 265.043762207031 260.331237792969 252.837493896484 246.725006103516 241.568756103516 235.324996948242 228.743743896484 222.9375 217.024993896484 210.418746948242 203.40625 196.362503051758 189.287506103516 180.96875 170.518753051758 161.524993896484 152.0625 142.181243896484 133.012496948242 125.425003051758 123.675003051758 123.837501525879 124.743751525879 129.125 134.006256103516 138.306243896484 141.793746948242 145.3125 148.462493896484 153.0625 158.387496948242 162.456253051758 166.837493896484 171.956253051758 177.693756103516 177.96875 179.268753051758 187.168746948242 196.949996948242 204.181243896484 211.856246948242 218.037506103516 227.368743896484 229.837493896484 221.4375 206.774993896484 191.037506103516 173.518753051758 
275.681243896484 269.799987792969 262.481262207031 257 252.106246948242 245.481246948242 239.568756103516 234.512496948242 229.4375 225.087493896484 224.237503051758 218.943756103516 214.618743896484 209.818756103516 202.387496948242 194.225006103516 184.837493896484 174.649993896484 165.268753051758 155.893753051758 146.118743896484 137.018753051758 129.287506103516 128.018753051758 128.081253051758 128.912506103516 133.162506103516 137.59375 141.856246948242 146.0625 149.625 153.131256103516 156.925003051758 162.743743896484 168.606246948242 174.662506103516 179.724990844727 184.300003051758 185.806243896484 190.981246948242 198.987503051758 207.543746948242 215.425003051758 223.09375 232.78125 244.962493896484 247.925003051758 235.381256103516 222.15625 206.568756103516 188.837493896484 
259.618743896484 255.443756103516 250.893753051758 247.1875 242.081253051758 236.65625 231.331253051758 227 222.262496948242 220.143753051758 220.0625 219.875 219.625 214.625 207.725006103516 198.681243896484 188.899993896484 178.962493896484 168.706253051758 159.850006103516 150.15625 141.068756103516 133.493743896484 131.762496948242 132.212493896484 133.106246948242 136.768753051758 140.975006103516 145.431243896484 149.712493896484 153.96875 158.131256103516 163.0625 168.256256103516 175.262496948242 181.625 186.737503051758 191.625 195.431243896484 201.956253051758 208.631256103516 216.925003051758 226.324996948242 234.881256103516 245.449996948242 256.53125 257.118743896484 245.949996948242 233.287506103516 220.356246948242 203.375 
243.206253051758 240.987503051758 237.300003051758 235.306243896484 231.518753051758 226.887496948242 222.074996948242 218.706253051758 213.725006103516 212.862503051758 215.725006103516 219.03125 222.3125 220.912506103516 211.943756103516 202.456253051758 192.600006103516 182.518753051758 172.581253051758 163.106246948242 153.993743896484 144.868743896484 137.506256103516 135.568756103516 135.949996948242 136.856246948242 140.600006103516 145.068756103516 149.356246948242 153.537506103516 157.762496948242 162.693756103516 168.168746948242 174.574996948242 181.125 186.850006103516 192.168746948242 199.193756103516 204.056243896484 210.100006103516 216.793746948242 224 233.449996948242 241.962509155273 251.03125 257.200012207031 258.575012207031 251.949996948242 242.431243896484 230.931243896484 216.268753051758 
225.168746948242 223.46875 221.587493896484 219.199996948242 216.431243896484 213.118743896484 208.618743896484 205.056243896484 200.381256103516 199.037506103516 204.212493896484 210.731246948242 217.774993896484 218.756256103516 211.949996948242 203.293746948242 193.975006103516 184.875 175.600006103516 166.375 158.118743896484 149.987503051758 142.262496948242 140.512496948242 140.574996948242 140.96875 144.193756103516 148.318756103516 152.331253051758 157.037506103516 161.381256103516 166.412506103516 172.137496948242 179.412506103516 185.293746948242 190.043746948242 197.512496948242 203.649993896484 208.768753051758 214.518753051758 221.574996948242 228.668746948242 234.856246948242 243.231246948242 251.193756103516 254.518753051758 255.356246948242 252.475006103516 245.818756103516 235.981246948242 222.59375 
207.206253051758 206.149993896484 204.912506103516 203.34375 201.399993896484 198.574996948242 194.887496948242 191.487503051758 186.556243896484 183.068756103516 190.893753051758 204.181243896484 211.524993896484 213.087493896484 209.231246948242 202.850006103516 194.587493896484 186.487503051758 177.518753051758 168.699996948242 161.137496948242 153.625 147.118743896484 145.037506103516 144.600006103516 144.962493896484 147.637496948242 151.418746948242 155.59375 160.306243896484 165.262496948242 169.768753051758 176.856246948242 184.293746948242 189.268753051758 195.34375 201.90625 208.65625 213.487503051758 218.4375 224.706253051758 229.387496948242 235.768753051758 243.824996948242 250.481246948242 252.637496948242 255.006256103516 253.131256103516 247.087493896484 239.331253051758 228.618743896484 
189.987503051758 189.599990844727 188.787506103516 187.981246948242 187.09375 185.256256103516 183.806243896484 181.537506103516 178.0625 173.600006103516 187.668746948242 201.9375 207.449996948242 209.756256103516 206.850006103516 201.824996948242 194.725006103516 187.3125 179.356246948242 170.862503051758 163.75 156.362503051758 150.493743896484 148.28125 148.243743896484 148.618743896484 150.65625 154.137496948242 158.043746948242 163.193756103516 167.574996948242 172.887496948242 180.350006103516 187.375 193.443756103516 198.368743896484 205.393753051758 211.137496948242 216.9375 222.256256103516 225.800003051758 230.75 234.756256103516 240.399993896484 245.487503051758 248.112503051758 251.612503051758 252.237503051758 246.774993896484 240.324996948242 232.449996948242 
175.574996948242 175.46875 175.643753051758 175.449996948242 175.03125 174.212493896484 173.850006103516 174.800003051758 175.418746948242 181.731246948242 196.912506103516 201.612503051758 203.03125 204.399993896484 203.087493896484 199.793746948242 194.331253051758 187.71875 179.949996948242 172.800003051758 165.387496948242 158.512496948242 153.375 151.181243896484 150.381256103516 151.087493896484 153.368743896484 156.8125 160.149993896484 164.837493896484 170.0625 175 181.068756103516 187.125 194.106246948242 199.943756103516 204.881256103516 210.362503051758 215.568756103516 217.731246948242 221.53125 225.443756103516 227.9375 232.287506103516 236.59375 239.118759155273 239.618743896484 240.837493896484 237.774993896484 234.925003051758 227.6875 
162.074996948242 162.443756103516 163.318756103516 163.899993896484 163.818756103516 164.65625 165.181243896484 168.237503051758 171.975006103516 179.637496948242 189.112503051758 195.024993896484 198.199996948242 199.699996948242 199.837493896484 197.53125 193.962493896484 188.40625 181.043746948242 173.768753051758 166.774993896484 160.21875 155.137496948242 153.012496948242 152.96875 153.381256103516 155.506256103516 158.987503051758 162.3125 166.850006103516 171.34375 176.837493896484 183.725006103516 189.112503051758 195.737503051758 200.074996948242 203.606246948242 208.137496948242 212.824996948242 213.024993896484 215.087493896484 218.53125 220.050003051758 223.037506103516 225.618743896484 227.556243896484 229.368743896484 230.65625 229.65625 227.65625 221.956253051758 
148.137496948242 149.331253051758 150.537490844727 151.393753051758 152.537506103516 153.387496948242 155.743743896484 159.206253051758 164.274993896484 171.46875 179.518753051758 185.831253051758 191.637496948242 194.71875 196.5 195.931243896484 193.356246948242 188.931243896484 182.15625 174.75 167.40625 160.475006103516 155.9375 154.243743896484 155.168746948242 155.456253051758 157.306243896484 160.506256103516 163.6875 168 173.78125 180.774993896484 186.524993896484 191.693756103516 197.024993896484 200.381256103516 203.59375 206.574996948242 209.462493896484 209.262496948242 209.712493896484 211.181243896484 211.456253051758 213.699996948242 216.356246948242 219.743743896484 221.306243896484 220.306243896484 222.024993896484 220.587493896484 216.3125 
130.537506103516 133.175003051758 134.737503051758 135.837493896484 137.237503051758 138.699996948242 141.712493896484 145.512496948242 151.493743896484 158.362503051758 166.443756103516 173.71875 181.287506103516 186.606246948242 189.956253051758 191.756256103516 191.918746948242 188.487503051758 183.6875 175.612503051758 166.449996948242 159.793746948242 154.925003051758 153.493743896484 155.387496948242 155.875 157.256256103516 160.225006103516 164.399993896484 170.449996948242 174.581253051758 181.443756103516 187.262496948242 194.1875 199.362503051758 200.481246948242 202.181243896484 204.537506103516 205.431243896484 204.143753051758 203.943756103516 201.887496948242 201.206253051758 204.568756103516 207.899993896484 211.725006103516 212.356246948242 211.475006103516 214.412506103516 212.643753051758 209.074996948242 
113.006248474121 115.637496948242 118.462501525879 119.931251525879 120.6875 122.46875 125.768753051758 129.712493896484 135.600006103516 143.387496948242 152.231246948242 161.274993896484 170.524993896484 177.574996948242 183.612503051758 187.537506103516 189.675003051758 190.012496948242 186.481246948242 177.262496948242 165.949996948242 156.8125 152.84375 153.8125 155.418746948242 156.618743896484 158.043746948242 160.737503051758 165.100006103516 170.512496948242 175.418746948242 180.15625 185.71875 192.3125 199.75 203.050003051758 201.625 202.243743896484 201.425003051758 199.78125 198.337493896484 196.481246948242 195.368743896484 197.375 200.40625 202.018753051758 204.193756103516 204.318756103516 207.175003051758 206.237503051758 202.912506103516 
95.2750015258789 98.5187530517578 101.675003051758 103.375 104.03125 105.768753051758 108.599998474121 113.21875 119.456253051758 127.824996948242 138.081253051758 149.199996948242 159.4375 169 177.449996948242 183.449996948242 187.6875 189.556243896484 189.75 181.149993896484 167.931243896484 156.637496948242 152.918746948242 154.137496948242 155.774993896484 157.78125 158.899993896484 161.881256103516 165.59375 170.612503051758 174.431243896484 178.387496948242 183.368743896484 190.181243896484 198.306243896484 205.418746948242 202.987503051758 200.393753051758 198.475006103516 195.643753051758 193.850006103516 191.9375 190.649993896484 192.681243896484 194.106246948242 194.225006103516 196.212493896484 197.574996948242 197.831253051758 199.3125 196.975006103516 
78.59375 82.1687469482422 85.84375 87.1187515258789 87.4499969482422 89.1812515258789 91.1937484741211 95.2312469482422 102.40625 112.0625 123.512496948242 136.837493896484 149.987503051758 161.8125 172.5 180.012496948242 185.59375 187.431243896484 186.912506103516 181.737503051758 169.925003051758 161.793746948242 156.074996948242 155.1875 157.0625 158.625 160.3125 162.75 166.824996948242 171.46875 174.693756103516 178.699996948242 183.162506103516 188.318756103516 195.231246948242 202.237503051758 201.675003051758 198.518753051758 195.699996948242 193.793746948242 191.806243896484 189.643753051758 188.8125 188.618743896484 189.600006103516 189.962509155273 191.168746948242 192.8125 192.40625 194.581253051758 193.043746948242 
