ncols        51
nrows        45
xllcorner    -63.500000000000
yllcorner    -7.500000000000
cellsize     0.166666666667
NODATA_value -99
193.475006103516 191.268753051758 184.837493896484 181.050003051758 175.5 173.268753051758 168.8125 161.71875 154.506256103516 149.40625 145.806243896484 141.71875 136.475006103516 128.043746948242 121.787498474121 117.34375 113.25 107.956253051758 107.699996948242 107.474998474121 108.943748474121 111.668746948242 114.400001525879 116.800003051758 120.568748474121 123.824996948242 129.387496948242 136.350006103516 143.943756103516 149.362503051758 155.181243896484 161.100006103516 165.46875 171.34375 175.3125 175.693756103516 172.862503051758 168.493743896484 162.387496948242 155.34375 147.518753051758 139.475006103516 130.574996948242 122.262496948242 116.706253051758 109.699996948242 104.043746948242 103.574996948242 104.28125 106.537498474121 112.006248474121 
204.481246948242 201.0625 195.987503051758 191.412506103516 187.75 185.6875 181.09375 176.443756103516 171.043746948242 165.737503051758 159.493743896484 152.418746948242 144.431243896484 136.887496948242 129.731246948242 123.412498474121 117.606246948242 113.743751525879 112.668746948242 113.231246948242 115.612503051758 118.175003051758 121.275001525879 124.506248474121 126.84375 129.418746948242 135.318756103516 141.912506103516 148.524993896484 154.600006103516 159.949996948242 164.987503051758 169.53125 176.693756103516 180.393753051758 177.193756103516 174.412506103516 168.274993896484 159.512496948242 150.262496948242 141.03125 131.412506103516 120.537498474121 110.856246948242 103.8125 96.1624984741211 89.7562484741211 88.625 88.5562515258789 89.46875 94.7375030517578 
213.850006103516 210.987503051758 205.818756103516 201.693756103516 198.65625 196.399993896484 193.293746948242 190.425003051758 185.606246948242 180.068756103516 172.931243896484 164.181243896484 155.456253051758 146.199996948242 138.043746948242 129.918746948242 123.5 119.724998474121 117.974998474121 119.243751525879 122.006248474121 125.462501525879 128.256256103516 130.293746948242 131.837509155273 133.556243896484 139.387496948242 145.800003051758 151.287506103516 156.550003051758 163.024993896484 168.962509155273 174.78125 178.831253051758 183.725006103516 179.587493896484 175.0625 168.912506103516 158.824996948242 147.693756103516 137.556243896484 126.65625 115.3125 104.668746948242 96.6812515258789 89.2750015258789 83.0062484741211 82.1500015258789 81.6624984741211 82.6687469482422 88 
221.112503051758 218.90625 216.706253051758 213 211.524993896484 205.78125 204.056243896484 203.449996948242 200.71875 196.306243896484 187.050003051758 176.225006103516 165.78125 155.481246948242 146.706253051758 137.699996948242 129.631256103516 124.40625 123.256248474121 126.118751525879 130.34375 133.612503051758 134.28125 136.018753051758 137.09375 138.212493896484 143.993743896484 148.662490844727 153.78125 159.543746948242 165.850006103516 173.243743896484 178.300003051758 182.356246948242 185.375 181.893753051758 175.543746948242 168.71875 157.912506103516 146.356246948242 133.856246948242 122.612503051758 110.631248474121 98.9312515258789 90.9124984741211 83.7125015258789 77.8375015258789 76.59375 76.4812469482422 77.1624984741211 82.5374984741211 
235.793746948242 230.637496948242 225.837493896484 223.362503051758 221.375 217.21875 213.731246948242 214.050003051758 214.149993896484 211.3125 199.6875 187.337493896484 176.768753051758 166.5 156.875 146.956253051758 137.418746948242 129.675003051758 130.056243896484 134.975006103516 139.956253051758 141.931243896484 141.868743896484 142.131256103516 141.975006103516 143.225006103516 146.59375 150.893753051758 157.431243896484 163.050003051758 169.568756103516 174.625 180.625 185.831253051758 188.84375 184.168746948242 178.018753051758 168.868743896484 157.087493896484 144.100006103516 131.71875 119.018753051758 106.625 94.2062530517578 86.0687484741211 79.3812484741211 73.4625015258789 72.375 72.1187515258789 72.9375 78.28125 
246.712493896484 242.918746948242 237.324996948242 232.143753051758 228.899993896484 224.768753051758 221.668746948242 220.1875 220.168746948242 218.543746948242 206.78125 196.262496948242 186.350006103516 177.243743896484 167.550003051758 159.824996948242 150.149993896484 141.737503051758 143.368743896484 147.931243896484 150.493743896484 150.3125 149.65625 147.925003051758 147.043746948242 147.037506103516 150.462493896484 154.274993896484 159.887496948242 166.381256103516 172.175003051758 177.65625 181.931243896484 187.543746948242 192.837493896484 188.012496948242 181.725006103516 173.649993896484 161.524993896484 148.643753051758 134.449996948242 121.868751525879 108.912498474121 96.5250015258789 88.5625 81.5749969482422 75.9312515258789 75.65625 76.3687515258789 77.3062515258789 81.2312469482422 
257.412506103516 254.175003051758 248.287506103516 240.137496948242 233.53125 226.631256103516 222.387496948242 219.074996948242 216.15625 211.518753051758 206.587493896484 200.668746948242 195.131256103516 188.412506103516 181.206253051758 175.393753051758 169.862503051758 166.706253051758 167.050003051758 166.162490844727 162.068756103516 159.300003051758 155.087493896484 152.53125 151.206253051758 149.743743896484 152.881256103516 156.90625 161.268753051758 167.362503051758 174.487503051758 180.212493896484 184.25 189.018753051758 193.556243896484 190.831253051758 185.300003051758 178.600006103516 167.59375 153.125 137.975006103516 125.068748474121 112.162498474121 99.9499969482422 92.125 85.9437484741211 80.4937515258789 80.4562530517578 81.4124984741211 82.6750030517578 87.21875 
269.587493896484 263.168762207031 255.631256103516 247.393753051758 238.918746948242 231.524993896484 223.574996948242 213.681243896484 205.918746948242 204.412506103516 205.762496948242 205.324996948242 203.850006103516 198.981246948242 194.918746948242 191.487503051758 189.65625 189.768753051758 191.618743896484 184.181243896484 173.462493896484 166.53125 160.231246948242 156.943756103516 155.050003051758 152.425003051758 154.693756103516 158.199996948242 163.387496948242 169.800003051758 175.78125 181.84375 185.90625 190.612503051758 194.868743896484 192.699996948242 188.506256103516 182.84375 171.056243896484 157.274993896484 142.587493896484 129.6875 116.831253051758 104.412498474121 97.4812469482422 91.8249969482422 86.5875015258789 86.5812530517578 87.75 89.3812484741211 92.0500030517578 
279.518737792969 272.5625 264.450012207031 254.175003051758 245.612503051758 236.25 226.918746948242 216.524993896484 206.118743896484 202.518753051758 209.387496948242 212.668746948242 214.368743896484 211.46875 208.193756103516 204.975006103516 202.862503051758 202.34375 202.056243896484 192.243743896484 178.75 170.706253051758 163.149993896484 161.118743896484 158.324996948242 154.925003051758 157.256256103516 160.137496948242 165.462493896484 172.506256103516 179.393753051758 184.443756103516 188.824996948242 192.981246948242 197.03125 195.024993896484 192.493743896484 187.8125 176.387496948242 163.118743896484 148.600006103516 135.90625 124.412498474121 113.087501525879 106.556251525879 101.21875 96.3000030517578 96.5875015258789 97.0812530517578 97.9000015258789 100.71875 
288.825012207031 281.325012207031 270.893737792969 260.568756103516 251.78125 242.962493896484 233.712493896484 225.199996948242 218.881256103516 218.262496948242 221.993743896484 225.15625 226.699996948242 224.649993896484 220.893753051758 216.96875 212.418746948242 207.612503051758 201.462493896484 192.181243896484 179.618743896484 171.425003051758 164.643753051758 163.712493896484 159.631256103516 155.287506103516 157.768753051758 161.381256103516 166.137496948242 173.256256103516 179.975006103516 185.774993896484 190.806243896484 195.668746948242 200.100006103516 198.293746948242 196.074996948242 192.625 181.581253051758 168.818756103516 155.856246948242 143.850006103516 132.568756103516 121.162498474121 115.9375 112.493751525879 107.431251525879 107.525001525879 107.931251525879 108.824996948242 109.681251525879 
299.206237792969 291.362487792969 278.8125 267.1875 256.875 249.100006103516 241.387496948242 236.231246948242 233.3125 234.056243896484 238.606246948242 241.506256103516 240.4375 237.131256103516 231.618743896484 225.512496948242 218 209.112503051758 199.043746948242 188.193756103516 178.037506103516 169.837493896484 165.137496948242 162.837493896484 160.618743896484 155.118743896484 157.324996948242 161.356246948242 166.1875 172.237503051758 179.137496948242 185.943756103516 191.800003051758 197.306243896484 201.806243896484 201.493743896484 199.84375 196.34375 186.587493896484 174.975006103516 162.612503051758 150.524993896484 139.78125 129.181243896484 124.849998474121 123.71875 117.849998474121 116.131248474121 116.974998474121 118.425003051758 119.09375 
305.962493896484 297.318756103516 285.112487792969 274.712493896484 264.787506103516 256.731262207031 250.706253051758 248.818756103516 248.293746948242 249.606246948242 254.8125 259.53125 255.59375 249.337493896484 241.856246948242 232.5625 223.25 210.21875 198.149993896484 185.125 173.90625 166.418746948242 163.693756103516 164.462493896484 161.287506103516 154.018753051758 156.712493896484 161.375 167.393753051758 174.762496948242 181.925003051758 188.493743896484 194.46875 199.993743896484 204.681243896484 204.506256103516 203.0625 199.581253051758 190.699996948242 180.631256103516 169.375 157.524993896484 145.331253051758 134.231246948242 129.412506103516 125 118.787498474121 120.09375 122.199996948242 126.193748474121 126.775001525879 
313.712493896484 305.274993896484 293.424987792969 282.262512207031 272.149993896484 266.59375 261.5625 259 259.850006103516 262.712493896484 267.831237792969 272.4375 268.450012207031 258.149993896484 248.975006103516 238.418746948242 226.71875 213.28125 199.237503051758 184.412506103516 168.806243896484 162.368743896484 161.118743896484 160.375 154.199996948242 148.387496948242 154.493743896484 162.087493896484 169.262496948242 177.387496948242 184.943756103516 191.425003051758 196.712509155273 201.975006103516 206.481246948242 206.225006103516 204.331253051758 200.925003051758 192.787506103516 183.949996948242 174.787506103516 162.78125 147.943756103516 134.868743896484 129.725006103516 126.875 122.643753051758 122.787498474121 126.081253051758 131.5 136.162506103516 
318.681243896484 311.018737792969 299.293762207031 288.331237792969 278.962493896484 272.34375 268.356262207031 268.162506103516 269.743743896484 273.03125 275.712493896484 277.575012207031 272.350006103516 264.162506103516 252.600006103516 242.243743896484 229.25 215.668746948242 200.543746948242 185.881256103516 172.037506103516 163.987503051758 158.637496948242 156.268753051758 150.356246948242 146.706253051758 153.78125 162.387496948242 171.712493896484 179.975006103516 187.806243896484 194.512496948242 199.100006103516 203.293746948242 207.856246948242 206.956253051758 205.112503051758 202.300003051758 194.287506103516 185.306243896484 175.324996948242 159.78125 146.46875 136.418746948242 133.274993896484 129.637496948242 126.912498474121 130.068756103516 132.831253051758 137.975006103516 144.9375 
321.006256103516 313.524993896484 303.024993896484 292.674987792969 284.931243896484 279.543762207031 277.024993896484 275.956237792969 276.96875 278.5625 280.84375 280.40625 275.618743896484 267.96875 255.787506103516 244.1875 230.762496948242 215.793746948242 201.324996948242 188.350006103516 175.899993896484 165.631240844727 158.862503051758 155.71875 152.774993896484 150.949996948242 158.050003051758 167.46875 176.881256103516 185.90625 193.40625 198.956253051758 203.9375 207.006256103516 210.150009155273 207.331253051758 204.75 201.8125 193.512496948242 180.143753051758 165.15625 153.862503051758 145.993743896484 138.943756103516 134.9375 131.931243896484 129.268753051758 133.462493896484 138.768753051758 142.012496948242 146.5 
321.274993896484 313.549987792969 304.168762207031 294.712493896484 288.037506103516 283.625 281.868743896484 280.65625 280.587493896484 282.418762207031 284.206237792969 283.068756103516 278.331237792969 270.568756103516 258.787506103516 243.899993896484 230.850006103516 216.15625 201.375 188.912506103516 178.556243896484 168.568756103516 160.681243896484 157.899993896484 155.90625 155.331253051758 162.393753051758 172.962493896484 183.612503051758 193.425003051758 201.018753051758 205.706253051758 207.306243896484 209.181243896484 210.518753051758 208.1875 204.606246948242 199.612503051758 190.387496948242 175.537506103516 158.568756103516 149.931243896484 145.293746948242 139.493743896484 136.28125 133.774993896484 131.949996948242 135.668746948242 139.524993896484 143.518753051758 146.831253051758 
318.493743896484 311.5 302.100006103516 294.1875 289.0625 285.462493896484 284.518737792969 283.393737792969 283.387481689453 284.15625 286.137512207031 285.362487792969 280.40625 272.412506103516 260.5625 245.899993896484 227.668746948242 212.78125 199.918746948242 189.65625 179.6875 170.556243896484 162.493743896484 159.96875 159.643753051758 159.568756103516 166.59375 177.668746948242 190.199996948242 201.293746948242 209.9375 214.112503051758 213.037506103516 211.6875 213.675003051758 210.362503051758 204.643753051758 199.743743896484 193.237503051758 176.324996948242 159.78125 151.1875 145.262496948242 140.337493896484 137.543746948242 135.443756103516 133.512496948242 136.925003051758 141.393753051758 144.818756103516 148.681243896484 
314.356262207031 307.887512207031 299.168762207031 292.78125 287.637512207031 285.53125 285.106262207031 284.299987792969 283.59375 284.087493896484 283.818756103516 284.556243896484 280.393737792969 272.399993896484 259.762512207031 243.456253051758 224.774993896484 207.287506103516 197.793746948242 188.649993896484 180.824996948242 172.362503051758 164.762496948242 163.199996948242 163.443756103516 164.862503051758 171.131256103516 183.693756103516 198.40625 211.1875 219 217.699996948242 214.875 213.706253051758 213.381256103516 209.462493896484 206.087493896484 201.231246948242 192.306243896484 179.018753051758 162.65625 152.212493896484 144.975006103516 139.675003051758 137.287506103516 135.637496948242 134.481246948242 138.149993896484 143.056243896484 145.625 150.556243896484 
306.212493896484 300.78125 293.600006103516 289.068756103516 285.518737792969 284.299987792969 282.887512207031 283.306243896484 282.693756103516 282.412506103516 281.137512207031 279.287506103516 276.612518310547 272.03125 257.643737792969 238.40625 218.387496948242 201.287506103516 189.893753051758 183.524993896484 179.243743896484 173.418746948242 163.949996948242 164.975006103516 166.875 170.337493896484 178.987503051758 190.637496948242 206.012496948242 219.824996948242 228.75 224.331253051758 217.431243896484 210.274993896484 207.081253051758 205.78125 204.3125 199.537506103516 192.443756103516 179.899993896484 164.899993896484 153.149993896484 144.6875 139.100006103516 136.956253051758 135.512496948242 135.46875 140.056243896484 144.637496948242 145.818756103516 153.337493896484 
297.087493896484 292.137512207031 286.225006103516 281.399993896484 279.431243896484 280.643737792969 280.543762207031 280.043762207031 278.768737792969 277.537506103516 274.837493896484 272.75 272.5625 271.424987792969 253.09375 228.831253051758 207.3125 194.231246948242 184.412506103516 178.050003051758 173.34375 166.981246948242 162.34375 164.887496948242 168.993743896484 175.081253051758 184.425003051758 196.800003051758 209.393753051758 220.050003051758 226.78125 224.256256103516 214.581253051758 203.425003051758 197.393753051758 198.106246948242 202.006256103516 202.131256103516 195.543746948242 183.699996948242 168.493743896484 154.706253051758 146.243743896484 139.9375 137.75 136.912506103516 136.893753051758 141.137496948242 145.78125 148.143753051758 156.243743896484 
284.756256103516 280.8125 277.21875 275.100006103516 273.293762207031 274.887512207031 277.125 276.712493896484 274.293731689453 269.575012207031 263.787506103516 258.506256103516 255.393753051758 252.543746948242 236.681243896484 214.21875 196.668746948242 184.612503051758 177.268753051758 170.362503051758 168.050003051758 165.287506103516 162.862503051758 167.4375 173.612503051758 180.550003051758 189.59375 199.5625 209.1875 217.837493896484 221.53125 220.706253051758 211.306243896484 200.737503051758 190.899993896484 196.668746948242 207.543746948242 212.03125 206.425003051758 193.65625 177.356246948242 163.212493896484 152.125 143.412506103516 140.425003051758 139.037506103516 138.84375 143.518753051758 146.862503051758 151.293746948242 159.024993896484 
273.8125 268.274993896484 265.25 265.118743896484 266.243743896484 268.487487792969 270.600006103516 271.987487792969 269.293762207031 260.443756103516 249.681243896484 237.46875 228.149993896484 221.550003051758 211.774993896484 198.0625 186.631256103516 177.862503051758 171.006256103516 165.475006103516 162.8125 161.5625 161.737503051758 167.46875 174.6875 182.981246948242 194.231246948242 203.199996948242 210.887496948242 216.818756103516 218 216.893753051758 211.193756103516 207.149993896484 204.912506103516 210.112503051758 221.8125 229.018753051758 222.787506103516 207.018753051758 188.081253051758 171.762496948242 158.625 148.149993896484 143.806243896484 141.618743896484 140.59375 145.412506103516 149.274993896484 155.756256103516 162.893753051758 
263.518737792969 257.825012207031 253.574996948242 253.912506103516 257.137512207031 261.512512207031 264.056243896484 266.081237792969 264.962493896484 251.768753051758 234.143753051758 215.243743896484 200.699996948242 193.6875 189.875 183.543746948242 175.606246948242 169.600006103516 164.162506103516 159.537506103516 158.524993896484 158.168746948242 158.881256103516 165.125 174.181243896484 184.737503051758 197.081253051758 205.887496948242 212.1875 215.324996948242 215.65625 215.706253051758 216.368743896484 217.412506103516 220.831253051758 225.800003051758 238.043746948242 251.512496948242 242.774993896484 219.943756103516 197.793746948242 179.96875 163.962493896484 151.943756103516 146.78125 144.074996948242 143.162506103516 147.625 152.956253051758 160.193756103516 167.743743896484 
254.787506103516 247.231246948242 242.087493896484 243.475006103516 248.71875 252.793746948242 255.975006103516 257.612487792969 254.262496948242 238.887496948242 219.243743896484 199.71875 180.09375 175.774993896484 176.581253051758 173.618743896484 168.362503051758 164.387496948242 160.631256103516 157.381256103516 156.149993896484 155.800003051758 156.681243896484 162.925003051758 172.931243896484 183.962493896484 197.550003051758 206.118743896484 212.431243896484 217.425003051758 220.324996948242 223.574996948242 226.4375 230.15625 235.574996948242 240.987503051758 251.068756103516 262.256256103516 252.762496948242 229.725006103516 206.731246948242 187.162506103516 170.125 157.050003051758 151.850006103516 149.087493896484 147.75 151.293746948242 159.362503051758 166.068756103516 174.1875 
247.737503051758 239.149993896484 232.768753051758 236.818756103516 244.925003051758 247.393753051758 248.125 247.125 240.206253051758 226.768753051758 209.649993896484 192.737503051758 178.087493896484 171.5625 169.6875 167.443756103516 163.762496948242 161.756256103516 158.856246948242 155.5 154.25 153.112503051758 153.574996948242 159.556243896484 169.362503051758 181.600006103516 194.399993896484 205.893753051758 214.381256103516 222.574996948242 229.199996948242 236.3125 239.243743896484 243.625 249.118743896484 252.137496948242 258.431243896484 260.637512207031 250.824996948242 232.949996948242 211.899993896484 192.449996948242 175.143753051758 162.381256103516 155.425003051758 153.137496948242 150.712493896484 158.350006103516 165.34375 173.387496948242 181.268753051758 
246.631256103516 240.618743896484 235.787506103516 239.050003051758 243.225006103516 243.774993896484 241.862503051758 237.231246948242 228.6875 216.412506103516 202.850006103516 190.331253051758 178.824996948242 171.231246948242 167.368743896484 164.550003051758 161.712493896484 160.574996948242 158.524993896484 155.34375 154.125 151.462493896484 150.868743896484 155.425003051758 165.862503051758 179.331253051758 194.225006103516 206.993743896484 218.28125 227.375 238.65625 249.056243896484 253.493743896484 256.399993896484 260.96875 261.662506103516 263.381256103516 261.112487792969 250.40625 234.243743896484 215.606246948242 196.262496948242 178.206253051758 165.649993896484 160.256256103516 156.893753051758 160.90625 168.956253051758 174.256256103516 180.90625 187.956253051758 
249.681243896484 245.112503051758 242.912506103516 243.818756103516 244.375 242.59375 239.181243896484 232.231246948242 223.300003051758 213.5625 202.6875 193.081253051758 184.043746948242 177.081253051758 172.537506103516 169.431243896484 166.512496948242 165.193756103516 163.512496948242 159.53125 156.71875 154.193756103516 151.300003051758 154.899993896484 166.96875 180.506256103516 195.631256103516 209.725006103516 222.856246948242 233.9375 247.318756103516 259.131256103516 265.462493896484 268.424987792969 270.837493896484 271.206268310547 271.037506103516 266.25 253.8125 238.918746948242 221.012496948242 201.143753051758 183.518753051758 171.375 170.306243896484 173.449996948242 177.193756103516 182.412506103516 187.574996948242 190.175003051758 196.15625 
255.0625 250.662506103516 249.643753051758 249.125 247.806243896484 243.15625 237.418746948242 229.449996948242 221.1875 212.106246948242 203.050003051758 195.931243896484 188.618743896484 182.625 178.387496948242 175.368743896484 172.375 172.162506103516 169.175003051758 165.631240844727 163.481246948242 159.762496948242 159.0625 163.381256103516 173.3125 185.287506103516 199.975006103516 213.943756103516 227.943756103516 241.206253051758 254.149993896484 266.325012207031 272.899993896484 275.881256103516 278.868743896484 279.056243896484 277.337493896484 273.024993896484 261.268768310547 245.762496948242 229.125 209.6875 190.850006103516 179.5625 185.699996948242 192.0625 195.368743896484 198.46875 200.699996948242 201.381256103516 204.875 
258.737487792969 255.856246948242 254.84375 254.481246948242 252.081253051758 245.106246948242 236.256256103516 228.368743896484 220.018753051758 212.056243896484 204.681243896484 198.868743896484 193.306243896484 189.487503051758 185.962493896484 183.649993896484 182.331253051758 180.918746948242 178.175003051758 174.449996948242 171.71875 168.300003051758 167.856246948242 173.018753051758 181.5625 191.912506103516 206.106246948242 220.0625 234.862503051758 248.199996948242 260.231231689453 271.75 278.375 283.075012207031 287.125 286.975006103516 286.381256103516 282.431243896484 271.481262207031 256.237487792969 238.243743896484 219.675003051758 203.893753051758 197.262496948242 204.243743896484 209.693740844727 212.78125 213.581253051758 214.34375 213.675003051758 214.425003051758 
261.443756103516 259.662506103516 260.912506103516 262.350006103516 259.981262207031 250.837493896484 240.600006103516 232.606246948242 224.643753051758 216.925003051758 211.100006103516 207.25 203.256256103516 200.306243896484 198.056243896484 195.762496948242 193.881256103516 193.037506103516 191.143753051758 186.449996948242 183.03125 180.518753051758 179.418746948242 184.106246948242 192.149993896484 201.84375 214.90625 228.175003051758 242.431259155273 254.524993896484 266.625 277.612487792969 283.731262207031 290.03125 294.581237792969 295.950012207031 296.100006103516 295.09375 284.868743896484 271.787506103516 257.387512207031 241.837493896484 228.956253051758 223.15625 223.893753051758 229 230.399993896484 232.256256103516 231.21875 228.274993896484 228.193756103516 
261.59375 261.112487792969 262.100006103516 264.71875 264.581237792969 253.550003051758 244.149993896484 236.050003051758 228.912506103516 222.831253051758 218.649993896484 216.149993896484 213.668746948242 211.074996948242 209.850006103516 207.962493896484 206.800003051758 206.4375 204.581253051758 199.78125 195.493743896484 192.106246948242 191.381256103516 195.637496948242 202.512496948242 212.3125 224.774993896484 237.25 251.293746948242 262.043762207031 273.331237792969 283.918762207031 290.006256103516 296.768737792969 302.193756103516 305.0625 306.581237792969 308.375 301.100006103516 290.231262207031 279.356262207031 266.412506103516 255.5 247.268753051758 246.168746948242 251.324996948242 252.506256103516 253.412506103516 250.018753051758 243.943756103516 242.356246948242 
258.618743896484 258.5 259.493743896484 261.162506103516 260.212493896484 252.118743896484 245.668746948242 238.162506103516 232.425003051758 227.737503051758 224.856246948242 223.731246948242 222.862503051758 222.381256103516 222.068740844727 220.568756103516 218.506256103516 217.662506103516 214.774993896484 210.78125 206.231246948242 202.762496948242 202.225006103516 206.149993896484 213.581253051758 222.46875 233.800003051758 246.243743896484 258.612487792969 269.6875 280.081237792969 289.924987792969 296.756256103516 304.03125 310.418762207031 314.081237792969 318.9375 320.637512207031 314.3125 306.84375 301.700012207031 291.649993896484 282.59375 277.306243896484 275.956237792969 282.174987792969 282.606262207031 278.71875 270.518737792969 261.762512207031 258.299987792969 
251.012496948242 251.256256103516 252.956253051758 254.356246948242 252.918746948242 247.90625 243.050003051758 238.375 233.081253051758 231.225006103516 231.668746948242 232.59375 235.09375 237.543746948242 236.912506103516 235.143753051758 232.462493896484 229.949996948242 226.324996948242 222.618743896484 218.46875 215.131256103516 214.018753051758 218.84375 225.40625 233.868743896484 244.518753051758 255.056243896484 266.825012207031 278.5625 288.024993896484 296.206237792969 303.862487792969 312.200012207031 318.424987792969 323.5 328.212493896484 330.862487792969 325.418762207031 324.112487792969 321.518737792969 314.962493896484 309.818756103516 308.368743896484 313.162506103516 323.512512207031 320.231262207031 307.5625 294.4375 281.893737792969 275.837493896484 
242.0625 242.887496948242 244.631256103516 246.206253051758 244.75 242.550003051758 240.5 237.762496948242 234.0625 232.587493896484 235.21875 241.462493896484 247.975006103516 251.96875 251.743743896484 249.350006103516 247.143753051758 244.175003051758 239.037506103516 234.181243896484 230.487503051758 227.550003051758 226.475006103516 230.643753051758 236.675003051758 243.925003051758 253.581253051758 264.487487792969 276.549987792969 286.456237792969 296.1875 304.306243896484 311.774993896484 320.912506103516 327.837493896484 332.975006103516 337.043762207031 338.793762207031 337.850006103516 338.787506103516 338.087493896484 335.424987792969 334.424987792969 336.350006103516 343.543762207031 353.193756103516 348.59375 332.712493896484 316.78125 301.78125 293.756256103516 
234.431243896484 234.899993896484 236.768753051758 237.662506103516 237.449996948242 237.518753051758 236.587493896484 235.4375 231.137496948242 231.65625 238.40625 249.018753051758 261.40625 269.018737792969 268.450012207031 264.818756103516 261.5625 257.012512207031 251.34375 244.806243896484 241.893753051758 239.287506103516 238.256256103516 241.637496948242 247.212493896484 252.737503051758 262.71875 273.887481689453 285.34375 294.068756103516 303.268737792969 312.287506103516 320.487487792969 328.756256103516 335.625 340.34375 343.181243896484 347.96875 349.100006103516 350.068756103516 351.5625 350.412506103516 352.037506103516 355.350006103516 360.825012207031 363.393737792969 360.15625 347.674987792969 332.206237792969 318.450012207031 310.28125 
227.649993896484 227.449996948242 228.75 229.243743896484 229.056243896484 228.350006103516 227.962493896484 226.024993896484 222.431243896484 223.931243896484 234.987503051758 252.350006103516 270.506256103516 281.975006103516 282.78125 279.793762207031 275.575012207031 270.28125 263.837493896484 256.731262207031 253.043746948242 250.993743896484 249.34375 251.606246948242 256.237487792969 261.962493896484 271.056243896484 281.6875 292.887512207031 301.149993896484 310.674987792969 319.193756103516 328.3125 336.862487792969 343.268737792969 345.643737792969 350.3125 352.893737792969 351.774993896484 352.700012207031 354.524993896484 355.174987792969 356.899993896484 361.024993896484 364.618743896484 365 362.743743896484 354.043762207031 343.987487792969 332.643737792969 324.84375 
220.856246948242 220.399993896484 220.743743896484 221.012496948242 220.731246948242 220.5625 220.925003051758 218.712493896484 214.662506103516 213.493743896484 231.243743896484 259.962493896484 281.450012207031 292.881256103516 295.487487792969 293.731262207031 289.725006103516 283.681243896484 276.393737792969 268.337493896484 264.681243896484 261.181243896484 259.5 261.125 265.3125 271.012512207031 279.606262207031 290.181243896484 300.706237792969 309.037506103516 318.024993896484 326.4375 336.193756103516 345.15625 351.193756103516 352.887512207031 354.737487792969 354.71875 353.549987792969 352.668762207031 352.106262207031 353.450012207031 357.462493896484 361.606262207031 364.424987792969 365.193756103516 365.924987792969 360.418762207031 353.274993896484 344.625 337.356262207031 
213.956253051758 213.262496948242 213.318756103516 214.050003051758 214.387496948242 215.893753051758 216.75 216.175003051758 215.287506103516 214.53125 246.824996948242 278.768737792969 295.868743896484 305.543762207031 308.506256103516 307.200012207031 302.975006103516 297.100006103516 289.725006103516 281.03125 275.993743896484 271.018737792969 268.293762207031 269.512512207031 273.262512207031 279.03125 286.668762207031 296.600006103516 306.9375 315.931243896484 324.181243896484 331.337493896484 341.068756103516 350.625 356.375 356.950012207031 355.600006103516 354.587493896484 353.056243896484 350.725006103516 348.424987792969 351.181243896484 354.137512207031 356.625 360.756256103516 363.481262207031 366.287506103516 365.337493896484 359.25 354.887512207031 349.181243896484 
207.931243896484 205.800003051758 206.587493896484 207.587493896484 208.756256103516 211.318756103516 213.568756103516 217.725006103516 226.625 246.637496948242 285.299987792969 298.100006103516 305.825012207031 313.65625 317.149993896484 316.881256103516 315.056243896484 308.125 299.762512207031 290.962493896484 283.287506103516 277.362487792969 274.1875 275.087493896484 278.200012207031 283.462493896484 291.131256103516 300.681243896484 311 320.84375 328.549987792969 334.975006103516 342.318756103516 348.318756103516 355.256256103516 354.806243896484 351.831237792969 350.1875 347.0625 342.537506103516 339.856262207031 341.100006103516 342.450012207031 345.71875 349.443756103516 352.668762207031 354.268737792969 354.881256103516 353.174987792969 351.743743896484 348.4375 
202.056243896484 199.875 200.449996948242 201.050003051758 203.850006103516 208.231246948242 213.012496948242 221.587493896484 236.3125 258.618743896484 284.381256103516 301.362487792969 311.487487792969 320.600006103516 324.962493896484 327.362487792969 327.325012207031 320.65625 310.1875 299.856262207031 288.643737792969 282.049987792969 278.3125 278.806243896484 282.200012207031 286.956237792969 294.612487792969 304.4375 314.03125 323.125 330.143737792969 337.6875 344.768737792969 348.743743896484 351.106262207031 349.637512207031 346.068756103516 343.087493896484 338.743743896484 333.168762207031 330.168762207031 330.318756103516 330.09375 332.118743896484 335.818756103516 339.662506103516 342.4375 344.493743896484 346.943756103516 347.9375 346.825012207031 
196.168746948242 194.018753051758 194.106246948242 195.231246948242 198.006256103516 203.731246948242 211.399993896484 222.375 239.106246948242 258.612487792969 279.46875 298.59375 313.487487792969 325.1875 332.774993896484 338.293762207031 339.825012207031 332.743743896484 320.899993896484 307.962493896484 293.768737792969 283.924987792969 278.912506103516 279.768737792969 284.868743896484 290.274993896484 297.84375 307.631256103516 316.325012207031 325.118743896484 333.875 341.637512207031 346.15625 348.712493896484 348.162506103516 344.53125 340.131256103516 336.137512207031 331.443756103516 324.912506103516 320.899993896484 318.424987792969 317 319.337493896484 324.65625 328.675018310547 331.481262207031 335.625 340.03125 343.331237792969 345.0625 
191.9375 188.631256103516 187.893753051758 188.931243896484 191.962509155273 198.456253051758 207.431243896484 219.487503051758 236.25 254.893753051758 273.40625 292.381256103516 309.931243896484 324.356262207031 333.737487792969 341.225006103516 345.587493896484 340.600006103516 329.5625 313.450012207031 294.362487792969 280.487487792969 274.118743896484 276.456237792969 283.712493896484 290.25 298.112487792969 308.287506103516 317.693756103516 327.975006103516 334.924987792969 343.03125 346.943756103516 348.024993896484 346.006256103516 338.493743896484 333.75 329.28125 323.71875 316.981262207031 311.481262207031 305.037506103516 302.350006103516 307.256256103516 313.662506103516 318.84375 321.993743896484 325.662506103516 331.71875 335.706237792969 341.837493896484 
187.3125 182.581253051758 181.162506103516 181.743743896484 184.956253051758 192.881256103516 202.256256103516 214.462493896484 230.368743896484 248.8125 267.524993896484 286.637512207031 305.068756103516 321.512512207031 333.46875 342.212493896484 348.049987792969 347.975006103516 339.943756103516 319.831237792969 293.34375 272.324981689453 268.556243896484 274.787506103516 283.581237792969 290.5 298.899993896484 308.987487792969 318.78125 328.493743896484 337.362487792969 344.368743896484 346.850006103516 344.84375 341.200012207031 334.1875 326.462493896484 321.8125 316.143737792969 310.96875 305.356262207031 300.081237792969 298.024993896484 300.106262207031 305 308.806243896484 311.818756103516 315.5625 321.53125 328.106262207031 337.475006103516 
182.412506103516 176.5 173.793746948242 173.768753051758 177.856246948242 186.175003051758 195.962493896484 208.137496948242 224.262496948242 241.9375 261.056243896484 281.725006103516 300.537506103516 318.306243896484 332.856262207031 343.793762207031 352.412506103516 353.637512207031 350.393737792969 329.231262207031 298.618743896484 272.893737792969 270.081268310547 276.618743896484 285.462493896484 293.543731689453 301.225006103516 310.100006103516 320.674987792969 329.556243896484 338.237487792969 346.862487792969 348.225006103516 343.149993896484 337.168762207031 330.731262207031 322.443756103516 317.393737792969 312.081237792969 307.424987792969 302.912506103516 299.4375 297.024993896484 297.462493896484 300.28125 301.71875 304.643737792969 306.306243896484 309.65625 317.274993896484 330.612487792969 
179.787490844727 172.974990844727 168.425003051758 167.918746948242 173.731246948242 182.106246948242 191.262496948242 203.318740844727 218.949996948242 236.581253051758 255.643753051758 276.862487792969 297.418762207031 316.5625 331.731231689453 343.09375 351.53125 351.612487792969 347.1875 330.737487792969 307 289.193756103516 280.5 282.6875 289.8125 296.5 302.9375 311.875 320.899993896484 329.174987792969 337.681243896484 346.337493896484 346.318756103516 340.456237792969 334.84375 327.237487792969 318.3125 313.362487792969 309.837493896484 305.912506103516 302.137512207031 299.1875 297.274993896484 296.793762207031 298.787506103516 299.212493896484 299.90625 299.325012207031 298.393737792969 304 321.268737792969 
