ncols        51
nrows        45
xllcorner    -63.500000000000
yllcorner    -7.500000000000
cellsize     0.166666666667
NODATA_value -99
268.893737792969 259.306243896484 255.293746948242 256.806243896484 256.493743896484 257.556243896484 255.762496948242 255.899993896484 257.662506103516 261.856262207031 264.712493896484 266.3125 269.618743896484 273.556243896484 277.03125 282.1875 285.899993896484 287.168762207031 290.625 296.1875 300.40625 303.943756103516 311 314.206237792969 318.868743896484 325.375 329.731262207031 335.84375 339.168762207031 344.493743896484 345.168762207031 348.512512207031 353.012512207031 355.649993896484 358.512512207031 363.512512207031 367.024993896484 367.231262207031 366.924987792969 368.518737792969 367.03125 366.274993896484 362.225006103516 362.956237792969 361.043762207031 357.387512207031 355.299987792969 349.056243896484 346.03125 346.431243896484 343.774993896484 
268.962493896484 258.243743896484 257.075012207031 259.706237792969 262.700012207031 264.956237792969 263.6875 264.549987792969 268.300018310547 270.625 273.868743896484 275.212493896484 276.537506103516 278.25 279.743743896484 281.818756103516 283.856262207031 285.049987792969 291.225006103516 298.09375 302.975006103516 308.331237792969 313.725006103516 319.274993896484 323.181243896484 327.181243896484 332.950012207031 338.237487792969 342.268737792969 345.21875 346.068756103516 352.9375 354.34375 358.987487792969 360.631256103516 360 364.84375 365.237487792969 366.875 362.375 360.1875 363.299987792969 359.143737792969 354.181243896484 352.712493896484 347.625 345.256256103516 340.706237792969 338.981262207031 338.456237792969 336.899993896484 
267.493743896484 260.649993896484 263.15625 266.393737792969 269.131256103516 273.037506103516 275.737487792969 279.625 284.21875 286.568756103516 288.356262207031 287.075012207031 285.456237792969 282.756256103516 282.700012207031 284.0625 283.293762207031 282.481262207031 287.149993896484 293.787506103516 299.225006103516 307.056243896484 313.3125 318.237487792969 322.306243896484 329.149993896484 335.924987792969 339.018737792969 340.287506103516 342.59375 343.581237792969 347.693756103516 352.9375 354.818756103516 358.306243896484 356.225006103516 358.387512207031 359.306243896484 358.181243896484 355.668762207031 356.006256103516 352.84375 351.1875 346.46875 342.793762207031 339.431243896484 335.856262207031 332.475006103516 326.34375 326.4375 325.537506103516 
262.481262207031 255.662506103516 264.868743896484 269.549987792969 274.450012207031 278.793762207031 283.737487792969 291.206237792969 300.200012207031 303.981262207031 302.737487792969 298.606262207031 292 286.818756103516 284.831237792969 283.443756103516 280.293762207031 278.868743896484 281.956237792969 289.862487792969 300.09375 307 312.137512207031 318.225006103516 322.850006103516 327.862487792969 334.662506103516 334.981262207031 335.368743896484 340.037506103516 341.450012207031 344.581237792969 347.331237792969 348.200012207031 348.381256103516 351.856262207031 354.837493896484 354.637512207031 353.325012207031 351.118743896484 348.575012207031 348.78125 342.4375 336.5 335.181243896484 328.875 324.375 321.706237792969 314.543762207031 310.243743896484 310.506256103516 
273.731262207031 264.993743896484 261.862487792969 267.493743896484 275.799987792969 280.537506103516 288.143737792969 298.625 312.462493896484 320.075012207031 314.293731689453 304.09375 297.799987792969 291.706237792969 287.787506103516 283.481262207031 277.962493896484 275.875 277.787506103516 286.34375 297.149993896484 303.768737792969 308.21875 318.137512207031 321.706237792969 326.6875 327.149993896484 330.668762207031 331.8125 334.506256103516 337.674987792969 338.537506103516 339.78125 343.668762207031 345.481262207031 345.53125 349.200012207031 350.950012207031 350.206237792969 346.568756103516 345.125 340.481262207031 334.662506103516 330.456237792969 325.456237792969 319.40625 311.924987792969 306.493743896484 299.337493896484 297.950012207031 299.53125 
280.25 273.006256103516 268.543762207031 263.118743896484 272.193756103516 281.862487792969 289.981262207031 298.431243896484 313.293762207031 322.53125 318.03125 305.918762207031 301.450012207031 296.71875 289.912506103516 287.475006103516 279.943756103516 276.112487792969 278.631256103516 287.975006103516 296.681243896484 304.575012207031 311.950012207031 315.768737792969 320.09375 324.46875 324.981262207031 325.643737792969 328.087493896484 331.131256103516 333.850006103516 336.299987792969 336.625 338.806243896484 339.21875 340.337493896484 341.34375 341.612487792969 344.5 340.887512207031 335.637512207031 331.731262207031 324.9375 320.237487792969 316.131256103516 307.225006103516 297.712493896484 293.118743896484 287.212493896484 282.693756103516 281.168762207031 
289.024993896484 281.125 275.981262207031 271.168762207031 271.46875 275.587493896484 282.543762207031 290.375 294.481262207031 303.71875 306.287506103516 301.856262207031 300.793762207031 298.581237792969 294.049987792969 289.881256103516 286.831237792969 285.237487792969 286.118743896484 294.681243896484 300.112487792969 305.299987792969 308.399993896484 314.03125 319.143737792969 325.618743896484 323.956237792969 323.174987792969 321.524993896484 324.850006103516 328.337493896484 328.243743896484 326.712493896484 328.049987792969 329.225006103516 331.600006103516 330.518737792969 330.193756103516 333.143737792969 332.21875 325.168762207031 318.625 312.212493896484 309.306243896484 303.112487792969 298.162506103516 286.787506103516 274.875 267.65625 267.725006103516 266.1875 
296.418762207031 288.299987792969 282.756256103516 280.006256103516 279.625 283.231262207031 280.693756103516 272.537506103516 267.450012207031 278.606262207031 292.5 296.462493896484 301.143737792969 300.5625 298.293762207031 296.712493896484 294.325012207031 295.293762207031 296.043762207031 298.84375 305.818756103516 308.149993896484 310.381256103516 311.0625 317.481262207031 317.337493896484 318.924987792969 316.375 314.9375 318.037506103516 320.768737792969 320.15625 319.556243896484 317.549987792969 315.25 315.243743896484 315.450012207031 316.668762207031 316.1875 310.643768310547 307.587493896484 301.818756103516 297.181243896484 291.725006103516 284.75 276.149993896484 265.700012207031 257.118743896484 251.287506103516 246.331253051758 244.46875 
302.168762207031 294.65625 290.831237792969 286.681243896484 284.637512207031 285.756256103516 282.481262207031 275.90625 264.756256103516 263.918762207031 277.949981689453 289.337493896484 300.081268310547 301.225006103516 300.431243896484 301.5 301.081237792969 304.299987792969 308.462493896484 305.087493896484 303.837493896484 308.637512207031 305.768737792969 313.049987792969 312.637512207031 310.850006103516 308.506256103516 309.825012207031 312.362487792969 312.793762207031 316.918731689453 314.21875 307 301.706237792969 301.256256103516 302.006256103516 302.59375 303.731262207031 304.75 297.787506103516 290.912506103516 285.09375 283.575012207031 281.756256103516 269.462493896484 261.125 252.006256103516 241.243743896484 232.53125 228.212493896484 226.59375 
306.600006103516 301.28125 297.700012207031 294.987487792969 289.96875 290.643737792969 288.543762207031 284.068756103516 279.793762207031 281.25 287.924987792969 290.131256103516 301.887512207031 303.28125 305.137512207031 304.212493896484 304.131256103516 307.5 312.756256103516 314.649993896484 309.600006103516 305.350006103516 302.793762207031 306.756256103516 303.481262207031 301.618743896484 298.8125 299.943756103516 304.237487792969 308.225006103516 307.181243896484 302.53125 298.206237792969 293.375 289.112487792969 288.756256103516 287.893737792969 289.206237792969 290.118743896484 288.337493896484 285.325012207031 282.524993896484 273.987487792969 266.606262207031 258.693756103516 254.168746948242 243.425003051758 230.037506103516 220.675003051758 212.837493896484 205.46875 
310.53125 307.431243896484 303.043762207031 300.887512207031 296 297.731262207031 296.774993896484 291.174987792969 289.243743896484 293.53125 300.674987792969 305.78125 304.381256103516 307.581237792969 306.700012207031 304.924987792969 305.181243896484 309.737487792969 314.450012207031 319.600006103516 323.78125 313.818756103516 304.306243896484 291.174987792969 295 297.25 294.325012207031 294.543762207031 293.962493896484 294.049987792969 294.75 292.21875 286.850006103516 281.325012207031 275.868743896484 272.475006103516 271.306243896484 273.512512207031 277.337493896484 277.612487792969 276 271.456237792969 268.337493896484 257.693756103516 248.012496948242 240.356246948242 232.131256103516 217.768753051758 208.925003051758 201.324996948242 191.193756103516 
315.087493896484 310.78125 307.399993896484 305.375 302.481262207031 301.143737792969 303.1875 301.899993896484 303.0625 303.424987792969 309.568756103516 317.206237792969 309.712493896484 309.53125 310.637512207031 306.40625 305.962493896484 309.924987792969 315.393737792969 324.34375 331.931243896484 327.106262207031 314.893737792969 297.46875 287.399993896484 281.625 276.96875 277.306243896484 279.706237792969 279.206237792969 275.893737792969 273.225006103516 268.412506103516 263.25 261.018737792969 261.387512207031 262.543762207031 263.149993896484 264.799987792969 266.043762207031 266.950012207031 262.793731689453 255 237.068756103516 225.9375 214.293746948242 203.09375 200.4375 196.512496948242 190.681243896484 177.137496948242 
320.331237792969 313.75 309.806243896484 308.243743896484 305.006256103516 306.331237792969 306.018737792969 304.231262207031 306.806243896484 311.575012207031 316.737487792969 321.25 318.168762207031 305.518737792969 303.381256103516 304.450012207031 303.674987792969 307.5 312.131256103516 320.443756103516 331.487487792969 325.3125 313.768768310547 295.6875 270.662506103516 259.868743896484 263.112487792969 264.868743896484 268.28125 268.631256103516 263.043731689453 256.09375 250.412506103516 244.806243896484 243.925003051758 247.731246948242 251.100006103516 255.3125 259.518737792969 260.350006103516 258.84375 255.112503051758 239.737503051758 225.350006103516 219.418746948242 211.431243896484 199.65625 188.918746948242 182.074996948242 183.024993896484 180.068756103516 
318.549987792969 313.049987792969 310.774993896484 308.887512207031 307.575012207031 307.381256103516 306.5 306.243743896484 311.143737792969 315.424987792969 314.606262207031 315.049987792969 311.756256103516 304.762512207031 292.100006103516 296.15625 295.356262207031 296.981262207031 303.28125 311.53125 318.506256103516 314.675018310547 305.924987792969 291.9375 271.962493896484 258.65625 255.193756103516 252.574996948242 253.912506103516 251.293746948242 249.5 241.512496948242 235.837493896484 230.9375 228.931243896484 235.868743896484 243.6875 251.21875 256.868743896484 254.824996948242 243.881256103516 232.287506103516 227.337493896484 225.193756103516 225.96875 215.100006103516 204.574996948242 197.175003051758 189.981246948242 194.350006103516 195.625 
315.487487792969 311.90625 310.8125 308.606262207031 306.524993896484 307.09375 309.543762207031 311.487487792969 313.556243896484 313.712493896484 311.512512207031 309.84375 303.712493896484 296.043762207031 279 280.956237792969 282.581237792969 287.799987792969 293.424987792969 299.431243896484 306.287506103516 305.674987792969 301.743743896484 296.549987792969 285.899993896484 275.03125 265.100006103516 258.637481689453 254.068756103516 248.149993896484 237.743743896484 228.287506103516 225.768753051758 217.3125 210.837493896484 215.362503051758 232.887496948242 246.362503051758 249.893753051758 244.181243896484 232.449996948242 227.168746948242 229.4375 225.962493896484 222.5 218.887496948242 213.899993896484 211.506256103516 208.568756103516 205.5625 204.918746948242 
311.193756103516 307.299987792969 308.243743896484 307.737487792969 305.243743896484 308.100006103516 311.600006103516 313.106231689453 312.59375 312.987487792969 308.924987792969 305.043762207031 298.3125 292.268737792969 278.662506103516 264.1875 269.768737792969 280.837493896484 283.3125 288.456237792969 295.056243896484 301.25 304.137512207031 304.768737792969 296.618743896484 284.274993896484 271.787506103516 260.78125 253.637496948242 247.768753051758 240.268753051758 228.618743896484 215.34375 202.925003051758 195.293746948242 211.112503051758 222.362503051758 233.774993896484 239.893753051758 239.712493896484 232.862503051758 227.581253051758 225.362503051758 217.293746948242 213.837493896484 212.912506103516 208.824996948242 206.087493896484 207.824996948242 206.743743896484 208.981246948242 
308.674987792969 305.600006103516 304.712493896484 305.950012207031 306.975006103516 307.84375 309.78125 310.487518310547 311.8125 311.350006103516 308.581237792969 306.024993896484 298.237487792969 290.350006103516 280.231262207031 269.5 257.106262207031 265.793762207031 272.931243896484 278.943756103516 285.9375 292.737487792969 301.725006103516 309.318756103516 307.46875 286.362487792969 270.256256103516 259.431243896484 251.543746948242 244.987503051758 238.462493896484 230.5 218.649993896484 208.024993896484 210.962493896484 216.043746948242 226.5625 237.1875 247.068756103516 240.574996948242 231.9375 224.09375 215.725006103516 210.84375 208.862503051758 209.012496948242 206.806243896484 208.818756103516 210.331253051758 206.03125 207.59375 
304.362487792969 303.481262207031 304.575012207031 305.137512207031 306.543762207031 310.825012207031 311.3125 310.643737792969 309.893737792969 309.975006103516 307.331237792969 307.5 296.931243896484 291 281.787506103516 273.012512207031 261.662506103516 251.181243896484 267.5625 271.668762207031 276.643737792969 283.893768310547 292.5 300.625 301.018737792969 284.287506103516 264.225006103516 256.131256103516 249.362503051758 239.181243896484 224.918746948242 213.28125 219.09375 218.806243896484 217.387496948242 230.90625 240.518753051758 242.243743896484 244.699996948242 239.793746948242 225.043746948242 216.431243896484 208.793746948242 204.943756103516 202.568756103516 204.449996948242 203.887496948242 204.375 208.056243896484 201.324996948242 207.162506103516 
299.78125 299.806243896484 300.706237792969 304.456237792969 307.950012207031 310.381256103516 312.412506103516 313.600006103516 312.649993896484 313.850006103516 309.118743896484 300.575012207031 292.487487792969 287.625 279.424987792969 273.893737792969 267.34375 253.675003051758 252.337493896484 258.262512207031 263.850006103516 274.174987792969 267.356262207031 277.256256103516 278.600006103516 274.53125 263.512512207031 250.393753051758 243.768753051758 233.5625 222.625 217.506256103516 221.100006103516 220.768753051758 222.287506103516 231.4375 233.862503051758 232.512496948242 235.0625 227.3125 215.231246948242 206.03125 201.862503051758 200.868743896484 198.806243896484 198.199996948242 200.574996948242 202.0625 203.449996948242 192.962493896484 205.65625 
293.818756103516 295.018737792969 297.712493896484 299.537506103516 304.481262207031 312.6875 316.856262207031 318.006256103516 316.825012207031 314.143737792969 312.09375 308.875 305.012512207031 295.118743896484 284.237487792969 268.206237792969 255.237487792969 255.793746948242 252.762496948242 254.768753051758 250.6875 253.956253051758 261.112487792969 262.524993896484 259.0625 250.556243896484 245.15625 241.925003051758 231.556243896484 219.9375 214.887496948242 221.40625 221.018753051758 218.59375 222.293746948242 227.475006103516 228.518753051758 227.037506103516 223.631256103516 217.475006103516 204.381256103516 195.899993896484 195.574996948242 195.324996948242 196.074996948242 196.681243896484 196.3125 197.675003051758 197.449996948242 189.975006103516 203.193756103516 
281.274993896484 292.168762207031 299.237487792969 301.331237792969 303.337493896484 315.024993896484 322.806243896484 325.96875 325.274993896484 320.018737792969 316.1875 313.4375 305.231262207031 296.231262207031 282.806243896484 272.393737792969 257.725006103516 252.199996948242 254.293746948242 251.849990844727 257.856262207031 261.293762207031 263.081237792969 262.543762207031 259.668762207031 250.824996948242 238.418746948242 232.387496948242 227.268753051758 222.725006103516 221.237503051758 222.762496948242 217.3125 214.337509155273 215.943756103516 220.331253051758 222.768753051758 222.087493896484 217.224990844727 209.493743896484 202.231246948242 194.568756103516 190.600006103516 191.550003051758 192.074996948242 193.3125 194.875 194.612503051758 189.162506103516 192.831253051758 199.175003051758 
277.918762207031 279.774993896484 291.893737792969 302.493743896484 305.9375 314.0625 325.081237792969 332.799987792969 333.299987792969 329.006256103516 323.487487792969 316.84375 307.481262207031 297.106262207031 289.393737792969 276.293762207031 275.412506103516 266.768737792969 266.431243896484 261.25 256.068756103516 257.356262207031 258.581237792969 253.274993896484 244.90625 240.306243896484 238.125 231.899993896484 232.418746948242 229.875 224.456253051758 219.574996948242 218.112503051758 217.900009155273 215.1875 215.4375 217.931243896484 217.212493896484 212.287506103516 205.449996948242 199.731246948242 193.125 188.856246948242 187.9375 188.006256103516 189.012496948242 190.256256103516 191.556243896484 188.024993896484 195.375 196.318756103516 
274.924987792969 285.856262207031 296.412506103516 306.987487792969 310.762512207031 317.700012207031 318.774993896484 328.568756103516 337.5 334.8125 326.662506103516 318.59375 314.024993896484 304.325012207031 296.475006103516 286.712493896484 280.456237792969 274.043762207031 269.524993896484 264.631256103516 261.393737792969 254.675003051758 252.46875 245.643753051758 241.712493896484 235.393753051758 229.912506103516 229.962493896484 231.106246948242 227.693756103516 221.231246948242 219.743743896484 221.006256103516 219.443756103516 218.100006103516 211.625 210.050003051758 211.268753051758 210.537506103516 203.918746948242 196.84375 191.268753051758 186.618743896484 184.90625 184.318756103516 183.5625 183.75 184.481246948242 188.699996948242 196.456253051758 196.837493896484 
268.962493896484 283.481262207031 298.168762207031 306.106262207031 309.21875 312.856262207031 324.981262207031 331.606231689453 332.662506103516 328.737487792969 324.34375 323.331237792969 316.887512207031 310.387512207031 299.943756103516 290.262512207031 283.424987792969 279.037506103516 275.34375 271.393737792969 262.612487792969 256.287506103516 250.043746948242 246.856246948242 239.274993896484 228.837493896484 226.28125 226.981246948242 229.837493896484 231.456253051758 231.1875 230.949996948242 232.056243896484 228.712493896484 224.925003051758 214.425003051758 214.537506103516 212.431243896484 208.800003051758 202.912506103516 195.050003051758 190.956253051758 187.168746948242 183.306259155273 181.625 179.774993896484 178.806243896484 175.618743896484 185 193.149993896484 197.337493896484 
269.15625 285.287506103516 297.581237792969 310 315.78125 320.856262207031 323.393737792969 330.018737792969 329.362487792969 328.068756103516 323.018737792969 318.84375 316.981262207031 309.893737792969 299.106262207031 292.200012207031 289.018737792969 283.368743896484 277.262512207031 272.96875 267.21875 257.893737792969 252.931243896484 247.018753051758 238.481246948242 234.481246948242 231.631256103516 232.925003051758 234.84375 240.506256103516 241.550003051758 247 246.425003051758 241.53125 231.649993896484 222.381256103516 218.956253051758 211.46875 206.550003051758 200.793746948242 194.268753051758 188.856246948242 185.131256103516 179.418746948242 174.018753051758 171.612503051758 165.699996948242 172.149993896484 177.287506103516 187.337493896484 192.706253051758 
276.243743896484 294.543762207031 299.106262207031 309.612487792969 311.193756103516 314.600006103516 316.243743896484 321.274993896484 317.068756103516 312.268737792969 316.181243896484 315.6875 309.875 304.443756103516 301.075012207031 294.537506103516 291.568756103516 285.887512207031 279.431243896484 273.399993896484 267.75 258.681243896484 253.537506103516 244.493743896484 239.362503051758 234.612503051758 237.6875 239.006256103516 240.262496948242 246.768753051758 253.537506103516 265.918762207031 265.712493896484 253.043746948242 239.78125 230.412490844727 221.21875 213.456253051758 203.462493896484 196.893753051758 191.324996948242 184.5 178.71875 175.375 171.399993896484 163.925003051758 167.850006103516 169.931243896484 174.087493896484 182.162506103516 183.71875 
279.818756103516 288.043762207031 296.456237792969 303.0625 304.15625 307.137512207031 307.612487792969 306.743743896484 304.912506103516 309.518737792969 310.71875 306.387512207031 303.90625 300.5625 297.306243896484 294.181243896484 288.943756103516 281.512512207031 280.825012207031 274.024993896484 265.568756103516 258.331237792969 253.087493896484 248.40625 243.043746948242 238.899993896484 241.34375 242.649993896484 245.074996948242 249.243743896484 259.912506103516 272.299987792969 276.543731689453 259.006256103516 242.050003051758 230.462493896484 223.600006103516 212.918746948242 202.837493896484 196.037506103516 189.337493896484 182.625 176.943756103516 171.412506103516 167.631256103516 166.543746948242 167.481246948242 167.137496948242 170.506256103516 170.306243896484 170.337509155273 
285.043762207031 287.6875 292.575012207031 293.649993896484 295.612487792969 299.418762207031 300.587493896484 296.975006103516 297.649993896484 301.443756103516 301.006256103516 296.818756103516 294.950012207031 291.53125 291.112487792969 285.768737792969 284.631256103516 283.3125 282.524993896484 277.325012207031 268.868743896484 259.575012207031 256.987487792969 250.84375 246.199996948242 240.481246948242 243.181243896484 244.287506103516 247.324996948242 252.100006103516 260.300018310547 269.0625 268.631256103516 254.837493896484 242.612503051758 231.125 221.231246948242 213.387496948242 205.106246948242 195.574996948242 187.212493896484 182.231246948242 176.681259155273 172.068756103516 165.712493896484 161.15625 160.824996948242 164.375 163.675003051758 159.881256103516 157.9375 
285.256256103516 286.412506103516 286.206237792969 286.231262207031 286.53125 283.993743896484 282.662506103516 285.28125 290.893737792969 290.587493896484 290.787506103516 289.193756103516 286.5 286.587493896484 288.787506103516 288.924987792969 287.681243896484 284.306243896484 281.793762207031 277.75 270.143737792969 260.825012207031 256.243743896484 250.012496948242 244.993743896484 237.381256103516 240.306243896484 243.65625 246.300003051758 249.112503051758 255.3125 258.649993896484 255.1875 245.625 238.587509155273 228.537506103516 220.106246948242 210.743743896484 202.65625 193.268753051758 182.237503051758 175.556243896484 173.737503051758 173.306243896484 168.918746948242 163.274993896484 162.762496948242 164.4375 159.793746948242 154.512496948242 148.649993896484 
285.543762207031 283.456237792969 278.549987792969 272.693756103516 270.162506103516 271.418762207031 270.693756103516 275.737487792969 278.543762207031 276.662506103516 278.549987792969 278.71875 278.28125 280.262512207031 282.875 284.024993896484 283.206237792969 284.681243896484 280.837493896484 274.043762207031 267.237487792969 260.850006103516 255.543746948242 247.96875 239.9375 237.537506103516 236.649993896484 235.712493896484 237.6875 240.46875 245.25 245.774993896484 242.4375 237.050003051758 231.862503051758 221.806243896484 218.393753051758 210.637496948242 201.737503051758 196.84375 189.231246948242 181.524993896484 175.78125 171.818756103516 168.375 167.056243896484 165.074996948242 165.9375 161.75 155.074996948242 146.75 
285.15625 279.325012207031 270.40625 265.387512207031 262.693756103516 262.212493896484 264.087493896484 264.706237792969 267.024993896484 267.71875 269.243743896484 268.450012207031 272.443756103516 271.299987792969 274.443756103516 278.5 280.262512207031 279.268737792969 277.625 274.15625 264.287506103516 256.431243896484 251.481246948242 241.806243896484 234.25 233.887496948242 231.350006103516 228.481246948242 229.768753051758 230.643753051758 234.975006103516 232.993743896484 229.875 226.543746948242 222.018753051758 213.018753051758 210.287506103516 207.03125 202.431243896484 196.643753051758 193.09375 184.981246948242 178.431243896484 171.618743896484 169.637496948242 170.59375 170.162506103516 168.081253051758 162.824996948242 157.162506103516 148.837493896484 
278.200012207031 270.174987792969 261.962493896484 257.625 256.21875 253.181243896484 257.25 253.8125 255.024993896484 254.943756103516 256.137512207031 255.056243896484 258.700012207031 262.331237792969 265.231262207031 270.756256103516 269.3125 268.049987792969 267.0625 265.0625 255.15625 248.5625 243.081253051758 235.71875 232.4375 228.431243896484 225.693756103516 221.131256103516 218.631256103516 220.131256103516 219.462493896484 218.856246948242 215.5 213.037506103516 210.993743896484 204.631256103516 201.706253051758 200.387496948242 196.337493896484 195.918746948242 192.96875 186.737503051758 181.199996948242 177.612503051758 175.237503051758 181.4375 183.399993896484 176.837493896484 167.84375 160.493743896484 152.318756103516 
268.981262207031 262.962493896484 255.100006103516 252.481246948242 248.149993896484 244.637496948242 245.84375 243.618743896484 243.981246948242 245.40625 250.356246948242 249.612503051758 252.012496948242 256.575012207031 257.78125 258.556243896484 257.331268310547 259.262512207031 255.34375 253.050003051758 243.456253051758 238.787506103516 232.34375 228.074996948242 224.550003051758 221.699996948242 217 213.024993896484 208.212493896484 207.493743896484 207.212493896484 205.212493896484 200.837493896484 201.787506103516 199.425003051758 197.431259155273 192.806243896484 192.125 189.262496948242 191.756256103516 189.381256103516 186.587493896484 182.925003051758 181.712493896484 185.462493896484 192.756256103516 192.981246948242 183.443756103516 172.475006103516 164.087493896484 155.556243896484 
260.337493896484 253.8125 250.118743896484 246.962493896484 244.668746948242 239.175003051758 236.831253051758 233.006256103516 231.768753051758 232.524993896484 235.918746948242 240.15625 241.306243896484 242.9375 245.850006103516 248.706253051758 248.537506103516 248.556243896484 242.725006103516 238.168746948242 232.925003051758 229.09375 223.40625 217.6875 215.149993896484 211.324996948242 205.918746948242 201.081253051758 198.193756103516 196.431243896484 195.1875 192.600006103516 189.693756103516 188.006256103516 187.493743896484 185.40625 183.737503051758 180.600006103516 181.543746948242 183.018753051758 181.6875 182.550003051758 183.34375 183.581253051758 190.800003051758 198.100006103516 195.987503051758 182.40625 172.418746948242 164.743743896484 156.987503051758 
249.625 244.381256103516 242.518753051758 241.637496948242 239.918746948242 233.887496948242 226.581253051758 222.6875 217.237503051758 218.181243896484 223.018753051758 227.975006103516 233.675003051758 237.975006103516 239.212493896484 239.800003051758 237.993743896484 237.425003051758 231.90625 224.6875 220.149993896484 214.975006103516 211.712509155273 206.524993896484 203.537506103516 200.268753051758 197.487503051758 193.618743896484 189.949996948242 188.206253051758 184.862503051758 181.543746948242 176.9375 176.074996948242 170.981246948242 170.743743896484 168.081253051758 171.012496948242 172.324996948242 173 173.024993896484 172.824996948242 174.693756103516 177.762496948242 184.024993896484 188.550003051758 187.868743896484 180.399993896484 170.618743896484 163.256256103516 157.71875 
241.318756103516 238.743743896484 234.993743896484 233 229.993743896484 223.850006103516 215.612503051758 211.887496948242 206.768753051758 203.881256103516 206.887496948242 217.043746948242 226.462493896484 229.481246948242 231.425003051758 229.96875 226.981246948242 222.9375 219.818756103516 212.631256103516 208.65625 204.09375 200.387496948242 196.631256103516 193.0625 189.399993896484 189.168746948242 186.274993896484 180.78125 178.068756103516 175.175003051758 171.4375 166.612503051758 162.012496948242 158.487503051758 157.350006103516 160.612503051758 159.675003051758 161.300003051758 165.012496948242 164.693756103516 167.212493896484 167.856246948242 170.793746948242 172.543746948242 176.0625 176.631256103516 172.118743896484 167.868743896484 161.068756103516 155.756256103516 
234.4375 233.899993896484 229.893753051758 227.387496948242 225.274993896484 217.28125 209.862503051758 202.649993896484 196.100006103516 187.6875 197.887496948242 217.25 224.375 224.856246948242 224.006256103516 220.899993896484 215.018753051758 210.018753051758 206.606246948242 198.600006103516 195.949996948242 192.387496948242 187.668746948242 184.399993896484 181.774993896484 180.643753051758 179.087509155273 176.112503051758 171.506256103516 169.274993896484 167.006256103516 164.03125 158.449996948242 151.693756103516 148.71875 149.831253051758 151.425003051758 152.556243896484 153.081253051758 154.512496948242 154.512496948242 155.175003051758 159.893753051758 163.756256103516 165.131256103516 165.012496948242 170.387496948242 164.262496948242 159.706253051758 156.03125 152.462493896484 
229.493743896484 228.725006103516 227.15625 223.731246948242 222.725006103516 215.881256103516 208.587493896484 199.975006103516 193.256256103516 184.574996948242 206.518753051758 225.487503051758 226.412506103516 224.274993896484 219.712493896484 213.943756103516 206.100006103516 201.481246948242 195.40625 189.418746948242 183.987503051758 180.681243896484 176.699996948242 173.743743896484 171.362503051758 170 167.024993896484 168.143753051758 165.462493896484 161.587509155273 157.837509155273 154.96875 150.662506103516 143.206253051758 137.862503051758 139.399993896484 142.731246948242 143.600006103516 146.675003051758 146.368743896484 146.912506103516 148.293746948242 148.362503051758 149.606246948242 152.287506103516 155.418746948242 157.96875 157.462493896484 152.181259155273 149.362503051758 147.59375 
227.293746948242 225.862503051758 223.618743896484 221.356246948242 216.706253051758 211.324996948242 207.350006103516 204.4375 204.962493896484 214.587493896484 239.637496948242 238.712493896484 228.768753051758 223.125 216.712493896484 209.512496948242 201.824996948242 195.774993896484 189.618743896484 181.850006103516 174.481246948242 168.818756103516 166.143753051758 164.975006103516 161.65625 160.087493896484 160.09375 161.256256103516 157.818756103516 156 150.918746948242 144.75 142.081253051758 138.574996948242 137.106246948242 137.318756103516 138.037490844727 140.78125 140.006256103516 137.90625 140.118743896484 140.78125 139.475006103516 141.806243896484 142.6875 145.34375 145.168746948242 145.162506103516 144.893753051758 143.318756103516 141.106246948242 
229.237503051758 226.03125 224.518753051758 221.362503051758 217.887496948242 212.856246948242 207.90625 211.181243896484 215.5 224.199996948242 232.581253051758 234.181243896484 225.53125 217.943756103516 213.362503051758 204.050003051758 194.90625 187.800003051758 180.118743896484 173.393753051758 164.71875 159.4375 154.193756103516 153.012496948242 151.887496948242 151.668746948242 151.337493896484 152.018753051758 149.925003051758 148.168746948242 145.506256103516 143.25 140.368743896484 138.431243896484 137.1875 136.199996948242 135.725006103516 137.59375 136.25 131.693756103516 132.006256103516 132.387496948242 129.90625 129.46875 132.581253051758 133.856246948242 135.443756103516 136.537506103516 137.368743896484 135.881256103516 135.28125 
230.225006103516 228.137496948242 226.318756103516 223.9375 218.5 211.893753051758 210.425003051758 216.206253051758 217.881256103516 221.456253051758 225.481246948242 223.71875 220.1875 212.793746948242 207.193756103516 198.581253051758 189.037506103516 180.493743896484 172.356246948242 164.768753051758 156.225006103516 149.118743896484 143.206253051758 141.912506103516 142.637496948242 142.643753051758 142.78125 144.03125 143.4375 141.262496948242 142.231246948242 142.231246948242 141.981246948242 140.731246948242 137.5 137.731246948242 138.40625 138.34375 133.0625 128.793746948242 125.081253051758 121.09375 119.34375 121.4375 124.368751525879 126.893753051758 127.59375 127.512496948242 131.743743896484 131.981246948242 130.949996948242 
233.425003051758 231.449996948242 231.037490844727 228.681243896484 223.34375 220.71875 220.118743896484 221.46875 223.175003051758 221.631256103516 222.5 220.1875 217.737503051758 209.481246948242 201.25 193.9375 184.287506103516 176.568756103516 169.118743896484 158.375 149.237503051758 141.0625 133.037506103516 132.46875 133.168746948242 133.475006103516 134.462493896484 137.693756103516 140.125 138.793746948242 137.0625 139.706253051758 140.193756103516 144.175003051758 141.75 138.5 136.699996948242 134 130.899993896484 125.681251525879 120.049995422363 112.956253051758 109.912498474121 114.275001525879 119.199996948242 120.931251525879 121.237503051758 121.875 124.381248474121 124.462501525879 124.381248474121 
236.149993896484 236.824996948242 237.78125 230.337493896484 230.375 228.3125 225.074996948242 224.050003051758 223.368743896484 221.137496948242 220.868743896484 217.725006103516 212.837493896484 206.34375 198.425003051758 189.481246948242 178.418746948242 173.5625 165.387496948242 150.668746948242 139.3125 129.5 124.21875 126.387496948242 126.974998474121 128.143753051758 129.581253051758 132.8125 134.59375 135.774993896484 136 136.018753051758 139.106246948242 144.256256103516 147.706253051758 145.6875 138.649993896484 135.5 129.868743896484 124.800003051758 118.8125 112.050003051758 107.306251525879 110.300003051758 114.243751525879 115.712501525879 116.337501525879 117.449996948242 121.212501525879 119.037498474121 119.387496948242 
242.237503051758 242.106246948242 243.643753051758 237.600006103516 237.524993896484 234.449996948242 228.993743896484 228.399993896484 226.993743896484 224.40625 221.181243896484 217.274993896484 212.306243896484 205.074996948242 197.9375 187.693756103516 176.912506103516 170.962493896484 164.918746948242 149.943756103516 135.131256103516 122.087493896484 117.724998474121 120.212501525879 122.025001525879 122.574996948242 123.8125 126.8125 128.737503051758 129.481246948242 131.53125 132.181243896484 136.149993896484 143.4375 149.65625 152.925003051758 146.274993896484 138.475006103516 132.606246948242 124.837501525879 117.375 112.543746948242 110.46875 111.612503051758 112.306251525879 112.956253051758 114.724998474121 113.743751525879 114.006248474121 115.787498474121 114.668746948242 
242.8125 247.056243896484 246.731246948242 244.425003051758 242.587493896484 238.581253051758 229.600006103516 227.574996948242 223.862503051758 222.175003051758 218.9375 215.537506103516 210.4375 202.699996948242 195.199996948242 186.068756103516 174.337493896484 165.399993896484 158.137496948242 144.043746948242 131.693756103516 119.487503051758 114.587501525879 115.5 117.875 119.1875 121.0625 122.25 124.375 126.162498474121 128.524993896484 129.681243896484 133.631256103516 138.1875 145.556243896484 151.649993896484 145.631256103516 137.793746948242 131.668746948242 125.393753051758 117.856246948242 114.599998474121 111.474998474121 111.606246948242 111.893753051758 110.912498474121 111.875 111.506248474121 110.268753051758 112.943748474121 111.949996948242 
