ncols        51
nrows        45
xllcorner    -63.500000000000
yllcorner    -7.500000000000
cellsize     0.166666666667
NODATA_value -99
116.918746948242 111.1875 114.412498474121 120.96875 127.087501525879 135.368743896484 141.893753051758 147.899993896484 152.668746948242 158.506256103516 165.850006103516 169.487503051758 171.699996948242 171.175003051758 168.6875 165.71875 162.550003051758 157.162506103516 152.831253051758 148.699996948242 146.399993896484 143.731246948242 141.368743896484 138.0625 135.118743896484 132.40625 127.650001525879 122.993751525879 119.837501525879 122.043746948242 125.587501525879 129.40625 133.975006103516 139.193756103516 145.175003051758 151.699996948242 158.425003051758 165.024993896484 171.287506103516 177.268753051758 183.287506103516 188.912506103516 192.837493896484 195.006256103516 195.793746948242 194.40625 192.662506103516 188.637496948242 184.600006103516 178.637496948242 171.5 
111.412498474121 104.300003051758 107.393753051758 113.8125 121.181251525879 128.643753051758 135.681243896484 143.431243896484 151.199996948242 158.4375 165.262496948242 167.837493896484 169.081253051758 168.956253051758 166.306243896484 163.787506103516 159.59375 153.6875 148.175003051758 143.625 140.837493896484 138.78125 136.987503051758 135.462493896484 134.137496948242 132.168746948242 129.256256103516 125.96875 123.5 125.21875 129.574996948242 134.743743896484 140.993743896484 148.449996948242 155.487503051758 162.637496948242 171.106246948242 178.800003051758 185.706253051758 191.831253051758 198.393753051758 204.59375 208.96875 211.0625 211.331253051758 208.918746948242 206.112503051758 201.706253051758 196.175003051758 189.143753051758 181.53125 
109.050003051758 103.224998474121 106.09375 112.550003051758 119.675003051758 127.081253051758 135.037506103516 144.09375 153.212493896484 160.662506103516 165.931243896484 166.824996948242 166.71875 165.306243896484 162.293746948242 159.28125 155.975006103516 151.175003051758 146.637496948242 143.074996948242 141.368743896484 141.068756103516 140.412506103516 139.737503051758 139.243743896484 138.712493896484 136.393753051758 133.931243896484 131.256256103516 134.487503051758 140.337493896484 146.168746948242 153.856246948242 163.256256103516 172.543746948242 181.643753051758 191.518753051758 201.881256103516 210.550003051758 217.912506103516 225.556243896484 231.493743896484 235.712493896484 238.493743896484 237.625 232.09375 227.912506103516 223.350006103516 215.587493896484 206.518753051758 196.737503051758 
106.4375 101.556251525879 105.362503051758 110.456253051758 117.212501525879 124.412498474121 133.212493896484 143.306243896484 154.581253051758 162.5625 165.487503051758 164.149993896484 162.168746948242 160.037506103516 157.668746948242 154.431243896484 151.306243896484 148.543746948242 145.893753051758 144.0625 144.050003051758 144.212493896484 144.006256103516 144.643753051758 145.037506103516 145.037506103516 143.337493896484 141.162506103516 139.487503051758 143.743743896484 150.731246948242 158.5625 166.856246948242 176.981246948242 187.318756103516 200.431243896484 213.693756103516 226.631256103516 237.699996948242 247.09375 254.34375 260.65625 264.912506103516 268.412506103516 264.762512207031 259.350006103516 251.149993896484 244.399993896484 235.59375 224.418746948242 212.481246948242 
108.637496948242 102.168754577637 103.09375 107.375 114.300003051758 121.737503051758 130.356246948242 140.649993896484 154.512496948242 165.018753051758 164.443756103516 159.550003051758 156.762496948242 155.037506103516 152.506256103516 149.40625 147.081253051758 145.024993896484 143.6875 143.287506103516 145.400009155273 146.556243896484 147.449996948242 149.412506103516 150.731246948242 151.574996948242 149.643753051758 148.574996948242 148.362503051758 152.581253051758 160.262496948242 168.824996948242 179.231246948242 190.8125 203.756256103516 218.493743896484 234.600006103516 251.443756103516 263.837493896484 274.8125 283.237487792969 288.081237792969 293.356262207031 296.912506103516 293.931243896484 284.5 271.943756103516 262.78125 251.587493896484 241.331253051758 225.693756103516 
111.443748474121 105.931251525879 104.650001525879 105.581253051758 113.268753051758 122.5625 131.456253051758 141.612503051758 154.918746948242 166.962493896484 163.637496948242 157.899993896484 155.712493896484 153.837493896484 151.449996948242 149.59375 147.256256103516 146.024993896484 145.899993896484 146.225006103516 149.46875 152.256256103516 154.668746948242 156.331253051758 158.262496948242 159.431243896484 157.28125 155.350006103516 155.712493896484 159.756256103516 167.356246948242 177.262496948242 187.8125 200.543746948242 214.681243896484 231.731246948242 250.112503051758 270.5625 287.362487792969 297.881256103516 302.875 308.543762207031 313.481262207031 319.21875 321.625 306.212493896484 286.25 271.71875 261.768737792969 249.993743896484 235.418746948242 
116.9375 111.974998474121 110.550003051758 110.618751525879 116.237503051758 123.53125 131.03125 138.193756103516 145.481246948242 150.675003051758 153.231246948242 152.9375 152.949996948242 152.556243896484 150.993743896484 149.875 148.425003051758 147.568756103516 147.662506103516 149.300003051758 154.225006103516 158.662506103516 162.043746948242 164.543746948242 166.987503051758 168.268753051758 166.262496948242 163.456253051758 162.143753051758 166.925003051758 174.443756103516 183.487503051758 194.387496948242 208.175003051758 223.756256103516 241.106246948242 261.200012207031 283.637512207031 305.46875 313.268737792969 317.118743896484 320.09375 326.068756103516 334.28125 338 321.712493896484 295.8125 275.737487792969 264.200012207031 253.399993896484 241.0625 
123.537498474121 118.856246948242 118.65625 120.431251525879 123.887496948242 128.925003051758 131.893753051758 132.387496948242 130.875 133.481246948242 141.0625 145.762496948242 149.199996948242 150.574996948242 151.100006103516 150.643753051758 149.912506103516 149.850006103516 150.737503051758 153.637496948242 160.168746948242 165.800003051758 170.381256103516 173.668746948242 176.274993896484 176.931243896484 173.8125 169.5625 167.268753051758 170.443756103516 177.931243896484 187.306243896484 198.956253051758 213.306243896484 228.4375 245.90625 264.21875 285.287506103516 301.881256103516 310.993743896484 315.068756103516 316.5625 319.962493896484 325.662506103516 326.450012207031 311.737487792969 290.356262207031 272.024993896484 259.581237792969 251.243743896484 241.1875 
130.712493896484 127.574996948242 128.537506103516 130.237503051758 133.043746948242 135.743743896484 136.40625 132.800003051758 125.15625 123.881248474121 134.456253051758 142.25 148.037490844727 150.793746948242 153.018753051758 154.425003051758 155.024993896484 157.199996948242 160.175003051758 163.350006103516 170.274993896484 177.050003051758 180.71875 184.425003051758 185.34375 184.118743896484 178.493743896484 174.731246948242 171.606246948242 172.643753051758 178.699996948242 186.356246948242 196.3125 208.649993896484 221.681243896484 238.631256103516 256.28125 272.774993896484 284.46875 292.850006103516 296.350006103516 294.618743896484 295.881256103516 295.243743896484 288.1875 278.106262207031 264.618743896484 250.493743896484 241.537506103516 237.337493896484 235.362503051758 
138.71875 136.706253051758 137.78125 140.256256103516 143.4375 145.475006103516 144.962493896484 140.449996948242 134.21875 132.837493896484 138.15625 143.600006103516 149.28125 152.899993896484 156.456253051758 159.443756103516 161.456253051758 165.899993896484 170.706253051758 176.581253051758 183.662506103516 190.074996948242 192.9375 194.056243896484 192.012496948242 189.337493896484 183.800003051758 178 174.375 174.306243896484 177.09375 183 191.824996948242 203.231246948242 215.6875 230.84375 245.487503051758 258.6875 268.331237792969 273.1875 274.75 270.581237792969 265.787506103516 260.931243896484 251.425003051758 240.34375 231.3125 224.350006103516 219.056243896484 217.056243896484 213.0625 
147.074996948242 145.90625 147.018753051758 149.65625 153.143753051758 157.393753051758 157.443756103516 151.887496948242 146.324996948242 144.568756103516 146.637496948242 149.606246948242 152.762496948242 156.524993896484 160.818756103516 164.318756103516 168.09375 174.375 181.462493896484 189.65625 199.6875 205.068756103516 206.118743896484 202.243743896484 199.899993896484 197.381256103516 191.274993896484 184.71875 178.53125 176.949996948242 178.0625 181.71875 189.574996948242 199.318756103516 209.268753051758 221.65625 233.756256103516 242.84375 249.925003051758 252.6875 251.962493896484 245.681243896484 239.71875 230.306243896484 217.925003051758 208.100006103516 200.21875 196.274993896484 192.056243896484 188.300003051758 180.9375 
153.987503051758 152.987503051758 154.431243896484 157.693756103516 161.787506103516 166.743743896484 168.506256103516 161.887496948242 156.737503051758 153.931243896484 153.949996948242 156.106246948242 158.231246948242 161.818756103516 166.84375 170.40625 174.693756103516 181.693756103516 189.793746948242 200.3125 214.112503051758 219.5625 218.600006103516 211.806243896484 205.618743896484 199.78125 191.731246948242 185.918746948242 180.625 178.649993896484 177.125 178.662506103516 184.168746948242 191.981246948242 200.393753051758 209.725006103516 218.168746948242 225.274993896484 229.15625 230.568756103516 226.574996948242 218.893753051758 211.493743896484 202.956253051758 187.962493896484 174.787506103516 169.137496948242 165.9375 164.518753051758 162.175003051758 153.1875 
159.956253051758 159.449996948242 161.018753051758 163.756256103516 167.5625 171.293746948242 171.256256103516 167.800003051758 163.675003051758 161.912506103516 161.53125 162.631256103516 164.962493896484 166.806243896484 171.59375 176.225006103516 180.100006103516 187.981246948242 196.806243896484 207.068756103516 223.762496948242 230.637496948242 228.793746948242 220.699996948242 206.681243896484 198.143753051758 194.256256103516 188.212493896484 183.412506103516 179.90625 176.59375 174.850006103516 179.212493896484 184.356246948242 190.84375 198.399993896484 204.425003051758 210.462493896484 214.412506103516 211.5 206.756256103516 200.375 191.125 172.956253051758 156.21875 153.443756103516 150.668746948242 147.168746948242 143.837493896484 140.600006103516 132.9375 
164.681243896484 164.262496948242 165.956253051758 168.300003051758 170.949996948242 173.53125 173.512496948242 172.262496948242 170.006256103516 168.006256103516 167.100006103516 168.0625 169.981246948242 172.518753051758 175.40625 180.175003051758 183.693756103516 190.949996948242 198.84375 208.068740844727 223.324996948242 231.78125 234.65625 228.518753051758 217.537506103516 209.274993896484 202.100006103516 193.850006103516 186.762496948242 179.90625 173.912506103516 170.806243896484 173.331253051758 177.225006103516 182.34375 188.899993896484 194.449996948242 200.668746948242 204.725006103516 203.481246948242 195.5 183.28125 173.40625 162.368743896484 149.212493896484 144.956253051758 144.949996948242 142.212493896484 135.78125 129.493743896484 120.137496948242 
167.306243896484 167.25 168.28125 170.581253051758 172.912506103516 174.881256103516 176.587493896484 176.5625 174.381256103516 172.837493896484 172.237503051758 173.018753051758 174.625 177.112503051758 179.306243896484 183.581253051758 186.125 191.274993896484 197.012496948242 205.481246948242 220.175003051758 232.0625 240.106246948242 239.912506103516 235.268753051758 227.456253051758 214.606246948242 201.324996948242 189.737503051758 178.975006103516 170.137496948242 164.743743896484 166.393753051758 170.699996948242 175.162506103516 180.199996948242 186.800003051758 196.543746948242 204.462493896484 201.381256103516 190.225006103516 179.162506103516 171.931243896484 164.162506103516 151.762496948242 144.137496948242 139.225006103516 135.743743896484 130.649993896484 123.006248474121 113.362503051758 
168.393753051758 168.131256103516 169.574996948242 172 174.256256103516 176.931243896484 178.8125 179.175003051758 178.03125 177.149993896484 175.818756103516 175.568756103516 177.1875 179.881256103516 182.699996948242 185.40625 185.737503051758 189.356246948242 193.774993896484 200.600006103516 214.649993896484 230.462493896484 245.15625 253.006240844727 252.375 243.71875 227.59375 209.949996948242 193.449996948242 177.962493896484 166.212493896484 157.9375 158.193756103516 161.850006103516 164.600006103516 167.668746948242 178.168746948242 189.625 200.668746948242 199.199996948242 191.837493896484 183.175003051758 175.431243896484 166.681243896484 156.125 147.462493896484 141.824996948242 135.199996948242 128.21875 121.118751525879 113.65625 
167.574996948242 167.787506103516 170.462493896484 173.675003051758 176.09375 179.037506103516 181.5 182.537506103516 181.893753051758 180.181243896484 178.368743896484 177.662506103516 178.018753051758 179.693756103516 181.524993896484 182.875 181.125 183.293746948242 187.21875 193.8125 208 226.225006103516 247.206253051758 262.731262207031 268.34375 254.893753051758 236.518753051758 214.212493896484 193.181243896484 174.84375 161.725006103516 153.8125 150.149993896484 148.949996948242 149.537490844727 156.625 168.6875 189.587493896484 210.412506103516 205.162506103516 195.925003051758 188.037506103516 178.675003051758 171.362503051758 161.512496948242 152.725006103516 144.481246948242 137.75 132.425003051758 123.943748474121 117.693748474121 
165.943756103516 166.925003051758 170.931243896484 174.931243896484 178.34375 182.475006103516 185.706253051758 186.987503051758 186.131256103516 184.418746948242 182.34375 179.887496948242 178.356246948242 177.40625 177.350006103516 176.668746948242 174.375 174.856246948242 178.818756103516 184.324996948242 198.168746948242 216.456253051758 238.34375 255.53125 263.100006103516 254.25 239.106246948242 214.84375 190.212493896484 168.393753051758 153.350006103516 144.59375 144.231246948242 145.806243896484 142.449996948242 139.381256103516 159.1875 184.21875 201.9375 206.068740844727 199.962493896484 193.256256103516 184.268753051758 176.762496948242 166.574996948242 158.274993896484 150.231246948242 142.743743896484 137.524993896484 129.149993896484 124.050003051758 
162.90625 165.637512207031 170.987503051758 176.393753051758 181.387496948242 185.993743896484 189.725006103516 191.912506103516 191.912506103516 189.25 185.175003051758 181.606246948242 177.637496948242 174.106246948242 172.493743896484 171.774993896484 169.199996948242 168.106246948242 171.0625 175.149993896484 187.774993896484 208.193756103516 225.0625 240.125 247.537506103516 246.081253051758 231.925003051758 210.175003051758 187.612503051758 163.300003051758 144.75 140.84375 147.90625 148.71875 146.487503051758 147.018753051758 160.6875 178.274993896484 193.381256103516 201.0625 200.800003051758 200.149993896484 190.256256103516 182.237503051758 172.518753051758 163.375 157.012496948242 151 144.975006103516 133.331253051758 132.175003051758 
158.96875 163.600006103516 170.131256103516 176.956253051758 183.600006103516 189.949996948242 195.150009155273 198.362503051758 197.918746948242 195.193756103516 189.949996948242 183.856246948242 177.6875 171.756256103516 168.987503051758 167.5 163.993743896484 164.837493896484 167.199996948242 172.137496948242 181.8125 197.012496948242 216.837493896484 229.018753051758 234.71875 232.362503051758 220.90625 205.868743896484 184.5625 162.574996948242 147.362503051758 147.612503051758 153.731246948242 160.262496948242 164.850006103516 165.837493896484 171.03125 180.59375 190.631256103516 198 202.449996948242 202.818756103516 195.25 186.918746948242 178.324996948242 170.662506103516 164.324996948242 158.25 150.71875 141.725006103516 140.256256103516 
154.293762207031 161.243743896484 170.456253051758 179.600006103516 188.225006103516 195.318756103516 201.956253051758 206.193756103516 206.0625 202.181243896484 196.168746948242 188.40625 180.768753051758 172.606246948242 169.043746948242 166.21875 162.975006103516 162.893753051758 167.012496948242 171.256256103516 182.537506103516 196.975006103516 211.28125 219.662506103516 225.28125 225.368743896484 216.050003051758 200.03125 184.168746948242 171.125 161.443756103516 159.012496948242 164.0625 172.287506103516 181.774993896484 182.018753051758 181.25 185.324996948242 191.274993896484 197.381256103516 201.943756103516 202.34375 197.787506103516 192.337493896484 185.268753051758 178.568756103516 173.743743896484 167.5 158.668746948242 153.350006103516 150.306243896484 
150 159.462509155273 170.6875 181.818756103516 192.65625 201.393753051758 208.925003051758 214.71875 215.912506103516 211.212493896484 203.318756103516 194.050003051758 185.306243896484 177.987503051758 173.362503051758 170.393753051758 168.399993896484 168.5 171.068756103516 175.181243896484 182.787506103516 194.137496948242 206.743743896484 212.524993896484 215.300003051758 215.28125 209.6875 199.056243896484 188.84375 179.543746948242 171.71875 168.237503051758 172.112503051758 179.1875 184.625 187.28125 186.756256103516 187.631256103516 191.5625 197.206253051758 201.456253051758 202.21875 200.574996948242 196.506256103516 192.006256103516 186.887496948242 183.587493896484 177.96875 170.8125 167.043746948242 162.175003051758 
148.074996948242 160.225006103516 173.331253051758 186.037506103516 197.3125 206.699996948242 215.456253051758 223.381256103516 227.337493896484 220.581253051758 210.800003051758 199.537506103516 190.949996948242 184.568756103516 179.537506103516 175.993743896484 173.793746948242 174.600006103516 176.293746948242 179.012496948242 185.918746948242 193.787506103516 202.40625 206.625 207.962493896484 205.568756103516 202.425003051758 197.9375 190.543746948242 184.012496948242 179.024993896484 176.318756103516 178.543746948242 183.393753051758 186.84375 189.212493896484 189.337493896484 188.506256103516 192.024993896484 199.774993896484 205.456253051758 206.850006103516 205.96875 202.4375 198.631256103516 196.112503051758 194.5 190.168746948242 183.5 179.631256103516 176.524993896484 
149.356246948242 163.493743896484 178.912506103516 191.1875 202.40625 211.368743896484 219.181243896484 227.193756103516 230.306243896484 224.143753051758 213.643753051758 203.518753051758 195.306243896484 189.018753051758 184.868743896484 181.556243896484 179.818756103516 180.137496948242 181.024993896484 182.668746948242 188.524993896484 195.587493896484 200.9375 202.793746948242 201.925003051758 197.293746948242 192.4375 191.556243896484 189.774993896484 186.331253051758 182.893753051758 180.518753051758 182.46875 185.443756103516 188.15625 192.231246948242 193.693740844727 193.231246948242 198.274993896484 205.6875 212.112503051758 214.425003051758 213.90625 210.506256103516 210.106246948242 209.806243896484 209.081253051758 203.743743896484 201.681243896484 192.706253051758 189.5 
155.793746948242 169.699996948242 185.993743896484 196.975006103516 207.574996948242 215.21875 221.356246948242 226.587493896484 227.862503051758 224.050003051758 216.818756103516 207.975006103516 200.637496948242 194.637496948242 190.706253051758 188.21875 186.375 186.337493896484 186.59375 187.731246948242 192.099990844727 196.237503051758 200.875 200.800003051758 199.21875 196.881256103516 192.574996948242 191.018753051758 189.768753051758 187.262496948242 184.225006103516 181.100006103516 183.75 185.875 188.556243896484 192.850006103516 197.21875 200.993743896484 206.824996948242 215.337493896484 222.431243896484 224.881256103516 224.606246948242 223.362503051758 219.756256103516 220.462493896484 219.981246948242 226.131256103516 224.78125 210.387496948242 206.5625 
164.306243896484 176.350006103516 188.918746948242 201.012496948242 210.931243896484 217.018753051758 221.668746948242 225.237503051758 226.412506103516 224.587493896484 217.96875 211.425003051758 204.756256103516 199.243743896484 196.612503051758 194.475006103516 193.28125 192.481246948242 192.487503051758 192.943756103516 196.106246948242 198.675003051758 201.681243896484 201.006256103516 199.518753051758 197.793746948242 194.725006103516 192 189.975006103516 187.712493896484 183.431243896484 181.462493896484 184.256256103516 185.925003051758 189.0625 194.481246948242 200.456253051758 207.143753051758 215.449996948242 225.225006103516 233.84375 237.53125 237.824996948242 237.949996948242 234.668746948242 229.956253051758 245.800003051758 254.96875 251.875 241.606246948242 232.96875 
174.274993896484 181.712493896484 191.762496948242 201.512496948242 209.762496948242 215.637496948242 219.537506103516 222.600006103516 222.893753051758 220.768753051758 217.75 212.850006103516 207.537506103516 203.018753051758 200.550003051758 199.381256103516 197.662506103516 197.537506103516 197.137496948242 197.106246948242 199.443756103516 200.887496948242 202.425003051758 202.768753051758 200.368759155273 198.425003051758 194.90625 191.699996948242 189.443756103516 186.637496948242 183.756240844727 180.65625 183.831253051758 186.293746948242 188.856246948242 195.225006103516 202.162506103516 209.818756103516 220.856246948242 233.893753051758 245.087493896484 252.362503051758 256.325012207031 258.743743896484 260.65625 271.106262207031 286.762512207031 284.518737792969 276.662506103516 263.006256103516 251.925003051758 
183.824996948242 188.231246948242 195.375 202.756256103516 208.887496948242 213.756256103516 217.824996948242 219.956253051758 219.975006103516 219.100006103516 216.649993896484 213.024993896484 209.637496948242 205.412490844727 203.981246948242 203.274993896484 202.71875 201.662506103516 201.612503051758 202.181243896484 202.850006103516 203.199996948242 204.662506103516 203.331253051758 200.649993896484 198.612503051758 195.331253051758 192.012496948242 188.125 185.074996948242 181.612503051758 179.268753051758 182.518753051758 185.193756103516 189.137496948242 195.168746948242 201.849990844727 211.40625 224.356246948242 240.75 257.793762207031 267.924987792969 273.118743896484 280.862487792969 295.700012207031 315.268737792969 326.737487792969 315.643737792969 300.024993896484 282.506256103516 267.893737792969 
192.925003051758 195.074996948242 198.887496948242 204.074996948242 208.300003051758 211.46875 214.243743896484 216.568756103516 217.112503051758 217.493743896484 216.675003051758 214.081253051758 211.1875 207.681243896484 207.306259155273 206.993743896484 207.181243896484 206.3125 205.931243896484 206.3125 205.706253051758 205.46875 205.737503051758 203.481246948242 200.262496948242 198.199996948242 194.606246948242 190.693756103516 187.5625 183.824996948242 179.556243896484 177.225006103516 180.475006103516 183.512496948242 187.631256103516 194.03125 200.78125 209.59375 223.175003051758 241.006256103516 261.443756103516 274.262512207031 283.174987792969 298.287506103516 319.887512207031 341.71875 351.862487792969 335.674987792969 318.518737792969 300.475006103516 279.212493896484 
198.412506103516 198.75 200.34375 202.225006103516 204.943756103516 206.65625 209.418746948242 212.350006103516 214.1875 214.59375 215.506256103516 213.493743896484 212.21875 210.0625 209.643753051758 210.106246948242 209.418746948242 209.618743896484 208.975006103516 207.962493896484 207.512496948242 206.956253051758 206.087493896484 202.431243896484 199.193756103516 197.362503051758 193.237503051758 188.675003051758 184.418746948242 180.912506103516 177.743743896484 175.53125 178.21875 181.556243896484 184.943756103516 190.318756103516 195.8125 203.949996948242 214.193756103516 228.381256103516 246.024993896484 263.943756103516 278.081237792969 297.993743896484 316.493743896484 335.706237792969 346.037506103516 339.100006103516 324.368743896484 307.168762207031 285.274993896484 
202.706253051758 200.987503051758 201.006256103516 199.925003051758 201.068756103516 203.643753051758 206.068756103516 208.925003051758 210.71875 211.71875 213.899993896484 213.731246948242 214.181243896484 213.149993896484 212.15625 212.543746948242 212.6875 212.087493896484 211.28125 210.518753051758 208.881256103516 207.868743896484 206.487503051758 201.96875 198.074996948242 194.931243896484 190.487503051758 185.600006103516 180.887496948242 177.606246948242 175.425003051758 173.65625 175.90625 179.081253051758 182.081253051758 185.46875 189.96875 196.675003051758 204.037506103516 210.537506103516 226.100006103516 247.649993896484 267.825012207031 287.65625 305.318756103516 325.662506103516 337.225006103516 334.84375 324.043762207031 308.106262207031 291.225006103516 
204.9375 201.787506103516 199.375 198.112503051758 199.300003051758 199.96875 201.987503051758 204.818756103516 206.9375 208.899993896484 211.550003051758 213.181243896484 214.125 214.731246948242 215.081253051758 215.268753051758 214.306243896484 212.725006103516 213.018753051758 212.175003051758 209.90625 208.112503051758 206.25 200.743743896484 196.306259155273 192.074996948242 187.137496948242 182.068756103516 176.962493896484 174.53125 172.762496948242 170.925003051758 172.899993896484 176.068756103516 177.887496948242 180.368743896484 183.75 188.675003051758 193.100006103516 199.34375 213.8125 235.225006103516 255.268753051758 276.418762207031 294.362487792969 316.987487792969 330.756256103516 329.899993896484 319.125 305.981262207031 291.8125 
204.899993896484 200.9375 197.931243896484 196.543746948242 195.850006103516 195.737503051758 196.512496948242 198.043746948242 200.206253051758 203.262496948242 209.637496948242 211.693756103516 214.818756103516 217.65625 217.487503051758 216.393753051758 214.106246948242 212.762496948242 212.375 211.5 209.018753051758 206.9375 204.449996948242 199.324996948242 194.318756103516 189.612503051758 184.287506103516 178.46875 173.25 171.6875 169.981246948242 168.412506103516 168.362503051758 170.71875 173.168746948242 176.143753051758 178.225006103516 180.543746948242 184.324996948242 192.449996948242 204.231246948242 220.943756103516 238.274993896484 255.962493896484 276.431243896484 300.725006103516 314.325012207031 308.1875 300.293762207031 288.981262207031 277.774993896484 
202.824996948242 199.268753051758 196.506256103516 194.587493896484 191.925003051758 191.175003051758 190.818756103516 191.443756103516 192.818756103516 196.787506103516 202.831253051758 209.293746948242 216.175003051758 218.675003051758 218.856246948242 216.650009155273 213.78125 212.59375 210.956253051758 210.524993896484 207.756256103516 205.237503051758 202.574996948242 196.449996948242 191.725006103516 186.831253051758 180.574996948242 174.399993896484 169.293746948242 167.762496948242 166.793746948242 165.78125 165.712493896484 165.987503051758 168.137496948242 170.181243896484 171.09375 172.449996948242 176.100006103516 182.762496948242 190.256256103516 203.056243896484 217.850006103516 232.649993896484 251.662506103516 272.350006103516 282.037506103516 277.756256103516 271.149993896484 264.337493896484 257.237487792969 
200.487503051758 197.637496948242 193.862503051758 191.512496948242 188.149993896484 186.46875 184.981246948242 184.918746948242 184.987503051758 188.949996948242 196.581253051758 205.731246948242 215.606246948242 221.350006103516 219.143753051758 216.15625 212.931243896484 211.3125 209.793746948242 208.212493896484 205.743743896484 202.612503051758 199.725006103516 193.137496948242 188.168746948242 183.181243896484 177.0625 171.237503051758 165.949996948242 164.162506103516 163.056243896484 162.506256103516 161.743743896484 161.8125 162.143753051758 162.431243896484 162.550003051758 164.487503051758 166.768753051758 170.381256103516 175.024993896484 183.350006103516 194.268753051758 205.125 219.943756103516 233.212493896484 242.143753051758 242.368743896484 239.28125 234.8125 232.59375 
196.737503051758 194.037506103516 191.131256103516 187.837493896484 184.568756103516 182.59375 179.862503051758 178.1875 177.162506103516 179.318756103516 187.699996948242 198.65625 210.875 217.643753051758 216.574996948242 213.462493896484 209.887496948242 208.574996948242 207.056243896484 205.006256103516 202.581253051758 199.787506103516 195.600006103516 189.824996948242 185 180.012496948242 174.231246948242 168.949996948242 164.024993896484 162.25 160.518753051758 159.28125 157.637496948242 157.28125 155.918746948242 154.974990844727 156.46875 157.168746948242 158.681243896484 160.899993896484 164.399993896484 170.100006103516 175.512496948242 183.037506103516 192.90625 199.850006103516 204.931243896484 207.212493896484 206.287506103516 203.324996948242 202.274993896484 
192.931243896484 190.59375 187.831253051758 184.8125 181.637496948242 178.699996948242 175.137496948242 172.118743896484 169.399993896484 168.212493896484 177.731246948242 193.762496948242 204.912506103516 210.831253051758 211.456253051758 209.550003051758 206.024993896484 204.868743896484 202.84375 200.34375 197.637496948242 194.462493896484 191.018753051758 185.431243896484 180.806243896484 176.5625 171.287506103516 166.71875 162.75 160.337493896484 158.3125 155.693756103516 154.118743896484 152.625 149.46875 149.21875 149.65625 150.387496948242 150.862503051758 151.550003051758 153.331253051758 154.943740844727 157.887496948242 162.125 167.03125 169.21875 171.824996948242 173.28125 172.143753051758 170.393753051758 170.90625 
189.475006103516 187.543746948242 184.775009155273 182 179.206253051758 175.806243896484 172.868743896484 169.487503051758 166.6875 163.25 177.512496948242 193.431243896484 201.537506103516 206.731246948242 207.106246948242 205.449996948242 202 200.53125 198.649993896484 195.574996948242 192.256256103516 188.118743896484 184.568756103516 179.518753051758 176.168746948242 172.800003051758 167.96875 164.262496948242 160.931243896484 158.5 155.287506103516 152.706253051758 150.53125 147.71875 144.606246948242 143.087493896484 143.487503051758 143.03125 143.425003051758 143.537506103516 142.5 142.362503051758 141.612503051758 141.90625 142.649993896484 142.012496948242 142.274993896484 143.78125 142.262496948242 140.787506103516 142.418746948242 
187.456253051758 185.318756103516 183.15625 180.587493896484 177.868743896484 174.856246948242 172.350006103516 171.40625 171.443756103516 177.274993896484 191.868743896484 197.643753051758 200.4375 203.356246948242 204.099990844727 202.962493896484 199.96875 197.824996948242 194.625 191.631256103516 186.756256103516 182.0625 178.53125 174.21875 170.893753051758 168.824996948242 165.856246948242 163.662506103516 161.175003051758 158.975006103516 157.106246948242 154.706253051758 152.0625 149.212493896484 147.350006103516 146.318756103516 144.887496948242 143.962493896484 143.612503051758 141.318756103516 140.193756103516 139.46875 137.918746948242 137.631240844727 138.231246948242 137.899993896484 136.818756103516 138.6875 138.524993896484 139.012496948242 140.081253051758 
186.087493896484 183.949996948242 182.168746948242 180.081253051758 177.287506103516 175.512496948242 173.443756103516 174.168746948242 176.350006103516 182.574996948242 190.712493896484 196.399993896484 199.53125 201.087493896484 202.0625 200.699996948242 198.356246948242 195.731246948242 191.412506103516 186.793746948242 181.206253051758 175.774993896484 171.493743896484 167.949996948242 166.300003051758 164.850006103516 163.324996948242 162.84375 161.868743896484 160.425003051758 158.637496948242 157.524993896484 156.612503051758 154.149993896484 152.825012207031 150.449996948242 147.6875 145.787506103516 144.8125 140.949996948242 138.524993896484 137.912506103516 136.25 135.693756103516 136.143753051758 136.431243896484 136.949996948242 139.206253051758 140.46875 141.487503051758 142.568756103516 
184.875 183.206253051758 181.443756103516 179.287506103516 177.518753051758 175.274993896484 174.774993896484 175.5 178.131256103516 182.987503051758 188.75 193.53125 197.868743896484 199.493743896484 200.787506103516 199.84375 197.068756103516 193.981246948242 188.637496948242 182.418746948242 175.475006103516 168.774993896484 164.375 161.90625 162.018753051758 161.237503051758 160.868743896484 161.65625 162.012496948242 161.318756103516 161.59375 162.6875 161.800003051758 160.168746948242 158.637496948242 155.399993896484 152.162506103516 148.931243896484 146.46875 142.087493896484 138.5 136.987503051758 134.949996948242 134.443756103516 135.731246948242 137.725006103516 138.856246948242 139.962493896484 143.106246948242 144.506256103516 145.637496948242 
183.637496948242 183.625 181.943756103516 179.681243896484 177.787506103516 175.625 175.40625 176.118743896484 179.256256103516 183.237503051758 188.481246948242 193.112503051758 197.981246948242 200.356246948242 201.337493896484 200.743743896484 198.762496948242 194.600006103516 189.331253051758 180.75 171.481246948242 164.887496948242 159.987503051758 158.087493896484 159.512496948242 159.331253051758 159.324996948242 160.762496948242 163.056243896484 165.287506103516 165.256256103516 167.53125 167.731246948242 168.606246948242 167.793746948242 163.300003051758 159.375 156.131256103516 152.574996948242 147.612503051758 143.800003051758 140.074996948242 137.618743896484 138.168746948242 140.106246948242 142.637496948242 143.262496948242 144.350006103516 148.356246948242 149.350006103516 150.399993896484 
183.5 183.293746948242 183.081253051758 180.806243896484 177.443756103516 175.006256103516 174.612503051758 175.037506103516 177.5625 182.225006103516 187.881256103516 193.40625 198.762496948242 201.362503051758 203.112503051758 202.512496948242 200.306243896484 197.868743896484 191.818756103516 180.356246948242 168.625 159.375 155.356246948242 156.100006103516 157.462493896484 158.350006103516 159.056243896484 160.993743896484 164.356246948242 167.287506103516 169.443756103516 171.100006103516 172.237503051758 173.96875 176.199996948242 174.3125 168.337493896484 164.350006103516 159.806243896484 154.84375 150.368743896484 146.887496948242 144.231246948242 144.050003051758 145.949996948242 147 148.706253051758 150.40625 154.356246948242 155.774993896484 156.493743896484 
182.731246948242 183.487503051758 183.71875 181.300003051758 177 173.568756103516 171.850006103516 172.84375 175.21875 180.3125 187.393753051758 194.231246948242 199.262496948242 203.018753051758 205.262496948242 204.568756103516 202.28125 199.331253051758 195.068756103516 182.600006103516 168.637496948242 157.137496948242 153.25 154.425003051758 156.03125 158 159.024993896484 161.912506103516 165.368743896484 169.1875 171.625 173.875 175.637496948242 178.800003051758 182.881256103516 185.318756103516 179.068756103516 172.887496948242 167.793746948242 162.149993896484 157.668746948242 154.237503051758 151.518753051758 151.612503051758 152.387496948242 152.324996948242 153.949996948242 156.512496948242 158.4375 161.53125 162.537506103516 
181.381256103516 183.631256103516 185.393753051758 181.831253051758 176.225006103516 171.9375 168.100006103516 167.856246948242 171.206253051758 177.850006103516 186.181243896484 194.568756103516 201.475006103516 205.899993896484 208.587493896484 207.324996948242 204.418746948242 200.050003051758 193.850006103516 183.862503051758 170.875 162.25 156.125 155.1875 157.0625 158.625 160.3125 162.75 166.725006103516 170.643753051758 173.012496948242 175.96875 178.199996948242 180.856246948242 184.949996948242 188.318756103516 184.512496948242 178.487503051758 173.100006103516 168.693756103516 164.4375 160.943756103516 158.75 157.300003051758 157.8125 158.012496948242 159.074996948242 161.681243896484 162.8125 166.300003051758 167.456253051758 
