ncols        51
nrows        45
xllcorner    -63.500000000000
yllcorner    -7.500000000000
cellsize     0.166666666667
NODATA_value -99
182.774993896484 181.712493896484 178.6875 178.693756103516 176.331253051758 177.293746948242 176.574996948242 172.918746948242 168.331253051758 166.768753051758 169.074996948242 168.850006103516 167.550003051758 160.612503051758 154.881256103516 149.418746948242 145.131256103516 138.368743896484 135.574996948242 133.699996948242 134.037506103516 134.725006103516 136.96875 139.28125 142.337493896484 146.037506103516 150.518753051758 155.368743896484 161.28125 169.581253051758 179.506256103516 190.25 200.037506103516 210.618743896484 222 230.3125 236.149993896484 240.881256103516 243.056243896484 242.574996948242 243.212493896484 242.21875 239.081253051758 239.143753051758 236.1875 234.493743896484 232.806243896484 232.143753051758 231.337493896484 233.743743896484 235.493743896484 
189.181243896484 187.987503051758 187.53125 186.418746948242 186.1875 189.631256103516 190.293746948242 191.518753051758 191.418746948242 190.524993896484 190.331253051758 186.59375 181.9375 175.318756103516 167.881256103516 160.412506103516 154.212493896484 147.774993896484 143.643753051758 140.293746948242 139.943756103516 141.024993896484 143.149993896484 145.78125 148.618743896484 152.9375 157.6875 163.643753051758 169.975006103516 178.53125 187.356246948242 199.012496948242 209.743743896484 221.975006103516 233.168746948242 240.618743896484 245.987503051758 249.46875 250.324996948242 248.800003051758 248.018753051758 245.925003051758 241.824996948242 240.387496948242 236.893753051758 235.293746948242 233.543746948242 231.625 232.368743896484 234.949996948242 235.431243896484 
193.774993896484 192.831253051758 192.137496948242 191.756256103516 192.800003051758 196.887496948242 201.606246948242 207.431243896484 211.149993896484 211.237503051758 208.981246948242 203.037506103516 196.024993896484 187.46875 178.087493896484 169.106246948242 161.181243896484 155.318756103516 150.768753051758 147.443756103516 147.256256103516 149.431243896484 151.03125 153.625 157.793746948242 161.268753051758 166.518753051758 173.256256103516 179.137496948242 187.5 198.043746948242 209.706253051758 221.75 233.243743896484 245.962493896484 252 257.743743896484 262.643737792969 261.818756103516 259.612487792969 257.5625 253.518753051758 248.143753051758 243.199996948242 240.168746948242 238.306259155273 236.743743896484 234.087493896484 234.03125 235.774993896484 236.206253051758 
195.59375 195.112503051758 195.887496948242 196.162506103516 200.193756103516 204.462493896484 211.90625 221.462493896484 228.993743896484 231.725006103516 227.850006103516 218.225006103516 207.193756103516 196.381240844727 186.181243896484 176.243743896484 167.568756103516 160.431243896484 156.574996948242 155.381256103516 156.274993896484 157.875 158.831253051758 161.6875 165.324996948242 168.993743896484 175.5 182.262496948242 188.449996948242 198.112503051758 208.537506103516 222.162506103516 233.693756103516 246.274993896484 258.25 265.631256103516 271.549987792969 275.962493896484 275.737487792969 273.1875 268.493743896484 262.475006103516 255.387496948242 247.949996948242 243.987503051758 240.137496948242 238.71875 236.100006103516 234.068756103516 235.368743896484 236.53125 
201.431243896484 198.506256103516 196.893753051758 198.449996948242 203.518753051758 210.168746948242 218.356246948242 231.46875 244.8125 252.100006103516 242.78125 228.143753051758 216.368743896484 205.03125 193.056243896484 182.53125 173.618743896484 165.743743896484 163.037506103516 162.96875 164.662506103516 165.225006103516 166.5625 169.743743896484 173.056243896484 177.149993896484 182.493743896484 189.056243896484 197.931243896484 208.743743896484 220.399993896484 232.981246948242 246.15625 259.325012207031 271.337493896484 278.875 285.862487792969 290.96875 290.34375 285.793762207031 280.6875 271.537506103516 261.431243896484 252.306243896484 245.949996948242 242.881256103516 240.75 238.543746948242 235.543746948242 235.506256103516 236.637496948242 
203.806243896484 202.087493896484 199.4375 199.524993896484 203.981246948242 212.368743896484 222.443756103516 235.649993896484 250.756256103516 261.793762207031 249.475006103516 234.199996948242 222.987503051758 212.762496948242 201.90625 192.981246948242 183.600006103516 176.106246948242 174.0625 174.225006103516 174.75 175.3125 176.474990844727 179.175003051758 182 186.75 192.899993896484 199.375 207.606246948242 218.21875 229.824996948242 242.181243896484 253.131240844727 267.25 279.306243896484 286.393737792969 293.53125 298.762512207031 299.606262207031 295.46875 288.200012207031 277.875 267.043762207031 256.875 247.518753051758 244.181243896484 243.6875 242.056243896484 237.800003051758 234.899993896484 231.237503051758 
206.181243896484 204.356246948242 202.5 201.043746948242 204.293746948242 211.162506103516 220.287506103516 229.875 240.393753051758 244.793746948242 241.53125 233.412506103516 225.318756103516 217.693756103516 209.875 202.787506103516 196.506256103516 191.84375 189.225006103516 186.574996948242 184.737503051758 184.850006103516 184.649993896484 187.193756103516 192.162506103516 196.587493896484 203.131256103516 210.625 217.3125 226.90625 239.237503051758 251.193756103516 261.862487792969 271.637512207031 282.21875 290.924987792969 297.506256103516 303.600006103516 307 303.331237792969 294.068756103516 283.556243896484 272.818756103516 261.924987792969 251.0625 246.631256103516 246.131256103516 244.181243896484 237.462493896484 232.493743896484 229.243743896484 
207.650009155273 204.40625 202.462493896484 202.981246948242 205.643753051758 210.006256103516 214.96875 219.3125 222.725006103516 226.081253051758 229.893753051758 229.65625 226.556243896484 221.0625 215.712493896484 211.381256103516 207.418746948242 205.462493896484 204.018753051758 197.90625 193.762496948242 192.643753051758 192.131256103516 195.59375 201.106246948242 206.068756103516 212.9375 219.975006103516 227.743743896484 236.768753051758 246.943756103516 259.018737792969 268.125 277.081237792969 285.637512207031 292.587493896484 299.012512207031 304.506256103516 307.268737792969 305.21875 298.643737792969 289.456237792969 279.274993896484 267.625 258.03125 253.268753051758 249.287506103516 242.618743896484 238.493743896484 230.65625 224.675003051758 
209.975006103516 206.712493896484 204.649993896484 205.168746948242 206.65625 208.668746948242 212.074996948242 213.731246948242 213.28125 216.018753051758 222.962493896484 227.53125 227.90625 225.225006103516 220.818756103516 217.956253051758 214.71875 212.356246948242 211.206253051758 204.46875 199.368743896484 198.337493896484 198.637496948242 204.568756103516 210.618743896484 215.862503051758 222.012496948242 228.887496948242 237.012496948242 244.96875 254.675003051758 265.649993896484 273.137512207031 279.975006103516 286.924987792969 293.681243896484 299.537506103516 304.46875 308.450012207031 308.125 303.412506103516 296.356262207031 288.756256103516 279.4375 271.893737792969 265.481262207031 259.25 250 240.087493896484 229.350006103516 220.5625 
211.818756103516 208.587493896484 206.962493896484 206.537506103516 206.899993896484 208.056243896484 211.25 212.793746948242 215.087493896484 218.568756103516 224.96875 228.331253051758 230.931243896484 229.131256103516 225.912506103516 222.125 218.337493896484 214.987503051758 210.556243896484 205.231246948242 202.256256103516 202.75 205.193756103516 213.600006103516 220.3125 225.587493896484 232.125 238.03125 246.53125 253.743743896484 261.043762207031 270.074981689453 276.462493896484 283.106262207031 289.318756103516 294.799987792969 299.881256103516 303.237487792969 307.662506103516 309.868743896484 308.793762207031 304.625 298.40625 289.924987792969 285.106262207031 281.112487792969 273.081237792969 260.606262207031 247.168746948242 232.662506103516 218.90625 
212.524993896484 209.175003051758 207.512496948242 206.737503051758 206.356246948242 207.512496948242 210.356246948242 213.581253051758 217.618743896484 222.46875 229.175003051758 233.1875 234.875 233.368743896484 229.818756103516 225.4375 220.3125 215.012496948242 209.293746948242 204.662506103516 202.618743896484 204.59375 210.462493896484 218.806243896484 229.306243896484 234.831253051758 240.412506103516 247.131256103516 254.225006103516 259.799987792969 266.618743896484 274.0625 278.756256103516 284.15625 290.600006103516 295.862487792969 298.793762207031 302.625 307.600006103516 310.375 311.356262207031 309.0625 305.412506103516 299.4375 295.193756103516 293.3125 283.700012207031 266.71875 251.65625 237.756256103516 221.03125 
214.362503051758 210.887496948242 208.737503051758 208.168746948242 208.199996948242 209.518753051758 212.5 217.356246948242 222.037506103516 227.662506103516 235.056243896484 239.800003051758 239.762496948242 236.975006103516 233.087493896484 227.362503051758 221.587493896484 214.962493896484 207.987503051758 202.425003051758 200.625 204.506256103516 214.193756103516 226.806243896484 237.59375 242.050003051758 246.581253051758 252.662506103516 259.649993896484 265.431243896484 271.25 276.825012207031 281.081237792969 285.506256103516 291.075012207031 296.450012207031 301.1875 305.443756103516 311.143737792969 315.1875 317.84375 316.206237792969 311.28125 303.825012207031 297.950012207031 290.643737792969 279.924987792969 269.318756103516 255.824996948242 242.0625 224.8125 
213.699996948242 210.918746948242 209.550003051758 208.949996948242 209.918746948242 212.024993896484 215.856246948242 220.512496948242 225.46875 232.537506103516 239.875 244.537506103516 243.931243896484 239.056243896484 234.243743896484 227.581253051758 221.287506103516 215.175003051758 209.012496948242 202.850006103516 199.462493896484 205.018753051758 217.012496948242 229.862503051758 238.925003051758 244.206253051758 250.649993896484 257.162506103516 263.725006103516 269.006256103516 274.149993896484 278.818756103516 281.181243896484 285.387512207031 290.71875 295.612487792969 300.387512207031 306.71875 313.943756103516 319.399993896484 324.443756103516 322.462493896484 314.375 304.931243896484 296.293762207031 289.362487792969 279.75 267.131256103516 255.837493896484 245.96875 235.09375 
211.90625 209.625 208.756256103516 208.831253051758 210.59375 213.131256103516 217.949996948242 223.0625 228.699996948242 235.268753051758 241.675003051758 244.387496948242 243.393753051758 239.893753051758 233.475006103516 227.318756103516 220.375 215.556243896484 210.181243896484 206.212493896484 206.612503051758 212.118743896484 221.737503051758 231.53125 239.768753051758 246.006256103516 253.387496948242 260.056243896484 267.087493896484 270.556243896484 274.881256103516 278.225006103516 279.75 283.518737792969 288.043762207031 293.662506103516 300.443756103516 308.118743896484 317.831237792969 324.53125 327.831237792969 321.8125 315.112487792969 308.037506103516 300.018737792969 290.762512207031 281.75 272.3125 259.918762207031 252.337493896484 247.09375 
210.324996948242 208.181243896484 208.175003051758 209.800003051758 211.387496948242 214.987503051758 220.737503051758 225.824996948242 231.8125 238 242.912506103516 245.056243896484 243.762496948242 240.143753051758 234.043746948242 227.243743896484 220.90625 216.587493896484 212.78125 211.081253051758 214.081253051758 219.675003051758 228.287506103516 236.456253051758 243.399993896484 250.600006103516 257.725006103516 263.587493896484 269.712493896484 272.981262207031 275 276.306243896484 277.481262207031 279.618743896484 283.893737792969 289.575012207031 299.056243896484 310.15625 322.262512207031 329.75 329.756256103516 325.318756103516 319.96875 311.987487792969 302.506256103516 292.762481689453 284.168762207031 275.0625 266.068756103516 256.850006103516 251.518753051758 
207.537506103516 205.78125 206.681243896484 209.050003051758 211.943756103516 216.175003051758 222.168746948242 227.125 233.462493896484 240.331253051758 245.268753051758 247.018753051758 245.587493896484 241.168746948242 234.725006103516 226.274993896484 221.112503051758 218.693756103516 216.618743896484 216.350006103516 220.393753051758 226.731246948242 235.006256103516 243.006256103516 248.481246948242 254.143753051758 259.950012207031 266.15625 272.618743896484 275.368743896484 276.850006103516 275.549987792969 272.793762207031 272.53125 274.34375 281.65625 293.831237792969 309.174987792969 326.431243896484 336.049987792969 336.612487792969 329.918762207031 322.306243896484 313.212493896484 301.743743896484 291.5625 281.71875 272.081237792969 263.631256103516 255.300003051758 248.637496948242 
202.6875 202.506256103516 204.050003051758 207.162506103516 211.131256103516 215.949996948242 222.125 227.899993896484 234.550003051758 241.84375 247.949996948242 250.068756103516 249.012496948242 244.6875 237.481246948242 228.581253051758 221.59375 219.1875 218 219.199996948242 225.5625 233.256256103516 241.356246948242 248.625 254.175003051758 257.293762207031 261.075012207031 267.725006103516 275.03125 278.768737792969 279.037506103516 275.693756103516 269.293762207031 262.912506103516 262.96875 270.59375 284.399993896484 306.368743896484 332.762512207031 339.756256103516 337.356262207031 329.587493896484 319.625 309.631256103516 299.075012207031 289.037506103516 278.131256103516 269.237487792969 262.518737792969 252.587509155273 244.649993896484 
195.925003051758 197.100006103516 200.206253051758 204.487503051758 208.931243896484 214.106246948242 220.600006103516 226.75 233.737503051758 241.168746948242 248.524993896484 252.90625 254.300003051758 250.600006103516 243.475006103516 234.425003051758 224.387496948242 218.506256103516 218.481246948242 219.712493896484 228.962493896484 237.481246948242 244.606246948242 250.175003051758 255.293746948242 258.899993896484 261.46875 268.950012207031 277.375 281.950012207031 281.024993896484 271.518737792969 262.100006103516 253.268753051758 249.675003051758 254.318756103516 273.09375 296.075012207031 320.037506103516 329.568756103516 327.5625 320.46875 312.350006103516 304.356262207031 294.6875 283.943756103516 274.737487792969 266.106262207031 258.487487792969 248.274993896484 241.518753051758 
188.462493896484 191.143753051758 195.024993896484 199.375 204.675003051758 211.118743896484 217.287506103516 224.318756103516 232.324996948242 239.912506103516 248.46875 253.956253051758 257.850006103516 258.0625 249.581253051758 237.431243896484 225.774993896484 217.606246948242 215.375 217.393753051758 228.931243896484 239.300003051758 243.9375 249.231246948242 254.6875 260.125 264.493743896484 271.518737792969 280.5625 286.512512207031 286.081237792969 273.524993896484 258.78125 243.350006103516 234.456253051758 240.643753051758 260.0625 281.943756103516 302.506256103516 312.40625 314.012512207031 308.181243896484 303.037506103516 297.700012207031 289.131256103516 279.993743896484 271.081237792969 262.431243896484 254.512496948242 241.75 238.018753051758 
181.399993896484 184.412506103516 188.800003051758 193.6875 200.0625 207.168746948242 214.337493896484 220.856246948242 229.050003051758 237.143753051758 245.4375 252.137496948242 259.362487792969 264.637512207031 253.699996948242 236.356246948242 221.837493896484 214.712493896484 211.987503051758 213.675003051758 222.956253051758 232.168746948242 241.21875 246.987503051758 253.050003051758 259.262512207031 265.5625 273.893737792969 281.0625 285.762512207031 283.237487792969 273.575012207031 254.856246948242 233.987503051758 219.15625 228.431243896484 251.850006103516 274.1875 291.34375 300.799987792969 301.743743896484 296.59375 295.46875 292.924987792969 285.462493896484 276.681243896484 267.03125 257.674987792969 248.550003051758 236.324996948242 232.987503051758 
173.149993896484 177.893753051758 182.762496948242 187.987503051758 195.243743896484 202.100006103516 209.537506103516 217.175003051758 225.243743896484 232.6875 238.956253051758 245.137496948242 251.925003051758 257.71875 248.493743896484 232.5625 219.418746948242 211.662506103516 209.893753051758 210.0625 218.931243896484 228.231246948242 236.081253051758 243.15625 250.550003051758 258.399993896484 265.412506103516 272.174987792969 279.75 285.15625 284.012512207031 276.03125 257.131256103516 233.46875 212.087493896484 226.074996948242 253.149993896484 275.0625 289.987487792969 297.875 299.293762207031 296.40625 293.743743896484 290.068756103516 282.450012207031 273.793762207031 263.981262207031 254.387496948242 242.743743896484 232.90625 227.193756103516 
164.40625 170.524993896484 175.987503051758 182.668746948242 189.581253051758 197.012496948242 204.762496948242 212.699996948242 220.71875 226.40625 230.0625 232.550003051758 235.15625 236.456253051758 233.193756103516 224.793746948242 216.237503051758 211.143753051758 208.831253051758 208.837493896484 213.925003051758 220.699996948242 228.893753051758 235.956253051758 244.262496948242 253.849990844727 262.575012207031 270.575012207031 279.818756103516 287.118743896484 289.662506103516 283.375 267.899993896484 251.337493896484 240.493743896484 249.600006103516 269.256256103516 285.587493896484 295.393737792969 300.037506103516 301.193756103516 298.5625 294.912506103516 289.987487792969 282.200012207031 272.931243896484 262.412506103516 251.824996948242 239.368743896484 230.706253051758 222.293746948242 
158.193756103516 165.59375 170.737503051758 177.40625 184.09375 192.393753051758 199.40625 207.756256103516 216.175003051758 219.21875 219.537506103516 218.256256103516 216.975006103516 217.762496948242 218.856246948242 216.074996948242 211.256256103516 208.681243896484 206.581253051758 205.3125 209.006256103516 213.356246948242 219.050003051758 226.100006103516 235.918746948242 247.34375 257.006256103516 266.631256103516 278.024993896484 287.825012207031 294.450012207031 295.162506103516 283.081237792969 273.068756103516 272.118743896484 281.975006103516 294.03125 302.524993896484 305.918762207031 304.84375 303.518737792969 300.100006103516 295.643737792969 290.318756103516 282.299987792969 272.756256103516 261.46875 249.899993896484 237.956253051758 229.306243896484 220.681243896484 
153.712493896484 160.643753051758 165.875 171.356246948242 178.03125 186.425003051758 194.493743896484 202.012496948242 209.699996948242 211.40625 210.981246948242 208.768753051758 204.15625 207.162506103516 210.75 210.518753051758 208.199996948242 207.412506103516 205.612503051758 203.756256103516 205.356246948242 207.612503051758 211.118743896484 217.818756103516 227.824996948242 238.137496948242 249.862503051758 261.700012207031 273.731262207031 285.412506103516 294.587493896484 298.475006103516 292.712493896484 289.262512207031 293.856262207031 306.299987792969 314.775024414062 315.28125 313.143737792969 309.393737792969 306.787506103516 302.137512207031 297.868743896484 293.418762207031 286.043762207031 274.8125 261.1875 246.862503051758 238.943756103516 229.25 220.787506103516 
152.043746948242 157.40625 161.868743896484 167.300003051758 174.212493896484 181.324996948242 188.918746948242 195.768753051758 201.262496948242 204.006256103516 204.600006103516 203.84375 203.15625 205.193756103516 207.112503051758 208.087493896484 207.850006103516 207.368743896484 205.65625 203.293746948242 203.356246948242 202.875 203.456253051758 208.681243896484 217.681243896484 231.050003051758 242.84375 256.350006103516 268.9375 280.40625 289.25 294.268737792969 295.0625 296.899993896484 303.049987792969 311.125 317.28125 317.262512207031 314.362487792969 310.700012207031 307.887512207031 303.306243896484 300 297.556243896484 288.431243896484 276.3125 259.637512207031 249.331253051758 240.050003051758 232.806243896484 225.274993896484 
154.175003051758 158.381256103516 161.15625 165.637496948242 171.475006103516 178.087493896484 184.206253051758 190.1875 195.087493896484 198.34375 200.087493896484 201.581253051758 203.637496948242 205.449996948242 207.40625 208.256256103516 208.649993896484 208.293746948242 207.262496948242 204.581253051758 202.581253051758 199.087493896484 196.3125 198.800003051758 209.699996948242 224.168746948242 238.725006103516 251.506256103516 264.518737792969 274.587493896484 282.768737792969 289.018737792969 293.006256103516 297.71875 304.131256103516 310.043762207031 314.59375 315.856262207031 312.068756103516 309.193756103516 306.993743896484 303.225006103516 299.875 298.125 290.981262207031 278.493743896484 265.706237792969 255.918746948242 245.618743896484 240.568756103516 233.899993896484 
158.175003051758 160.987503051758 163.03125 167.181243896484 171.568756103516 176.574996948242 182.118743896484 186.487503051758 191.081253051758 195.149993896484 198.262496948242 200.881256103516 204.100006103516 207.074996948242 209.193756103516 211.324996948242 212.175003051758 212.34375 211.162506103516 208.212493896484 204.737503051758 200.037506103516 194.462493896484 194.837493896484 207.631256103516 222.225006103516 236.168746948242 248.912506103516 260.575012207031 270.112487792969 278.53125 284.049987792969 289.225006103516 296.856262207031 302.024993896484 307.681243896484 312.037506103516 312.90625 310.487487792969 307.625 305.118743896484 300.725006103516 296.850006103516 294.643737792969 291.575012207031 284.850006103516 275.212493896484 266.768737792969 259.100006103516 249.362503051758 244.1875 
162.5625 163.59375 165.600006103516 168.71875 171.90625 175.481246948242 180.381256103516 185.125 189.331253051758 193.756256103516 196.987503051758 200.399993896484 204.074996948242 207.681243896484 211.043746948242 214.368743896484 216.087493896484 217.775009155273 216.743743896484 214.543746948242 211.0625 205.987503051758 202.612503051758 203.824996948242 212.181243896484 224.393753051758 236.649993896484 248.387496948242 258.918762207031 267.90625 275.768737792969 282.225006103516 289.268737792969 294.768737792969 299.612518310547 305.237487792969 308.3125 310.725006103516 308.1875 304.893737792969 302.34375 298.424987792969 294.350006103516 293.149993896484 293.887512207031 290.512481689453 284.768737792969 278.037506103516 270.350006103516 259.737487792969 253.3125 
166.356246948242 166.587493896484 167.743743896484 170.181243896484 172.943756103516 175.699996948242 179.768753051758 183.768753051758 188.231246948242 192.787506103516 196.350006103516 200.206253051758 204.081253051758 209.100006103516 213.837493896484 218.925003051758 222.637496948242 224.137496948242 224.850006103516 222.862503051758 219.668746948242 214.662506103516 212.793746948242 214.5625 219.737503051758 228.493743896484 239.381256103516 249.693756103516 260.200012207031 268.412506103516 274.712493896484 281.5625 287.443756103516 292.806243896484 298.256256103516 302.600006103516 306.893737792969 309.768737792969 308.868743896484 304.5625 299.375 294.537506103516 293.09375 295.306243896484 298.918762207031 297.65625 293.100006103516 288.787506103516 280.693756103516 271.318756103516 262.600006103516 
172.756256103516 171.681243896484 172.231246948242 173.581253051758 176.081253051758 178.337493896484 181.131256103516 184.362503051758 188.087493896484 192.699996948242 196.837493896484 201.975006103516 207.050003051758 213.137496948242 218.981246948242 223.787506103516 228.768753051758 232.462493896484 233.831253051758 231.631256103516 227.893753051758 224.137496948242 222.75 224.006256103516 227.800003051758 234.831253051758 243.931243896484 252.625 261.743743896484 268.637512207031 275.5 282.118743896484 286.912506103516 292.231262207031 296.75 301.850006103516 305.537506103516 309.506256103516 307.556243896484 303.774993896484 302.712493896484 300.293762207031 298.512512207031 301.768737792969 300.799987792969 303.193756103516 302.84375 298.975006103516 291.643737792969 283.318756103516 274.381256103516 
178.206253051758 176.537506103516 175.800003051758 176.793746948242 178.212493896484 180.268753051758 182.4375 185.21875 188.737503051758 192.868743896484 198.300003051758 204.837493896484 211.625 217.649993896484 223.46875 229.5625 235.462493896484 240.181243896484 243.081253051758 240.912506103516 236.818756103516 232.706253051758 230.824996948242 231.774993896484 234.893753051758 240.943756103516 248.481246948242 256.299987792969 264.174987792969 270.243743896484 276.481262207031 282.868743896484 288.5 293.774993896484 298.462493896484 302.03125 306.337493896484 311.325012207031 309.4375 305.46875 306.037506103516 306.743743896484 306.34375 306.200012207031 305.606262207031 312.53125 314.693756103516 311.543762207031 303.768737792969 293.556243896484 285.106262207031 
181.643753051758 179.78125 178.949996948242 179.631256103516 180.268753051758 181.456253051758 183.375 185.006256103516 188.306243896484 193.149993896484 198.693756103516 206.556243896484 214.824996948242 222.587493896484 228.893753051758 235.993743896484 240.443756103516 244.612503051758 247.362503051758 247 243.725006103516 240.512496948242 237.918746948242 238.875 241.975006103516 246.71875 252.856246948242 259.706237792969 266.774993896484 273.15625 279.09375 284.674987792969 290.181243896484 294.987487792969 299.8125 303.756256103516 308.5 312.737518310547 310.850006103516 310.84375 314.756256103516 315.987487792969 315.662506103516 316.412506103516 317.762512207031 328.243743896484 331.762512207031 326.912506103516 316.106262207031 304.537506103516 294.168762207031 
186.581253051758 185 184.09375 183.75 183.175003051758 183.606246948242 184.131256103516 185.375 188.899993896484 194.018753051758 200.981246948242 209.893753051758 220.456253051758 230.168746948242 236.806243896484 242.237503051758 246.09375 250.493743896484 252.09375 252.331253051758 250.481246948242 247.4375 245.15625 245.3125 247.831253051758 251.71875 256.856262207031 263.65625 270.206237792969 275.743743896484 281.981262207031 287.037506103516 291.537506103516 296.756256103516 301.981262207031 306.868743896484 311.268737792969 313.90625 312.78125 316.987487792969 321.462493896484 323.412506103516 325.46875 328.825012207031 336.53125 349.662506103516 350.96875 340.024993896484 326.956237792969 314.575012207031 302.600006103516 
192.206253051758 190.21875 188.631256103516 187.84375 186.337493896484 185.368743896484 185.074996948242 185.768753051758 188.087493896484 193.231246948242 200.9375 212.712493896484 226.25 237.462493896484 244.137496948242 248.981246948242 252.256256103516 255.75 257.21875 257.65625 255.643753051758 252.662506103516 251.018753051758 250.550003051758 252.462509155273 255.524993896484 260.337493896484 266.1875 272.799987792969 278.893737792969 285.09375 290.243743896484 295.381256103516 299.90625 303.725006103516 308.96875 312.931243896484 315.762512207031 316.600006103516 320.881256103516 324.837493896484 328.40625 334.387512207031 340.325012207031 349.818756103516 360.806243896484 360.087493896484 347.912506103516 334.287506103516 321.299987792969 310.3125 
197.693756103516 196.068756103516 193.918746948242 191.449996948242 189.543746948242 187.856246948242 185.987503051758 185.293746948242 186.612503051758 191.162490844727 200.431243896484 215.949996948242 232.850006103516 246.074996948242 252.006256103516 255.943756103516 257.862487792969 260.34375 262.40625 262.262512207031 261.100006103516 257.6875 255.612503051758 254.125 255.806243896484 257.706237792969 262.8125 268.90625 275.34375 281.837493896484 287.450012207031 294.006256103516 298.662506103516 303.193756103516 306.556243896484 310.325012207031 313.293762207031 318.606262207031 320.71875 322.756256103516 326.637512207031 329.924987792969 336.28125 343.325012207031 351.274993896484 356.975006103516 356.331237792969 348.8125 337.612518310547 326.350006103516 316.837493896484 
204.487503051758 202.868743896484 200.050003051758 196.59375 193.649993896484 192.024993896484 189.587493896484 187.706253051758 187.774993896484 191.65625 202.318756103516 219.725006103516 238.537506103516 252.793746948242 258.75 262.4375 264.862487792969 266.831237792969 267.125 267.537506103516 265.668731689453 263 259.975006103516 258.96875 259.356262207031 261.012512207031 265.881256103516 272.899993896484 279.106262207031 285.068756103516 291.481262207031 298.0625 302.975006103516 307.237487792969 308.981262207031 310.787506103516 315.256256103516 317.78125 318.59375 321.412506103516 325.762512207031 327.818756103516 331.881256103516 338.856262207031 344.168762207031 347.131256103516 347.456237792969 344.231231689453 337.600006103516 329.318756103516 321.59375 
212.418746948242 210.393753051758 206.462493896484 203.649993896484 199.956253051758 197.793746948242 195.012496948242 192.193756103516 190.393753051758 189.637496948242 204.112503051758 227.09375 244.881256103516 257.081237792969 264.131256103516 267.981262207031 270.581237792969 272.149993896484 273.106262207031 272.350006103516 269.524993896484 265.96875 262.924987792969 261.731262207031 261.6875 263.606262207031 268.46875 274.962493896484 281.881256103516 287.96875 294.53125 301.006256103516 306.412506103516 310.28125 312.25 314.46875 315.668762207031 316.587493896484 316.78125 317.912506103516 319.893737792969 322.075012207031 325.649993896484 331.137512207031 335.512512207031 337.206237792969 339.737487792969 339.418762207031 334.981262207031 330.043762207031 325.924987792969 
220.237503051758 218.074996948242 214.087493896484 210.600006103516 207.231246948242 204.887496948242 202.493743896484 200.131256103516 199.649993896484 197.537506103516 220.318756103516 244.231246948242 256.1875 264 270.337493896484 274.043762207031 275.262512207031 276.743743896484 276.34375 274.443756103516 271.331237792969 266.962493896484 264.206237792969 262.899993896484 263.299987792969 265.362487792969 269.987487792969 276.837493896484 283.962493896484 291.118743896484 296.71875 303.512512207031 308.568756103516 312.762512207031 314.112487792969 315.606262207031 315.512512207031 315.381256103516 314.662506103516 314.037506103516 313.831237792969 315.612487792969 317.381256103516 320.887512207031 325.181243896484 328.924987792969 332.21875 334.25 332.6875 330.825012207031 329.106262207031 
227.96875 225.393753051758 221.40625 218.993743896484 215.731246948242 214.393753051758 214.125 214.731246948242 219.393753051758 232.949996948242 259.456237792969 267.981262207031 272.237487792969 276.956237792969 281.512512207031 282.856262207031 283.21875 282.456237792969 279.662506103516 276.368743896484 271.237487792969 266.149993896484 263.924987792969 262.4375 263.143737792969 266.512512207031 271.475006103516 278.412506103516 286.0625 292.943756103516 299.875 305.931243896484 310.143737792969 313.987487792969 317.700012207031 318.106262207031 316.399993896484 316.131256103516 314.012512207031 310.700012207031 309.893737792969 310.237487792969 311.706237792969 314.243743896484 317.975006103516 322.225006103516 325.306243896484 327.268737792969 327.225006103516 328.581237792969 328.1875 
235.931243896484 233.4375 230.037506103516 227.231246948242 224.75 224.899993896484 225.774993896484 229.893753051758 238.231246948242 253.206253051758 270.337493896484 280.325012207031 286.450012207031 290.450012207031 293.012512207031 293.600006103516 292.393737792969 289.306243896484 283.924987792969 278.981262207031 270.59375 264.306243896484 260.887512207031 259.887512207031 262.662506103516 266.568756103516 272.375 279.756256103516 287.90625 294.71875 300.818756103516 308.637512207031 314.881256103516 318.15625 319.875 319.693756103516 316.868743896484 314.393768310547 312 307.256256103516 304.987487792969 305.125 305.681243896484 306.331237792969 310.1875 314.693756103516 318.643737792969 322.743743896484 324.237487792969 327.462493896484 328.631256103516 
244.024993896484 241.3125 238.90625 235.975006103516 234.225006103516 234.137496948242 237.018753051758 243.199996948242 252.324996948242 265.612487792969 278.762512207031 288.318756103516 297.193756103516 302.024993896484 304.337493896484 304.618743896484 302.049987792969 297.462493896484 289.862487792969 280.4375 268.862487792969 260.21875 256.006256103516 256.681243896484 261.243743896484 266.287506103516 272.6875 281.174987792969 289.256256103516 296.631256103516 304.399993896484 313.700012207031 318.893737792969 322.137512207031 322.318756103516 320.568756103516 317.299987792969 313.037506103516 309.918762207031 303.15625 299.993743896484 298.387512207031 297.21875 299.262512207031 303.381256103516 308.237487792969 312.5 316.606262207031 321.174987792969 326.143737792969 329.71875 
251.793746948242 248.431243896484 246.074996948242 243.449996948242 242.131256103516 243.181243896484 246.137496948242 252.59375 261.40625 272.831237792969 284.924987792969 295.137512207031 303.756256103516 310.262512207031 312.506256103516 312.443756103516 310.049987792969 304.875 295.793762207031 281.006256103516 264.743743896484 252.625 248.71875 251.3125 257.774993896484 264.681243896484 271.956237792969 280.212493896484 290.100006103516 298.8125 305.506256103516 316.381256103516 321.356262207031 325.34375 326.8125 322.612487792969 318.674987792969 314.693756103516 309.512512207031 302.668762207031 297.712493896484 293.256256103516 290.693756103516 294.693756103516 299.287506103516 304.024993896484 307.850006103516 312.03125 317.46875 322.931243896484 328.643737792969 
259.600006103516 255.443740844727 252.975006103516 250.0625 249.293746948242 250.34375 253.5625 259.200012207031 267.600006103516 278.243743896484 291.475006103516 301.612487792969 310.524993896484 317.143737792969 320.287506103516 321.049987792969 318.899993896484 313.46875 303.106262207031 283.25 260.799987792969 242.056243896484 240.231246948242 246.806243896484 255.318756103516 264.162506103516 271.887512207031 279.506256103516 289.512512207031 299.618743896484 308.850006103516 317.087493896484 322.899993896484 326.556243896484 328.693756103516 327.912506103516 321.543762207031 315.743743896484 308.587493896484 302.0625 296.993743896484 292.606262207031 289.875 291.625 296.206237792969 299.96875 304.024993896484 308.168762207031 313.625 319.774993896484 327.256256103516 
267.056243896484 262.418762207031 258.1875 255.512496948242 255.206253051758 255.75 258.193756103516 263.8125 272.868743896484 282.850006103516 295.793762207031 307.850006103516 316.868743896484 324.243743896484 329.106262207031 329.512512207031 326.662506103516 320.524993896484 311.818756103516 289.881256103516 263.162506103516 240.506256103516 239.28125 245.725006103516 254.425003051758 263.96875 272.081237792969 280.087493896484 289.200012207031 299.668762207031 309.625 319.424987792969 324.818756103516 327.568756103516 330.006256103516 331.149993896484 324.575012207031 316.875 309.25 302.606262207031 297.056243896484 293.581237792969 291.5 292.03125 294.706237792969 297.34375 301.037506103516 303.762512207031 307.112487792969 314.399993896484 324.456237792969 
275.299987792969 269.506256103516 263.25 260.318756103516 258.818756103516 259.0625 260.268737792969 265.012512207031 274.15625 285.606262207031 298.875 311.887512207031 321.731262207031 330.168762207031 334.462493896484 333.712493896484 330.118743896484 322.112487792969 311.318756103516 292.037506103516 270.243743896484 254.943756103516 248.268753051758 250.693756103516 257.756256103516 265.318756103516 273.087493896484 280.450012207031 289.306243896484 299.118743896484 308.787506103516 318.106262207031 323.356262207031 325.487487792969 326.693756103516 328.881256103516 323.287506103516 315.387512207031 308.59375 303.475006103516 298.068756103516 295.243743896484 293.100006103516 291.712493896484 293.856262207031 296.075012207031 297.618743896484 299.0625 299.431243896484 305.643737792969 317.674987792969 
