ncols        51
nrows        45
xllcorner    -63.500000000000
yllcorner    -7.500000000000
cellsize     0.166666666667
NODATA_value -99
232.206253051758 229.487503051758 222.793746948242 219.350006103516 214.03125 205.887496948242 194.824996948242 184.368743896484 174.824996948242 167.393753051758 162.34375 157.225006103516 151.537506103516 144.193756103516 138.21875 132.4375 126.806251525879 120.612503051758 115.506248474121 110.643753051758 107.400001525879 103.974998474121 101.193748474121 99.71875 98.8000030517578 98.4562530517578 99.4812469482422 101.018753051758 103.3125 107.168754577637 111.71875 116.574996948242 122.587501525879 129.3125 136.931243896484 145.806243896484 155.037506103516 164.056243896484 171.331253051758 178.125 184.481246948242 187.59375 188.53125 188.181243896484 188.899993896484 187.918746948242 187.25 188.40625 189.925003051758 189.381256103516 189.012496948242 
230.649993896484 229.506256103516 228.21875 230.212493896484 231.831253051758 223.181243896484 212.981246948242 204.756256103516 197.431243896484 189.90625 182.925003051758 175.393753051758 167.493743896484 159.149993896484 151.331253051758 144.324996948242 136.550003051758 130.03125 124.324996948242 119.425003051758 115.824996948242 112.862503051758 110.331253051758 109.050003051758 108.068748474121 107.03125 107.96875 109.037498474121 110.574996948242 114.356246948242 120.275001525879 126.974998474121 134.550003051758 143.331253051758 152.024993896484 162.512496948242 174.75 186.087493896484 194.862503051758 202.5625 210.1875 214.018753051758 215.368743896484 214.899993896484 215.331253051758 213.46875 211.887496948242 212.743743896484 212.762496948242 210.90625 209.34375 
222.15625 222.925003051758 223.887496948242 229.131256103516 233.837493896484 230.168746948242 226.09375 223.574996948242 219.725006103516 213.375 205.087493896484 194.943756103516 184.71875 174.175003051758 164.606246948242 155.8125 147.537506103516 140.756256103516 134.762496948242 129.712493896484 126.28125 124.181251525879 121.90625 120.275001525879 118.90625 117.943748474121 117.925003051758 118.212501525879 118.09375 122.262496948242 128.675003051758 135.125 143.8125 154.25 164.993743896484 177.481246948242 191.231246948242 205.331253051758 215.868743896484 224.768753051758 233.5 237.600006103516 239.412506103516 240.181243896484 239.537506103516 234.600006103516 231.649993896484 232.375 230.024993896484 226.037506103516 222.449996948242 
211.225006103516 212.318756103516 217.306243896484 222.462493896484 229.71875 231.581253051758 234.943756103516 239.475006103516 241.899993896484 238.3125 227.931243896484 214.15625 200.84375 188.524993896484 178.300003051758 167.824996948242 158.3125 151.893753051758 146.137496948242 141.350006103516 138.512496948242 135.96875 133.231246948242 131.625 129.90625 128.293746948242 127.3125 126.224998474121 125.462501525879 129.331253051758 135.574996948242 142.762496948242 151.731246948242 162.612503051758 174.106246948242 190.274993896484 207.193756103516 223.731246948242 236.399993896484 247.112503051758 255.368743896484 260.431243896484 263.100006103516 265.237487792969 261.950012207031 257.149993896484 250.25 248.681243896484 245.199996948242 239.0625 233.6875 
210.068756103516 206.71875 207.431243896484 213.175003051758 223.399993896484 230.862503051758 239.462509155273 249.6875 260.137512207031 263.225006103516 248.824996948242 229.350006103516 214.237503051758 201.78125 190.118743896484 178.493743896484 168.706253051758 161.512496948242 155.675003051758 151.056243896484 149.287506103516 146.706253051758 144.024993896484 142.46875 140.387496948242 138.306243896484 135.625 134.068756103516 133.193756103516 135.925003051758 141.662506103516 148.493743896484 159.043746948242 171.074996948242 184.762496948242 202.225006103516 221.543746948242 241.53125 255.212493896484 267.181243896484 276.46875 280.637512207031 284.956268310547 287.787506103516 285.3125 276.743743896484 265.706237792969 261.706237792969 255.824996948242 250.75 241.975006103516 
209.431243896484 206.4375 202.850006103516 202.15625 213.856246948242 225.387496948242 235.212509155273 246.0625 257.712493896484 265.71875 249.362503051758 230.225006103516 217.318756103516 205.75 194.856246948242 185.25 175.712493896484 169.475006103516 164.975006103516 161.006256103516 159.287506103516 157.106246948242 154.681243896484 151.462493896484 148.71875 145.837493896484 142.181243896484 139.106246948242 138.081253051758 140.28125 145.600006103516 153.225006103516 163.681243896484 176.462493896484 190.862503051758 209.574996948242 230.012496948242 252.375 269.618743896484 280.693756103516 286.34375 291.143737792969 295.043762207031 299.862487792969 302.975006103516 289.493743896484 272.231262207031 263.556243896484 259.381256103516 253.306259155273 246.09375 
213.581253051758 210.306243896484 206.149993896484 203.706253051758 211.118743896484 218.806243896484 226.074996948242 232.081253051758 236.012496948242 235.943756103516 231.75 223.068756103516 215.149993896484 207.131256103516 198.262496948242 190.375 182.59375 177.043746948242 173.043746948242 170.618743896484 169.512496948242 167.706253051758 164.887496948242 161.131256103516 157.556243896484 153.618743896484 149.418746948242 144.987503051758 141.96875 144.556243896484 149.524993896484 156.168746948242 166.675003051758 180.112503051758 195.381256103516 213.431243896484 234.28125 257.243743896484 278.393768310547 286.524993896484 290.818756103516 292.893737792969 297.46875 304.362487792969 309.037506103516 295.662506103516 273.862487792969 260.575012207031 255.293746948242 250.5625 245.9375 
219.537506103516 215.5 213.337493896484 213.837493896484 216.956253051758 220.387496948242 219.931243896484 215.331253051758 207.15625 205.53125 211.381256103516 212.118743896484 210.774993896484 206.600006103516 201.600006103516 195.449996948242 189.287506103516 184.868743896484 181.943756103516 180.90625 180.399993896484 178.487503051758 175.581253051758 171.324996948242 166.65625 161.100006103516 155.300003051758 149.125 144.862503051758 145.931243896484 150.762496948242 157.518753051758 168.456253051758 182.143753051758 196.706253051758 213.962493896484 232.137496948242 252.774993896484 268.4375 277.287506103516 281.418762207031 282.024993896484 284.100006103516 288.568756103516 290.774993896484 279.493743896484 262.506256103516 251.193756103516 245.181243896484 242.987503051758 240.618743896484 
226.368743896484 224.225006103516 223.949996948242 224.149993896484 225.931243896484 225.337493896484 221.143753051758 210.318756103516 193.243743896484 186.418746948242 197.237503051758 203.106246948242 205.675003051758 203.96875 202.331253051758 199.78125 196.199996948242 194.237503051758 193.300003051758 191.975006103516 190.875 189.162506103516 184.487503051758 180.231246948242 173.71875 166.262496948242 158.362503051758 152.768753051758 147.987503051758 147.643753051758 151.731246948242 157.449996948242 166.931243896484 178.787506103516 191.300003051758 207.487503051758 224.381256103516 240.162506103516 250.668746948242 258.068756103516 261.043762207031 258.581237792969 258.65625 257.431243896484 252.706253051758 245.600006103516 235.8125 227.90625 224.737503051758 226.074996948242 231.34375 
234.356246948242 233.262496948242 232.962493896484 234.362503051758 236.574996948242 234.862503051758 228.893753051758 216.899993896484 202.199996948242 195.231246948242 198.125 200.668746948242 203.237503051758 203.081253051758 204.268753051758 204.962493896484 204.068756103516 204.456253051758 205.018753051758 206.106246948242 204.018753051758 200.850006103516 194.556243896484 187.518753051758 178.168746948242 169.506256103516 161.925003051758 154.824996948242 149.899993896484 149.149993896484 150.993743896484 155.725006103516 164.225006103516 175.175003051758 187.0625 201.125 214.75 226.949996948242 234.931243896484 238.518753051758 239.1875 234.487503051758 229.243743896484 224.331253051758 217.487503051758 209.481246948242 203.524993896484 201.456253051758 201.087493896484 203.868743896484 206.512496948242 
242.487503051758 242.006256103516 241.587493896484 243.09375 245.637496948242 247.393753051758 242.3125 228.887496948242 215.3125 207.675003051758 205.699996948242 204.84375 204.125 204.493743896484 207.543746948242 209.881256103516 212.043746948242 214.256256103516 216.850006103516 219.8125 219.824996948242 214.412506103516 205.375 193.34375 183.800003051758 175.350006103516 167.512496948242 159.993743896484 153.100006103516 151.5625 152.53125 155.800003051758 163.487503051758 172.9375 182.53125 193.75 204.625 212.699996948242 217.856246948242 219.112503051758 217.362503051758 210.762496948242 204.512496948242 195.731246948242 186.356246948242 179.40625 174.28125 174.237503051758 174.15625 174.649993896484 173.09375 
247.925003051758 247.443756103516 247.524993896484 249.956253051758 253.337493896484 256.049987792969 253.5 238.625 225.756256103516 216.568756103516 211.725006103516 210.368743896484 209.162506103516 209.987503051758 214.024993896484 216.375 219.087493896484 221.756256103516 225.0625 230.143753051758 233.331253051758 226.887496948242 215.137496948242 200.537506103516 187.756256103516 176.725006103516 167.574996948242 161.074996948242 155.337493896484 153.8125 152.881256103516 154.681243896484 160.46875 168.34375 176.6875 185.262496948242 192.931243896484 199.225006103516 201.387496948242 201.199996948242 196.412506103516 188.475006103516 180.912506103516 172.78125 160.899993896484 150.71875 147.168746948242 147.043746948242 148.6875 149.612503051758 145.368743896484 
251.574996948242 251.731246948242 251.956253051758 253.512496948242 256.368743896484 257.149993896484 252.006256103516 242.074996948242 230.84375 223.1875 217.881256103516 215.962493896484 215.899993896484 215.34375 219.024993896484 222.550003051758 224.487503051758 227.831253051758 231.556243896484 235.837493896484 241.34375 235.625 222.493743896484 206.975006103516 187.518753051758 174.606246948242 169.574996948242 163.21875 158.256256103516 155.774993896484 153.65625 152.931243896484 157.850006103516 163.5 170.237503051758 177.331253051758 182.993743896484 188.350006103516 190.375 186.199996948242 180.550003051758 173.600006103516 164.318756103516 147.8125 134.15625 132.625 131.274993896484 130.356246948242 129.712493896484 129.21875 125.237503051758 
253.443756103516 253.550003051758 253.881256103516 254.831253051758 255.875 254.925003051758 249.975006103516 243.349990844727 234.943756103516 227.043746948242 221.225006103516 219.981246948242 220.350006103516 221.487503051758 222.643753051758 226.131256103516 227.40625 229.681243896484 232.081253051758 234.912506103516 238.524993896484 234.1875 225.568756103516 212.443756103516 196.25 183.925003051758 176.318756103516 168.399993896484 161.775009155273 156.737503051758 152.581253051758 150.931243896484 154.331253051758 158.943756103516 164.574996948242 170.862503051758 176.112503051758 181.71875 183.743743896484 180.875 172.149993896484 159.918746948242 149.943756103516 139.399993896484 128.612503051758 125.65625 126.53125 126.006248474121 122.262496948242 118.599998474121 112.418746948242 
253.875 254.362503051758 253.568756103516 254.243743896484 254.65625 252.706253051758 250.149993896484 245.199996948242 237.09375 230.050003051758 224.756256103516 223.574996948242 223.84375 225.143753051758 225.293746948242 227.931243896484 227.925003051758 227.743743896484 227.762496948242 229.931243896484 232.987503051758 232.15625 228.59375 221.693756103516 211.84375 200.274993896484 187.962493896484 175.899993896484 165.574996948242 157.262496948242 150.6875 147.087493896484 149.731246948242 154.71875 159.762496948242 164.737503051758 171.024993896484 179.949996948242 185.756256103516 181.368743896484 169.887496948242 158.225006103516 150.143753051758 142.043746948242 131.668746948242 125.612503051758 122.050003051758 120.618751525879 117.831253051758 112.65625 105.875 
252.287506103516 252.318756103516 251.962493896484 252.668746948242 252.84375 251.743743896484 249.3125 244.831253051758 238.34375 232.387496948242 226.381256103516 224.081253051758 224.581253051758 226.287506103516 227.106246948242 227.65625 224.824996948242 223.056243896484 221.893753051758 222.462509155273 225.0625 228.337493896484 231.243743896484 232.550003051758 226.987503051758 215.168746948242 200.256256103516 184.600006103516 170.15625 157.756256103516 148.649993896484 142.512496948242 143.875 148.256256103516 151.712509155273 154.918746948242 164.868743896484 175.550003051758 184.681243896484 182.118743896484 174.106246948242 163.993743896484 154.899993896484 145.5 136.449996948242 129.324996948242 124.931251525879 120.550003051758 115.887496948242 111 106.03125 
248.15625 248.725006103516 250.050003051758 251.725006103516 251.949996948242 251.100006103516 249.293746948242 245.637496948242 239.993743896484 233.125 226.706253051758 224.018753051758 223.112503051758 223.65625 223.212493896484 222.043746948242 216.756256103516 213.681243896484 212.399993896484 213.143753051758 216.237503051758 222.25 231.324996948242 240.431243896484 241.3125 225.78125 209.212493896484 189.643753051758 171.381256103516 156.456253051758 146.118743896484 140.300003051758 138.03125 137.90625 139.306243896484 146.237503051758 157.768753051758 177.418746948242 196.074996948242 190.25 180.543746948242 170.581253051758 159.481246948242 150.943756103516 142.243743896484 134.787506103516 127.918754577637 123.306251525879 119.962501525879 113.6875 109.675003051758 
243.943756103516 245.631256103516 248.743743896484 251.3125 252.731246948242 253.399993896484 252.537506103516 249.125 243.043746948242 236.131256103516 229.28125 224.262496948242 220.856246948242 218.081253051758 215.381256103516 211.850006103516 206.175003051758 201.8125 201.300003051758 201.550003051758 205.131256103516 212.018753051758 222.712493896484 234.25 237.75 226.96875 213.456253051758 192.199996948242 170.631256103516 152.399993896484 140.143753051758 133.418746948242 134.106246948242 136.524993896484 134.137496948242 131.456253051758 150.25 173.818756103516 189.568756103516 192.362503051758 185.412506103516 176.712493896484 166.112503051758 157.475006103516 148.193756103516 140.875 133.943756103516 128.412506103516 124.956253051758 118.59375 115.5 
237.918746948242 242.175003051758 247.050003051758 251.425003051758 254.837493896484 256.049987792969 255.681243896484 253.368743896484 248.268753051758 239.96875 230.462493896484 223.90625 217.350006103516 211.3125 206.84375 203.412506103516 197.643753051758 192.112503051758 191.131256103516 190.524993896484 193.662506103516 203.53125 210.212493896484 220.71875 224.981246948242 221.600006103516 209.100006103516 190.068756103516 170.287506103516 149.550003051758 133.893753051758 131.556243896484 139.175003051758 140.84375 139.487503051758 140.074996948242 153.012496948242 169.574996948242 182.731246948242 188.675003051758 187.050003051758 184.331253051758 173.193756103516 164.28125 155.137496948242 146.743743896484 141.012496948242 136.550003051758 132.162506103516 122.568748474121 123 
230.5625 237.537506103516 243.850006103516 250.037506103516 255.556243896484 258.987487792969 260.5 259.399993896484 253.59375 245.112503051758 234.074996948242 224.274993896484 214.912506103516 205.899993896484 200.162506103516 196 189.381256103516 186.637496948242 185.462493896484 186.293746948242 187.056243896484 192.443756103516 202.793746948242 211.349990844727 214.787506103516 211.193756103516 201.231246948242 188.268753051758 169.581253051758 150.737503051758 137.987503051758 139.581253051758 146.375 153.568756103516 158.743743896484 159.618743896484 164.368743896484 173.1875 181.368743896484 186.856246948242 189.524993896484 188.131256103516 179.512496948242 170.475006103516 162.0625 154.668746948242 148.693756103516 143.868743896484 137.806243896484 130.425003051758 130.418746948242 
221.09375 231.268753051758 241.106246948242 250.106246948242 257.950012207031 262.3125 265.712493896484 265.918762207031 260.743743896484 251.100006103516 239.34375 227.506256103516 216.337493896484 204.668746948242 198.181243896484 192.643753051758 186.59375 183.100006103516 184.1875 184.643753051758 188.074996948242 193.762496948242 199.806243896484 205.125 208.649993896484 207.368743896484 199.331253051758 185.362503051758 171.524993896484 160.774993896484 153.15625 152.237503051758 158.106246948242 167.037506103516 177.03125 176.993743896484 175.787506103516 179.162506103516 183.34375 187.537506103516 190.262496948242 189.118743896484 183.393753051758 177.09375 169.956253051758 163.300003051758 158.487503051758 153.100006103516 145.443740844727 141.0625 139.443756103516 
212.206253051758 225.806243896484 238.131256103516 249.375 259.818756103516 266.268737792969 270.762512207031 272.943756103516 269.743743896484 259.431243896484 245.699996948242 232.050003051758 219.506256103516 208.818756103516 201.225006103516 195.737503051758 191.237503051758 188.118743896484 187.625 188.212493896484 188.800003051758 192.581253051758 198.068756103516 201.15625 202.0625 200.693756103516 196.074996948242 187.006256103516 178.368743896484 170.981246948242 165.043746948242 163.143753051758 167.975006103516 175.837493896484 181.90625 184.050003051758 182.850006103516 182.9375 185.081253051758 188.756256103516 191.175003051758 190.46875 187.612503051758 182.631256103516 177.737503051758 172.393753051758 168.824996948242 163.568740844727 156.949996948242 153.574996948242 150.056243896484 
206.75 223.856246948242 238.331253051758 251.243743896484 261.825012207031 269.09375 275.168762207031 280.112487792969 280.581268310547 268.0625 252.4375 236.368743896484 223.974990844727 214.324996948242 206.462493896484 200.443756103516 195.90625 193.731246948242 192.412506103516 191.78125 192.600006103516 193.875 196.46875 198.237503051758 197.824996948242 194.231246948242 191.875 188.581253051758 182.53125 177.699996948242 174.399993896484 173.243743896484 176.481246948242 182.225006103516 186.331253051758 187.987503051758 187.25 185.475006103516 187.056243896484 192.65625 196.356246948242 196.28125 194.206253051758 189.774993896484 185.443756103516 182.449996948242 180.3125 175.71875 169.018753051758 165.087509155273 162.918746948242 
204.96875 224.056243896484 241.387496948242 253.506240844727 263.918762207031 270.950012207031 276.28125 281.737487792969 281.475006103516 270.0625 253.875 239.256256103516 227.306243896484 217.793746948242 211.143753051758 205.556243896484 201.731246948242 199.274993896484 197.393753051758 195.943756103516 196.287506103516 197.481246948242 197.5 197.199996948242 194.8125 189.143753051758 185.106246948242 185.15625 184.40625 182.393753051758 180.456253051758 179.493743896484 182.53125 186.512496948242 189.987503051758 193.262496948242 193.743743896484 192.149993896484 194.956253051758 199.900009155273 204.006256103516 204.543746948242 202.543746948242 198.024993896484 197.09375 196.375 195.193756103516 189.206253051758 186.21875 177.118743896484 174.543746948242 
210.024993896484 227.96875 246.118743896484 256.356262207031 265.950012207031 271.693756103516 275.449981689453 278.012512207031 275.887512207031 267.700012207031 255.756256103516 242.768753051758 231.793746948242 222.668746948242 216.387496948242 211.949996948242 208.175003051758 205.65625 203.387496948242 201.731246948242 201.131256103516 199.987503051758 199.918746948242 197.956253051758 194.993743896484 191.649993896484 188.056243896484 187.431243896484 187.168746948242 185.881256103516 184.143753051758 182.293746948242 186.112503051758 189.34375 192.856246948242 196.318756103516 199.643753051758 202.143753051758 205.331253051758 210.96875 215.324996948242 215.618743896484 213.4375 210.681243896484 206.981246948242 207.543746948242 206.78125 211.018753051758 208.087493896484 193.375 189.893753051758 
218.081253051758 232.806243896484 245.725006103516 257.387512207031 266.09375 270.324981689453 272.71875 273.75 271.818756103516 266.375 255.431259155273 245.137496948242 234.949996948242 226.362503051758 221.768753051758 217.887496948242 215.025009155273 211.987503051758 209.71875 207.662506103516 206.4375 204.3125 203.199996948242 200.824996948242 198.112503051758 195.462493896484 193.074996948242 191.25 190.1875 188.987503051758 185.8125 185.012496948242 189.050003051758 191.9375 196.012496948242 200.631256103516 205.5625 210.943756103516 216.21875 222.6875 228.118743896484 229.149993896484 227.056243896484 225.231246948242 222 217.737503051758 232.606246948242 239.149993896484 233.875 222.387496948242 213.981246948242 
230.149993896484 238.581253051758 248.15625 256.84375 263.543762207031 267.556243896484 269.137512207031 269.674987792969 266.837493896484 261.125 254.518753051758 246.068756103516 237.324996948242 229.75 225.393753051758 222.712493896484 219.350006103516 217.143753051758 214.568756103516 212.15625 210.543746948242 207.856246948242 205.737503051758 204.724990844727 201.293746948242 198.631256103516 195.84375 193.606246948242 192.331253051758 190.5 188.612503051758 186.53125 191.15625 195.068756103516 198.737503051758 204.649993896484 210.881256103516 217.512496948242 225.362503051758 234.818756103516 242.4375 246.3125 247.068756103516 246.78125 248.162506103516 258.024993896484 272.581237792969 268.306243896484 258.618743896484 243.90625 232.65625 
242.03125 246.337493896484 252.118743896484 257.743743896484 261.799987792969 264.625 266.462493896484 265.899993896484 262.793762207031 258.65625 252.75 245.6875 239.018753051758 231.649993896484 228.543746948242 226.46875 224.46875 221.293746948242 219.175003051758 217.556243896484 214.725006103516 211.443756103516 209.793746948242 207.368743896484 203.943756103516 201.431243896484 198.96875 196.6875 193.8125 191.600006103516 188.96875 187.5625 192.456253051758 196.793746948242 202.1875 208.131256103516 214.46875 223.456253051758 233.118743896484 245.818756103516 259 264.9375 266.056243896484 270.174987792969 283.443756103516 301.625 311.831237792969 299.318756103516 282.518737792969 264.243743896484 249.006256103516 
253.03125 254.28125 255.8125 258.743743896484 260.475006103516 261.287506103516 261.649993896484 261.393737792969 258.96875 256.381256103516 252.393753051758 246.40625 240.131256103516 233.449996948242 231.524993896484 229.949996948242 228.84375 225.943756103516 223.53125 221.837493896484 218.199996948242 214.887496948242 212.550003051758 209.53125 205.887496948242 203.568756103516 200.925003051758 198.112503051758 196.0625 193.056243896484 189.456253051758 188.03125 193.15625 198.125 203.981246948242 210.793746948242 217.668746948242 226.262496948242 236.699996948242 250.912506103516 267.53125 275.631256103516 279.731262207031 290.375 309.8125 329.774993896484 338.3125 321.081268310547 303.03125 284.200012207031 261.887512207031 
258.043762207031 257.15625 256.287506103516 255.574996948242 256 255.306243896484 255.943756103516 256.712493896484 255.893753051758 253.306243896484 251.274993896484 245.818756103516 241.193756103516 235.78125 233.612503051758 232.65625 230.425003051758 228.693756103516 226.024993896484 222.931243896484 219.8125 216.556243896484 213.375 209.362503051758 206.100006103516 204.443756103516 201.362503051758 197.987503051758 194.856246948242 192.300003051758 190.0625 189 193.962493896484 199.8125 205.431243896484 211.78125 218.024993896484 226.625 234.274993896484 245.637496948242 260.381256103516 274.40625 284.162506103516 300.049987792969 316.456237792969 333.868743896484 342.306243896484 333.393768310547 316.9375 298.106262207031 274.024993896484 
261.112487792969 257.912506103516 255.649993896484 251.856246948242 250.912506103516 251.643753051758 252.143753051758 253.106246948242 252.256256103516 250.356246948242 249.831253051758 246.262496948242 243.350006103516 238.96875 235.887496948242 234.59375 233.050003051758 230.431243896484 227.606246948242 224.850006103516 220.818756103516 217.418746948242 214.081253051758 209.631256103516 206.162506103516 203.568756103516 200.318756103516 196.668746948242 193.168746948242 191.100006103516 190.175003051758 189.875 194.9375 201.15625 206.981246948242 211.84375 217.78125 225.6875 231.087493896484 235.050003051758 248.90625 267.9375 284.918762207031 301.493743896484 317.212493896484 335.806243896484 345.243743896484 340.1875 326.712493896484 308.118743896484 287.587493896484 
260.96875 256.274993896484 251.581253051758 248.243743896484 247.956253051758 246.706253051758 247.043746948242 248.268753051758 247.943740844727 247.287506103516 247.287506103516 245.675003051758 243.149993896484 240.399993896484 238.550003051758 236.743743896484 233.712493896484 230.056259155273 228.475006103516 225.706253051758 221.318756103516 217.4375 213.956253051758 208.9375 205.375 202.081253051758 198.4375 194.71875 190.96875 190.112503051758 189.918746948242 189.887496948242 195.268753051758 202.15625 207.274993896484 211.949996948242 217.456253051758 224.243743896484 227.300003051758 232.0625 246.050003051758 266.293762207031 284.318756103516 303.4375 319.693756103516 340.9375 352.46875 348.299987792969 333.824981689453 316.962493896484 297.731262207031 
254.412506103516 249.181243896484 244.5625 241.90625 240.03125 238.40625 237.737503051758 237.918746948242 238.137496948242 239.243743896484 244.087509155273 243.143753051758 243.1875 243.012496948242 240.3125 236.768753051758 232.03125 228.681259155273 226.487503051758 223.774993896484 219.225006103516 215.175003051758 211.125 206.78125 202.875 199.34375 195.568756103516 191.318756103516 187.756256103516 188.475006103516 189.118743896484 190.137496948242 194.106246948242 201.012496948242 207.837493896484 214.0625 218.962493896484 223.71875 227.5 236.212493896484 249.043746948242 266.056243896484 283.28125 300.65625 320.918762207031 345.231262207031 356.987487792969 346.3125 334.024993896484 317.787506103516 299.600006103516 
244.78125 240.46875 237.03125 234.568756103516 231.081253051758 229.256256103516 227.818756103516 227.4375 227.300003051758 230.043746948242 235 239.393753051758 243.90625 243.387496948242 240.8125 235.756256103516 230.106246948242 226.962493896484 223.5 221.350006103516 216.606246948242 212.175003051758 208.0625 202.850006103516 199.487503051758 195.981246948242 191.512496948242 187.15625 184.081253051758 185.587493896484 187.868743896484 190.3125 195.3125 200.837493896484 208.4375 214.568756103516 219.087493896484 223.743743896484 229.256256103516 238.362503051758 248.212493896484 263.087493896484 280.100006103516 296.681243896484 316.825012207031 338.412506103516 346.21875 337.024993896484 325.25 312.9375 297.037506103516 
234.725006103516 231.71875 227.818756103516 225.612503051758 222.037506103516 219.712493896484 217.46875 216.800003051758 215.668746948242 218.949996948242 226.237503051758 233.956253051758 242.037506103516 245.306243896484 239.887496948242 233.699996948242 227.512496948242 223.975006103516 220.768753051758 217.53125 213.175003051758 208.206253051758 203.96875 198.481246948242 195 191.53125 187.46875 183.743743896484 180.768753051758 182.806243896484 185.78125 189.675003051758 194.875 201.318756103516 207.800003051758 212.824996948242 217.306243896484 223.962509155273 229.725006103516 237.112503051758 245.643753051758 257.418762207031 272.4375 286.875 303.587493896484 317.443756103516 325.243743896484 321.318756103516 313.237487792969 302.737487792969 290.681243896484 
222.787506103516 220.181259155273 217.606246948242 214.581253051758 211.475006103516 209.293746948242 206.143753051758 204.112503051758 202.15625 203.793746948242 212.21875 222.425003051758 233.631256103516 238.550003051758 234.6875 228.631256103516 222.274993896484 219.243743896484 216.237503051758 212.681243896484 208.65625 204.293746948242 198.887496948242 193.987503051758 190.40625 186.693756103516 182.862503051758 179.631256103516 177.125 180.081253051758 183.418746948242 187.574996948242 192.75 199.693756103516 205.087493896484 209.287506103516 216.418746948242 222.3125 228.137496948242 234.850006103516 243.237503051758 253.324996948242 262.793762207031 274.987487792969 287.8125 295.712493896484 300.618743896484 300.287506103516 295.21875 286.524993896484 275.462493896484 
210.793746948242 208.831253051758 206.606246948242 204.149993896484 201.431243896484 198.637496948242 195.056243896484 192.006256103516 188.606246948242 186.862503051758 196.800003051758 213.056243896484 223.550003051758 228.118743896484 226.493743896484 222.068756103516 216.09375 213.431243896484 210.081253051758 206.28125 202.28125 197.8125 193.412506103516 188.418746948242 184.612503051758 181.399993896484 177.881256103516 175.256256103516 173.78125 177.024993896484 181.149993896484 184.831253051758 191.137496948242 197.806243896484 201.912506103516 207.850006103516 214.425003051758 221.274993896484 226.693756103516 232.318756103516 239.443740844727 245.399993896484 253.293746948242 263.112487792969 271.881256103516 275.856262207031 280.112487792969 279.774993896484 274.837493896484 268.087493896484 259.174987792969 
199.524993896484 198.175003051758 196.168746948242 194.168746948242 192.112503051758 189.237503051758 186.824996948242 183.787506103516 180.78125 176.9375 192.175003051758 208.518753051758 216.175003051758 220.5625 219.037506103516 215.25 209.71875 207 203.987503051758 199.818756103516 195.493743896484 190.381256103516 186.106246948242 181.362503051758 178.537506103516 175.837493896484 172.637496948242 170.712493896484 169.850006103516 173.793746948242 177.487503051758 182.118743896484 188.524993896484 194.387496948242 199.475006103516 204.46875 211.824996948242 217.862503051758 224.175003051758 229.975006103516 233.918746948242 238.868743896484 242.787506103516 248.362503051758 253.331253051758 255.693756103516 259.03125 260.262512207031 255.306243896484 249.40625 242.59375 
191.28125 189.881256103516 188.600006103516 186.912506103516 185.037506103516 182.743759155273 180.9375 180.6875 180.962493896484 187.25 202.762496948242 208.387496948242 210.768753051758 213.118743896484 212.581253051758 209.943756103516 205.5 202.4375 198.412506103516 194.631256103516 189.018753051758 183.631256103516 179.543746948242 175.481246948242 172.443756103516 170.837493896484 169.287506103516 168.675003051758 168.324996948242 172.006256103516 176.681243896484 180.987503051758 186.231246948242 191.4375 197.71875 203.643753051758 208.824996948242 214.556243896484 220.09375 222.506256103516 226.574996948242 230.324996948242 232.587493896484 236.743743896484 240.712493896484 242.84375 243.018753051758 244.537506103516 241.793746948242 239.337493896484 232.762496948242 
183.962493896484 182.731246948242 181.918746948242 180.774993896484 178.881256103516 177.956253051758 176.693756103516 178.225006103516 180.875 187.681243896484 196.40625 202.21875 205.324996948242 206.737503051758 207.012496948242 204.831253051758 201.693756103516 198.518753051758 193.693756103516 188.612503051758 182.59375 176.756256103516 172.149993896484 168.675003051758 167.175003051758 166 165.606246948242 166.443756103516 167.318756103516 171.043746948242 174.987503051758 179.918746948242 186.393753051758 191.331253051758 197.618743896484 201.975006103516 205.637496948242 210.293746948242 215.125 215.443756103516 217.606246948242 220.987503051758 222.362503051758 225.237503051758 227.649993896484 229.381256103516 231.03125 232.493743896484 231.6875 229.881256103516 224.5 
176.600006103516 175.975006103516 175.231246948242 174.09375 173.300003051758 171.975006103516 172.34375 173.90625 177.175003051758 182.643753051758 188.987503051758 194.193756103516 198.931243896484 200.887496948242 202.137496948242 201.074996948242 198.168746948242 194.962493896484 189.475006103516 183.15625 176.056243896484 169.193756103516 164.6875 162.181243896484 162.268753051758 161.612503051758 162.106246948242 163.918746948242 165.762496948242 169.431243896484 174.71875 181.237503051758 186.862503051758 191.975006103516 197.262496948242 200.625 203.862503051758 206.84375 209.743743896484 209.568756103516 210.024993896484 211.487503051758 211.75 213.975006103516 216.606246948242 219.962493896484 221.518753051758 220.543746948242 222.28125 220.868743896484 216.625 
167.774993896484 168.831253051758 168.306243896484 167.243743896484 166.487503051758 165.481246948242 166.274993896484 167.993743896484 171.912506103516 176.681243896484 182.71875 188.149993896484 193.856246948242 197.125 198.800003051758 198.90625 197.606246948242 193.993743896484 189.206253051758 181.056259155273 171.787506103516 165.106246948242 160.168746948242 158.225006103516 159.637496948242 159.512496948242 160.081253051758 162.181243896484 165.581253051758 171.181243896484 174.981246948242 181.493743896484 187.262496948242 194.1875 199.362503051758 200.481246948242 202.181243896484 204.537506103516 205.431243896484 204.143753051758 203.943756103516 201.887496948242 201.206253051758 204.568756103516 207.899993896484 211.725006103516 212.356246948242 211.475006103516 214.412506103516 212.643753051758 209.074996948242 
159.6875 160.675003051758 161.606246948242 160.712493896484 158.831253051758 157.824996948242 158.675003051758 160.28125 163.831253051758 169.40625 176.006256103516 182.675003051758 189.306243896484 193.368743896484 196.556243896484 197.518753051758 196.837493896484 195.65625 190.78125 180.331253051758 168.712493896484 159.475006103516 155.4375 156.175003051758 157.537506103516 158.443756103516 159.456253051758 161.712493896484 165.681243896484 170.875 175.612503051758 180.1875 185.71875 192.3125 199.75 203.050003051758 201.625 202.243743896484 201.425003051758 199.78125 198.337493896484 196.481246948242 195.368743896484 197.375 200.40625 202.018753051758 204.193756103516 204.318756103516 207.175003051758 206.237503051758 202.912506103516 
151.112503051758 152.975006103516 154.356246948242 153.493743896484 151.050003051758 149.449996948242 149.337493896484 151.587493896484 155.199996948242 161.318756103516 169.399993896484 177.662506103516 184.46875 190.225006103516 194.693756103516 196.418746948242 196.53125 195.518753051758 193.081253051758 182.21875 168.53125 157.074996948242 153.262496948242 154.425003051758 156.050003051758 158 159.0625 162 165.668746948242 170.662506103516 174.462493896484 178.387496948242 183.368743896484 190.181243896484 198.306243896484 205.418746948242 202.987503051758 200.393753051758 198.475006103516 195.643753051758 193.850006103516 191.9375 190.649993896484 192.681243896484 194.106246948242 194.225006103516 196.212493896484 197.574996948242 197.831253051758 199.3125 196.975006103516 
142.5 145.431243896484 147.931243896484 146.243743896484 142.875 140.800003051758 139.125 140.425003051758 145.074996948242 152.725006103516 162.068756103516 172.231246948242 181.449996948242 188.59375 194.337493896484 196.4375 196.793746948242 194.931243896484 191.056243896484 183.024993896484 170.518753051758 162.081253051758 156.106246948242 155.1875 157.0625 158.625 160.3125 162.75 166.824996948242 171.46875 174.693756103516 178.699996948242 183.162506103516 188.318756103516 195.231246948242 202.237503051758 201.675003051758 198.518753051758 195.699996948242 193.793746948242 191.806243896484 189.643753051758 188.8125 188.618743896484 189.600006103516 189.962509155273 191.168746948242 192.8125 192.40625 194.581253051758 193.043746948242 
