ncols        51
nrows        45
xllcorner    -63.500000000000
yllcorner    -7.500000000000
cellsize     0.166666666667
NODATA_value -99
25.4562492370605 18.0499992370605 15.6499996185303 14.3374996185303 13.375 15.1187496185303 17.0375003814697 19.21875 23.3875007629395 27.9812507629395 33.0999984741211 39.6875 46.1749992370605 51.9625015258789 58.5999984741211 65.0124969482422 70.8625030517578 74.53125 78.1875 81.2312469482422 82.4437484741211 82.8874969482422 83.5749969482422 84.40625 85.5437469482422 86.9562530517578 88.4812469482422 90.3062515258789 92.4000015258789 93.5812530517578 94.9312515258789 96.2874984741211 97.2375030517578 98.4375 99.71875 99.1750030517578 98.1937484741211 96.7937469482422 93.8937530517578 90.5250015258789 86.9812469482422 82.84375 77.8687515258789 72.5187530517578 68.3625030517578 63.7874984741211 59.6687507629395 57.2125015258789 55.1812515258789 52.8937492370605 51.7750015258789 
24.0375003814697 16.7875003814697 14.5437498092651 13.2937498092651 12.59375 14.8812503814697 17.5562496185303 20.6625003814697 26.1124992370605 31.75 37.5562515258789 44.4500007629395 51.1124992370605 57.2437515258789 63.6375007629395 69.9250030517578 75.2249984741211 80.1187515258789 84.9562530517578 89.2562484741211 90.3000030517578 91.0437469482422 91.8562469482422 92.7937469482422 93.8187484741211 94.5562515258789 96.0687484741211 97.5562515258789 98.9000015258789 98.9187469482422 100.25 101.90625 102.862503051758 104.262496948242 104.837501525879 103.306251525879 101.931251525879 99.6812515258789 96.0500030517578 91.7249984741211 87.3937530517578 82.6312484741211 77.0250015258789 70.96875 66.1312484741211 60.875 56.0687484741211 53.1187515258789 50.3312492370605 47.5187492370605 46.21875 
23.78125 17.28125 15.7749996185303 15.3937501907349 15.6000003814697 19.1812496185303 23.4125003814697 28.1499996185303 34.8499984741211 41.40625 47.5687484741211 54.1062507629395 60.2125015258789 65.6812515258789 71.3812484741211 76.8874969482422 81.8687515258789 86.1687469482422 90.3062515258789 94.1062469482422 95.3312530517578 96.8625030517578 98.0562515258789 99.15625 100.34375 101.612503051758 102.65625 103.775001525879 103.893753051758 103.824996948242 104.962501525879 105.75 106.224998474121 107.381248474121 107.856246948242 106.081253051758 104.068748474121 101.818748474121 97.6937484741211 92.5562515258789 87.4562530517578 82.1624984741211 76.2937469482422 70.2687530517578 65.03125 59.0499992370605 54.0062484741211 51.09375 47.8937492370605 44.8312492370605 43.3687515258789 
23.5249996185303 17.7250003814697 17.2562503814697 17.6375007629395 18.8812503814697 23.8812503814697 29.9624996185303 36.7562484741211 45.21875 53.0374984741211 59.2312507629395 64.8062515258789 69.8624954223633 74.5437469482422 79.8562469482422 84.5250015258789 88.7062454223633 92.3687515258789 95.7687530517578 99.0687484741211 100.793746948242 102.137496948242 103.199996948242 104.887496948242 106.362503051758 107.618751525879 108.231246948242 108.574996948242 108.412498474121 107.78125 108.318748474121 109.0625 108.443748474121 108.493751525879 108.050003051758 107.21875 105.587501525879 103.15625 98.625 92.8937530517578 86.3687515258789 80.90625 74.9437484741211 69.0250015258789 63.1937484741211 57.46875 51.7562484741211 48.5562515258789 45.4124984741211 42.2312507629395 40.7312507629395 
24.4437503814697 18.6625003814697 18.5375003814697 19.6937503814697 22.0187492370605 28.40625 36.1062507629395 44.8062515258789 55.5 65.46875 70.9499969482422 74.6500015258789 78.8249969482422 83.1624984741211 87.6624984741211 91.5500030517578 95.3125 97.6187515258789 99.9937515258789 102.59375 105.137496948242 106.637496948242 107.974998474121 110.193748474121 111.931251525879 113.34375 112.90625 113.168746948242 113.168746948242 111.256248474121 110.96875 110.868751525879 110.237503051758 109.724998474121 109.28125 108 106.46875 104.381248474121 99.0062484741211 92.4812469482422 85.21875 79.0062484741211 73.1750030517578 67.1687469482422 61.6687507629395 55.4124984741211 49.1875 45.8375015258789 42.5625 39.875 38.1312484741211 
26.1437492370605 21.0187492370605 21.3374996185303 22.7875003814697 26.2312507629395 33.4812507629395 41.65625 50.7625007629395 61.8125 72.875 77.2624969482422 80.3062515258789 84.625 88.7624969482422 92.7437515258789 96.7874984741211 99.9250030517578 101.862503051758 104.15625 106.443748474121 109.243751525879 111.4375 113.356246948242 114.693748474121 116.231246948242 117.28125 116.143753051758 115.237503051758 115.131248474121 112.581253051758 111.662498474121 111.793746948242 110.5 109.787498474121 109.162498474121 108.4375 107.387496948242 106.224998474121 101.650001525879 94.0687484741211 85.0812530517578 78.8125 72.6687469482422 67 62.9437484741211 55.9937515258789 48.9874992370605 45.1937484741211 42.5999984741211 40.0437507629395 38.5187492370605 
28.5687503814697 23.9937496185303 25.1625003814697 27.3562507629395 31.3187503814697 38.3250007629395 46.1124992370605 54.1500015258789 62.8125 70.7750015258789 77.5374984741211 83 88.4312515258789 93.3687515258789 97.2750015258789 101.243751525879 104.4375 105.868751525879 107.537498474121 110.043746948242 113.493751525879 116.387496948242 118.487503051758 119.712501525879 120.931251525879 121.387496948242 119.931251525879 117.956253051758 116.199996948242 113.768753051758 112.331253051758 111.412498474121 109.712501525879 108.931251525879 108.381248474121 107.462501525879 106.900001525879 106.193748474121 102.743751525879 93.7750015258789 84.1312484741211 77.03125 71.0625 65.8562469482422 62.4625015258789 55.9749984741211 48.5687484741211 44.40625 42.0437507629395 40.0374984741211 38.8624992370605 
31.4937496185303 27.3812503814697 29.71875 33.3187484741211 37.6624984741211 44.34375 50.65625 55.9249992370605 60.4749984741211 66.7937469482422 75.8125 83.7125015258789 91.0437469482422 97.0187530517578 101.743751525879 105.5625 108.681251525879 109.949996948242 111.512504577637 114.275001525879 118.381248474121 121.618751525879 124.03125 125.212501525879 125.90625 125.34375 122.668746948242 119.324996948242 116.5625 112.800003051758 111.068748474121 110.068748474121 108.368751525879 107.387496948242 106.193748474121 105.181251525879 103.862503051758 102.693748474121 97.4312515258789 89.0437469482422 79.6750030517578 72.4875030517578 66.2062530517578 60.8499984741211 57.5625 52.1312484741211 46.1937484741211 42.8562507629395 40.7687492370605 39.4749984741211 38.5999984741211 
35.5062484741211 32.3187484741211 35.5250015258789 39.7374992370605 44.4812507629395 50.6312484741211 56.1375007629395 59.5437507629395 60.8624992370605 64.8562469482422 75.1500015258789 84.5187530517578 93.0625 99.6062469482422 104.556251525879 108.6875 111.931251525879 114.681251525879 117.6875 120.5625 124.556251525879 128.168746948242 129.550003051758 130.850006103516 130.225006103516 128.262496948242 123.787498474121 120.724998474121 117.362503051758 112.46875 110.143753051758 108.375 105.893753051758 104.074996948242 102.15625 101.3125 100.15625 97.8062515258789 91.375 83.4312515258789 74.6062469482422 67.0749969482422 60.7999992370605 54.7625007629395 50.75 46.8624992370605 42.8375015258789 40.4625015258789 39.2125015258789 38.8062515258789 39.1687507629395 
40.0437507629395 37.7312507629395 41.5625 46.5812492370605 52.0250015258789 58.21875 63.3499984741211 66.4000015258789 68.3062515258789 72.2562484741211 79.8375015258789 87.7874984741211 96.1812515258789 103.068748474121 107.962501525879 112.162498474121 115.487503051758 119.775001525879 124.181251525879 129.03125 132.668746948242 135.574996948242 136.037506103516 135.4375 132.731246948242 129.806243896484 125.387496948242 120.9375 117.293754577637 112.056251525879 108.087501525879 105.6875 102.90625 100.931251525879 99.09375 97.8375015258789 95.9375 92.9124984741211 86.3375015258789 77.9625015258789 69.3250045776367 61.6937522888184 54.6312484741211 48.4000015258789 44.5875015258789 41.1187515258789 38.3562507629395 37.4187507629395 36.9625015258789 37.1062507629395 37.0125007629395 
45.0374984741211 43.5999984741211 47.96875 53.625 59.7312507629395 67.09375 72.6937484741211 75.3375015258789 77.625 81.5250015258789 87.4375 93.8625030517578 100.518753051758 107.243751525879 111.831253051758 115.487503051758 119.3125 124.868751525879 130.962493896484 137.462493896484 142.762496948242 144.443756103516 143.25 139.112503051758 136.237503051758 133.412506103516 128.637496948242 123.643753051758 118.28125 112.425003051758 107.818748474121 104.431251525879 101.349998474121 98.7874984741211 96.0749969482422 94.0187530517578 91.59375 87.5749969482422 80.7750015258789 72.4625015258789 63.9437522888184 56.3187484741211 49.5 42.9124984741211 39.0687484741211 36.25 34.0625 33.7937507629395 33.6687507629395 33.6062507629395 32.78125 
51.03125 50.09375 54.875 61.0625 67.7249984741211 75.5562515258789 82.0124969482422 84.0687484741211 86.5687484741211 89.9375 94.5999984741211 99.8312530517578 104.956253051758 110.768753051758 115.887496948242 119.693748474121 124.043746948242 130.1875 137.100006103516 145.3125 152.850006103516 153.987503051758 150.962493896484 144.787506103516 139.287506103516 134.231246948242 128.056243896484 123.512496948242 118.793746948242 113.09375 107.331253051758 103.15625 99.2624969482422 96.2437515258789 93.34375 90.46875 87.1125030517578 82.9562530517578 75.75 67.7874984741211 59.1437492370605 51.6749992370605 45.03125 39.0812492370605 34.9124984741211 31.6687507629395 30.0249996185303 29.875 30.21875 30.3875007629395 29.15625 
57.0875015258789 56.7750015258789 61.8499984741211 68.0687484741211 74.8249969482422 82.0999984741211 87.5437469482422 90.9812469482422 93.8812484741211 97.8375015258789 102.15625 105.818748474121 110.012496948242 113.775001525879 118.856246948242 123.756248474121 128.074996948242 134.975006103516 142.506256103516 150.543746948242 159.693756103516 161.331253051758 157.287506103516 150.131256103516 139.350006103516 132.506256103516 129.068756103516 124.275001525879 119.881248474121 113.618751525879 107.224998474121 101.625 97.59375 93.7125015258789 90.4437484741211 87.2874984741211 83.4250030517578 79.3499984741211 72.6875 63.9562530517578 55.7000007629395 48.8937492370605 42.1375007629395 34.5625 30.1875 28.9874992370605 27.96875 27.7625007629395 27.7437496185303 27.6625003814697 26.5375003814697 
63.1875 63.3375015258789 68.5999984741211 74.7937469482422 81.1187515258789 87.7125015258789 92.9562530517578 97.3187484741211 101.0625 104.699996948242 108.481246948242 111.150001525879 114.050003051758 117.431251525879 121.34375 126.625 130.981246948242 137.537506103516 144.493743896484 151.8125 159.556243896484 161.887496948242 160.75 154.887496948242 146.125 139.412506103516 133.681243896484 127.356246948242 121.4375 113.481246948242 105.949996948242 100.03125 95.4625015258789 91.4250030517578 87.9875030517578 84.8125 81.1437530517578 77.4937515258789 71.2562484741211 63.3687477111816 54.4375 46.2750015258789 39.6312484741211 33.6875 29.9874992370605 28.5125007629395 28.0499992370605 28 27.3374996185303 26.6499996185303 25.0874996185303 
70.5875015258789 71.0562515258789 75.8687515258789 81.8249969482422 87.7624969482422 93.75 99.5437469482422 104.199996948242 107.199996948242 110.387496948242 113.637496948242 115.800003051758 118.15625 121.21875 124.84375 130.018753051758 133.949996948242 139.237503051758 144.84375 151.75 158.75 163 164.9375 162.912506103516 158.25 151.625 142.081253051758 132.393753051758 123.5625 113.537498474121 104.712501525879 97.9187469482422 93.3000030517578 89.9375 86.5625 82.8874969482422 79.8874969482422 77.8187484741211 73.4312515258789 65.2062530517578 55.40625 47.2874984741211 41.0062484741211 35.53125 31.7625007629395 29.4624996185303 27.9624996185303 27.6687507629395 27.1375007629395 26.0249996185303 24.2937507629395 
77.6312484741211 78.1374969482422 82.875 88.6062469482422 94.2437515258789 100.256248474121 105.837501525879 110.256248474121 113.006248474121 115.681251525879 117.681251525879 118.806251525879 120.893753051758 123.900001525879 128.15625 132.487503051758 135.006256103516 139.40625 144.293746948242 150.106246948242 156.318756103516 162.9375 169.050003051758 172.287506103516 170.09375 162.71875 150.90625 138.293746948242 126.306251525879 113.637496948242 103.474998474121 95.3937530517578 90.4187469482422 87.1624984741211 83.3812484741211 79.09375 78.09375 77 74.4749984741211 67.2375030517578 58.6375007629395 50.6500015258789 43.7312507629395 37.6812515258789 34.0562515258789 31.3312492370605 29.5 28.4312496185303 27.4249992370605 26.3125 24.9375 
83.9437484741211 84.71875 89.7937469482422 95.625 101.025001525879 106.837501525879 112.337501525879 116.699996948242 118.912498474121 120.15625 121.0625 121.599998474121 122.606246948242 124.762496948242 128.449996948242 131.96875 133.087493896484 136.568756103516 141.243743896484 147 153.106246948242 161.143753051758 171.274993896484 179.581253051758 181.425003051758 170.581253051758 157.212493896484 141.506240844727 126.599998474121 112.506248474121 101.943748474121 94.5062484741211 87.5749969482422 82.0875015258789 77.6937484741211 75.7937469482422 75.8125 78.96875 80.6312484741211 71.9937515258789 62.6124992370605 54.2562522888184 46.3875007629395 40.3125 36.5875015258789 33.6312484741211 31.0812492370605 29.8937492370605 29.1437492370605 27.6187496185303 26.4249992370605 
91 92.0562515258789 97.3937530517578 103.181251525879 108.59375 114.34375 119.53125 123.287498474121 124.650001525879 125.268753051758 125.481246948242 124.931251525879 124.887496948242 125.40625 127.787498474121 129.850006103516 130.518753051758 132.675003051758 137.368743896484 142.318756103516 148.168746948242 156.256256103516 167.006256103516 176.412506103516 179.425003051758 171.462493896484 160.237503051758 143.1875 125.918746948242 109.875 98.4437484741211 90.875 86.2437515258789 82.5625 76.1750030517578 69.375 73.5187530517578 78.7750015258789 79.1312484741211 73.6187515258789 64.8187484741211 56.71875 48.7937507629395 42.5374984741211 38.6375007629395 35.75 33.1875 31.7625007629395 30.9750003814697 29.4249992370605 28.4375 
97.1125030517578 99.0875015258789 104.775001525879 110.887496948242 116.731246948242 122.006248474121 126.618751525879 130.100006103516 131.418746948242 130.787506103516 129.125 127.987503051758 126.512496948242 125.412498474121 126.693748474121 128.668746948242 129.056243896484 129.981246948242 133.868743896484 137.71875 142.693756103516 152.449996948242 159.643753051758 167.600006103516 170.4375 167.375 156.862503051758 141.481246948242 125.612503051758 108.193748474121 94.8000030517578 90.6812515258789 90.78125 86.59375 80.6999969482422 75.375 76.3499984741211 78.3000030517578 77.3937530517578 72.8687515258789 65.6999969482422 59.4625015258789 51.2374992370605 44.7374992370605 40.90625 37.7937507629395 35.5812492370605 34.4500007629395 33.4124984741211 31.0499992370605 30.9562492370605 
101.987503051758 105.256248474121 111.268753051758 117.8125 124.193748474121 129.787506103516 134.537490844727 137.862503051758 138.368743896484 137.225006103516 134.393753051758 131.675003051758 128.868743896484 126.199996948242 126.599998474121 127.974998474121 127.543746948242 129.881240844727 133.262496948242 137.756256103516 140.431243896484 146.368743896484 155.787506103516 161.725006103516 163.331253051758 159.556243896484 150.90625 140.100006103516 125.087501525879 109.46875 98.5250015258789 97.4375 96.9437484741211 96.0500030517578 93.625 87.6062469482422 83.7062530517578 81.6125030517578 78.0500030517578 72.9749984741211 67.0625 61.1749992370605 53.5687484741211 46.8499984741211 43.2374992370605 40.4249992370605 38.1687507629395 36.9500007629395 35.5125007629395 33.6624984741211 33.5499992370605 
104.862503051758 110.456245422363 117.856246948242 125.331253051758 132.34375 137.568756103516 142.350006103516 145.587493896484 146.59375 145.0625 142.03125 138.462493896484 134.887496948242 130.78125 130.418746948242 130.556243896484 130.0625 131.28125 135.712493896484 139.368743896484 143.40625 148.862503051758 154.356246948242 157.612503051758 159.168746948242 157.0625 149.862503051758 138.300003051758 126.924995422363 117.59375 110.612503051758 107.987503051758 106.71875 106.775001525879 106.943748474121 99.71875 92.0124969482422 86.875 81.1062469482422 75.2062530517578 69.0187530517578 62.8875007629395 55.8250007629395 49.5499992370605 46.0187492370605 43.2000007629395 41.0999984741211 39.7374992370605 37.9124984741211 36.9249992370605 36.6124992370605 
107.337501525879 115.637496948242 124.118751525879 132.362503051758 140.274993896484 145.743743896484 150.168746948242 153.693756103516 156.125 154.581253051758 150.706253051758 146.431243896484 142.34375 139.09375 137.774993896484 137.649993896484 137.975006103516 138.90625 141.668746948242 144.90625 146.050003051758 149.306243896484 153.737503051758 155.131256103516 154.65625 152.425003051758 147.831253051758 139.943756103516 132.487503051758 126.025001525879 120.668746948242 117.662498474121 115.612503051758 114.949996948242 112.731246948242 106.487503051758 98.46875 91.3812484741211 84.3000030517578 77.8625030517578 71.28125 64.9375 58.3624992370605 52.0437507629395 48.8687515258789 46.1500015258789 44.1749992370605 42.8562507629395 41.3499984741211 40.7062492370605 40.2062492370605 
110.849998474121 122.0625 131.625 140.412506103516 147.912506103516 153.1875 157.768753051758 162.262496948242 167.231246948242 164.768753051758 159.962493896484 154.518753051758 150.918746948242 148.649993896484 146.850006103516 146.018753051758 145.949996948242 147.012496948242 148.606246948242 150.300003051758 150.956253051758 151.625 153.212493896484 153.46875 151.943756103516 147.993743896484 145.168746948242 141.643753051758 136.181259155273 132.03125 129.087493896484 127.006248474121 123.887496948242 121.849998474121 118.443748474121 111.737503051758 103.724998474121 95.4124984741211 87.7062454223633 81.78125 75.3000030517578 68.6687469482422 61.8250007629395 55.1812515258789 51.8624992370605 49.5187492370605 47.7000007629395 46.5499992370605 45.0437507629395 44.3312492370605 44.5062484741211 
114.875 128.087493896484 138.8125 146.324996948242 153.024993896484 158.631256103516 163.431243896484 168.875 173.818756103516 172.199996948242 167.118743896484 162.643753051758 159.456253051758 157.337493896484 155.65625 154.375 154.106246948242 154.149993896484 154.46875 154.824996948242 154.868743896484 155.300003051758 154.75 153.399993896484 150.399993896484 144.943756103516 140.912506103516 140.050003051758 138.681243896484 136.875 135.206253051758 133.550003051758 130.481246948242 127.487503051758 123.84375 117.90625 110.256248474121 101.706253051758 94.1437530517578 87.5124969482422 80.7937469482422 73.8874969482422 66.53125 59.3250007629395 56.6062507629395 54.5625 52.71875 51.09375 50.5187492370605 48.3499984741211 48.46875 
122.581253051758 136.100006103516 146.818756103516 152.274993896484 157.71875 163.199996948242 167.943756103516 172.431243896484 176.5625 177.087493896484 174.824996948242 171.506256103516 169.181259155273 167.375 165.181243896484 163.899993896484 162.837493896484 161.925003051758 161.037506103516 160.4375 159.556243896484 158.056243896484 157.356246948242 154.762496948242 151.387496948242 147.768753051758 144.15625 142.868743896484 141.962493896484 140.943756103516 139.6875 137.625 135.46875 132.293746948242 128.9375 122.918746948242 116.712501525879 110.03125 102.087501525879 95.2562484741211 88.1125030517578 80.4625015258789 72.3937530517578 65.1187515258789 61.1500015258789 59.09375 57.0625 58.1312484741211 57.4812507629395 53.6875 53.5875015258789 
131.818756103516 144.1875 151.34375 156.987503051758 161.331253051758 166.456253051758 171.125 175.331253051758 179.837493896484 182.256256103516 180.693756103516 179.381256103516 177.75 176.425003051758 174.725006103516 172.975006103516 171.831253051758 169.625 167.899993896484 166.231246948242 164.681243896484 162.337493896484 160.737503051758 157.899993896484 154.762496948242 151.712493896484 149.112503051758 147.006256103516 145.599990844727 144.868743896484 142.737503051758 141.71875 140.068756103516 136.96875 134.274993896484 128.881256103516 123.393753051758 118.043746948242 110.6875 103.675003051758 96.4124984741211 88.3562469482422 79.5625 71.9124984741211 67.5374984741211 63.6749992370605 65.7249984741211 67.3375015258789 65.9499969482422 62.9124984741211 61.46875 
140.693756103516 148.8125 154.618743896484 159.28125 163.225006103516 168.65625 173.175003051758 177.318756103516 180.975006103516 182.912506103516 184.050003051758 183.875 183.256256103516 182.59375 180.493743896484 179.050003051758 176.9375 175.125 172.931243896484 170.78125 168.975006103516 166.268753051758 163.987503051758 162.300003051758 158.699996948242 155.75 152.9375 150.600006103516 149.100006103516 147.893753051758 146.725006103516 144.743743896484 143.625 141.34375 138.512496948242 134.1875 129.756256103516 125.237503051758 118.918746948242 112.912498474121 106.087501525879 98.5124969482422 90.03125 82.125 78.6687469482422 78.4625015258789 79.9562530517578 78.2687530517578 75.40625 71.2562484741211 68.96875 
148.987503051758 154.012496948242 158.300003051758 162.206253051758 165.5625 170.65625 175.618743896484 179.243743896484 182.449996948242 185.118743896484 186.418746948242 187.068756103516 187.893753051758 187.268753051758 185.574996948242 183.987503051758 182.412506103516 179.649993896484 177.6875 176.118743896484 173.418746948242 170.350006103516 168.524993896484 165.875 162.375 159.65625 157.225006103516 154.943756103516 152.268753051758 150.725006103516 148.925003051758 147.381256103516 146.556243896484 144.675003051758 143.168746948242 139.231246948242 135.225006103516 132.368743896484 126.8125 122.087501525879 117.331253051758 109.868751525879 100.78125 93.6812515258789 93.5562515258789 95.4375 95.0625 90.59375 85.3375015258789 79.8375015258789 76.3187484741211 
156.850006103516 159.3125 161.693740844727 164.943756103516 167.75 171.856246948242 176.012496948242 179.962493896484 183.375 186.8125 189.268753051758 190.618759155273 191.706253051758 191.53125 190.393753051758 188.725006103516 187.443756103516 184.71875 182.40625 180.681243896484 177.418746948242 174.462493896484 172.237503051758 169.225006103516 165.65625 163.256256103516 160.737503051758 158.1875 156.256256103516 153.96875 151.262496948242 149.587493896484 149.018753051758 147.71875 146.712493896484 143.824996948242 140.618743896484 137.96875 132.875 128.96875 125.768753051758 118.949996948242 110.59375 105.443748474121 107.081253051758 109.125 107.731246948242 101.318748474121 95.2312469482422 89.1750030517578 83.2937469482422 
160.96875 161.350006103516 162.300003051758 163.431259155273 165.53125 168.46875 172.53125 176.899993896484 181.231246948242 184.493743896484 188.28125 190.050003051758 192.556243896484 193.675003051758 192.875 192.3125 190.581253051758 188.831253051758 186.21875 183.287506103516 180.524993896484 177.662506103516 174.850006103516 171.193756103516 168.125 166.393753051758 163.693756103516 160.768753051758 158.0625 155.75 153.693756103516 151.918746948242 151.262496948242 150.71875 149.712493896484 147.262496948242 144.475006103516 142.65625 136.768753051758 132.337493896484 129.375 126.112503051758 120.599998474121 117.9375 118.5 119.706253051758 118.018753051758 113.443748474121 106.875 99.8874969482422 92.7874984741211 
163.975006103516 162.0625 162.081253051758 161.3125 162.537506103516 166.131256103516 169.793746948242 174.006256103516 178.100006103516 181.6875 186.443756103516 189.78125 193.84375 196.050003051758 195.268753051758 195.231246948242 194.787506103516 192.3125 189.462493896484 186.743743896484 183.287506103516 180.40625 177.5625 173.712493896484 170.637496948242 168.368743896484 165.612503051758 162.618743896484 159.631256103516 157.274993896484 155.756256103516 154.193756103516 153.612503051758 153.456253051758 152.793746948242 150.131256103516 148.068756103516 146.743743896484 140.487503051758 133.056243896484 131.081253051758 131.493743896484 130.193756103516 128.600006103516 129.081253051758 130.800003051758 129.21875 125.087501525879 118.474998474121 110.525001525879 103.925003051758 
164.524993896484 160.981246948242 159.46875 159.068756103516 160.787506103516 162.918746948242 166.274993896484 170.425003051758 174.675003051758 178.918746948242 183.875 188.78125 193.268753051758 197.081253051758 198.068756103516 198.5 197.53125 194.206253051758 192.34375 189.543746948242 185.837493896484 182.631256103516 179.756256103516 175.568756103516 172.612503051758 169.893753051758 167.006256103516 164.081253051758 160.943756103516 159.112503051758 157.681243896484 155.881256103516 155.643753051758 156.09375 155.149993896484 153.162506103516 151.675003051758 150.59375 143.956253051758 138.125 137.568756103516 139.8125 140.100006103516 140.625 141.556243896484 144.574996948242 143.59375 138.912506103516 130.762496948242 122.318748474121 115.400001525879 
158.350006103516 154.774993896484 153.65625 154.037506103516 155.074996948242 157.368743896484 160.431243896484 164.106246948242 168.293746948242 173.268753051758 181.324996948242 186.78125 193.449996948242 199.618743896484 200.756256103516 200.631256103516 198.96875 195.949996948242 193.481246948242 190.712493896484 186.824996948242 183.425003051758 180.081253051758 176.53125 173.425003051758 170.618759155273 167.774993896484 164.5625 161.625 160.868743896484 159.737503051758 158.518753051758 157.199996948242 157.875 158.399993896484 158.006256103516 156.581253051758 154.768753051758 150.331253051758 148.831253051758 149.543746948242 151.737503051758 153.356246948242 154.6875 158.324996948242 163.5625 162.881256103516 154.631256103516 146.362503051758 137.018753051758 129.287506103516 
149.787506103516 147.25 147.293746948242 148.1875 148.581253051758 151.225006103516 154.243743896484 157.868743896484 161.331253051758 166.868743896484 174.456253051758 183.90625 194.21875 200.449996948242 202.518753051758 202.056243896484 200.456253051758 197.649993896484 194.050003051758 191.6875 187.574996948242 183.787506103516 180.318756103516 176.137496948242 173.587493896484 170.912506103516 167.649993896484 164.506256103516 162.106246948242 161.71875 161.631256103516 161.331253051758 160.881256103516 160.606246948242 161.949996948242 161.893753051758 160.643753051758 159.418746948242 158.181243896484 159.212493896484 160.337493896484 163.243743896484 166.824996948242 169.693756103516 174.393753051758 179.368743896484 177.168746948242 168.850006103516 159.881256103516 151.300003051758 143.293746948242 
140.850006103516 139.525009155273 139.649993896484 141.050003051758 141.743743896484 144.481246948242 147.368743896484 151.143753051758 153.643753051758 159.199996948242 168.162506103516 180.068756103516 193.21875 202.725006103516 203.28125 202.775009155273 201.46875 198.40625 194.962493896484 191.59375 187.75 183.425003051758 179.818756103516 175.449996948242 172.887496948242 170.362503051758 167.568756103516 165.112503051758 162.90625 162.693756103516 162.918746948242 163.587493896484 163.487503051758 164.125 164.837493896484 164.381256103516 163.568756103516 164.512496948242 165.40625 167.487503051758 170.03125 173.012496948242 177.5625 181.268753051758 185.5 187.475006103516 186.081253051758 180.175003051758 172.431259155273 163.962493896484 156.731246948242 
129.893753051758 129.09375 130.131256103516 131.125 132.175003051758 135.237503051758 137.78125 140.899993896484 143.743743896484 149.112503051758 159.837493896484 173.331253051758 188.4375 198.918746948242 201.212493896484 201.399993896484 200.449996948242 197.856246948242 194.537506103516 190.887496948242 187.237503051758 183.362503051758 178.643753051758 174.706253051758 172.006256103516 169.243743896484 166.625 164.618743896484 162.824996948242 163.4375 163.96875 164.96875 165.256256103516 166.8125 167.074996948242 166.425003051758 168.137496948242 169 170.59375 172.931243896484 176.287506103516 179.824996948242 182.568756103516 186.975006103516 191.243743896484 191.975006103516 190.931243896484 187.987503051758 182.362503051758 174.912490844727 167.662506103516 
118.818748474121 118.625 119.943748474121 121.262496948242 122.643753051758 125.518753051758 128.03125 130.737503051758 133.6875 137.768753051758 150.649993896484 168.537506103516 182.550003051758 192.21875 196.743743896484 198.837493896484 198.631256103516 196.4375 192.793746948242 188.875 185.15625 181.087493896484 177.162506103516 173.068756103516 170.112503051758 167.712493896484 165.350006103516 163.862503051758 162.987503051758 163.887496948242 165.225006103516 165.925003051758 167.693756103516 169.556243896484 169.268753051758 170.493743896484 172.212493896484 174.287506103516 176.0625 178.087493896484 181.237503051758 183.412506103516 186.987503051758 191.868743896484 196.056243896484 196.731246948242 197.662506103516 195.899993896484 190.993743896484 185.131256103516 178.9375 
107.993751525879 108.381248474121 109.881248474121 111.568748474121 113.412498474121 116.493751525879 119.96875 123.106246948242 127.381248474121 131.056243896484 149.056243896484 167.118743896484 178.59375 187.831253051758 192.793746948242 195.881256103516 196.443756103516 194.268753051758 191.012496948242 186.699996948242 182.618743896484 177.84375 173.931243896484 169.949996948242 167.824996948242 165.850006103516 163.6875 162.774993896484 162.456253051758 164.125 165.131256103516 166.84375 169.231246948242 170.987503051758 172.024993896484 172.956253051758 175.850006103516 177.78125 180.731246948242 183.393753051758 184.699996948242 187.618743896484 189.84375 193.462493896484 197.15625 198.962493896484 201.475006103516 202.125 197.931243896484 193.125 188.318756103516 
97.59375 98.1500015258789 100.34375 102.506248474121 104.756248474121 108.40625 112.493751525879 117.668746948242 124.643753051758 136.274993896484 155.231246948242 166.068756103516 174.425003051758 182.918746948242 188.90625 193.043746948242 194.637496948242 192.475006103516 188.5625 184.899993896484 179.568756103516 174.475006103516 170.668746948242 167.149993896484 164.693756103516 163.668746948242 162.793746948242 162.887496948242 162.912506103516 164.506256103516 166.706253051758 168.412506103516 170.21875 171.824996948242 174.387496948242 176.5625 178.050003051758 180.137496948242 182.725006103516 182.850006103516 184.481246948242 186.699996948242 187.824996948242 190.600006103516 193.868743896484 195.762496948242 196.09375 197.412506103516 195.300003051758 193.518753051758 189.043746948242 
87.5437469482422 88.3375015258789 91.0687484741211 93.8625030517578 96.4749984741211 101.125 105.775001525879 112.306251525879 121.137496948242 133.375 147.543746948242 159.643753051758 169.925003051758 178.831253051758 185.71875 190.212493896484 192.975006103516 191.056243896484 186.75 182.162506103516 176.399993896484 170.774993896484 166.387496948242 163.324996948242 162.256256103516 161.462493896484 161.456253051758 162.65625 163.600006103516 165.518753051758 167.331253051758 169.987503051758 173.362503051758 175.206253051758 178.225006103516 179.449996948242 180.037506103516 181.612503051758 183.899993896484 182.381256103516 182.606246948242 184.512496948242 184.899993896484 186.600006103516 188.606246948242 190.149993896484 191.662506103516 193.256256103516 193.012496948242 192.056243896484 188.731246948242 
77.9812469482422 79.1750030517578 82.1687469482422 85.2437515258789 88.65625 93.3125 99.0562515258789 105.800003051758 115.125 126.512496948242 139.09375 151.675003051758 164.4375 174.856246948242 182.737503051758 188.262496948242 191.28125 189.71875 185.199996948242 179.681243896484 172.831253051758 166.118743896484 161.737503051758 159.518753051758 159.862503051758 159.462493896484 160.081253051758 161.962493896484 163.662506103516 165.824996948242 169.293746948242 173.8125 176.887496948242 179.331253051758 181.956253051758 182.662506103516 183.318756103516 183.84375 184.612503051758 182.787506103516 181.668746948242 181.962493896484 181.356246948242 182.543746948242 184.681243896484 187.59375 188.993743896484 188.8125 191.043746948242 190.662506103516 188.475006103516 
70.6624984741211 72.46875 75.4312515258789 78.40625 81.71875 86.53125 92.5250015258789 99.3000030517578 109.056251525879 119.943748474121 132.225006103516 145.018753051758 158.581253051758 170.231246948242 178.731246948242 185.574996948242 190.356246948242 188.925003051758 185.631256103516 178.743759155273 169.78125 163.212493896484 158.387496948242 156.643753051758 158.206253051758 158.262496948242 158.881256103516 160.987503051758 164.256256103516 168.668746948242 171.0625 176.006256103516 179.631256103516 184.168746948242 187.03125 185.987503051758 185.5 185.6875 184.856246948242 182.125 180.53125 177.818756103516 176.4375 178.712493896484 181.5 184.831253051758 185.46875 185.34375 188.6875 187.987503051758 186.212493896484 
64.0812530517578 65.7312469482422 69.1312484741211 71.9812469482422 74.6312484741211 79.375 85.3062515258789 91.9250030517578 101.349998474121 112.643753051758 125.181251525879 138.75 152.931243896484 165.1875 175.300003051758 183.193740844727 188.899993896484 190.381256103516 187.581253051758 178.887496948242 167.643753051758 158.493743896484 154.5625 155.381240844727 156.818756103516 157.8125 158.831253051758 161.137496948242 165 169.356246948242 173.125 176.59375 180.449996948242 185.149993896484 190.581253051758 191.84375 188.675003051758 187.487503051758 185.199996948242 182.274993896484 179.649993896484 177.162506103516 175.443756103516 176.600006103516 179.225006103516 180.606246948242 182.59375 183.337493896484 186.606246948242 186.581253051758 184.824996948242 
57.6875 59.5625 62.90625 65.59375 67.8062515258789 72.1999969482422 77.5062484741211 84.3249969482422 93.5812530517578 105.025001525879 118.387496948242 132.956253051758 147.131256103516 160.706253051758 172.131256103516 180.949996948242 187.737503051758 189.931243896484 190.100006103516 181.46875 168.199996948242 156.868743896484 153.125 154.324996948242 155.949996948242 157.949996948242 159.012496948242 161.949996948242 165.537506103516 170.056243896484 173.318756103516 176.59375 180.337493896484 185.768753051758 192.337493896484 197.618743896484 193.681243896484 189.706253051758 186.537506103516 182.574996948242 179.725006103516 177.243743896484 175.399993896484 176.6875 177.868743896484 177.925003051758 179.762496948242 181.600006103516 182.5 184.59375 183.574996948242 
53.65625 55.7687492370605 59.3499984741211 61.4749984741211 63.0750007629395 66.9812469482422 71.1687469482422 77.0687484741211 86.5124969482422 98.4312515258789 112.181251525879 127.78125 143.449996948242 157.875 170.300003051758 179.399993896484 186.356246948242 188.149993896484 187.362503051758 181.9375 170.043746948242 161.850006103516 156.074996948242 155.1875 157.0625 158.625 160.3125 162.75 166.774993896484 171.131256103516 174.012496948242 177.59375 181.212493896484 185.425003051758 191.262496948242 196.837493896484 195.018753051758 190.693756103516 186.899993896484 184 181.137496948242 178.46875 177.118743896484 176.425003051758 177.237503051758 177.53125 178.6875 180.706253051758 180.893753051758 183.574996948242 183.087493896484 
