ncols        51
nrows        45
xllcorner    -63.500000000000
yllcorner    -7.500000000000
cellsize     0.166666666667
NODATA_value -99
232.331253051758 237.006256103516 238.356246948242 244.100006103516 245.581253051758 242.481246948242 238.162506103516 230.012496948242 224.381256103516 222.350006103516 223.356246948242 224.818756103516 225.287506103516 224.318756103516 224.662506103516 225.818756103516 228.237503051758 228.712493896484 231.806243896484 234.9375 237.193756103516 240.493743896484 243.143753051758 247.75 250.53125 256.231262207031 263.200012207031 272.46875 280.15625 284.506256103516 288.850006103516 293.3125 295.512512207031 299.34375 302.356262207031 303.131256103516 301.28125 299.350006103516 299.068756103516 296.84375 294.681243896484 293.568756103516 289.875 287.956237792969 284.787506103516 281.475006103516 277.075012207031 270.056243896484 264.725006103516 261.049987792969 258.387512207031 
237.699996948242 242.3125 249.881256103516 257 262.975006103516 258.356262207031 251.943756103516 247.0625 242.34375 239.074996948242 238.487503051758 237.643753051758 236.931243896484 235.318756103516 233.699996948242 234.768753051758 234.993743896484 237.087493896484 240.25 242.625 244.018753051758 245.600006103516 248.912506103516 252.268753051758 256.8125 262.006256103516 269.125 279.043762207031 285.649993896484 288.90625 293.462493896484 298.837493896484 301.024993896484 305.268737792969 306.862487792969 306.174987792969 305.28125 302.600006103516 300.774993896484 296.75 292.856262207031 291.625 287.837493896484 283.668762207031 279.106262207031 274.987487792969 271.21875 262.837493896484 256.375 250.899993896484 248.568756103516 
238.462493896484 245.331253051758 252.118743896484 261.25 268.731262207031 266.493743896484 262.962493896484 260.481262207031 259.399993896484 256.174987792969 252.912506103516 249.893753051758 248.3125 244.318756103516 242.350006103516 242.337493896484 241.949996948242 243.550003051758 245.1875 247.668746948242 249.431243896484 251.487503051758 253.1875 256.649993896484 261.993743896484 267.4375 276.100006103516 283.212493896484 288.481262207031 292.524993896484 296.34375 300.212493896484 304.387512207031 307.418762207031 307.34375 305.337493896484 305.487487792969 304.09375 300.956237792969 296.931243896484 292.774993896484 289.462493896484 285.46875 281.649993896484 277.112487792969 272.84375 268.143737792969 260.231262207031 252.881256103516 247.100006103516 243.925003051758 
234.675003051758 242.399993896484 252.65625 260.356262207031 267.887512207031 269.875 270.09375 270.818756103516 273.125 272.706237792969 268.100006103516 262.200012207031 256.875 252.762496948242 249.962493896484 249.46875 249.324996948242 249.762496948242 250.40625 252.318756103516 254.818756103516 256.5 256.831237792969 261.3125 266.575012207031 270.862487792969 280.375 286.350006103516 291.618743896484 296.950012207031 300.40625 303.818756103516 304.662506103516 306.331237792969 305.693756103516 305.462493896484 304.612518310547 302.912506103516 301.350006103516 295.899993896484 291.443756103516 288.912506103516 282.887512207031 277.53125 274.350006103516 268.381256103516 264.181243896484 256.606262207031 248.806243896484 244.087493896484 240.581253051758 
242.212493896484 246.231246948242 249.831253051758 257.643737792969 267.762512207031 271.4375 272.731262207031 276.9375 283.34375 287.137512207031 280.137512207031 269.431243896484 263.431243896484 259.368743896484 256.143737792969 255.03125 253.881256103516 253.818756103516 253.518753051758 254.3125 257.34375 258.237487792969 258.868743896484 264.881256103516 268.21875 272.662506103516 280.381256103516 289.625 297.0625 300.231262207031 303.46875 303.612487792969 303.350006103516 304.6875 304.4375 303.706237792969 301.674987792969 300.225006103516 299.087493896484 294.081237792969 290.674987792969 284.787506103516 279.274993896484 275.206237792969 270.956237792969 265 258.506256103516 251.662506103516 244.53125 239.643753051758 237.150009155273 
244.068756103516 249.59375 253.625 255.90625 265.043762207031 270.3125 272.306243896484 277.075012207031 283.793762207031 290.125 280.90625 271.193756103516 266.299987792969 262.868743896484 259.137512207031 258.181243896484 255.206253051758 254.018753051758 254.568756103516 255.237503051758 256.762512207031 257.556243896484 260.450012207031 265.049987792969 269.481262207031 274.799987792969 281.931243896484 290.325012207031 297.231262207031 299.712493896484 302.174987792969 304.3125 301.399993896484 301.818756103516 302.918762207031 301.487487792969 301.481262207031 300.34375 298.84375 295.793762207031 289.368743896484 283.331237792969 278.618743896484 275.09375 272.231262207031 265.549987792969 257.981262207031 250.418746948242 243.318756103516 236.987503051758 232.4375 
247.112503051758 252.612503051758 256.78125 258.268737792969 260.375 262.043762207031 264.100006103516 267.787506103516 270.575012207031 271.787506103516 270.462493896484 267.78125 267.393737792969 264.574981689453 261.762512207031 261.424987792969 258.59375 254 252.006256103516 252.96875 255.625 257.893737792969 260.71875 263.637512207031 268.831237792969 274.899993896484 282.65625 289.137512207031 295.287506103516 298.024993896484 301.03125 302.193756103516 300.399993896484 298.21875 298.456237792969 297.512512207031 296.337493896484 296.375 297.243743896484 293.831237792969 284.84375 279.643737792969 275.725006103516 272.424987792969 271.368743896484 263.78125 256.5625 247.574996948242 239.3125 234.081253051758 229.612503051758 
250.881256103516 254.600006103516 257.018737792969 259.975006103516 262.287506103516 261.568756103516 257.487487792969 253.0625 249.581253051758 250.625 257.287506103516 262.700012207031 265.875 266.28125 265.043762207031 263.46875 260.075012207031 254.481246948242 249.462493896484 249.925003051758 254.162506103516 257.649993896484 259.893737792969 263.181243896484 269.612487792969 273.71875 280.743743896484 287.28125 293.631256103516 296.887512207031 297.568756103516 298.493743896484 296.518737792969 294.368743896484 293.274993896484 289.899993896484 289.181243896484 288.418762207031 287.462493896484 283.149993896484 276.643737792969 273.206237792969 269.325012207031 265.28125 263.181243896484 256.956237792969 248.393753051758 239.712493896484 233.774993896484 228.137496948242 223.75 
254.043746948242 257.899993896484 259.6875 260.90625 262.587493896484 260.231262207031 256.712493896484 250.831253051758 242.262496948242 239.268753051758 249.225006103516 258.137512207031 267.368743896484 269.387512207031 266.725006103516 264.612487792969 261.487487792969 256.8125 253.34375 251.856246948242 251.649993896484 256.756256103516 258.84375 264.181243896484 269.787506103516 272.15625 277.924987792969 284.75 290.793762207031 293.71875 295.931243896484 294.731262207031 291.287506103516 286.931243896484 285.693756103516 283.1875 282.825012207031 280.450012207031 279.3125 274.881256103516 269.293762207031 265.018737792969 262.424987792969 259.831237792969 255.012496948242 248.875 243.024993896484 234.193756103516 226.550003051758 221.600006103516 219.4375 
256.943756103516 259.131256103516 261.149993896484 262.356262207031 262.756256103516 261 258.568756103516 253.481246948242 249.84375 250.512496948242 257.068756103516 262.899993896484 270.237487792969 272.6875 270.393737792969 266.100006103516 262.131256103516 258.631256103516 255.443756103516 255.9375 255.456253051758 257.100006103516 258.450012207031 264.850006103516 267.412506103516 268.049987792969 273.112487792969 279.325012207031 286.168762207031 291.125 290.787506103516 288.149993896484 283.90625 279.693756103516 277.462493896484 276.125 273.768737792969 271.581237792969 269.893737792969 267.412506103516 263.856262207031 260.056243896484 256.5 250.75 247.837493896484 245.681243896484 239.193740844727 229.449996948242 220.962493896484 215.806243896484 211.793746948242 
259.981262207031 262.631256103516 263.731262207031 264.162506103516 262.918762207031 261.981262207031 260.75 257.587493896484 257.712493896484 260.4375 266.71875 273.625 275.818756103516 277.350006103516 272.174987792969 266.024993896484 261.587493896484 259.118743896484 257.600006103516 257.587493896484 260.4375 260.793762207031 259.368743896484 257.825012207031 263.087493896484 263.943756103516 266.800018310547 271.993743896484 277.256256103516 281.875 281.643737792969 278.975006103516 275.1875 270.96875 268.462493896484 264.90625 262.443756103516 260.837493896484 260.043762207031 258.25 254.824996948242 251.15625 249.487503051758 245.774993896484 242.112503051758 239.449996948242 233.293746948242 221.793746948242 214.925003051758 210.90625 204.568756103516 
261.674987792969 263.362487792969 263.987487792969 266.924987792969 266.956237792969 264.962493896484 265.65625 265.631256103516 268.037506103516 271.850006103516 278.09375 284.0625 281.056243896484 278.40625 272.337493896484 266.40625 261.25 258.881256103516 258.018737792969 258.71875 260.793762207031 260.931243896484 259.78125 260.518737792969 259.387512207031 256.118743896484 258.287506103516 261.9375 267 269.518737792969 269.825012207031 268.424987792969 264.056243896484 260.518737792969 258.125 255.918746948242 255.03125 254.431243896484 251.737503051758 248.243743896484 245.831253051758 243.425003051758 241.225006103516 235.381240844727 231.5625 225.143753051758 215.824996948242 209.762496948242 206.212493896484 204.625 197.46875 
264.09375 265.137512207031 265.943756103516 267.806243896484 269.231262207031 270.762512207031 270.674987792969 270.712493896484 273.331237792969 279.556243896484 285.618743896484 289.6875 285.625 275.174987792969 268.556243896484 264.450012207031 258.524993896484 256.168762207031 256.399993896484 255.90625 257.774993896484 256.40625 252.762496948242 252.731246948242 246.012496948242 241.34375 245.96875 249.53125 255.412490844727 257.25 257.71875 256.375 252.206253051758 249.100006103516 246.268753051758 246.300003051758 246.5625 246.649993896484 245.100006103516 241.887496948242 235.850006103516 235.181243896484 231.40625 226.381256103516 225.25 221.59375 213.625 203.118743896484 197.631256103516 198.637496948242 197.181243896484 
265.356262207031 266.006256103516 265.850006103516 267.212493896484 270.34375 272.056243896484 272.243743896484 273.393737792969 277.625 282.818756103516 286.131256103516 284.818756103516 280.387512207031 271.868743896484 262.631256103516 259.462493896484 253.731246948242 249.899993896484 250.418746948242 248.693756103516 249.21875 246.193756103516 243.162506103516 239.287506103516 234.524993896484 231.15625 234.443756103516 238.481246948242 243.112503051758 245.456253051758 245.943756103516 245.618743896484 240.150009155273 237.212493896484 235.793746948242 237.318756103516 238.481246948242 240.618743896484 240.875 236.850006103516 228.443756103516 223.481246948242 223.768753051758 225.006256103516 226.137496948242 220.393753051758 213.743743896484 206.893753051758 200.175003051758 201.668746948242 202.893753051758 
264.143737792969 265.168762207031 265.768737792969 267.693756103516 271.475006103516 273.212493896484 274.737487792969 276 278.362487792969 281.3125 283.28125 280.731262207031 274.556243896484 266.1875 256.212493896484 250.181243896484 245.824996948242 245.050003051758 244.893753051758 243.399993896484 241.9375 240.037506103516 235.387496948242 231.462493896484 227.306243896484 225.356246948242 227.824996948242 232.087493896484 236.71875 238.087493896484 236.987503051758 234.231246948242 231.449996948242 227.587493896484 225.375 226.918746948242 232.881256103516 239.03125 240.893753051758 236.887496948242 230.518753051758 227.556243896484 229.537506103516 227.024993896484 225.293746948242 221.824996948242 217.9375 212.043746948242 208.28125 204.712493896484 202.856246948242 
261.149993896484 262.200012207031 264.737518310547 268.09375 271.537506103516 273.556243896484 275.09375 276.799987792969 280.181243896484 281.493743896484 281.799987792969 277.631256103516 270.96875 261.118743896484 249.681243896484 238.65625 237.643753051758 240.162506103516 239.175003051758 238.21875 236.568756103516 233.03125 227.84375 224.512496948242 220.600006103516 219.800003051758 221.387496948242 226.043746948242 230.4375 232.481246948242 233.318756103516 230.375 222.762496948242 217.556243896484 213.612503051758 220.762496948242 227.675003051758 235.5 240.375 242.387496948242 239.875 237.256256103516 234.100006103516 228.293746948242 224.362503051758 220.043746948242 215.699996948242 210.78125 206.800003051758 202.949996948242 198.875 
256.799987792969 259.256256103516 263.193756103516 267.462493896484 270.918762207031 273.125 276.481262207031 278.362487792969 279.712493896484 280.893737792969 279.881256103516 275.012512207031 266.918762207031 257.049987792969 247.518753051758 239.0625 232.306243896484 232.956253051758 234.193756103516 234.3125 232.262496948242 229.231246948242 223.856246948242 218.225006103516 214.793746948242 213.387496948242 215.800003051758 220.162506103516 225.46875 228.793746948242 229.506256103516 227.168746948242 220.362503051758 214.662506103516 215.193756103516 219.731246948242 227.875 237.5 248.050003051758 250.737503051758 250.693756103516 245.618743896484 236.987503051758 229.168746948242 223.431243896484 218.8125 214.731246948242 211.131256103516 207.818756103516 201.162506103516 196.3125 
250.274993896484 255.03125 259.237487792969 265.649993896484 269.625 272.831237792969 276.8125 277.575012207031 278.418762207031 278.081237792969 275.806243896484 270.506256103516 262.549987792969 254.456253051758 246.018753051758 239.087493896484 232.081253051758 225.518753051758 229.399993896484 230.306243896484 229.893753051758 226.143753051758 220.875 215.625 213.09375 212.09375 212.456253051758 218.731246948242 224.949996948242 227.681243896484 225.449996948242 217.712493896484 216.137496948242 214.34375 213.612503051758 221.056243896484 229.287506103516 238.050003051758 246.518753051758 253.118743896484 251.09375 245.550003051758 237.899993896484 230.112503051758 224.5625 219.356246948242 215.050003051758 211.225006103516 207.462493896484 199.350006103516 196.643753051758 
242.631256103516 249.231246948242 255.574996948242 261.487487792969 266.575012207031 271.03125 274.325012207031 277.225006103516 278.25 277.225006103516 273.200012207031 264.9375 257.806243896484 252 242 235.34375 229.487503051758 224.231246948242 222.324996948242 223.475006103516 227.225006103516 225.75 214.337493896484 212.762496948242 212.706253051758 214.225006103516 217.175003051758 221.78125 228.350006103516 230.018753051758 227.881256103516 221.393753051758 215.987503051758 208.206253051758 206.706253051758 214.681243896484 224.074996948242 232.487503051758 242.59375 247.287506103516 249.181243896484 245.043746948242 237.9375 231.168746948242 225.71875 219.574996948242 215.40625 211.337493896484 207.699996948242 196.300003051758 197.681243896484 
234.824996948242 243.337509155273 249.78125 255.012496948242 262.4375 269.487487792969 274.700012207031 276.112487792969 276.981262207031 275.78125 270.568756103516 263.825012207031 256.643737792969 249.737503051758 238.850006103516 227.949996948242 220.225006103516 220.40625 218.262496948242 218.918746948242 219.0625 215.949996948242 213.131256103516 212.537506103516 213.206253051758 214.762496948242 219.243743896484 226.293746948242 230.756256103516 230.143753051758 225.831253051758 224.449996948242 215.506256103516 203.475006103516 197.074996948242 204.962493896484 218.868743896484 231.206253051758 239.793746948242 245.125 246.068756103516 243 237.649993896484 231.856246948242 224.474990844727 217.862503051758 214.65625 210.175003051758 205.987503051758 195.612503051758 198.231246948242 
226.393753051758 237.762496948242 246.100006103516 253.46875 259.25 267.606262207031 274.912506103516 277.637512207031 277.700012207031 274.075012207031 267.71875 258.212493896484 248.943756103516 241.318756103516 230.800003051758 222.012496948242 215.262496948242 212.643753051758 212.3125 211.362503051758 213.350006103516 213.59375 212.543746948242 214.475006103516 219.481246948242 224.212493896484 228.475006103516 232.34375 234.5 236.068756103516 234.018753051758 231.381240844727 219.168746948242 204.768753051758 193.0625 203.75 220.806243896484 234.087493896484 241.887496948242 244.918746948242 244.137496948242 242 235.5625 230.606246948242 223.487503051758 218.09375 213.818756103516 209.762496948242 201.743743896484 196.550003051758 197.206253051758 
220.056259155273 229.15625 238.40625 250.21875 259.1875 265.962493896484 273.493743896484 278.65625 279.068756103516 272.962493896484 262.325012207031 248.068756103516 236.743743896484 229.306243896484 223.762496948242 217.143753051758 213.518753051758 210.237503051758 209.162506103516 207.475006103516 205.662506103516 205.737503051758 207.581253051758 210.975006103516 217.050003051758 226.425003051758 241 244.78125 246.137496948242 247.418746948242 244.6875 240.100006103516 229.699996948242 219.774993896484 214.581253051758 219.25 231.550003051758 242.350006103516 246.862503051758 247.543746948242 246.149993896484 242.59375 236.106246948242 230.25 222.4375 216.706253051758 213.024993896484 208.881256103516 201.125 200.506256103516 197.775009155273 
214.78125 228.5 239.018753051758 250.375 259.799987792969 266.625 271.712493896484 278.71875 284.256256103516 273.049987792969 256.568756103516 238.512496948242 225.231246948242 219.574996948242 217.225006103516 214.59375 210.774993896484 206.662506103516 203.837493896484 200.631256103516 199.431243896484 198.943756103516 198.725006103516 203.324996948242 212.681243896484 224.912506103516 241.53125 248.818756103516 252.131256103516 253.081253051758 252.956253051758 251.225006103516 246.53125 240.987503051758 239.043746948242 239.956253051758 246.425003051758 253.287506103516 254.506256103516 251.318756103516 247.556243896484 241.962493896484 235.318756103516 228.943756103516 221.25 214.887496948242 210.706253051758 206.40625 202.106246948242 203.199996948242 200.693756103516 
211.6875 225.318756103516 237.712493896484 247.600006103516 256.606262207031 263.293762207031 270.462493896484 275.5625 278.65625 266.65625 249.837493896484 234.287506103516 217.5625 215.168746948242 214.393753051758 211.712493896484 207.412506103516 204.5625 200.418746948242 197.131256103516 194.543746948242 191.681243896484 190.568756103516 196.643753051758 205.774993896484 214.78125 228.90625 242.543746948242 251.3125 258.362487792969 263.375 267.981262207031 266.5 262.21875 260.887512207031 260.293762207031 263.399993896484 264.28125 260.737487792969 254.131256103516 248.53125 241.362503051758 234.0625 226.662506103516 220 213.787506103516 207.793746948242 200.84375 204.212493896484 204.306243896484 203.362503051758 
211.393753051758 224.662506103516 235.90625 246.912506103516 257.024993896484 262.09375 266.506256103516 269.53125 267.706237792969 260.618743896484 247.074996948242 232.774993896484 223.4375 217.074996948242 213.543746948242 210.056243896484 207.175003051758 203.6875 199.193756103516 193.912506103516 189.637496948242 185.506256103516 183.668746948242 188.068756103516 195.731246948242 208.306243896484 224.050003051758 238.762496948242 252.274993896484 266.549987792969 277.674987792969 287.4375 288.274993896484 284.1875 280.28125 275.15625 273.96875 269.625 264.006256103516 257.324981689453 249.931243896484 241.350006103516 234.318756103516 225.606246948242 214.350006103516 207.606246948242 200.600006103516 202.71875 203.925003051758 205.806243896484 205.381256103516 
218.274993896484 229.606246948242 236.125 245.887496948242 253.84375 257.975006103516 260.943756103516 261.899993896484 257.225006103516 250.050003051758 242.118743896484 234.34375 227.199996948242 222.362503051758 216.324996948242 213.074996948242 209.068756103516 204.725006103516 198.681243896484 191.274993896484 187.287506103516 181.106246948242 176.649993896484 177.324996948242 187.600006103516 202.75 222.5625 238.918746948242 256.90625 273.193756103516 291.043731689453 307.043762207031 310.112487792969 302.862487792969 294.350006103516 286.75 281.524993896484 275.087493896484 267.21875 259.462493896484 251.774993896484 241.78125 232.868743896484 222.631256103516 212.65625 202.693756103516 206.53125 207.918746948242 206.850006103516 208.668746948242 206.59375 
226.087493896484 233.456253051758 239.774993896484 246.268753051758 250.712493896484 254.475006103516 255.287506103516 253.762496948242 249.637496948242 247.300003051758 243.34375 237.262496948242 232.324996948242 228.581253051758 222.931259155273 218.474990844727 213.637496948242 207.606246948242 201.881256103516 195.0625 188.181243896484 180.5 173.293746948242 173.181243896484 185.78125 200.393753051758 221.306243896484 239.425003051758 259.450012207031 277.893737792969 299.262512207031 319.018737792969 325.225006103516 315.268737792969 304.375 294.674987792969 287.668762207031 280.162506103516 270.512512207031 262.075012207031 252.618743896484 243.21875 233.425003051758 224.131256103516 218.71875 216.800003051758 218.443756103516 216.71875 214.568756103516 210.043746948242 206.649993896484 
235.96875 240.137496948242 243.524993896484 246.768753051758 249.868743896484 250.856246948242 251.418746948242 248.081253051758 246.324996948242 245.274993896484 241.15625 238.618743896484 235.71875 234.212493896484 229.175003051758 223.237503051758 218.706253051758 214.512496948242 207.193756103516 200.899993896484 194.1875 185.481246948242 181.493743896484 182.03125 190.96875 204.387496948242 222.53125 241.350006103516 260.78125 279.993743896484 299.381256103516 317.125 321.700012207031 315.387512207031 308.149993896484 298.356262207031 292.03125 284.868743896484 275.118743896484 265.643737792969 256.325012207031 246.6875 236.800003051758 228.975006103516 230.143753051758 230.612503051758 230.818756103516 226.118759155273 220.637496948242 212.100006103516 208.53125 
244.037506103516 246.475006103516 246.581253051758 247.675003051758 247.762496948242 245.862503051758 244.78125 244.262496948242 245.0625 243.40625 242.024993896484 240.925003051758 239.106246948242 238.887496948242 236 232.6875 228.65625 221.725006103516 215.774993896484 208.631256103516 202.206253051758 193.912506103516 190.212493896484 192.581253051758 199.199996948242 210.681243896484 227.537506103516 244.850006103516 262.918762207031 280.3125 295.506256103516 309.78125 311.424987792969 309.881256103516 306.03125 299.225006103516 294.637512207031 289.012512207031 280.043762207031 269.21875 257.475006103516 248.050003051758 239.737503051758 239.037506103516 241.59375 240.056243896484 239.793746948242 233.762496948242 225.274993896484 217.487503051758 209.550003051758 
251.543746948242 251.800003051758 250.143753051758 246.756256103516 245.800003051758 244.487503051758 243.399993896484 243.324996948242 243.506240844727 242.487503051758 242.8125 242.912506103516 244.824996948242 245.962493896484 243.756256103516 240.512496948242 237.074996948242 233.225006103516 226.375 217.53125 209.487503051758 203.637496948242 201.106246948242 202.268753051758 206.887496948242 216.425003051758 232.149993896484 246.731246948242 262.9375 277.243743896484 289.993743896484 299.943756103516 302.25 303.587493896484 303.068756103516 298.818756103516 296.924987792969 293.356262207031 284.081237792969 276.462493896484 268.362487792969 260.862487792969 253.037506103516 252.837493896484 251.28125 251.949996948242 248.762496948242 243.024993896484 234.475006103516 225.662506103516 215.012496948242 
256.793762207031 254.46875 251.037506103516 247.356246948242 245.875 243.475006103516 242.725006103516 240.96875 241.318756103516 242.25 243.693756103516 245.725006103516 250.318756103516 251.137496948242 250.65625 248.881256103516 247.774993896484 244.300003051758 238.481246948242 230.324996948242 221.6875 214.300003051758 210.324996948242 209.524993896484 212.006256103516 223.043746948242 234.918746948242 248.868743896484 262.662506103516 273.043762207031 283.825012207031 292.125 296.256256103516 298.637512207031 298.924987792969 297.53125 295.181243896484 293.731262207031 289.15625 283.40625 277.243743896484 270.424987792969 265.143737792969 262.09375 261.674987792969 260.787506103516 257.299987792969 251.1875 242.824996948242 232.006256103516 221.274993896484 
259.743743896484 255.618743896484 251.449996948242 249.024993896484 246.206253051758 241.837493896484 240.543746948242 238.081253051758 238.618743896484 239.71875 242.71875 248.543746948242 252.662506103516 255.931259155273 256.318756103516 256.3125 253.956253051758 251.324996948242 245.475006103516 240.574996948242 232.46875 224.756256103516 218.831253051758 217.956253051758 222.149993896484 229.268753051758 238.431243896484 251.043746948242 261.693756103516 270.887512207031 280.325012207031 287.356262207031 289.662506103516 292.549987792969 294.337493896484 294.09375 294.40625 292.581237792969 289.15625 284.912506103516 284.037506103516 279.793762207031 275.0625 272.649993896484 272.881256103516 274.037506103516 271.206237792969 263.200012207031 252.331253051758 240.46875 228.206253051758 
261.368743896484 255.28125 251.581253051758 248.3125 246.381256103516 241.918746948242 238.237503051758 236.581253051758 236.3125 238.712493896484 244.96875 250.050003051758 256.862487792969 262.493743896484 263.337493896484 263.068756103516 262.612487792969 260.512512207031 253.981246948242 248.074996948242 242.100006103516 234.806243896484 228.3125 227.449996948242 231.175003051758 234.475006103516 242.975006103516 252.081253051758 261.206237792969 269.825012207031 276.399993896484 281.131256103516 283.137512207031 286.662506103516 289.306243896484 291.112487792969 291.743743896484 291.631256103516 287.668762207031 289.9375 288.9375 285.681243896484 283.581237792969 283.493743896484 284.924987792969 288.725006103516 285.981262207031 274.493743896484 262.931243896484 250.34375 237.399993896484 
261.137512207031 255.887496948242 252.606246948242 248.893753051758 245.675003051758 242.606246948242 239.006256103516 235.350006103516 234.487503051758 236.668746948242 241.537506103516 250.675003051758 259.912506103516 264.850006103516 267.606262207031 267.649993896484 268.587493896484 266.575012207031 261.168762207031 255.518753051758 249.768753051758 243.324996948242 237.46875 234.118743896484 237.475006103516 239.431243896484 244.887496948242 252.024993896484 259.887512207031 265.518737792969 270.674987792969 275.825012207031 277.993743896484 281.25 284.543762207031 286.225006103516 288 285.931243896484 288.012512207031 290.618743896484 289.862487792969 289.600006103516 290.043762207031 291.962493896484 295.262512207031 297.975006103516 294.3125 282.59375 271.59375 259.793762207031 247.487503051758 
259.018737792969 255.53125 253.443756103516 248.5 244.518753051758 240.5 236.212493896484 233.137496948242 230.40625 230.75 238.081253051758 250.75 263.612487792969 272.793762207031 274.943756103516 275.59375 274.993743896484 270.731262207031 267.668762207031 260.731262207031 256.875 249.524993896484 244.143753051758 239.175003051758 240.431243896484 243.287506103516 247.625 251.818756103516 258.237487792969 263.756256103516 267.018737792969 271.393737792969 272.331237792969 276.181243896484 278.5625 279.612487792969 279.649993896484 284.725006103516 287.450012207031 289.387512207031 289.331237792969 290.831237792969 293.368743896484 295.962493896484 297.387512207031 297.418762207031 294.09375 286.418762207031 278.225006103516 267.174987792969 254.024993896484 
258.393737792969 256.625 253.918746948242 249.331253051758 244.568756103516 239.15625 235.012496948242 230.506256103516 225.375 224.274993896484 230.65625 246.362503051758 263.806243896484 274.475006103516 277.643737792969 278.831237792969 279.006256103516 275.618743896484 272.46875 268.5 263.087493896484 257.024993896484 248.475006103516 244.425003051758 243.40625 245.024993896484 248.9375 253.087493896484 258.075012207031 261.4375 264.087493896484 266.424987792969 267.25 271.40625 272.412506103516 270.825012207031 275.618743896484 280.450012207031 281.899993896484 284.443756103516 286.84375 288.28125 290.149993896484 293.481262207031 293.662506103516 293.056243896484 291.28125 287.318756103516 279.193756103516 270.925018310547 260.049987792969 
258.28125 258 254.59375 250.618743896484 245.46875 240.074996948242 235.824996948242 228.662506103516 220.387496948242 215.612503051758 224.6875 246.699996948242 262.393737792969 271.193756103516 277.287506103516 279.887512207031 278.837493896484 276.8125 274.975006103516 269.71875 265.212493896484 258.825012207031 250.768753051758 247.118743896484 244.725006103516 245.40625 249.537506103516 253.574996948242 256.987487792969 258.774993896484 261.649993896484 264.162506103516 264.84375 266.350006103516 266.5 267.225006103516 271.675018310547 277.012512207031 280.318756103516 280.25 282.549987792969 283.850006103516 287.118743896484 289.96875 291.606262207031 289.924987792969 290.993743896484 287.443756103516 281.587493896484 274.787506103516 267.418762207031 
261.118743896484 259.168762207031 254.881256103516 251.6875 246.75 242.050003051758 236.681243896484 228.681243896484 221.65625 215.012496948242 230.125 251.631256103516 263.568756103516 270.9375 276.262512207031 279.487487792969 277.9375 277.149993896484 272.981262207031 267.1875 262.899993896484 256.424987792969 251.068756103516 247.368743896484 244.543746948242 246.068756103516 247.449996948242 252.412506103516 256.037506103516 257.981262207031 258.231262207031 260.418762207031 262.5625 262.818756103516 260.600006103516 264.868743896484 268.84375 271.850006103516 276.850006103516 277.643737792969 277.78125 279.887512207031 280.850006103516 282.318756103516 285.40625 286.481262207031 286.5625 288.725006103516 283.90625 278.049987792969 271.78125 
263.987487792969 259.274993896484 255.306243896484 252.774993896484 249.449996948242 243.481246948242 238.831253051758 233.649993896484 232.537506103516 238.006256103516 253.506256103516 262.8125 266.40625 271.850006103516 276.125 276.918762207031 275.774993896484 273.868743896484 267.475006103516 263.3125 258.356262207031 251.949996948242 247.306243896484 245.556243896484 243.981246948242 243.21875 245.131256103516 249.199996948242 252.206253051758 255.556243896484 256.96875 256.556243896484 258.300018310547 260.112518310547 263.037506103516 264.256256103516 265.706237792969 269.256256103516 271.131256103516 269.71875 270.318756103516 272.65625 272.337493896484 274.600006103516 276.793762207031 279.274993896484 279.34375 280.237487792969 278.168762207031 276.137512207031 270.256256103516 
266.0625 261.681243896484 258.149993896484 255.925003051758 252.868759155273 248.662506103516 243.006256103516 242.362503051758 244.362503051758 249.824996948242 258.362487792969 266.350006103516 269.262512207031 272.825012207031 275.5 275.081237792969 273.450012207031 270.887512207031 263.681243896484 257.825012207031 251.96875 248.262496948242 241.625 239.693756103516 241.068756103516 241.25 243.237503051758 246.899993896484 249.731246948242 252.668746948242 252.449996948242 256.762512207031 260.887512207031 262.631256103516 265.412506103516 265.756256103516 265.712493896484 267.762512207031 267.375 263.387512207031 262.34375 263.981262207031 262.200012207031 263.40625 266.700012207031 269.462493896484 272.3125 274.431243896484 274.962493896484 274.837493896484 270.21875 
267.762512207031 265.162506103516 262.0625 259.662506103516 255.774993896484 251.487503051758 248.581253051758 251.306243896484 252.881256103516 255 261.225006103516 266.9375 271.299987792969 272.287506103516 274.149993896484 273.274993896484 270.674987792969 267.350006103516 259.943756103516 252.581253051758 245.356246948242 241.943756103516 236.162506103516 233.943756103516 237.8125 239.168746948242 240.568756103516 244.268753051758 247.793746948242 249.606246948242 252.306243896484 260.393737792969 262.75 266.049987792969 269.231262207031 270.756256103516 270.59375 269.543762207031 267.793762207031 259.8125 256.793762207031 255.350006103516 253.524993896484 253.925003051758 259.024993896484 263.612487792969 265.618743896484 268.5625 272.631256103516 272.34375 269.931243896484 
272.799987792969 270.600006103516 268.537506103516 264.90625 260.725006103516 257.731262207031 256.09375 256.15625 258.837493896484 259.456237792969 264.568756103516 268.056243896484 271.875 272.681243896484 273.237487792969 272.149993896484 269.34375 264.887512207031 257.6875 248.106246948242 238.774993896484 232.043746948242 227.09375 227.068756103516 230.90625 233.925003051758 235.868743896484 241.475006103516 247.15625 252.318756103516 251.475006103516 260.674987792969 265.381256103516 271.206237792969 274.924987792969 272.799987792969 273.043762207031 271.524993896484 266.387512207031 257.631256103516 252.368743896484 246.84375 243.943756103516 247.900009155273 254.449996948242 259.674987792969 262.431243896484 265 269.262512207031 269.387512207031 269.081237792969 
278.143737792969 275.40625 273.806243896484 268.15625 265.274993896484 263.456237792969 262.081237792969 262.09375 262.431243896484 262.399993896484 265.418762207031 268.137512207031 271.293762207031 270.475006103516 271.693756103516 270.549987792969 268.787506103516 265.743743896484 257.081237792969 244.824996948242 230.899993896484 220.21875 217.399993896484 221.649993896484 226.574996948242 230.568756103516 233.818756103516 237.837493896484 244.256256103516 249.100006103516 252.987503051758 258.174987792969 265.262512207031 272.53125 278.212493896484 280.818756103516 276.075012207031 273.850006103516 265.481262207031 257.100006103516 252.399993896484 246.5625 242.149993896484 245.481246948242 252.074996948242 255.193756103516 256.456237792969 262.637512207031 268.825012207031 267.75 268.037506103516 
284.28125 281.475006103516 279.631256103516 272.887512207031 271.918762207031 268.350006103516 265.918762207031 265.549987792969 265.706237792969 265.549987792969 267.600006103516 269.493743896484 270.3125 270.25 270.337493896484 269.825012207031 267.6875 263.506256103516 258.46875 245.643753051758 229.462493896484 215.918746948242 214.1875 218.625 223.9375 228.024993896484 231.043746948242 234.712493896484 240.081253051758 246.65625 249.768753051758 255.543746948242 261.875 270.15625 282.506256103516 290.293762207031 283.024993896484 275.081237792969 266.868743896484 259.181243896484 252.837493896484 246.831253051758 245.125 246.28125 251.162506103516 253.224990844727 256.737487792969 260.975006103516 262.975006103516 265.850006103516 267.087493896484 
288.268737792969 285.787506103516 283.65625 277.831237792969 276.549987792969 273.1875 268.03125 268.393737792969 268.106262207031 268.068756103516 267.78125 268.75 269.393737792969 269.575012207031 267.356262207031 265.443756103516 262.75 259.043762207031 254.831253051758 245.256256103516 231.699996948242 220.59375 216.706253051758 219 223.3125 227.0625 230.25 233.5625 239.637496948242 244.762496948242 250.59375 254.012496948242 259.112487792969 265.943756103516 277.84375 288.337493896484 282.649993896484 273.637512207031 267.65625 260.543762207031 255.043746948242 251.4375 247.925003051758 247.306243896484 251.443756103516 253.431243896484 255.012496948242 259.262512207031 259.581237792969 262.6875 265.537506103516 
