ncols        51
nrows        45
xllcorner    -63.500000000000
yllcorner    -7.500000000000
cellsize     0.166666666667
NODATA_value -99
194.762496948242 198.09375 199.693756103516 206.243743896484 213.881256103516 222.050003051758 223.837493896484 227.96875 230.84375 230.918746948242 224.1875 220.243743896484 218.962493896484 213.381256103516 208.824996948242 199.943756103516 194.25 187.8125 181.243743896484 179.53125 176.662506103516 171.568756103516 166.837493896484 162.074996948242 155.862503051758 150.112503051758 147.706253051758 147.106246948242 140.268753051758 140.362503051758 136.012496948242 136.40625 137.762496948242 136.337493896484 137.018753051758 141.556243896484 144.899993896484 150.362503051758 158.337493896484 165.28125 173.40625 184.331253051758 191.481246948242 197.975006103516 206.068756103516 210.625 214.706253051758 215.931243896484 219.5 216.506256103516 218.731246948242 
185.456253051758 187.493743896484 194.09375 202.112503051758 212.199996948242 218.731246948242 217.412506103516 220.550003051758 224.300003051758 224.456253051758 220.181243896484 218.131256103516 212.425003051758 204.912506103516 198.800003051758 194.15625 186.399993896484 179.668746948242 174.175003051758 170.956253051758 167.600006103516 162.456253051758 157.96875 154.899993896484 148.856246948242 142.293746948242 142.518753051758 140.4375 134.46875 132.975006103516 132.1875 131.643753051758 133.087493896484 134.931243896484 135.618743896484 139.581253051758 141.131256103516 149.256256103516 155.412506103516 161.9375 173.487503051758 181.712493896484 191.46875 199.850006103516 207.962493896484 210.818756103516 215.274993896484 214.675003051758 216.543746948242 216.324996948242 219.100006103516 
169.574996948242 174.324996948242 182.543746948242 192.899993896484 203.074996948242 208.762496948242 210.75 213.25 214.368743896484 213.731246948242 212.824996948242 210.631256103516 204.475006103516 194.899993896484 188.25 182.793746948242 176.806243896484 170.1875 164.725006103516 159.306243896484 157.856246948242 155.96875 152.231246948242 150.475006103516 143.324996948242 138.675003051758 140 135.90625 130.225006103516 129.931243896484 127.637496948242 127.387496948242 130.056243896484 133.987503051758 134.462493896484 136.337493896484 141.231246948242 149.731246948242 155.556243896484 165.043746948242 179.231246948242 188.993743896484 201.356246948242 208.537506103516 216.5 218.118743896484 218.899993896484 223.056243896484 221.556243896484 220.875 221.931243896484 
154.800003051758 157.262496948242 167.768753051758 179.131256103516 187.518753051758 192.887496948242 197.306243896484 201.118743896484 205.931243896484 205.606246948242 202.268753051758 197.787506103516 192.893753051758 184.106246948242 177.487503051758 171.425003051758 166.612503051758 161.237503051758 156.399993896484 155.425003051758 153.149993896484 149.6875 145.931243896484 144.731246948242 139.243743896484 134.59375 134.681243896484 128.149993896484 123.65625 123.962501525879 122.831253051758 121.40625 122.9375 125.787498474121 128.368743896484 133.743743896484 143.149993896484 150.9375 155.75 168.606246948242 181.5625 195.925003051758 208.225006103516 219.449996948242 226.668746948242 227.5 227.043746948242 228.074996948242 225.962493896484 225.949996948242 220.393753051758 
155.193756103516 153.21875 153.818756103516 161.481246948242 172.337493896484 177.306243896484 181.037506103516 189.306243896484 196.756256103516 197.006256103516 192.0625 186.475006103516 181.431243896484 174.756256103516 167.606246948242 162.362503051758 156.518753051758 150.693756103516 146.387496948242 146.725006103516 148.0625 142.987503051758 140.425003051758 141.381256103516 134.662506103516 129.431243896484 126.362495422363 123.84375 119.525001525879 117.112503051758 118.59375 116.537498474121 120.050003051758 124.5 128.068756103516 132.6875 140.518753051758 149.506256103516 155.100006103516 165.850006103516 184.03125 198.393753051758 215.71875 227.693756103516 235.524993896484 236.793746948242 233.28125 228.412506103516 225.3125 223.34375 214.662506103516 
150.862503051758 148.65625 147.199996948242 144.912506103516 153.800003051758 165.4375 171.1875 176.537506103516 184.425003051758 185 178.037506103516 173.137496948242 170.043746948242 165.100006103516 158.574996948242 154.3125 147.699996948242 141.287506103516 139.387496948242 139.931243896484 141.40625 139.681243896484 138.056243896484 133.887496948242 130.3125 126.337501525879 123.131248474121 119.393753051758 116.125 112.724998474121 113.65625 114.387496948242 116.800003051758 122.34375 124.831253051758 132.65625 139.081253051758 145.231246948242 153.225006103516 166.78125 180.550003051758 196.649993896484 214.3125 232 246.774993896484 243.006256103516 229.481246948242 220.487503051758 218.25 213.34375 206.706253051758 
147.425003051758 146.637496948242 145.481246948242 144.100006103516 146.84375 151.25 155.931243896484 160.600006103516 160.493743896484 162.050003051758 160.331253051758 158.5625 158.818756103516 155.5 151.618743896484 147.693756103516 141.737503051758 136.887496948242 133.78125 135.681243896484 136.168746948242 135.943756103516 134.712493896484 131.693756103516 127.525001525879 124.356246948242 120.443748474121 115.618751525879 109.862503051758 109.631248474121 109.287498474121 108.806251525879 113.856246948242 119.625 123.706253051758 130.1875 135.318756103516 142.262496948242 151.512496948242 164.850006103516 177.587493896484 192.868743896484 212.25 233.350006103516 252.287506103516 249.493743896484 228.712493896484 207.318756103516 202.731246948242 200.306243896484 198.78125 
145.068756103516 142.712493896484 144.081253051758 144.300003051758 147.918746948242 151.78125 148.787506103516 140.681243896484 135.887496948242 138.137496948242 144.15625 145.243743896484 146.149993896484 145.206253051758 143.46875 140.15625 136.381256103516 132.324996948242 129.225006103516 129.962493896484 132.368743896484 132.918746948242 130.612503051758 127.168746948242 125.25 120.53125 115.59375 111.224998474121 106.550003051758 103.793746948242 105.512496948242 105.006248474121 108.925003051758 115.962501525879 118.643753051758 124.418746948242 129.793746948242 135.537490844727 142.518753051758 152.643753051758 165.850006103516 181.537506103516 199.206253051758 216.918746948242 228.368743896484 224.387496948242 208.4375 193.518753051758 185.668746948242 183.3125 182.231246948242 
143.606246948242 141.725006103516 143.90625 142.943756103516 144.78125 145.912506103516 144.225006103516 138.393753051758 128.081253051758 124.068748474121 128.600006103516 131.162506103516 136.568756103516 136.699996948242 135.524993896484 133.149993896484 132.475006103516 130.199996948242 130.606246948242 128.618743896484 129.399993896484 130.856246948242 128.1875 128.262496948242 124.931251525879 118.293746948242 111.006248474121 108.168746948242 103.893753051758 101.456253051758 102.987503051758 100.650001525879 102.706253051758 105.893753051758 109.724998474121 117.349998474121 123.743751525879 129.774993896484 134.774993896484 143.256256103516 153.293746948242 163.40625 175.199996948242 187.512496948242 190.668746948242 188.193756103516 177.131240844727 167.40625 160.800003051758 161.087493896484 166.71875 
141.018753051758 139.65625 140.612503051758 141.368743896484 142.78125 143.306243896484 144.087493896484 138.318756103516 130.106246948242 128.112503051758 127.881248474121 125.981254577637 130.181243896484 131.524993896484 129.212493896484 128.1875 126.768753051758 127.775001525879 128.6875 129.125 129.756256103516 128.462493896484 125.412498474121 125.018753051758 120.856246948242 114.206253051758 107.5625 103.637496948242 98.1624984741211 95.7312469482422 94.7125015258789 93.4187545776367 97.8249969482422 102.525001525879 107.425003051758 113.856246948242 118.5 122.925003051758 128.818756103516 135.612503051758 142.481246948242 147.524993896484 153.518753051758 157.768753051758 157.71875 155.225006103516 148.199996948242 137.143753051758 131.412506103516 133.524993896484 134.800003051758 
141.043746948242 139.487503051758 138.587493896484 138.568756103516 140.75 143.612503051758 143.893753051758 136.5 130.118743896484 126.518753051758 127.162498474121 125.568748474121 125.6875 125.34375 121.912498474121 120.012496948242 119.931251525879 122.918746948242 124.625 127.512496948242 132.149993896484 130.793746948242 126.731246948242 121.775001525879 120.175003051758 113.987503051758 107.606246948242 101.493751525879 93.7062530517578 90.0187530517578 90.4000015258789 89.7375030517578 95.6125030517578 100.662498474121 103.625 108.231246948242 112.03125 116.987503051758 120.75 124.731246948242 128.375 131.449996948242 136.506256103516 136.918746948242 132.600006103516 128.71875 119.40625 110.150001525879 105.150001525879 104.756248474121 103.462501525879 
139.550003051758 138.543746948242 137.606246948242 138.506256103516 141.03125 143.743743896484 144.949996948242 139.293746948242 132.212493896484 127.662498474121 126.537498474121 124.40625 121.581253051758 118.243751525879 118.65625 116.737503051758 115.731246948242 116.956253051758 120.443748474121 125.8125 131.175003051758 130.725006103516 127.737503051758 123.693748474121 118.824996948242 107.193748474121 100.5625 95.8187484741211 89.3937530517578 86.7562484741211 85.9000015258789 87.2062530517578 90.5 94.7750015258789 99.2437515258789 105 108.84375 111.724998474121 111.412498474121 111 113.275001525879 115.224998474121 117.03125 111.556251525879 105.25 99.6750030517578 88.40625 81.4875030517578 82.5250015258789 84.84375 79.6750030517578 
136.899993896484 134.418746948242 134.34375 133.818756103516 137.199996948242 138.706253051758 136.962509155273 133.918746948242 127.78125 124.518753051758 123.381248474121 121.724998474121 117.349998474121 111.28125 109.168746948242 108.862503051758 107.356246948242 110.675003051758 113.962501525879 117.443748474121 123.918746948242 124.881248474121 123.056251525879 116.03125 105.662498474121 96.3249969482422 93.5875015258789 90.1687469482422 87.4124984741211 85.5062484741211 83.8562469482422 83.8187484741211 88.4312515258789 89.8499984741211 94.6062469482422 102.081253051758 109.987503051758 111.90625 112.268753051758 106.599998474121 100.112503051758 103.368751525879 102.71875 95.7125015258789 94.09375 89.5 78.4499969482422 70.75 69.3812484741211 72.0749969482422 70.9499969482422 
133.037506103516 129.225006103516 128.256256103516 129.387496948242 131.012496948242 130.96875 129.493743896484 128.412506103516 122.949996948242 120.162498474121 117.650001525879 113.78125 110.387496948242 105.15625 98.3562469482422 99.375 99.3312530517578 102.150001525879 102.40625 104.856246948242 111.150001525879 112.612503051758 111.587501525879 106.956253051758 99.5562515258789 93 90.40625 87.9187469482422 85.5062484741211 84.6937484741211 84.3312530517578 82.5500030517578 86.09375 88.3125 94.8187484741211 105.006248474121 113.650001525879 121.131248474121 122.574996948242 113.662498474121 96.3625030517578 90.6500015258789 94.0124969482422 100.212501525879 101.518753051758 92.0812530517578 83.5875015258789 77.4937515258789 73.6437530517578 75.3249969482422 74.9312515258789 
127.743751525879 125.668746948242 123.768753051758 123.306251525879 125.150001525879 124.837501525879 123.275001525879 120.943748474121 116.087501525879 113.637496948242 109.425003051758 106.762496948242 103.243751525879 97.1812515258789 90.3874969482422 88.1624984741211 88.1374969482422 89.1312484741211 90.3625030517578 93.3562469482422 99.2562484741211 101.981246948242 102.849998474121 102.193748474121 99.25 95.9187469482422 92.3499984741211 88.78125 85.2062530517578 83.8937530517578 82.1812515258789 81.6875 85.1937484741211 89.3000030517578 94.2125015258789 104.96875 117.506248474121 134.175003051758 138.931243896484 126.375 115.15625 108.650001525879 111.449996948242 110.625 105.243751525879 100.125 95.875 92.8499984741211 91.6937484741211 84.1312484741211 79.0749969482422 
120.71875 119.731246948242 119.087501525879 118.699996948242 119.143753051758 119.824996948242 118.618751525879 114.474998474121 110.487503051758 107.425003051758 103.53125 99.3687515258789 94.78125 89.375 83.5562515258789 77.5812530517578 77.0374984741211 78.2062530517578 79.2437515258789 82.6062469482422 87.9437484741211 92.5500030517578 97.1312484741211 100.606246948242 100.787498474121 98.3187484741211 94.9250030517578 89.8125 85.4749984741211 84.4625015258789 83.9250030517578 83.0187530517578 84.9875030517578 88.9124984741211 95.15625 112.775001525879 128.912506103516 145.568756103516 153.274993896484 148.993743896484 142.443756103516 133.793746948242 126.25 117.743751525879 109.768753051758 103.643753051758 100.506248474121 95.6875 95.6062469482422 91.2437515258789 85.1500015258789 
116.449996948242 115.962501525879 114.71875 114.849998474121 113.78125 114.856246948242 114.625 111.824996948242 106.275001525879 103.431251525879 99.7249984741211 93.9499969482422 89.0625 83.5374984741211 77.6875 72.0062484741211 66.5749969482422 66.6999969482422 69.5 73.4437484741211 77.1999969482422 83.75 91.4812469482422 100.112503051758 104.018753051758 101.412498474121 95.3499984741211 90.3249969482422 84.6999969482422 82.7375030517578 83.7312469482422 85.8125 90.0500030517578 95.2624969482422 112.199996948242 130 146.824996948242 168.787506103516 181.46875 169.84375 157.262496948242 143.149993896484 130.106246948242 122.993751525879 114.65625 108.637496948242 106.743751525879 105.143753051758 105.443748474121 98.6500015258789 95.6937484741211 
109.668746948242 110.675003051758 110.581253051758 111.581253051758 111 112.181251525879 110.03125 107.849998474121 103.099998474121 99.46875 95.8125 90.71875 83.9124984741211 77.53125 72.0500030517578 66.34375 61.0187492370605 57.3499984741211 61.34375 63.5250015258789 68.6312484741211 75.5062484741211 85.2874984741211 94.7249984741211 102.150001525879 102.012496948242 97.9312515258789 92.2062530517578 85.1687469482422 81.5999984741211 78.3499984741211 78.8062515258789 93.8625030517578 111.300003051758 125.543746948242 146.324996948242 167.356246948242 184.787506103516 189.0625 181.162506103516 160.425003051758 147.387496948242 135.112503051758 127.925003051758 118.168746948242 114.368751525879 113.587501525879 110.643753051758 107.162498474121 100.693748474121 101.21875 
103.050003051758 104.793746948242 105.918746948242 107.631248474121 108.837501525879 108.84375 107.662498474121 105.043746948242 102.818748474121 99.9937515258789 95.5749969482422 87.1875 80.5812530517578 74.5187530517578 67.5374984741211 62.9562492370605 57.4562492370605 52.78125 52.9437484741211 56.0374984741211 64.3812484741211 77.9000015258789 76.5875015258789 87.03125 95.3375015258789 101.3125 99.8312530517578 93.3312530517578 88.5437469482422 80.9812545776367 76.3562469482422 81.3874969482422 99.0250015258789 114.78125 131.712493896484 152.068756103516 166.356246948242 174.868743896484 180.300003051758 171.912506103516 159.75 147.868743896484 136.462509155273 127.787498474121 120.537498474121 117.637496948242 116.018753051758 114.268753051758 111.112503051758 100.525001525879 104.181251525879 
97.4875030517578 99.5 100.668746948242 102.675003051758 103.431251525879 103.993751525879 103.356246948242 101.900001525879 101.8125 99.7375030517578 96.5749969482422 91.0749969482422 82.3125 73.5812530517578 67.0187530517578 60.3624992370605 52.3125 50.8062515258789 51.7000007629395 55.6875 58.2437515258789 64.0437469482422 75.03125 84.25 91.0625 94.25 94.8937530517578 92.3937530517578 87.1812515258789 78.9875030517578 76.625 88.1750030517578 100.868751525879 116.875 135.056243896484 149.143753051758 160.600006103516 170.993743896484 172.537506103516 167.131256103516 154.850006103516 144.387496948242 136.75 129.487503051758 123.012496948242 122.050003051758 118.237503051758 115.756248474121 112.443748474121 104.012496948242 108.962501525879 
89.9625015258789 94.4625015258789 97.9000015258789 100.46875 100.449996948242 101.074996948242 101.743751525879 101.550003051758 102.018753051758 100.175003051758 97.9812469482422 94.0875015258789 85.2562484741211 76.2249984741211 68.4124984741211 61.6124992370605 54.875 51.3562507629395 53.4562492370605 56.1749992370605 62.2062492370605 70.0812454223633 79.1624984741211 88.7937469482422 98.1750030517578 99.9375 95.8625030517578 92.8062515258789 89.84375 88.1374969482422 89.03125 95.7125015258789 103.993751525879 114.918746948242 131.131256103516 143.574996948242 157.050003051758 166.756256103516 166.606246948242 162.949996948242 152.756256103516 144.862503051758 138.475006103516 130.387496948242 125.150001525879 123.587501525879 122.28125 119.175003051758 113.762496948242 111.012496948242 112.612503051758 
85.7375030517578 89.0500030517578 93.3937530517578 97.6937484741211 99.6750030517578 99.7562484741211 101.65625 100.824996948242 102.181251525879 100.493751525879 100.543746948242 99.9937515258789 96.7437515258789 88.3375015258789 79.1312484741211 69.1812515258789 64.1125030517578 60.8812484741211 61.4312515258789 63.84375 66.1687469482422 72.5187530517578 81.5250015258789 90.2312469482422 97.1125030517578 100.668746948242 104.09375 100.28125 98.3125 95.9875030517578 95.4562530517578 97.7624969482422 104.28125 113.731246948242 122.5625 134.306243896484 149.543746948242 162.149993896484 163.975006103516 159.756256103516 151.137496948242 143.581253051758 135.518753051758 131.337493896484 124.137496948242 123.0625 124.112503051758 122.287498474121 117.768753051758 118.993751525879 115.050003051758 
82.0187530517578 88.21875 93.7874984741211 97.21875 100.168746948242 100.75 100.074996948242 99 101.881248474121 104.150001525879 107.224998474121 109.5625 110.293746948242 103.018745422363 91.2687530517578 80.0562515258789 72.0437469482422 68.7125015258789 68.40625 69.3062515258789 71.9625015258789 77.8874969482422 85.3312530517578 89.3125 97.8499984741211 104.581253051758 107.512496948242 107.099998474121 103.46875 98.4937515258789 96.6687469482422 98.5437545776367 103.53125 108.650001525879 113.925003051758 119.506248474121 133.662506103516 152.4375 158.793746948242 154.356246948242 148.550003051758 140.274993896484 133.03125 128.649993896484 122.987503051758 122.793746948242 123.868751525879 124.96875 123.581253051758 123.5 119.693748474121 
81.4812469482422 89.3375015258789 95.8000030517578 97.0687484741211 98.7750015258789 99.8125 100.96875 101.96875 101.887496948242 105.706253051758 110.025001525879 117.193748474121 120.681251525879 112.631248474121 100.893753051758 89.7375030517578 81.6624984741211 77.3375015258789 75.7437515258789 76.4937515258789 78.9625015258789 83.6750030517578 88.4437484741211 93.9124984741211 100.175003051758 104.387496948242 109.337501525879 106.412498474121 104.143753051758 100.775001525879 99.2375030517578 99.3687515258789 103.168754577637 104.556251525879 107.431251525879 110.349998474121 121.893753051758 139.893753051758 147.975006103516 145.618743896484 140.699996948242 134.568756103516 127.775001525879 122.71875 123.068748474121 121.425003051758 125.543746948242 127.737495422363 131.268753051758 129.887496948242 124.981246948242 
82.8249969482422 90.8687515258789 96.6312484741211 99.8249969482422 101.900001525879 102.09375 102.09375 103.3125 105.074996948242 108.868751525879 111.856246948242 116.574996948242 119.431251525879 114.193748474121 105.25 96.5812530517578 89.5 84.7624969482422 82.4812469482422 82.7562484741211 85.0875015258789 88.2375030517578 92.1875 96.8625030517578 100.487503051758 105.993751525879 106.768753051758 104.793746948242 102.925003051758 100.756248474121 98.6187515258789 97.7437515258789 100.612503051758 103.237503051758 104.762496948242 107.324996948242 117.25 127.418746948242 134.15625 135.387496948242 132.518753051758 128.831253051758 123.800003051758 120.143745422363 119.506248474121 122.400001525879 121.356246948242 131.993743896484 137.40625 134.443756103516 129.356246948242 
86.1812515258789 94.2750015258789 97.15625 101.387496948242 101.956253051758 102.212501525879 102.425003051758 104.737503051758 104.849998474121 106.743751525879 109.881248474121 113.393753051758 115.237503051758 110.762496948242 105.818748474121 98.78125 93.5437469482422 90.0374984741211 86.9812469482422 87.7312469482422 90.1062469482422 92.0124969482422 96.0124969482422 98.1125030517578 100.59375 104.212501525879 105.212501525879 103.449996948242 102.393753051758 100.912498474121 98.28125 97.28125 98.3499984741211 99.8687515258789 100.862503051758 105.650001525879 112.78125 118.550003051758 124.893753051758 125.118751525879 124.4375 121.96875 119.487503051758 117.931251525879 117.543746948242 110.0625 121.662498474121 130.631256103516 136.618743896484 132.168746948242 125.337501525879 
88.9187469482422 94.5062484741211 98 100.762496948242 101.699996948242 101.918746948242 103.474998474121 103.949996948242 102.981246948242 106.193748474121 109.425003051758 109.706253051758 110.09375 107.40625 104.650001525879 99.5625 96.0062484741211 92.5875015258789 90.875 89.7750015258789 90.1999969482422 92.78125 95.03125 98.1875 100.0625 100.525001525879 102.412498474121 101.268753051758 99.53125 97.2937469482422 96.2062530517578 94.1374969482422 95.9124984741211 97.4812469482422 97.625 101.993751525879 105.912498474121 111.068748474121 114.5 114.993751525879 114.787498474121 114.162498474121 115.650001525879 113.631248474121 113.756248474121 116.875 124.487503051758 125.043746948242 128.024993896484 123.143753051758 114.331253051758 
93.0812530517578 94.1687469482422 97.4250030517578 100.081253051758 101.793746948242 100.96875 102.081253051758 102.893753051758 103.143753051758 105.09375 105.525001525879 105.162498474121 105.25 104.525001525879 101.612503051758 98.7437515258789 97.0812530517578 94.28125 92.8125 91.2937469482422 91.6812515258789 91.34375 94.7312469482422 96.9000015258789 97.6187515258789 96.7624969482422 98.3125 98.1750030517578 97.1937484741211 95.4250030517578 93.1624984741211 90.8375015258789 92.46875 92.9875030517578 95.1374969482422 97.5374984741211 99.625 103.262496948242 107.150001525879 109.074996948242 108.956253051758 110.587501525879 112.762496948242 115.737503051758 118.662498474121 122.050003051758 124.918746948242 122.925003051758 119.675003051758 112.456253051758 106.462501525879 
94.3062515258789 96.5687484741211 97.7687530517578 99.8687515258789 99.3062515258789 98.8562469482422 98.6687469482422 98.2874984741211 101.006248474121 101.34375 101.650001525879 100.90625 100.668746948242 100.775001525879 99.3499984741211 97.5562515258789 97.5 95.7687530517578 94.2437515258789 93.1875 92.8249969482422 92.1500015258789 93.9875030517578 94.3874969482422 95.2437515258789 93.4937515258789 95.0062484741211 94.4437484741211 93.1875 91.5062484741211 89.1500015258789 87.6624984741211 87.6937484741211 87.5562515258789 89.7750015258789 93.6687469482422 96.4000015258789 99.6187515258789 103.356254577637 104.21875 102.512496948242 105.068748474121 109.362503051758 115.537498474121 118.518745422363 120.456253051758 121.987503051758 118.400001525879 110.887496948242 102.6875 93.0999984741211 
95.3249969482422 97.5562515258789 97.8000030517578 96.9625015258789 96.78125 96.53125 95.5875015258789 96.5875015258789 97.4375 96.9875030517578 97.7624969482422 97.8249969482422 97.53125 97.15625 96.4562530517578 95.4000015258789 94.59375 95.0812530517578 95.84375 93.1624984741211 92.0749969482422 92.53125 93.8562469482422 93.0374984741211 92.0687484741211 91.84375 90.8874969482422 89.7874984741211 86.8000030517578 85.1687469482422 83.9187469482422 83.4312515258789 83.5374984741211 84.2687530517578 86.4312515258789 88.8125 93.8312530517578 97.6500015258789 100.09375 103.574996948242 104.775001525879 106.412498474121 107.199996948242 111.268753051758 114.612503051758 115.356246948242 115.056251525879 112.050003051758 102.675003051758 94.3562469482422 85.2062530517578 
95.9625015258789 96.4812469482422 94.5374984741211 94.65625 96.5437469482422 95.1500015258789 94.4312515258789 93.4375 93.2125015258789 92.7312469482422 92.5437469482422 94.59375 96.0749969482422 95.75 93.625 92.8249969482422 93.96875 94.84375 96.34375 95.0250015258789 93.1687469482422 90.6624984741211 90.8062515258789 89.6374969482422 87.9937515258789 87.8687515258789 85.3249969482422 84.4562530517578 82.4625015258789 81.4812469482422 80.9812469482422 80.0250015258789 79.6937484741211 80.7937469482422 84.2437515258789 86.0562515258789 90.2687530517578 94.1624984741211 99 104.668746948242 106.1875 104.056251525879 103.018753051758 108.087501525879 109.231246948242 108.737503051758 104.987503051758 101.537498474121 95.5562515258789 87.125 79.9124984741211 
95.8125 95.9562530517578 93.4937515258789 92.8249969482422 94.6999969482422 93.15625 91.5875015258789 89.2624969482422 89.2624969482422 89.1875 89.0124969482422 90.3874969482422 90.8625030517578 91.84375 91.09375 92.84375 93.1624984741211 93.5500030517578 93.7375030517578 93.4312515258789 91.9812469482422 91.3687515258789 89.2874984741211 85.6875 84.2312469482422 83.2750015258789 80.8000030517578 79.7687530517578 77.4250030517578 76.2562484741211 76.6750030517578 75.5999984741211 75.8125 77.6812515258789 78.7687530517578 80.1687469482422 84.0812530517578 88.3250045776367 93.6062469482422 99.1750030517578 100.743751525879 98.59375 99.21875 100.974998474121 102.925003051758 102.6875 97.28125 93.0687484741211 87.8499984741211 82.6187515258789 75.9250030517578 
93.46875 92.6500015258789 91.0062484741211 90.9749984741211 90.6937484741211 88.6937484741211 88.1062469482422 86.6687469482422 85.4437484741211 85.8125 87.3874969482422 87.2249984741211 87.2937469482422 89.4124984741211 88.9625015258789 90.8062515258789 91.1624984741211 92.0875015258789 91.8874969482422 91.3937530517578 89.75 88.3499984741211 86.6624984741211 85.2375030517578 83.4250030517578 80.8687515258789 78.4499969482422 74.9187469482422 73 71.4562530517578 71.7125015258789 70.5124969482422 70.8125 72.0062484741211 73.3312530517578 74.65625 78.0374984741211 81.2874984741211 85.6312484741211 90.1187515258789 90.9000015258789 90.4000015258789 90.6624984741211 91.09375 92.1125030517578 91.9187469482422 90.9124984741211 85.4437484741211 80.4562530517578 76.65625 71.0437469482422 
90.71875 90.96875 89.2312469482422 89.9562530517578 86.6125030517578 85.5875015258789 85.7125015258789 84.4375 82.7062530517578 81.9250030517578 82.15625 83.2937469482422 85.0437469482422 84.3187484741211 85.5124969482422 86.0749969482422 87.8062515258789 87.8625030517578 87.2937469482422 87.6500015258789 86.6750030517578 85.4124984741211 84.4812469482422 82.1187515258789 81.0250015258789 78.9812469482422 75.9499969482422 71.71875 70.3249969482422 69.0500030517578 68.2375030517578 66.53125 65.7874984741211 65.9499969482422 67.65625 68.9375 71.7562484741211 74.0500030517578 77.4749984741211 79.6624984741211 82.0749969482422 82.6437530517578 82.3625030517578 81.8000030517578 81.6312484741211 81.7249984741211 80.8375015258789 78.0687484741211 74.5625 70.4375 66.8625030517578 
88.9749984741211 88.5999984741211 87.53125 86.15625 84.4250030517578 83.4000015258789 82.9625015258789 81.9499969482422 78.6937484741211 78.3000030517578 78.1437530517578 80.3812484741211 80.9499969482422 82.2062530517578 83.1374969482422 84.40625 85.65625 85.3187484741211 84.7062530517578 85.0062484741211 84.4000015258789 82.8000030517578 80.9562530517578 79.4749984741211 77.6875 76.28125 72.9499969482422 68.9875030517578 67.5062484741211 66.2562484741211 63.8499984741211 61.3062515258789 60.6624984741211 60.2937507629395 61.2999992370605 62.375 63.6624984741211 66.4187469482422 69.3874969482422 71.0250015258789 71.90625 72.4437484741211 73.1500015258789 72.96875 73.2874984741211 72.6500015258789 72.7437515258789 71.1687469482422 67.6875 63.6687507629395 61.0125007629395 
87.125 87.3062515258789 85.71875 84.2375030517578 83.2249984741211 81.1374969482422 79.9187469482422 77.96875 75.7312469482422 75.7375030517578 77.1125030517578 78.1687469482422 80 80.9437484741211 82.03125 83.8062515258789 83.9187469482422 84.53125 82.8687515258789 82.6125030517578 82.3937530517578 82.5 80.2562484741211 78.6937484741211 76.0187530517578 73.5062484741211 69.84375 67.7874984741211 64.7062530517578 62.1624984741211 59.3562507629395 56.6624984741211 54.3875007629395 54.625 54.7374992370605 54.6187515258789 56.8687515258789 59.2750015258789 60.7937507629395 63.0499992370605 63.9812507629395 65.6374969482422 64.96875 65.1750030517578 64.9124984741211 63.4375 62.96875 62.875 60.5687484741211 57.6875 55.5062484741211 
82.8812484741211 83.1875 81.8687515258789 81.4375 80.9437484741211 79.5124969482422 78.3625030517578 77.3000030517578 74.4000015258789 72.9625015258789 76.7437515258789 80.2687530517578 82.0749969482422 81.7687530517578 83.1812515258789 83.125 82.8562469482422 82.5749969482422 81.6937484741211 80.4375 80.2937469482422 80.4562454223633 78.8062515258789 77.3937530517578 75.1624984741211 71.2312469482422 68.3000030517578 65.6125030517578 61.21875 58.28125 55.5875015258789 52.0437507629395 50.2249984741211 49.2062492370605 49.0062484741211 49.2625007629395 51.1062507629395 53.6187515258789 54.6812515258789 56.625 57.1624984741211 58.5437507629395 57.875 58.2874984741211 57.1312484741211 56.5125007629395 56.7874984741211 56.3812484741211 54.6937484741211 52.5750007629395 50.21875 
80.0500030517578 80.8874969482422 79.2687530517578 80.2062530517578 80.4250030517578 78.6937484741211 77.4875030517578 76.1624984741211 74.9499969482422 73.3687515258789 81.4749984741211 85.21875 83.9000015258789 84.1750030517578 85.4437484741211 84.4124984741211 82.5374984741211 80.96875 81.4250030517578 79.9250030517578 79.4312515258789 78.4124984741211 77.0250015258789 75.4625015258789 73.3499984741211 70.4187469482422 67.53125 64.7312469482422 60.8687515258789 56.8062515258789 52.5625 49.59375 48.1062507629395 45.4187507629395 44.2312507629395 43.9812507629395 46.6875 49.3125 50.6875 52.3812484741211 50.96875 50.9562492370605 50.7374992370605 50.7562484741211 50.71875 50.9312515258789 52.4812507629395 52.7750015258789 49.7750015258789 48.5625 47.3875007629395 
78.7937469482422 78.09375 77.7750015258789 77.8812484741211 79.0999984741211 78.0250015258789 77.5250015258789 76.8000030517578 77.7249984741211 82.8874969482422 91.8062515258789 89.875 85.8687515258789 85.4312515258789 84.9312515258789 83.9749984741211 83.4250030517578 82.5687484741211 80.3062515258789 80.9937515258789 79.3249969482422 77.2125015258789 76.0562515258789 73.6937484741211 71.4437484741211 68.3499984741211 65.6999969482422 63.5499992370605 59.9874992370605 55.4874992370605 51.25 48.1437492370605 46.2874984741211 42.7625007629395 41.3312492370605 42.5062484741211 43.96875 45.9874992370605 47.5625 47.0875015258789 46.2437515258789 45.9500007629395 45.3687515258789 45.0875015258789 45.9187507629395 46.6500015258789 46.1812515258789 47.4562492370605 46.2062492370605 46.0875015258789 45.15625 
76.9499969482422 76.4937515258789 76.0374984741211 76.34375 76.7312469482422 76.6125030517578 75.5250015258789 76.2125015258789 78.7437515258789 84.0500030517578 88.3937530517578 89.75 88.2624969482422 86.6500015258789 86.2750015258789 86.0437469482422 84.0250015258789 82.1437530517578 79.7874984741211 81.0562515258789 80.15625 76.5187530517578 75.0562515258789 72.40625 69.9749984741211 66.9124984741211 64.2062530517578 61.6062507629395 57.4749984741211 54.1375007629395 50.5250015258789 48.1875 45.6375007629395 42.5875015258789 41.7687492370605 42.09375 42.1062507629395 43.9000015258789 44.6124992370605 42.9562492370605 41.7937507629395 41.6624984741211 41.0812492370605 40.2312507629395 41.7437515258789 41.3499984741211 41.0374984741211 42.7125015258789 42.9625015258789 43.8375015258789 43.125 
76.0187530517578 76.2249984741211 75.7874984741211 76.3312530517578 75.6937484741211 74.4124984741211 73.9250030517578 73.90625 75.2687530517578 80.4562530517578 84.40625 86.0625 87.1374969482422 85.9124984741211 85.6687469482422 85.125 83.7874984741211 82.3125 81.2125015258789 80.9124984741211 80.5062484741211 76.6125030517578 73.4937515258789 70.8187484741211 68.6374969482422 65.1624984741211 63.2937507629395 59.5625 55.9375 52.4437484741211 49.2000007629395 46.9124984741211 45.1187515258789 42.84375 42.7687492370605 41.9500007629395 41.3187484741211 41.7999992370605 42.5625 40.2687492370605 37.8562507629395 37.9562492370605 37.2937507629395 37.0874977111816 37.1124992370605 37.7625007629395 38.0562515258789 39.4812507629395 42.1312484741211 40.9249992370605 40.1375007629395 
77.6750030517578 77.4749984741211 76.40625 75.6062469482422 73.6062469482422 70.65625 69.4499969482422 69.9625015258789 71.5187530517578 74.8874969482422 77.59375 79.9749984741211 82.5124969482422 82.2375030517578 82.4875030517578 83.125 82.1187515258789 81.6687469482422 79.6812515258789 78.8874969482422 77.1374969482422 76.3874969482422 71.5687484741211 68.4187469482422 66.2750015258789 63.0187492370605 59.2625007629395 56.2874984741211 54.8687515258789 52.5875015258789 48.7937507629395 46.0437507629395 44.6937484741211 45.4625015258789 45.1937484741211 42.5750007629395 40.3624992370605 40.7249984741211 39.5750007629395 38.0374984741211 35.7687492370605 33.9249992370605 32.5875015258789 33.2687492370605 34.3125 35.71875 36.0125007629395 36.9249992370605 40.2374992370605 38.03125 37.8250007629395 
79.4562530517578 79.4312515258789 77.0625 74.0999984741211 70.4749984741211 66.7062530517578 65.1750030517578 65.1374969482422 65.3375015258789 68.03125 71.0187530517578 73.8062515258789 75.1999969482422 76.7312469482422 79.40625 79.71875 79.9812469482422 79.0374984741211 77.9875030517578 76.6312484741211 74.8062515258789 75.0999984741211 71.15625 67.6374969482422 64.2062530517578 59.9750022888184 57.2750015258789 55.6812515258789 52.8499984741211 50.8499984741211 48.2874984741211 45.7562484741211 44.6749992370605 44.4874992370605 45.5062484741211 44.75 40.4249992370605 39.2625007629395 37.8687515258789 36.5499992370605 34.03125 31.9562492370605 30.8062496185303 30.9624996185303 32.34375 33.2000007629395 34.2250022888184 35.0374984741211 38.5625 37.15625 35.8499984741211 
81.4250030517578 81.8687515258789 79.3312530517578 72.9250030517578 67.1999969482422 62.4124984741211 59.0812492370605 58.5 59.34375 61.6624984741211 65.15625 69.2375030517578 70.6125030517578 73.6187515258789 76.3499984741211 77.8937530517578 78.0749969482422 76.9437484741211 76.3937530517578 75.09375 73.3874969482422 72.75 67.6937484741211 64.5124969482422 62.5625 59.8187484741211 56.8562507629395 54.2125015258789 51.7625007629395 49.3562507629395 48.2374992370605 46.4625015258789 44.9625015258789 43.5999984741211 45.3375015258789 47.8250007629395 42.4500007629395 39.375 38.34375 35.2374992370605 33.03125 31.8624992370605 30.5437507629395 30.7562503814697 30.59375 31.3500003814697 31.7749996185303 32.1937484741211 34.5437507629395 35.5374984741211 33.5125007629395 
82.375 83.75 83.125 75.1125030517578 65.8562545776367 58.7562484741211 52.1875 50.625 52.2375030517578 55.71875 59.1812515258789 62.8624992370605 66.7874984741211 70.4437484741211 72.46875 73.28125 74.125 73.1999969482422 73.1937484741211 72.71875 70.2062530517578 68.25 64.4312515258789 62.6187515258789 60.6375007629395 57.8937492370605 54.5250015258789 52.4124984741211 50.4312515258789 48.7374992370605 46.7625007629395 45.6500015258789 44.28125 42.9124984741211 43.9874992370605 44.9375 42.1312484741211 39.0999984741211 36.6937484741211 34.8375015258789 33.0187492370605 31.8812503814697 30.3125 30.3937511444092 30.4937496185303 30.65625 30.7124996185303 31.1499996185303 31.625 32.5687484741211 31.1187496185303 
