ncols        51
nrows        45
xllcorner    -63.500000000000
yllcorner    -7.500000000000
cellsize     0.166666666667
NODATA_value -99
301.450012207031 289.299987792969 281.375 279.706237792969 274.287506103516 271.450012207031 268.6875 263.487487792969 264.40625 267.59375 265.931243896484 263.549987792969 259.768737792969 259.799987792969 260.28125 257.799987792969 254.837493896484 246.256256103516 239.787506103516 236.881256103516 235.881256103516 229.024993896484 223.768753051758 218.643753051758 216.050003051758 209.53125 205.443756103516 201.793746948242 196.1875 196.375 188.956253051758 186.456253051758 190.068756103516 189.881240844727 189.274993896484 186.962493896484 181.043746948242 184.643753051758 179.318756103516 175.475006103516 177.943756103516 180.756256103516 177.856246948242 177.506256103516 177.675003051758 180.137496948242 179.793746948242 176.856246948242 176.543746948242 180.875 184.625 
289.762512207031 277.387481689453 269.831237792969 269.049987792969 266.725006103516 264.5625 261.450012207031 258.456237792969 259.793762207031 260.212493896484 258.274993896484 254.243743896484 250.449996948242 248.081253051758 244.806243896484 242.037506103516 237.793746948242 230.362503051758 225.231246948242 220.949996948242 213.875 211.493743896484 208.46875 208.274993896484 201.3125 196.899993896484 194.512496948242 192.550003051758 186.53125 183.774993896484 181.931243896484 185.493743896484 188.018753051758 191.625 192.149993896484 186.981246948242 181.606246948242 182.356246948242 176.5625 174.931243896484 179.274993896484 178.693756103516 177.28125 173.868743896484 176.5625 180.100006103516 180.637496948242 179.875 177.518753051758 183.443756103516 185.506256103516 
266.024993896484 262.106262207031 261.875 259.787506103516 256.149993896484 251.96875 250.168746948242 251.475006103516 253.362503051758 252.824996948242 250.024993896484 243.34375 241.106246948242 233.893753051758 228.699996948242 223.975006103516 220.175003051758 213.256256103516 207.262496948242 204.987503051758 199.087493896484 198.149993896484 197.306243896484 196.300003051758 192.256256103516 185.899993896484 189.012496948242 186.306243896484 182.09375 181.256256103516 180.162506103516 177.506256103516 181.206253051758 187.90625 182.756256103516 176.631256103516 175.8125 178.925003051758 172.706253051758 171.893753051758 175.131256103516 175.912506103516 172.90625 171.512496948242 175.737503051758 175.743743896484 175.143753051758 177.618743896484 174.03125 178.53125 184.443756103516 
245.725006103516 239.625 245.34375 250.331253051758 246.875 240.518753051758 237.125 241.375 246.356246948242 246.893753051758 239.018753051758 231.556243896484 226.787506103516 223.5625 215.324996948242 207.431243896484 201.112503051758 195.881256103516 193.15625 195.668746948242 192.037506103516 186.631256103516 185.537506103516 186.818756103516 184.918746948242 180.899993896484 180.550003051758 174.725006103516 174.243743896484 178.768753051758 178.375 175.143753051758 173.675003051758 173.387496948242 170.399993896484 173.71875 175.831253051758 171.887496948242 168.612503051758 166.993743896484 172.743743896484 176.024993896484 173.368743896484 171.199996948242 172.15625 170.28125 170.899993896484 172.59375 172.743743896484 174.731246948242 179.112503051758 
251.712493896484 236.875 226.737503051758 232.787506103516 238.912506103516 231.5625 230.362503051758 233.381256103516 236.225006103516 234.524993896484 232.09375 222.725006103516 217.006256103516 211.475006103516 202.337493896484 194.28125 186.725006103516 183.462493896484 177.90625 179.225006103516 179.268753051758 174.725006103516 172.806243896484 179.0625 177.03125 173.006256103516 170.350006103516 170.899993896484 169.787506103516 169.668746948242 171.443756103516 171.5625 173.118743896484 171.487503051758 168.556243896484 165.850006103516 167.712493896484 167.899993896484 163.6875 164.362503051758 168.8125 167.918746948242 169.556243896484 170.199996948242 168.537506103516 166.712493896484 167.793746948242 167 164.78125 167.649993896484 170.0625 
243.625 237.443756103516 230.625 212.399993896484 221.962493896484 230.550003051758 228.625 228.175003051758 232.518753051758 229.274993896484 223.649993896484 215.5 209.956253051758 199.168746948242 193.074996948242 185.237503051758 175.28125 169.112503051758 167 169.550003051758 169.34375 167.550003051758 168.443756103516 168.362503051758 169.756256103516 168.050003051758 165.862503051758 165.381256103516 162.96875 163.09375 164.643753051758 168.787506103516 168.050003051758 169.706253051758 165.487503051758 164.737503051758 159.731246948242 160.1875 161.800003051758 165.449996948242 163.387496948242 165.362503051758 164.600006103516 163.15625 165.118743896484 163.9375 159.806243896484 159.8125 156.981246948242 158.425003051758 159.918746948242 
239.243743896484 235.5 230.706253051758 223.487503051758 217.893753051758 211.818756103516 216.512496948242 220.768753051758 220.15625 219.118743896484 215.993743896484 204.131256103516 200.606246948242 191.856246948242 182.5 176.368743896484 169.399993896484 160.0625 153.793746948242 159.481246948242 159.306243896484 157.712493896484 157.418746948242 160.912506103516 161.90625 163.643753051758 165.212493896484 160.024993896484 155.631256103516 160.081253051758 160.518753051758 159.399993896484 158.949996948242 163.193756103516 164.262496948242 161.15625 155.793746948242 154.09375 157.3125 162.143753051758 159.512496948242 157.850006103516 158.949996948242 157.168746948242 159.256256103516 161.074996948242 158.475006103516 150.987503051758 145.65625 148.21875 151.96875 
238.587493896484 232.431243896484 230.556259155273 228.199996948242 226.462493896484 227.90625 218.8125 203.981246948242 199.09375 198.887496948242 197.65625 192.581253051758 188.1875 179.543746948242 173.518753051758 167.225006103516 159.15625 151.637496948242 146.600006103516 144.856246948242 150.206253051758 152.34375 151.381256103516 154.5625 158.524993896484 156.387496948242 157.262496948242 151.193756103516 151.03125 151.237503051758 156.287506103516 155.587493896484 156.774993896484 157.243743896484 156.456253051758 151.381256103516 147.262496948242 146.21875 145.806243896484 146.318756103516 145.918746948242 147.106246948242 147.449996948242 144.975006103516 145.487503051758 143.481246948242 140.981246948242 133.925003051758 132.393753051758 134.350006103516 141.012496948242 
236.75 232.524993896484 229 230.287506103516 231.487503051758 227.768753051758 221.225006103516 212.850006103516 201.193756103516 189.181243896484 184.087493896484 176.356246948242 178.143753051758 169.962493896484 164.131256103516 158.068756103516 153.431243896484 150.5 150.71875 142.956253051758 142.112503051758 148.300003051758 148.212493896484 153.618743896484 156.512496948242 150.918746948242 147.943756103516 149.706253051758 150.375 149.449996948242 155.15625 150.831253051758 145.762496948242 143.850006103516 144.725006103516 146.40625 146.1875 146.762496948242 143.456253051758 140.34375 138.256256103516 137.837493896484 138.8125 135.037506103516 132.806259155273 129.96875 128.612503051758 121.512496948242 119.712501525879 121.462501525879 126.181251525879 
231.487503051758 230.15625 229.662506103516 231.262496948242 232.431243896484 232.106246948242 225.25 217.231246948242 207.824996948242 199.456253051758 187.068756103516 172.03125 169.512496948242 163.649993896484 158.975006103516 155.118743896484 148.262496948242 149.737503051758 150.806243896484 147.868759155273 146.175003051758 143.475006103516 140.912506103516 146.28125 147.856246948242 148.418746948242 145.34375 145.581253051758 143.981246948242 144.118743896484 147.056243896484 142.931243896484 141.199996948242 138.875 137.668746948242 140.462493896484 141.787506103516 142.962493896484 140.21875 140.456253051758 140.581253051758 137.5 132.600006103516 125.693748474121 120.550003051758 121.78125 121.324996948242 112.693748474121 108.78125 107.493751525879 107.356246948242 
230.618743896484 230.743743896484 229.387496948242 232.643753051758 233.081253051758 232.912506103516 227.800003051758 215.074996948242 201.518753051758 193.287506103516 185.693756103516 173.975006103516 160.78125 156.862503051758 149.768753051758 145.693756103516 143.84375 145.681243896484 146.837493896484 150.600006103516 153.512496948242 148.931243896484 140.556243896484 134.418746948242 142.625 151.375 149.21875 146.050003051758 139.225006103516 139.100006103516 139.774993896484 139.787506103516 139.350006103516 135.9375 136.643753051758 137.431243896484 138.818756103516 136.431243896484 140.125 138.368743896484 134.712493896484 130.456253051758 128.806243896484 118.881248474121 111.400001525879 111.931251525879 110.356246948242 105.887496948242 102.849998474121 97.2375030517578 94.6624984741211 
227.65625 225.837493896484 225.518753051758 229.537506103516 231.725006103516 231.75 228.706253051758 216.774993896484 200.149993896484 185.956253051758 176.550003051758 170.1875 155.118743896484 148.181243896484 147.09375 140.668746948242 138.806243896484 140.600006103516 142.618743896484 148.650009155273 156.6875 154.631256103516 151.068756103516 141.956253051758 141.137496948242 137.899993896484 136.693756103516 137.293746948242 133.949996948242 132.818756103516 129.831253051758 129.831253051758 131.287506103516 131.268753051758 134.012496948242 136.800003051758 136.081253051758 138.043746948242 133.193756103516 131.537490844727 126.993751525879 125.537498474121 118.318748474121 107.1875 98.4499969482422 93.0687484741211 89.09375 92.4437484741211 92.7312469482422 88.5500030517578 79.6999969482422 
217.518753051758 219.456253051758 221.743743896484 222.668746948242 222.581253051758 223.137496948242 217.793746948242 205.074996948242 190.287506103516 180.725006103516 173.1875 163.868743896484 156.306243896484 140.137496948242 134.537506103516 134.75 133.15625 136.21875 138.762496948242 142.074996948242 147.243743896484 146.393753051758 146.381256103516 140.356246948242 132.3125 129.293746948242 129.681243896484 131.081253051758 129.074996948242 126.606246948242 123.356246948242 119.650001525879 123.525001525879 125.012496948242 127.381248474121 131.28125 135.600006103516 140.6875 141.5 133.193756103516 123.324996948242 118.487503051758 107.506248474121 100.006248474121 99.0875015258789 95.8125 88.2249984741211 83.6500015258789 82.375 82.25 78.375 
209.681243896484 211.018753051758 213.625 213.412506103516 211.90625 209.25 203.274993896484 193.037506103516 185.012496948242 173.15625 165.050003051758 157.9375 147.675003051758 136.225006103516 122.793754577637 125.574996948242 123.243751525879 127.324996948242 128.431243896484 132.368743896484 135.768753051758 137.981246948242 138.793746948242 135.681243896484 128.65625 124.125 122.34375 120.025001525879 118.050003051758 116.287498474121 118.087501525879 116.512496948242 116.3125 117.893753051758 121.0625 129.493743896484 139.331253051758 149.181243896484 152.600006103516 142.53125 120.800003051758 108.550003051758 106.96875 113.199996948242 116.574996948242 107.28125 100.324996948242 96.8062515258789 89.4875030517578 89.625 84.0437469482422 
204.306243896484 202.743743896484 202.8125 203.668746948242 199.943756103516 195.399993896484 193.96875 184.356246948242 174.806243896484 164.087493896484 156.068756103516 147.881256103516 140.574996948242 132.337509155273 115.306251525879 113.856246948242 112.893753051758 115.837501525879 117.818748474121 122.400001525879 128.0625 129.881256103516 131.193756103516 132.09375 129.725006103516 126.931251525879 124.356246948242 119.887496948242 118.550003051758 117.90625 113.762504577637 113.456253051758 117.806251525879 117.34375 114.737503051758 121.324996948242 138.543746948242 156.59375 162.181243896484 151.012496948242 136.393753051758 126.193748474121 130.506256103516 125.856246948242 121.21875 116.1875 116.800003051758 114.237503051758 111.199996948242 96.1374969482422 87.46875 
194.268753051758 193.074996948242 193.756256103516 191.9375 189.425003051758 188.543746948242 181.212493896484 172.900009155273 164.949996948242 157.981246948242 148.65625 141.699996948242 135.46875 127.824996948242 114.375 98.46875 100.425003051758 105.324996948242 106.706253051758 111.75 116.199996948242 121.125 124.887496948242 132.143753051758 132.381256103516 129.112503051758 123.71875 116.550003051758 115.59375 115.481246948242 118.425003051758 113.300003051758 111.293746948242 109.362503051758 108.462501525879 125.525001525879 140.362503051758 156.606246948242 167.293746948242 168.912506103516 161.981246948242 151.46875 143.318756103516 131.506256103516 120.224998474121 114.581253051758 110.143753051758 108.381248474121 107.46875 99.9000015258789 90.8062515258789 
184.850006103516 183.918746948242 185.331253051758 185.268753051758 184.03125 178.149993896484 173.643753051758 166.162506103516 158.962493896484 152.375 144.4375 136.3125 128.65625 123.487503051758 118.131248474121 106.543746948242 94.9375 94.4000015258789 100.90625 104.949996948242 108.550003051758 114.025001525879 121.78125 132.231246948242 137.012496948242 125.525001525879 115.5625 109.574996948242 111.181251525879 114.493751525879 117.962501525879 120.081253051758 117.356246948242 116.381248474121 127.84375 138.506256103516 157.087493896484 180.4375 196.600006103516 183.90625 172.650009155273 157.4375 141.306243896484 132.15625 121.212501525879 111.862503051758 109.78125 111.493751525879 109.681251525879 97.9875030517578 93.8499984741211 
176.081253051758 177.725006103516 177.262496948242 179 177.631256103516 170.1875 164.618743896484 159.256256103516 152.537506103516 142.425003051758 135.462493896484 131.493743896484 124.943748474121 120.099998474121 117.599998474121 111.762496948242 101.71875 89.0062484741211 97.0062484741211 99.9187469482422 102.831253051758 107.0625 117.918746948242 126.768753051758 129.949996948242 118.762496948242 108.574996948242 105.400001525879 108.318748474121 109.09375 106.856246948242 107.543746948242 124.918746948242 133.018753051758 134.681243896484 151.862503051758 174.699996948242 190.106246948242 197.84375 188.506256103516 167.462493896484 152.443756103516 137.46875 128.537506103516 118.3125 111.287498474121 112.393753051758 108.918746948242 105.481246948242 94.1624984741211 93.0500030517578 
167.956253051758 169.506256103516 167.53125 167.862503051758 168.850006103516 163.84375 156.574996948242 152.962493896484 147.868743896484 138.899993896484 131.875 125.006248474121 120.4375 118.175003051758 112.150001525879 109.824996948242 104.53125 95.4187469482422 89.5749969482422 90.5812530517578 97.5187530517578 108.900001525879 100.53125 110.543746948242 114.90625 113.625 108.025001525879 103.224998474121 106.550003051758 108.837501525879 108.962501525879 112.099998474121 125.15625 130.137496948242 136.125 150.387496948242 162.774993896484 172.712493896484 180.175003051758 168.743743896484 156.875 141.431243896484 130.631256103516 122.681251525879 115.506248474121 109.462501525879 111.206253051758 109.599998474121 100.9375 87.3562469482422 91.78125 
155.887496948242 159.793746948242 159.612503051758 159.181243896484 157.425003051758 158.881256103516 152.287506103516 149.068756103516 145.149993896484 137.131256103516 130.787506103516 129.737503051758 125.043746948242 120.137496948242 111.056251525879 100.693748474121 94.2249984741211 100.643753051758 93.8625030517578 90.3062515258789 83.9250030517578 87.84375 95.9124984741211 101.512496948242 103.006248474121 98.9749984741211 98.1875 101.793746948242 101.53125 100.337501525879 105.668746948242 118.256248474121 124.068748474121 129.568756103516 137.037506103516 148.068756103516 154.993743896484 158.418746948242 159.131240844727 152.899993896484 139.768753051758 127.631248474121 123.050003051758 116.224998474121 110.193748474121 107.337501525879 107.90625 104.5625 95.5812530517578 86.3375015258789 90.7937469482422 
141.431243896484 153.475006103516 159.768753051758 156.262496948242 152.037506103516 153.162506103516 149.268753051758 146.787506103516 141.731246948242 135.662506103516 128.074996948242 126.743751525879 123.743751525879 117.693748474121 109.068748474121 100.918746948242 96.1125030517578 94.9812469482422 95.8874969482422 89.1750030517578 91.8562469482422 95.1937484741211 100.143753051758 106.71875 107.525001525879 101.925003051758 95.3874969482422 97.7562484741211 101.300003051758 102.787498474121 110.306251525879 118.318748474121 118.949996948242 125.168746948242 132.612503051758 140.962493896484 147.743743896484 147.993743896484 144.974990844727 138.581253051758 130.5 124.224998474121 117.525001525879 112.243751525879 107.568748474121 104.800003051758 102.962501525879 99.6875 89.2687530517578 87.03125 86.6187515258789 
137.556243896484 140.618743896484 148.875 150.943756103516 150.337493896484 145.543746948242 142.774993896484 140.5 137.4375 132.162506103516 127.474998474121 122.1875 117.675003051758 117 113.28125 105.400001525879 103.599998474121 100.081253051758 98.6624984741211 95.7750015258789 93.1687469482422 95.6875 100.362503051758 101.300003051758 99.2125015258789 95.8312530517578 98.2249984741211 96.6687469482422 103.25 108.681251525879 111.506248474121 114.074996948242 115.443748474121 119.125 122.550003051758 131.637496948242 137.462493896484 138.418746948242 136.131256103516 131.637496948242 125.581253051758 120.925003051758 116.012496948242 110.775001525879 105.762496948242 102.599998474121 99.0250015258789 92.5875015258789 84.2937469482422 86.5374984741211 82.7624969482422 
133.368743896484 142.737503051758 147.71875 147.774993896484 146.175003051758 143.418746948242 133.793746948242 131.512496948242 130.818756103516 131.606246948242 128.868743896484 123.612503051758 121.887496948242 119.018753051758 117.6875 114.256248474121 107.875 101.793746948242 98.65625 98.03125 100.537498474121 99.21875 99.75 99.6999969482422 100.631248474121 95.7249984741211 94.1875 96.9562530517578 99.7062530517578 102.293746948242 104.775001525879 108.599998474121 108.962501525879 109.349998474121 113.96875 117.881248474121 124.84375 124.699996948242 126.162498474121 125.175003051758 121.262496948242 115.056251525879 111.243751525879 106.425003051758 99.6437530517578 98.3249969482422 93.0437469482422 88.71875 85.53125 85.5187530517578 81.1624984741211 
125.006248474121 137.418746948242 146.21875 145.456253051758 143.675003051758 138.15625 135.837493896484 130.987503051758 126.53125 122.96875 121.893753051758 124.824996948242 123 121.96875 117.400001525879 113.96875 107.03125 104.84375 101.037498474121 102.150001525879 100.800003051758 102.637496948242 102.224998474121 104.706253051758 103.918754577637 97.8125 98.09375 94.9562530517578 95.3125 96.6624984741211 98.9625015258789 101.181251525879 99.5 98.0500030517578 104.481246948242 105.618751525879 112.831253051758 116.84375 118.393753051758 117.150001525879 115.150001525879 110.081253051758 107.25 102.268753051758 98.0250015258789 93.2375030517578 87.09375 81.9187469482422 82.1374969482422 81.8937530517578 76.6937484741211 
120.474998474121 133.818756103516 144.587493896484 145.625 144.800003051758 137.074996948242 133.431243896484 129.006256103516 124.681251525879 123.962501525879 122.949996948242 118.974998474121 121.731246948242 119.6875 114.699996948242 109.025001525879 105.375 104.550003051758 102.987503051758 102.425003051758 103.018753051758 103.349998474121 107.262496948242 106.5625 102.106246948242 101.012496948242 95.4625015258789 92.0187530517578 89.9437484741211 90.5812530517578 88.40625 87.5374984741211 89.1062469482422 88.9499969482422 90.9812469482422 95.3812484741211 102.90625 105.893753051758 109 109.8125 107.137496948242 104.787498474121 102.987503051758 98.0124969482422 89.96875 87.0124969482422 79.0250015258789 79.8687515258789 78.5687484741211 77.2249984741211 74.3125 
123.118751525879 135.65625 139.112503051758 142.381256103516 141.337493896484 135.293746948242 130.987503051758 126.012496948242 120.543746948242 115.168746948242 119.46875 118.150001525879 114.925003051758 113.868751525879 110.806251525879 107.231246948242 103.175003051758 102.449996948242 102.243751525879 100.824996948242 104.337501525879 105.581253051758 108.8125 108.012496948242 102.46875 97.5562515258789 93.5999984741211 88.2937469482422 83.6374969482422 81.1062469482422 78.4625015258789 76.0562515258789 75.8687515258789 77.5500030517578 82.1999969482422 87.0062484741211 93.3562469482422 98.4812469482422 101.21875 102.362503051758 103.231246948242 99.1812515258789 96.59375 91.8687515258789 86.3812484741211 78.4124984741211 77.5562515258789 76.2562484741211 75.875 75.5875015258789 72.2437515258789 
120.537498474121 127.8125 134.206253051758 137.706253051758 136.143753051758 131.949996948242 128.606246948242 122.96875 115.387496948242 116.4375 118.21875 116.5 113.712501525879 109.675003051758 105.806251525879 105.09375 101.606246948242 98.96875 99.6812515258789 99.9875030517578 100.356246948242 102.150001525879 106.46875 108.0625 100.349998474121 91.9749984741211 87.4749984741211 83.2249984741211 78.9562530517578 73.3062515258789 71.2874984741211 66.3249969482422 65.5500030517578 70.8249969482422 74.25 80.3000030517578 83.7375030517578 88.6312484741211 92.2937469482422 95.0250015258789 97.96875 95.65625 92.0999984741211 87.1750030517578 80.0875015258789 75.5999984741211 75.28125 71.2562484741211 70.8000030517578 67.875 64.7062530517578 
118.506248474121 120.993751525879 126.081253051758 131.362503051758 130.181243896484 127.0625 123.931251525879 118.487503051758 114.53125 113.912498474121 113.418746948242 109.900001525879 107.537498474121 104.349998474121 100.349998474121 98.4250030517578 96.5062484741211 95.2437515258789 93.1937484741211 94.5812530517578 97.6624984741211 98.0687484741211 97.9000015258789 98.8562469482422 94.3874969482422 87.21875 82.5500030517578 78.2874984741211 73.9937515258789 70.2125015258789 66.6312484741211 63.5 62.8687515258789 64.4437484741211 68.1125030517578 73.0812530517578 76.0875015258789 80.9375 85.2750015258789 90.2312469482422 92.9375 94.0562515258789 88.8312530517578 85.1437530517578 76.2874984741211 71.2625045776367 68.7750015258789 67.0625 64.0124969482422 59.1500015258789 56.5875015258789 
114.362503051758 116.699996948242 122.293746948242 121.199996948242 122.081253051758 117.606246948242 114.131248474121 112.237503051758 108.793746948242 109.181251525879 107.762496948242 104.324996948242 102.262496948242 100.387496948242 97 94.6875 94.0124969482422 90.21875 89.5 90.4875030517578 91.6999969482422 91.7750015258789 92.3562469482422 90.9000015258789 87.2375030517578 81.7062530517578 77.3687515258789 73.3375015258789 71.2687530517578 67.71875 63.3937492370605 60.6500015258789 59.5 60.0250015258789 62.8624992370605 67.0500030517578 70.1062469482422 74.3187484741211 78.1687469482422 80.7624969482422 85.5437469482422 84.4250030517578 82.1687469482422 79.2312469482422 72.3562469482422 64.84375 63.5187492370605 61.71875 56.7625007629395 53.2000007629395 47.4625015258789 
106.168746948242 111.318748474121 114.3125 113.512496948242 111.625 109.231246948242 105.606246948242 106.175003051758 105.137496948242 103.568748474121 102.3125 101.25 98.9812469482422 95.4000015258789 92.4124984741211 90.1875 87.7312469482422 86.1125030517578 84.03125 83.5749969482422 85.2562484741211 84.75 85.1500015258789 82.1062469482422 79.3937530517578 75.4625015258789 71.2687530517578 68.2375030517578 66.4625015258789 63.03125 59.9000015258789 57.0250015258789 55.7249984741211 56.3312492370605 57.8125 60.59375 65.0999984741211 67.375 68.71875 71.3625030517578 76.0500030517578 76.0875015258789 74.3187484741211 71.0562515258789 66.0437469482422 63.1375007629395 60.6812515258789 56.2937507629395 51.4437484741211 49.1187515258789 44.2000007629395 
99.9375 103.881248474121 102.224998474121 104.856246948242 105.15625 104.193748474121 101.081253051758 99.9250030517578 99.28125 98.5062484741211 98.2437515258789 96.09375 96.21875 90.7437515258789 86.9187469482422 85.3625030517578 85.0500030517578 80.6687469482422 76.9437484741211 78.2125015258789 79.8562469482422 79.1437530517578 78.1624984741211 74.1062469482422 70.8000030517578 69.71875 66.2437515258789 62.4562492370605 59.5750007629395 57.8375015258789 55.6062507629395 54.0625 53.3187484741211 53.9437484741211 54.7249984741211 55.8250007629395 58.5 61.8375015258789 61.5125007629395 61.3250007629395 64.1937484741211 66.2937469482422 65.3687515258789 62.25 59.6937484741211 58.7249984741211 55.2249984741211 51.03125 47.2687492370605 44.9312515258789 41.6437492370605 
93.4000015258789 92.8687515258789 91.46875 92.1312484741211 94.3687515258789 95.1999969482422 95.1937484741211 93.8874969482422 94.2249984741211 92.34375 92.6312484741211 92.75 90.5812530517578 88.8125 85.4312515258789 82.8874969482422 80.7249984741211 76.4812469482422 72.0812530517578 73.2249984741211 72.6624984741211 72.3000030517578 70.40625 66.7624969482422 65.2312469482422 62.6812515258789 60.0437507629395 58.0187492370605 54.3250007629395 53.15625 52.4500007629395 51.1312484741211 50.03125 50.4562492370605 51.5 51.6375007629395 53.96875 53.6937484741211 53.5374984741211 54.9375 56.96875 57.2625007629395 56.4500007629395 56.0437507629395 54.5062484741211 54.2562484741211 53.3312492370605 49.15625 43.96875 41.0187492370605 38.0562515258789 
84 82.5250015258789 80.1875 80.2874984741211 82.4312515258789 83.4000015258789 84.7249984741211 84.9625015258789 83.6062469482422 85.5187530517578 88.0625 86.2375030517578 85.6062469482422 85.6875 83.0437469482422 78.6312484741211 74.4875030517578 73.0875015258789 70.4562530517578 70.4124984741211 68.75 66.4562530517578 63.4874992370605 61.2125015258789 60.4187507629395 57.71875 56.2125015258789 53.3562507629395 51.2937507629395 49.5625 48.6749992370605 47.3062515258789 45.6749992370605 46.1124992370605 47.6875 48.8062515258789 48.3562507629395 47.90625 47.9937515258789 50.3250007629395 51.7562484741211 52.34375 50.0250015258789 50.1500015258789 49.2374992370605 49.4375 50.9187507629395 46.2937507629395 42.7750015258789 38.6687507629395 36.3624992370605 
74.8375015258789 73.59375 72.8874969482422 73.03125 73.2375030517578 72.1812515258789 73.2062530517578 72.3499984741211 74.7874984741211 75.5999984741211 78.7687530517578 80.125 81.3125 80.375 77.7750015258789 73.03125 70.09375 68.1937484741211 65.8937530517578 65.0437469482422 64.1187515258789 60.5 58.9375 57.15625 54.8499984741211 52.28125 50.875 49.5250015258789 47.6124992370605 46.3937492370605 45.5125007629395 43.9500007629395 42.4500007629395 43.2125015258789 44.2125015258789 44.2750015258789 42.9625015258789 42.8562507629395 44.0562515258789 45.2062492370605 46.6937484741211 47.75 47.6062507629395 46.6437492370605 46.5374984741211 45.1812477111816 44.1687507629395 41.1812477111816 38.3687515258789 36.4500007629395 33.5812492370605 
67.2312469482422 64.1437530517578 65.2687530517578 65.03125 65.8937530517578 65.1125030517578 64.3499984741211 63.7125015258789 63.75 65.4562530517578 69.8249969482422 73.8812484741211 78.375 79.09375 74.3187484741211 69.8375015258789 66.2750015258789 63.7374992370605 62.53125 60.4249992370605 59.1937484741211 57.4312515258789 54.9749984741211 53.0125007629395 50.6937484741211 48.0187492370605 46.8312492370605 45.625 43.8624992370605 40.8812484741211 40.2687492370605 40.4124984741211 39.7625007629395 40.0125007629395 39.7625007629395 39.625 39.3125 40 40.25 40.3187484741211 40.9000015258789 40.9312515258789 42.6624984741211 42.4812507629395 41.8312492370605 41.2687492370605 40.0250015258789 38.0250015258789 35.4874992370605 33.1312484741211 30.53125 
58.96875 57.5250015258789 59.0625 57.7625007629395 58.0687484741211 56.9500007629395 56.46875 55.7000007629395 55.4187507629395 55.9375 59.7312507629395 65.2687530517578 72.03125 71.5625 69.21875 65.6374969482422 62.8187484741211 59.8375015258789 57.3624992370605 55.7562484741211 52.4124984741211 52.1749992370605 49.46875 47.3812484741211 44.6687507629395 43.9749984741211 42.9749984741211 41.9249992370605 40.2625007629395 37.8499984741211 37.1500015258789 37.5875015258789 36.7937507629395 37.0750007629395 36.9249992370605 36.0999984741211 36.1749992370605 36.34375 37.375 37.4812507629395 36.9375 37.3499984741211 37.0999984741211 37.3125 37.1500015258789 36.3187484741211 34.9249992370605 34.0625 32.3937492370605 29.6312503814697 27.5249996185303 
50.9375 51 51.7374992370605 50.3624992370605 50.5250015258789 50.5687484741211 50.0374984741211 49.1187515258789 48.03125 46.5562515258789 50.6437492370605 57.2687492370605 62.6437492370605 63.3687515258789 62.78125 60.5687484741211 57.8312492370605 54.5125007629395 52.0499992370605 50.7312507629395 47.5187492370605 45.6437492370605 43.75 42.7249984741211 40.4500007629395 39.4749984741211 38.78125 37.5812492370605 36.2749977111816 35.2937507629395 34.3937492370605 33.9124984741211 33.125 33.375 33.2625007629395 32.1937484741211 32.09375 33.3937492370605 34.6500015258789 34.21875 33.2687492370605 33.5374984741211 33.1624984741211 34.0875015258789 34.0125007629395 32.1375007629395 32.0562515258789 30.5625 29.2687511444092 27.2937507629395 24.96875 
43.0812492370605 44.0562515258789 43.6437492370605 44.09375 44.2999992370605 44.3312492370605 44.0812492370605 43.28125 42.53125 40.5499992370605 47.1749992370605 52.875 55.6875 57.0375022888184 57.3312492370605 55.8624992370605 52.125 50.6937484741211 47.6875 46.1062507629395 43.9187507629395 41.7125015258789 39.2125015258789 38.4624977111816 37.2437515258789 36.2062492370605 35.2374992370605 34.28125 33.2437515258789 31.9624996185303 29.9250011444092 30.03125 29.40625 29.8312492370605 29.0500011444092 27.8875007629395 29.0562496185303 29.9312496185303 30.9249992370605 30.8062496185303 30.1749992370605 31.1499996185303 30.5562496185303 28.8999996185303 28.875 28.0499992370605 27.90625 27.84375 25.2937488555908 23.7374992370605 22.9437503814697 
37.4812507629395 37.3624992370605 36.6812515258789 38.0250015258789 38.3937492370605 38.3312492370605 37.2937507629395 38.6624984741211 39.9749984741211 42.7625007629395 48.7625007629395 50.1312484741211 50.9000015258789 52.53125 52.7625007629395 50.4625015258789 47.7937507629395 45.9937515258789 42.8624992370605 41.4625015258789 39.53125 37.2937507629395 35.9625015258789 35.1937522888184 33.4937515258789 32.5687484741211 32.1312522888184 30.8875007629395 30.2124996185303 29.5749988555908 28.0625 26.8875007629395 26.3500003814697 26.6812496185303 26.46875 26.09375 27.1187496185303 28.2749996185303 28.5249996185303 27.15625 27.7062492370605 29.1124992370605 27.4937496185303 26.5124988555908 26.0062484741211 25.2624988555908 24.1124992370605 23.3500003814697 22.2374992370605 21.7875003814697 20.8500003814697 
32.6937484741211 32.8250007629395 31.9750003814697 33.40625 33.34375 34.0562515258789 33.9874992370605 35.1062507629395 36.9500007629395 39.3562507629395 42.8187484741211 45.0125007629395 45.8375015258789 46.3062515258789 47 46.6312484741211 43.7000007629395 42.6875 40.0687484741211 37.6937484741211 34.65625 33.2000007629395 31.7562503814697 31.0812492370605 29.8624992370605 29 28.3687496185303 27.6499996185303 26.7000007629395 26.7062492370605 26.2875003814697 25.25 24.6124992370605 24.6000003814697 25.3062496185303 24.7437496185303 24.71875 25.5 26.8312492370605 26.1187496185303 26.375 27.0499992370605 25.7062492370605 24.2374992370605 22.9125003814697 21.8937492370605 21.5874996185303 20.65625 20.1187496185303 19.7312507629395 18.8062496185303 
27.0625 27.6124992370605 28.1687507629395 28.8062496185303 29.1937503814697 29.53125 30.3250007629395 32.0437507629395 32.3624992370605 35.4874992370605 38.3875007629395 40.5750007629395 41.6812515258789 41 40.8937492370605 40.8875007629395 39.9500007629395 38.3875007629395 35.90625 33.7687492370605 31.0687503814697 29.7250003814697 28.0875015258789 27.375 27.3687496185303 26.4750003814697 25.7937507629395 25.4375 24.9249992370605 23.7937488555908 23.4624996185303 24.1750011444092 23.6062507629395 23.6062507629395 23.6437492370605 23.3812503814697 23.4812488555908 23.8250007629395 24.8000011444092 25.09375 24.5812492370605 24.5437507629395 23.7937507629395 22.4624996185303 21.3312511444092 20.1875 19.28125 18.1062507629395 18.2625007629395 17.5749988555908 16.9749984741211 
22.6499996185303 23.2687492370605 24.0874996185303 24.6499996185303 25.5874996185303 26.1687507629395 27.4125003814697 27.9437503814697 28.6124992370605 30.7875003814697 33.1312484741211 35.5750007629395 36.5437507629395 35.4187507629395 35.4749984741211 36.3250007629395 36.0062484741211 35.125 32.875 31.25 28.6625003814697 26.9750003814697 25.2250003814697 23.8500003814697 23.9125003814697 23.2437496185303 23.0625 22.875 22.8999996185303 22.7062492370605 21.0874996185303 21.3999996185303 21.6500015258789 22.9500007629395 22.8875007629395 21.5874996185303 21.8125 22.6749992370605 23.4750003814697 23.7749996185303 23.0125007629395 22.4375 21.2250003814697 20.3125 19.34375 18.6124992370605 17.2374992370605 15.75 16.125 15.5375003814697 14.7062501907349 
18.1812496185303 19.1749992370605 19.78125 20.2312507629395 20.3937492370605 21.5499992370605 22.4249992370605 22.8875007629395 24.2000007629395 26.0187492370605 27.7312507629395 29.3812503814697 30.1062507629395 30.2999992370605 31.0437488555908 31.96875 31.9312496185303 31.8125 30.28125 27.8812503814697 25.4375 23.4375 22.3937492370605 22.1875 22.25 21.0625 21.0625 20.75 20.25 20.0499992370605 19.3999996185303 18.4937496185303 18.3125 19.8250007629395 22.1812515258789 22.1125011444092 20.7000007629395 21.2124996185303 21.6437492370605 20.8250007629395 20.2999992370605 20.21875 19.7124996185303 18.53125 18.4187488555908 16.84375 15.2312498092651 14.375 15.1687498092651 14.2062501907349 12.7875003814697 
14.6750001907349 15.2749996185303 15.7375001907349 16.1187496185303 16.7062492370605 17.5750007629395 18 18.6937503814697 19.7875003814697 21.40625 22.7687492370605 24.3312492370605 25.1187496185303 26.2749996185303 27.1124992370605 27.4187507629395 28.5687503814697 29.0874996185303 27.6749992370605 26.03125 23.7062492370605 21.6875 19.875 19.9375 19.5625 18.875 18.5 18.25 17.875 17.9937496185303 17.1937503814697 16.6499996185303 16.7124996185303 17.5437488555908 20.3999996185303 22.1000003814697 20.1312503814697 19.9125003814697 20.0062503814697 18.7437496185303 18.2687511444092 18.1937503814697 17.3187503814697 16.6312503814697 16.2687511444092 15.2062501907349 14.3999996185303 13.0562496185303 12.4499998092651 12.6937503814697 11.3125 
11.4125003814697 11.7624998092651 12.4375 12.8562498092651 13.8374996185303 14.65625 14.875 15.0874996185303 16.2875003814697 17.53125 18.5375003814697 19.6625003814697 21.1812496185303 22.8062496185303 24.0187492370605 23.9562492370605 24.6625003814697 25.71875 25.1062507629395 23.4312496185303 21.2687492370605 19.8250007629395 17.75 17.4375 17.375 17.125 16.1875 16.125 15.9375 16 15.4375 15.0437498092651 15.15625 16.5874996185303 18.1124992370605 20.125 18.9249992370605 18.3999996185303 18.0062503814697 17.7875003814697 16.7687511444092 16.4375 16.25 15.3812494277954 14.7749996185303 13.8125 13.1937503814697 11.8937501907349 10.8000001907349 11.0625 10.5749998092651 
