ncols        51
nrows        45
xllcorner    -63.500000000000
yllcorner    -7.500000000000
cellsize     0.166666666667
NODATA_value -99
105.125 103.112503051758 102.050003051758 103.837501525879 106.3125 110.418746948242 111.5625 114.087501525879 117.268753051758 119.262496948242 117.931251525879 119.837501525879 123.356246948242 124.606246948242 127.918746948242 128.481246948242 130.643753051758 131.649993896484 132.162506103516 135.574996948242 135.493743896484 133.212493896484 131.100006103516 128.643753051758 124.90625 121.5 121 121.993751525879 116.768753051758 111.512496948242 102.181251525879 96.7249984741211 92.1437530517578 85.9187469482422 81.2375030517578 78.78125 75.6999969482422 73.8000030517578 73.4375 72.5749969482422 72.1500015258789 72.9124984741211 72.1062469482422 71.2874984741211 72.7125015258789 73.1624984741211 73.5187530517578 73.4124984741211 74.2375030517578 73.1500015258789 75.6687469482422 
101.150001525879 98.6187515258789 100.037498474121 102.349998474121 105.824996948242 108.925003051758 108.381248474121 110.275001525879 113.675003051758 115.462501525879 115.256248474121 118.006248474121 118.900001525879 118.806251525879 120.849998474121 123.743751525879 124.46875 126.356254577637 128.956253051758 132.306243896484 131.824996948242 129.256256103516 127.050003051758 125.375 121.1875 116.53125 117.543746948242 116.631248474121 111.65625 105.724998474121 99.8000030517578 94.2937469482422 90.0749969482422 86.2937469482422 81.8000030517578 79.125 75.1875 74.8687515258789 74.1750030517578 73.65625 75.28125 75.3499984741211 75.9437484741211 76.1312484741211 77.9312515258789 78 78.625 77.0124969482422 76.25 75.03125 76.2062530517578 
96.6374969482422 96.3562469482422 98.9375 102.662498474121 106.306251525879 108.581253051758 109.09375 110.068748474121 111.625 112.449996948242 113.4375 115.53125 115.606246948242 113.737503051758 114.993751525879 116.912498474121 118.175003051758 119.0625 120.487503051758 121.050003051758 121.393753051758 120.875 118.8125 117.974998474121 112.84375 109.681251525879 111.5 109.081253051758 104.550003051758 99.8249969482422 93.0875015258789 87.9625015258789 84.1437530517578 81.0999984741211 76.0374984741211 71.7624969482422 69.15625 68.5437469482422 67.6062469482422 68.2937469482422 70.8312530517578 71.9937515258789 74.0999984741211 74.3874969482422 76.1875 75.9937515258789 75.3812484741211 75.15625 72.9749984741211 71.3312454223633 71.8312530517578 
92.6812515258789 91.78125 96.0687484741211 100.756248474121 103.6875 105.400001525879 106.662498474121 107.762504577637 110.737503051758 111.15625 110.262496948242 110.425003051758 110.512504577637 108.431251525879 109.199996948242 110.237503051758 111.699996948242 112.025001525879 112.412498474121 114.987503051758 114.056251525879 111.800003051758 109.3125 108.75 104.925003051758 101.837501525879 102.787498474121 98.6937484741211 95.3562469482422 91.40625 85.8499984741211 80.125 75.1999969482422 71.1125030517578 66.9937515258789 64.2125015258789 63.2937507629395 61.78125 60.3499984741211 62.09375 63.7937507629395 67.0437469482422 69.5875015258789 71.7874984741211 73.4499969482422 73.09375 72.2062530517578 70.8187484741211 68.3375015258789 66.8562469482422 65.4749984741211 
97.4937515258789 94.3562469482422 93.0437469482422 95.8812484741211 100.537498474121 101.756248474121 102.206253051758 105.368751525879 109.387496948242 109.606246948242 107.224998474121 106.131248474121 105.493751525879 104.050003051758 103.962501525879 105.006248474121 105.131248474121 103.837501525879 103.206253051758 105.46875 106.574996948242 102.756248474121 100.775001525879 101.637496948242 96.9812469482422 93.5124969482422 92.1999969482422 91.3625030517578 88.4124984741211 82.7624969482422 79.3625030517578 73.4749984741211 69.4312515258789 65.8499984741211 61.8624992370605 58.3624992370605 56.3250007629395 54.96875 53.8187484741211 54.5999984741211 57.8250007629395 61.2125015258789 65.6750030517578 68.46875 70.3625030517578 70.3499984741211 68.7249984741211 65.59375 62.8812484741211 60.9124984741211 58.9312515258789 
99.8062515258789 96.8187484741211 94.1374969482422 90.9625015258789 94.71875 99.8874969482422 101.34375 102.618751525879 106.631248474121 106.637496948242 102.556251525879 101.28125 101.243751525879 100.21875 99.4812469482422 100.175003051758 98.8187484741211 95.9375 95.78125 97.1125030517578 97.9749984741211 96.4124984741211 95.0124969482422 92.1624984741211 89.7750015258789 87.2062530517578 85.8499984741211 84.1875 82.1374969482422 76.2874984741211 72.96875 69.2874984741211 64.5687484741211 61.4625015258789 56.9749984741211 54.84375 52.1812515258789 49.7874984741211 49.4562492370605 51 52.5999984741211 56.3312492370605 60.6812515258789 65.0187530517578 69.0500030517578 67.9812545776367 64.0374984741211 60.3250007629395 58.3687515258789 56.0250015258789 54.7562484741211 
102.668746948242 100.868751525879 98.2750015258789 95.4625015258789 95.3812484741211 96.0124969482422 96.6937484741211 97.4562530517578 96.5187530517578 96.7874984741211 95.3812484741211 95.40625 96.9000015258789 96.34375 96.2874984741211 96.2249984741211 94.3625030517578 91.4437484741211 89.4250030517578 90.6687469482422 90.6062469482422 90 88.8187484741211 86.7375030517578 83.9499969482422 81.9375 80.1500015258789 77.8062515258789 74.1937484741211 70.9562530517578 67.3125 63.3062515258789 60.2062492370605 57.2249984741211 53.5499992370605 50.8812484741211 47.8375015258789 45.7562484741211 45.8187484741211 47.1437492370605 48.2937507629395 51.5625 56.0625 61.0625 66.2624969482422 65.9562530517578 60.6624984741211 54.2874984741211 52.2625007629395 51.03125 51.1937484741211 
106 103.262496948242 102.356246948242 100.506248474121 100.893753051758 100.987503051758 96.46875 89.0124969482422 84.9375 85.4312515258789 88.5 89.9250030517578 91.4562530517578 91.9000015258789 92.2624969482422 91.5999984741211 90.2624969482422 86.9499969482422 84.0187530517578 83.65625 84.6125030517578 84.4250030517578 82.4937515258789 80.1374969482422 78.7937469482422 75.8249969482422 73.4250030517578 71.4375 68.6750030517578 64.3000030517578 62.34375 58.7625007629395 55.21875 53.0187492370605 48.9625015258789 46.2125015258789 43.4562492370605 41.2062492370605 40.6500015258789 41.0999984741211 42.3812484741211 45.5812492370605 49.3937492370605 53.3125 56.6500015258789 56.3250007629395 52.7999992370605 48.7249984741211 46.3562507629395 45.5187492370605 45.84375 
109.068748474121 106.625 106.3125 103.537498474121 102.675003051758 100.90625 97.15625 90.9437484741211 83.09375 79.6125030517578 81.7687530517578 83.8874969482422 88.09375 88.8562469482422 88.3562469482422 87.0124969482422 86.5999984741211 84.09375 83.1750030517578 80.7874984741211 80.5 80.6687469482422 78.3562469482422 78.1374969482422 75.9250030517578 71.8062515258789 67.9749984741211 66.9000015258789 64.4875030517578 60.6500015258789 58.9249992370605 54.7249984741211 50.7312507629395 47.2750015258789 44.3062515258789 42.7562484741211 40.7062492370605 38.8500022888184 37.8187484741211 37.875 38.40625 40.1624984741211 42.4625015258789 44.9749984741211 46.2750015258789 46.3875007629395 44.2374992370605 41.7562484741211 39.9812507629395 40 41.96875 
111.049995422363 108.949996948242 107.706253051758 106.181251525879 105.043746948242 102.793746948242 100.650001525879 94.2624969482422 87.46875 85.125 84.1437530517578 83.2312469482422 86.5562515258789 87.7874984741211 85.40625 83.7249984741211 81.7375030517578 81.0875015258789 80.3187484741211 79.2937469482422 78.6812515258789 76.9812469482422 74.3312530517578 73.7312469482422 71.0187530517578 66.9562530517578 63.5562515258789 61.7937507629395 58.6749992370605 55.2562484741211 52.5125007629395 49.3875007629395 47.1312484741211 44.8250007629395 42.6375007629395 40.9000015258789 38.5750007629395 36.5 35.7875022888184 35.4562492370605 35.2687492370605 35.7249984741211 36.5875015258789 37.1624984741211 37.7000007629395 37.7999992370605 36.6624984741211 34.0562515258789 32.6937484741211 33.3312492370605 34.1124992370605 
114.931251525879 112.599998474121 109.849998474121 107.675003051758 107.175003051758 106.625 104.081253051758 96.3062515258789 90.53125 86.9875030517578 86.5437469482422 85.5625 85.9375 85.6937484741211 81.6125030517578 78.4000015258789 76.4812469482422 76.8562469482422 76.4499969482422 76.7750015258789 78.3000030517578 76.3625030517578 72.9375 69.6500015258789 68.40625 64.6312484741211 61.4249992370605 58.4124984741211 54.03125 50.28125 48.6437492370605 46.2312507629395 45.0562515258789 43.21875 40.5812492370605 38.4500007629395 36.1937484741211 34.5687484741211 33.3499984741211 32.3562507629395 31.4812507629395 31.5 32.125 31.8062496185303 31.3125 31.03125 29.3250007629395 27.2625007629395 26.1937503814697 26.2937507629395 26.3187503814697 
116.84375 114.75 111.900001525879 110.4375 110.193748474121 109.693748474121 107.956253051758 101.412498474121 95.0187530517578 90.7562484741211 89.0250015258789 87.0124969482422 84.6125030517578 81.6624984741211 80.1062469482422 76.8187484741211 74.1937484741211 73.40625 73.9937515258789 75.6875 77.3375015258789 75.5625 72.5124969482422 69.6125030517578 66.3874969482422 59.5875015258789 56.2062492370605 53.90625 50.375 47.5062484741211 45.5062484741211 44.3687515258789 42.3562507629395 40.5875015258789 38.9437484741211 37.6187515258789 35.6375007629395 33.5999984741211 31.2749996185303 29.1625003814697 28.0812492370605 27.8624992370605 27.7749996185303 26.1000003814697 25.0062503814697 24.1375007629395 21.78125 20.2687511444092 20.6687488555908 21.4312496185303 20.3999996185303 
117.574996948242 114.037498474121 111.887496948242 109.287498474121 109.793746948242 108.618751525879 104.90625 100.46875 94.7624969482422 91.4437484741211 89.6750030517578 87.2750015258789 82.9812469482422 77.5 74.2249984741211 72.1875 69.4124984741211 69.90625 70.3499984741211 70.8249969482422 72.8937530517578 71.6999969482422 69.0500030517578 64.40625 58.1124992370605 52.59375 51.2874984741211 49.7374992370605 48.2562522888184 45.9937515258789 43.8062515258789 42.21875 41.1937484741211 38.5125007629395 37.34375 36.9812507629395 36.6187515258789 34.3812484741211 32.1500015258789 28.5187492370605 25.15625 25.3250007629395 24.6875 22.6499996185303 22.5437507629395 21.84375 19.4375 17.6937503814697 17.4624996185303 18.3250007629395 18.2875003814697 
117.025001525879 112.118751525879 109.199996948242 107.987503051758 107.181251525879 105.012496948242 101.743751525879 99.0124969482422 93.8187484741211 90.8812484741211 88.0500030517578 83.5 79.2937469482422 73.8687515258789 67.4625015258789 66.5187530517578 64.8312530517578 65.0687484741211 63.6437492370605 63.5250015258789 65.3875045776367 64.3249969482422 62.03125 58.6437492370605 53.96875 49.9437484741211 48.7062492370605 47.5812492370605 46.2999992370605 44.8499984741211 43.5374984741211 41.2687492370605 39.96875 37.9249992370605 37.6749992370605 38.5062484741211 38.5250015258789 38.0812492370605 35.9124984741211 31.0750007629395 24.75 22.6312503814697 22.9562492370605 24.0500011444092 24.6312503814697 22.6749992370605 20.8500003814697 19.5 18.6687488555908 19.2562503814697 19.4499988555908 
114.1875 110.59375 106.762496948242 104.206253051758 103.599998474121 101.412498474121 98.3187484741211 94.8062515258789 90.1125030517578 87.46875 83.3687515258789 79.65625 75.28125 69.2125015258789 62.9375 60.0062484741211 58.6062507629395 57.8375015258789 57.2000007629395 57.5625 59.1312484741211 58.6312484741211 57.1937484741211 55.8687515258789 53.5374984741211 51.1375007629395 49.34375 47.6375007629395 45.7437515258789 44.2000007629395 42.3875007629395 40.9562492370605 39.84375 38.7562484741211 37.9812507629395 39.2687492370605 40.8624992370605 43.5250015258789 42.4437484741211 36.4187507629395 31.4249992370605 28.5812492370605 28.3125 27.2875003814697 26.0687503814697 25.0499992370605 24.2000007629395 23.6000003814697 23.4312496185303 21.6437511444092 20.6000003814697 
109.543746948242 106.712501525879 103.925003051758 101.362503051758 99.6437530517578 98.4562530517578 95.8187484741211 91.0437469482422 87.0500030517578 83.9562530517578 80.125 75.2750015258789 70.1312484741211 64.5875015258789 59.1312484741211 53.7687492370605 52.2249984741211 51.7687492370605 51.1749992370605 51.9437484741211 53.1499977111816 53.625 54.1312484741211 54.9874992370605 54.2062492370605 52.1749992370605 50.40625 47.8624992370605 45.5750007629395 44.3624992370605 43.3312492370605 41.875 40.1062507629395 39.0625 38.9937515258789 43.0750007629395 46.0375022888184 48.7874984741211 48.9625015258789 45.5062484741211 41.5812492370605 37.2312507629395 33.4749984741211 29.9187507629395 27.8250007629395 26.3875007629395 25.6999988555908 24.5812492370605 24.6499996185303 23.6437492370605 22.2437496185303 
107.137496948242 104.5625 101.15625 98.9937515258789 95.9749984741211 95.2874984741211 93.6500015258789 90.0437469482422 84.8312530517578 81.9375 78.2562484741211 72.15625 66.8187484741211 61.2249984741211 55.8250007629395 50.7312507629395 46.0062484741211 44.9749984741211 45.7312507629395 47.0374984741211 47.2687492370605 48.9437484741211 51.15625 54.7437515258789 55.8499984741211 53.5875015258789 50.375 47.8499984741211 44.8937492370605 43.3562507629395 43.34375 43.5437507629395 42.9124984741211 42.4187507629395 46.7374992370605 50.7374992370605 53.7999992370605 58.3499984741211 60.3937492370605 54.59375 48.6687507629395 41.8937492370605 35.8812484741211 32.1937484741211 29.78125 28.1749992370605 27.6749992370605 27.3125 27.4437503814697 25.75 25.1000003814697 
101.756248474121 100.275001525879 97.8499984741211 96.4000015258789 93.6999969482422 93.21875 90.0562515258789 87.0250015258789 82.5687484741211 79.1500015258789 75.6125030517578 70.2375030517578 63.5875015258789 57.53125 52.4375 47.4249992370605 42.7874984741211 39.2999992370605 41.03125 41.3687515258789 42.6624984741211 44.6687507629395 48.15625 52.1812515258789 55.1187515258789 54.0687484741211 51.8562507629395 48.9249992370605 45.2249984741211 43.0187492370605 40.9312515258789 40.5250015258789 45.4375 50.4562492370605 53.375 58.34375 62.7125015258789 65.34375 64.1500015258789 59.2125015258789 50.3875007629395 43.9937515258789 38.2437515258789 34.5374984741211 31.5437488555908 30.3374996185303 29.9937496185303 29.1875 28.28125 26.5874996185303 26.78125 
96.3375015258789 95.3187484741211 93.9124984741211 93.0500030517578 91.9124984741211 90.4312515258789 88.1500015258789 84.8499984741211 82.4812469482422 79.8000030517578 75.7312469482422 67.9312515258789 61.6187515258789 55.9312515258789 49.7937507629395 45.5875015258789 40.8499984741211 36.6937484741211 35.9500007629395 37.0562515258789 40.5625 46.7249984741211 43.6875 48.3499984741211 51.7374992370605 53.9000015258789 53.0437507629395 49.65625 47.1624984741211 42.9874992370605 40.3375015258789 42.4625015258789 48.7562484741211 53.03125 57.1375007629395 61.9375 63.7062492370605 63.15625 62.2125015258789 56.7999992370605 50.5625 44.7750015258789 39.5062484741211 35.5562515258789 33.0499992370605 31.9375 31.2250003814697 30.6499996185303 29.7437496185303 26.8562507629395 27.8687496185303 
91.8125 90.8562469482422 89.4812469482422 88.9124984741211 87.3625030517578 86.4499969482422 84.6999969482422 82.4000015258789 81.8375015258789 79.8062515258789 76.8125 71.3874969482422 63.46875 55.8062515258789 49.9500007629395 44.21875 37.6500015258789 35.7437515258789 35.5437507629395 37.2750015258789 37.1875 38.7937507629395 43.2625007629395 47.2374992370605 49.7687492370605 50.3937492370605 50.6375007629395 49.3499984741211 46.6000022888184 42.21875 40.96875 46.7374992370605 50.5812492370605 55.09375 59.9000015258789 62.125 62.90625 63.15625 60.5875015258789 55.9187507629395 49.4625015258789 44.3875007629395 40.5187492370605 37.0875015258789 34.6124992370605 33.8499984741211 32.3624992370605 31.5062503814697 30.4812507629395 28.1062507629395 29.4499988555908 
85.2937469482422 86.6312484741211 87.3687515258789 87.34375 85.1875 84.3562469482422 83.6875 82.4499969482422 82.28125 80.3687515258789 78.1500015258789 74.0124969482422 66.0749969482422 58.1624984741211 51.2750015258789 45.3187484741211 39.5812492370605 36.1687507629395 36.7625007629395 37.5999984741211 39.8624992370605 42.8312492370605 46.2312507629395 50.40625 54.2937507629395 54.0125007629395 51.6687507629395 50.0374984741211 48.4749984741211 47.78125 48.5187492370605 51.9500007629395 53.53125 55.71875 59.8875007629395 61.625 63.3875007629395 63.4500007629395 60.1062507629395 55.8375015258789 49.8375015258789 45.46875 41.8875007629395 38.125 35.8250007629395 34.71875 33.7687492370605 32.65625 30.9812488555908 30.1000003814697 30.65625 
81.8187484741211 82.0562515258789 83.7062530517578 85.2937469482422 84.8937530517578 83.6125030517578 83.9875030517578 82.2062530517578 82.7062530517578 80.8687515258789 80.3375015258789 78.90625 75.3125 67.7750015258789 59.5499992370605 50.9937515258789 46.2625007629395 42.8687515258789 42.1812515258789 42.6687507629395 42.53125 44.7000007629395 48.2750015258789 51.9000015258789 54.3624992370605 55.0125007629395 56.6812515258789 54.6062507629395 53.5875015258789 52.7937507629395 53.03125 54.3687515258789 55.1312484741211 56.7750015258789 57.75 59.4437484741211 62.25 63.59375 60.8687515258789 56.1812515258789 50.4812507629395 46.0625 41.8687515258789 39.1500015258789 36.0875015258789 34.9500007629395 34.5187492370605 33.6812477111816 32.1812477111816 32.3375015258789 31.5187492370605 
78.6749954223633 81.5999984741211 84.375 85.2125015258789 85.7062530517578 84.8375015258789 83.0687484741211 81.0875015258789 82.7874984741211 84.0562515258789 85.8812484741211 86.7249984741211 86.2062530517578 79.4499969482422 68.9375 59.1437492370605 52.0250015258789 48.3624992370605 46.9124984741211 46.25 46.3875007629395 48.3562507629395 51.1500015258789 52.03125 55.4500007629395 57.8062515258789 59.2000007629395 58.9562492370605 57.0062484741211 54.9812507629395 54.7750015258789 56.1312484741211 56.2374992370605 55.8187484741211 55.3499984741211 54.5374984741211 57.34375 61.5625 60.5875015258789 55.6437492370605 50.7312507629395 45.96875 41.9249992370605 39.0750007629395 36.2874984741211 35.2374992370605 34.6812515258789 34.5812492370605 33.8875007629395 33.6375007629395 32.96875 
78.1062469482422 82.4937515258789 86.2750015258789 85.4562530517578 85.1062469482422 84.6875 84.4250030517578 84.1125030517578 83.2937469482422 85.7437515258789 88.4875030517578 93.1125030517578 94.6687469482422 87.1687469482422 76.3874969482422 66.3937530517578 58.96875 54.4312515258789 51.9312515258789 51.03125 51.0374984741211 52.3624992370605 53.5999984741211 55.40625 57.5562515258789 58.6500015258789 61.2062492370605 59.5750007629395 58.4187507629395 57.3937492370605 57.4625015258789 57.96875 57.5687484741211 55.3187484741211 53.8312492370605 51.8875007629395 53.7125015258789 57.8875007629395 57.7249984741211 53.5812492370605 48.9874992370605 44.8937492370605 40.9749984741211 37.8499984741211 36.7625007629395 35.1624984741211 35.3187484741211 35.4375 36.0250015258789 35.3499984741211 34.3812484741211 
79.2249984741211 83.6687545776367 87.0687484741211 88.2375030517578 88.4250030517578 87.2750015258789 86.0250015258789 85.8312530517578 86.4499969482422 88.75 90.3125 92.9625015258789 94.03125 88.6437530517578 79.8562469482422 71.5125045776367 64.6624984741211 59.6500015258789 56.53125 55.2125015258789 55.1687507629395 55.5750007629395 56.4249992370605 57.84375 58.59375 60.5062484741211 60.7937507629395 59.7125015258789 58.8187484741211 58.5250015258789 58.34375 58.3812484741211 57.6312484741211 56.2562484741211 54.1624984741211 51.9375 53.0374984741211 53.9874992370605 53.4625015258789 50.8250007629395 46.96875 43.75 40.375 37.6624984741211 36.1124992370605 35.7062492370605 34.2750015258789 36.7125015258789 37.7437515258789 36.5812492370605 35.4874992370605 
82.3562469482422 86.6812515258789 87.6437530517578 90.0124969482422 89.0625 87.9937515258789 86.90625 87.6125030517578 86.7687530517578 87.4312515258789 89.03125 90.6937484741211 90.9187469482422 86.0999984741211 80.3312530517578 73.125 67.5187530517578 63.3562507629395 59.6062507629395 58.5687484741211 58.6375007629395 58.3687515258789 59.4000015258789 59.3624992370605 59.5374984741211 60.5062484741211 61 60.0625 59.65625 59.84375 59.4187507629395 59.4625015258789 57.78125 55.9124984741211 53.6749992370605 52.5499992370605 52.3812484741211 51.4625015258789 50.9000015258789 47.9249992370605 44.96875 42.1812515258789 39.6187515258789 37.5187492370605 35.9562492370605 32.3624992370605 34.5437507629395 36.4625015258789 37.625 36.0187492370605 34.3499984741211 
85.0749969482422 87.34375 88.9124984741211 89.96875 89.3625030517578 88.2624969482422 88.3375015258789 87.5 85.6187515258789 87.1999969482422 88.6812515258789 87.5062484741211 86.3499984741211 82.75 78.7437515258789 73.125 68.8062515258789 64.8874969482422 62.2687492370605 60.1375007629395 59.15625 59.5499992370605 59.7250022888184 60.53125 60.5125007629395 59.8062515258789 60.9500007629395 60.4437484741211 59.6875 59.28125 59.6375007629395 58.875 57.5875015258789 55.7125015258789 53 51.8687515258789 50.4000015258789 49.4874992370605 47.875 45.1875 42.4749984741211 40.2687492370605 38.9812507629395 36.6312484741211 35.21875 34.7687492370605 35.7625007629395 35.3687515258789 35.7749977111816 34.0437507629395 31.7687492370605 
89.2312469482422 87.5999984741211 88.9499969482422 89.875 89.9562530517578 87.9625015258789 87.6937484741211 87.1374969482422 86.0999984741211 86.4812469482422 85.5062484741211 83.5687484741211 81.9499969482422 79.7125015258789 75.7249984741211 71.8499984741211 69.0500030517578 65.8125 63.5625 61.4249992370605 60.59375 59.3375015258789 60.4874992370605 60.8812484741211 60.3624992370605 59.0374984741211 60.0999984741211 60.2937507629395 60.0499992370605 59.7562484741211 59.2062492370605 58.1187515258789 56.6937484741211 54.1687507629395 52.5687484741211 50.6375007629395 48.5750007629395 47.25 46.0250015258789 43.9812507629395 41.34375 39.8250007629395 38.6187515258789 37.7562484741211 37.1687507629395 36.7750015258789 36.3562507629395 35.2625007629395 33.9562492370605 31.6375007629395 30.0625 
90.3062515258789 90.1125030517578 89.625 90.03125 88.09375 86.5062484741211 85.1750030517578 83.6500015258789 84.6125030517578 83.5187530517578 82.3562469482422 79.9124984741211 77.8625030517578 76.09375 73.3249969482422 70.3562469482422 68.7624969482422 66.5 64.4562530517578 62.7937507629395 61.71875 60.4625015258789 60.8375015258789 60.34375 60.15625 58.46875 59.6749992370605 59.7000007629395 59.3250007629395 58.90625 58.0625 57.3312492370605 54.8812484741211 51.9874992370605 50.5250015258789 49.6749992370605 48.1875 46.875 45.6500015258789 43.21875 40.0125007629395 38.7874984741211 38.2437515258789 38.3624992370605 37.7999992370605 36.96875 36.1749992370605 34.6500015258789 32.125 29.4937496185303 26.8374996185303 
89.5687484741211 89.78125 88.7249984741211 86.7750015258789 85.4625015258789 84.1999969482422 82.3812484741211 82.1875 81.5875015258789 79.8562469482422 79.0374984741211 77.2249984741211 75.0500030517578 72.875 70.6125030517578 68.1687469482422 66.0374984741211 65.3062515258789 64.8624954223633 62.1500015258789 60.7999992370605 60.5062484741211 60.84375 60.0437507629395 59.1937522888184 58.9249992370605 58.8250007629395 58.7125015258789 57.3187484741211 56.5499992370605 56.0250015258789 55.5812492370605 53.21875 50.96875 49.5687484741211 48.2249984741211 48.2374992370605 47.5499992370605 45.9500007629395 44.8375015258789 42.8125 41.21875 39.3937492370605 38.875 38.4749984741211 37.2937507629395 35.9500007629395 34.5125007629395 31.2625007629395 28.4500007629395 25.75 
88.2562484741211 87.3937530517578 84.6999969482422 83.9375 84.71875 82.6624984741211 81.1687469482422 79.4437484741211 77.9562530517578 76.2249984741211 74.6812515258789 74.4437484741211 73.5875015258789 71.4000015258789 68.03125 65.7312469482422 64.8937530517578 64.3874969482422 64.4187469482422 62.6187515258789 60.9749984741211 58.9874992370605 58.8312492370605 58.2999992370605 57.5187492370605 57.7999992370605 56.8937492370605 57.1437492370605 56.5187492370605 55.8250007629395 55.3687477111816 54.28125 51.65625 49.71875 49.2374992370605 47.8812484741211 47.8187484741211 47.4749984741211 47.28125 47.3375015258789 45.5374984741211 42.4187507629395 39.9249992370605 39.9187507629395 38.8187484741211 37.2374992370605 34.7687492370605 33.0562515258789 30.7062492370605 27.6749992370605 25.4187507629395 
86.0062484741211 85.2624969482422 82.4625015258789 81.2874984741211 82.34375 80.3375015258789 78.3000030517578 75.5812530517578 74.40625 73.1187515258789 71.6437530517578 70.8312530517578 69.2375030517578 68.0062484741211 65.6750030517578 65.1312484741211 63.6812515258789 62.8187484741211 61.9375 60.8499984741211 59.6624984741211 59.1187515258789 57.7687492370605 56.0812492370605 55.84375 55.96875 55.3125 55.6437492370605 54.8312492370605 53.7750015258789 53.65625 52.2249984741211 50.0437507629395 48.71875 46.9625015258789 45.6937522888184 45.84375 46.0750007629395 46.4749984741211 46.8687515258789 45.3499984741211 42.3312492370605 40.6312484741211 39.5062484741211 38.7999992370605 37.3562507629395 34.25 32.1812515258789 29.90625 27.7625007629395 25.5499992370605 
80.53125 79.28125 77.5124969482422 77.1750030517578 76.6125030517578 74.4937515258789 73.5437469482422 71.84375 70.0562515258789 69.5437469482422 69.84375 67.7874984741211 65.8187484741211 65.4250030517578 63.4124984741211 63.0750007629395 61.7687492370605 61.2937507629395 60.1500015258789 58.9249992370605 57.6500015258789 56.6875 55.6500015258789 55.5062484741211 55.2374992370605 54.4562492370605 53.9874992370605 52.7312507629395 52.3937492370605 51.2374992370605 51.2312507629395 49.875 47.8937492370605 46.2874984741211 44.875 43.7312507629395 43.8062515258789 43.7562484741211 44.21875 44.6812515258789 43.28125 41.34375 39.8125 38.4625015258789 37.59375 36.2874984741211 34.8125 32.1624984741211 29.8500003814697 28.0874996185303 26.0499992370605 
74.78125 74.7062530517578 73.15625 73.6812515258789 70.8312530517578 69.7750015258789 69.6437530517578 68.3562469482422 66.5875015258789 65.5687484741211 65.1437530517578 64.1687469482422 63.4249992370605 60.9124984741211 60.2312507629395 59.2125015258789 59 57.9749984741211 56.625 56.0187492370605 55.2312507629395 54.3250007629395 53.7999992370605 53.15625 53.4187507629395 53.0750007629395 52.3624992370605 50.7687492370605 50.96875 50.2312507629395 49.7000007629395 48.2125015258789 45.6375007629395 43.4937515258789 42.4937515258789 41.4874992370605 41.4500007629395 41.0812492370605 41.5812492370605 41.4249992370605 41.3312492370605 40.28125 38.8624992370605 37.34375 36.1500015258789 35.09375 33.7687492370605 32.0999984741211 30.2374992370605 28.25 26.8687496185303 
70.2249984741211 69.8125 69.0062484741211 67.9562530517578 66.6500015258789 65.7750015258789 65.375 64.5 61.90625 61.5374984741211 61.125 61.125 59.5499992370605 58.5812492370605 57.875 57.4812507629395 57.0625 55.8250007629395 54.4625015258789 53.8375015258789 53.3125 52.2312507629395 51.1812515258789 51.1749992370605 51.0687484741211 51.2249984741211 50.4124984741211 49.1062507629395 49.3624992370605 48.9124984741211 47.4437484741211 45.5187492370605 43.15625 40.8187484741211 39.5250015258789 38.5999984741211 37.8312492370605 38.0062484741211 38.7062492370605 38.6687507629395 38.2312507629395 37.5374984741211 36.9625015258789 35.9312515258789 35.125 33.8937492370605 33.1187515258789 31.9375 30.03125 27.9437503814697 26.8500003814697 
66.09375 65.8874969482422 64.4124984741211 63.0562515258789 62.0687484741211 60.4375 59.4937515258789 58 56.3937492370605 56.4625015258789 57.3875007629395 57.0875015258789 57.1187515258789 56.5625 56.21875 56.375 55.40625 54.84375 52.84375 51.9124984741211 51.7000007629395 51.8687515258789 50.6687507629395 50.6687507629395 50.0625 49.5499992370605 48.4812507629395 48.53125 47.6687507629395 46.5562515258789 45.1187515258789 43.34375 39.9375 38.1937484741211 36.5125007629395 34.9625015258789 35.0187492370605 35.1687507629395 35.2125015258789 35.7437515258789 35.5 35.7125015258789 34.6437492370605 34.0687484741211 33.2937507629395 31.9437503814697 31.1437492370605 30.8187503814697 29.4937496185303 27.9312496185303 27.0249996185303 
60.4625015258789 60.1062507629395 58.5562515258789 57.6749992370605 56.7999992370605 55.7062492370605 54.8312492370605 54.0750007629395 52.1812515258789 51.3250007629395 54.0437507629395 56.0750007629395 56.7874984741211 55.96875 56.1312484741211 55.25 54.21875 53.1437492370605 51.6875 50.1624984741211 50.125 50.4187507629395 49.6875 49.8562507629395 49.6124992370605 48.2249984741211 47.6500015258789 47.2249984741211 45.4124984741211 44.2937507629395 43.21875 41.0562515258789 38.09375 35.5750007629395 33.8312492370605 32.6687507629395 32.625 32.9937515258789 32.9000015258789 33.3875007629395 33.0374984741211 33.3250007629395 32.46875 32.25 31.3000011444092 30.6312503814697 30.5187492370605 30.21875 29.2562503814697 28.125 27.09375 
56.0374984741211 55.9312515258789 53.9500007629395 53.7437515258789 53.1687507629395 51.8562507629395 51.0125007629395 50.1062507629395 49.4874992370605 48.625 54.2125015258789 56.8312492370605 56.0374984741211 56.21875 56.5499992370605 55.2750015258789 53.4249992370605 51.625 51.125 49.5125007629395 49.3687515258789 49.0187492370605 48.5750007629395 48.7062492370605 48.5687484741211 47.90625 47.375 46.8875007629395 45.5062484741211 43.7999992370605 41.8125 40.3062515258789 37.6687507629395 33.9562492370605 31.6000003814697 30.2437496185303 30.8999996185303 31.5125007629395 31.6875 32.1187515258789 30.6937503814697 30.34375 29.9375 29.6625003814697 29.5687503814697 29.6312503814697 30.5 30.7374992370605 29.0874996185303 28.4874992370605 28.1749992370605 
52.4500007629395 51.7000007629395 50.59375 49.6687507629395 49.5499992370605 48.5499992370605 48.0187492370605 47.375 48.0437507629395 51.4437484741211 57.21875 56.3250007629395 54.15625 54.1437492370605 53.8250007629395 53.1375007629395 52.7062492370605 51.7625007629395 49.9000015258789 50 49.3062515258789 48.46875 48.2999992370605 47.9812507629395 47.78125 47.0062484741211 46.65625 46.6375007629395 45.5062484741211 43.4812507629395 41.5187492370605 39.9437484741211 37.2687492370605 33.0812492370605 30.75 30.4874992370605 30.3999996185303 30.7124996185303 31.1000003814697 30.1999988555908 29.1187496185303 28.6312503814697 28.0062503814697 27.6062488555908 28.0499992370605 28.46875 28.1875 29.0874996185303 28.5 28.6062507629395 28.4562492370605 
48.6062507629395 48.5 47.2625007629395 46.34375 45.6062507629395 45.0249977111816 44 44.0687484741211 45.59375 48.7874984741211 51.4812507629395 52.7312507629395 52.3687515258789 51.9312515258789 52.1749992370605 52.5374984741211 51.7000007629395 50.5812492370605 49.0625 49.8875007629395 49.9000015258789 48.2562484741211 48.0499992370605 47.5812492370605 47.2874984741211 46.5437507629395 46.1937484741211 45.8687515258789 44.3062515258789 43.1437492370605 41.6375007629395 40.7874984741211 37.7312507629395 34.1124992370605 32.3812484741211 31.53125 30.4562492370605 30.7312507629395 30.53125 28.8374996185303 27.5499992370605 27.15625 26.5125007629395 25.71875 26.6499996185303 26.3875007629395 26.2000007629395 27.4500007629395 27.8062496185303 28.6187496185303 28.6375007629395 
45.2937507629395 45.9812507629395 44.84375 44.0625 42.7125015258789 41.4124984741211 40.6312484741211 40.1875 40.9375 43.8499984741211 46.1312484741211 47.6375007629395 48.8937492370605 48.8812484741211 49.6500015258789 50.2874984741211 50.3499984741211 49.8875007629395 49.5499992370605 49.75 50.2625007629395 48.6062507629395 47.4874992370605 47.0250015258789 46.9249992370605 45.875 46.1500015258789 45.0125007629395 43.8125 42.5187492370605 41.2750015258789 40.4812507629395 38.3062515258789 35.4812507629395 34.5750007629395 32.8187484741211 31.2625007629395 30.6375007629395 30.53125 28.2999992370605 26.1437492370605 25.90625 25.1875 24.8187503814697 24.8062496185303 25.2312507629395 25.4500007629395 26.6062507629395 28.6499996185303 28.125 28.0874996185303 
42.0562515258789 42.7687492370605 42.03125 41.3250007629395 39.9500007629395 37.9312515258789 36.8624992370605 36.7625007629395 37.5875015258789 39.3875007629395 40.9187507629395 42.7999992370605 44.8562507629395 45.4562492370605 46.6937484741211 48.2125015258789 48.7312507629395 49.2687492370605 48.7874984741211 49.0499992370605 48.8125 49.2437515258789 47.0499992370605 46.2625007629395 46.1624984741211 45.25 44.0687484741211 43.3875007629395 43.8562507629395 43.4812507629395 41.7249984741211 40.5125007629395 38.9437484741211 38.9937515258789 38.0875015258789 34.8875007629395 32.0687484741211 31.4375 29.9312496185303 28.1937503814697 26.0249996185303 24.4249992370605 23.2124996185303 23.5062503814697 24.1875 25.1875 25.3999996185303 26.2562503814697 28.875 27.5874996185303 27.90625 
38.8312492370605 39.78125 39.2249984741211 38.2999992370605 36.8562507629395 34.65625 33.5187492370605 33.2374992370605 33.2999992370605 34.7000007629395 36.3250007629395 38.3250007629395 39.7562484741211 41.3375015258789 44.0125007629395 45.4874992370605 46.9562492370605 47.5250015258789 48.0062484741211 48.2625007629395 48.0750007629395 49.2437515258789 47.65625 46.6187515258789 45.6187515258789 43.9812507629395 43.5125007629395 43.8562507629395 43.1624984741211 42.9187507629395 42.1124992370605 41.0687484741211 40.0125007629395 39.4937515258789 39.9812507629395 38.3937492370605 33.7625007629395 31.9624996185303 30.2062492370605 28.6062507629395 26.1812496185303 24.3187503814697 23.2124996185303 23.125 24.1000003814697 24.71875 25.5062503814697 26.3125 29.2250003814697 28.4375 27.90625 
35.9124984741211 37.2000007629395 37.3125 35.4874992370605 33.6624984741211 31.2687492370605 29.4375 29.03125 29.4375 30.6062507629395 32.4312515258789 35.0562515258789 36.46875 38.8250007629395 41.6062507629395 43.8937492370605 45.4625015258789 46.25 47.375 47.9812507629395 47.9500007629395 48.5875015258789 46.2562484741211 45.3812484741211 45.3875007629395 44.8125 44.1500015258789 43.6187515258789 43.1812515258789 42.5250015258789 42.9124984741211 42.53125 41.2937507629395 40.0437507629395 41.4874992370605 42.8812484741211 37.1937484741211 33.7374992370605 32.25 29.1124992370605 26.8125 25.6187496185303 24.3187503814697 24.2937507629395 24.1000003814697 24.6625003814697 24.9874992370605 25.5375003814697 27.6312503814697 28.7374992370605 27.53125 
33.0750007629395 34.8125 35.9312515258789 33.7999992370605 30.7250003814697 27.8937492370605 25.1499996185303 24.7000007629395 25.6875 27.5874996185303 29.5499992370605 31.96875 34.6437492370605 37.34375 39.7312507629395 41.6375007629395 43.5999984741211 44.6187515258789 46.2062492370605 47.46875 46.9812507629395 46.7374992370605 45.2249984741211 45.2874984741211 45.2000007629395 44.53125 43.3875007629395 43.1937484741211 43.0437507629395 42.8562507629395 42.3875007629395 42.5125007629395 41.5187492370605 40.3687515258789 41.3937492370605 41.625 38.2999992370605 34.9249992370605 32.2625007629395 30.1687507629395 28.1687507629395 26.9375 25.3875007629395 25.2625007629395 25.3187503814697 25.4125003814697 25.46875 25.9937496185303 26.6187496185303 27.6499996185303 26.7875003814697 
