ncols        51
nrows        45
xllcorner    -63.500000000000
yllcorner    -7.500000000000
cellsize     0.166666666667
NODATA_value -99
117.90625 111.53125 106.349998474121 104.081253051758 101.756248474121 101.131248474121 99.9499969482422 98.9187469482422 98.6875 98.0562515258789 97.6125030517578 97.3375015258789 97.3625030517578 96.0749969482422 96.7062530517578 97.1437530517578 97.6999969482422 97.1624984741211 96.7437515258789 96.5437469482422 94.6437530517578 92.4312515258789 90.7624969482422 88.6812515258789 87.1374969482422 86.1500015258789 86.8125 87.6500015258789 87.6937484741211 84.6937484741211 81.5999984741211 79.1687469482422 77.0749969482422 75.5687484741211 73.9000015258789 72.8499984741211 72.0124969482422 70.8125 69.3312530517578 67.875 65.875 64.1687469482422 61.7625007629395 59.5187492370605 57.9375 56.09375 53.6687507629395 51.0562515258789 48.7437515258789 45.8937492370605 43.5125007629395 
121.668746948242 114.275001525879 110.106246948242 107.849998474121 106.550003051758 105.637496948242 104 103.643753051758 103.106246948242 101.787498474121 100.675003051758 99.4124984741211 98.0999984741211 96.78125 96.5749969482422 97.3000030517578 97.25 97.9812469482422 98.5875015258789 99.2125015258789 97.0062484741211 94.4562530517578 92.5999984741211 90.8687515258789 88.2312469482422 86.5187530517578 86.9499969482422 87.2125015258789 87.0875015258789 84.4000015258789 81.7624969482422 79.7874984741211 77.6437530517578 77.2125015258789 76.40625 75.8625030517578 75.5749969482422 74.9625015258789 73.6624984741211 72.4875030517578 71.125 69.2062530517578 67.0875015258789 64.25 62.53125 60.3937492370605 58.0250015258789 54.3812484741211 50.9749984741211 47.2249984741211 43.8375015258789 
125.40625 118.456253051758 113.587501525879 110.106246948242 108.287498474121 107.056251525879 106.875 106.456253051758 106.387496948242 105.050003051758 102.90625 100.881248474121 99.09375 97.1500015258789 96.6875 96.7249984741211 96.9499969482422 97.4124984741211 97.2312469482422 97.2750015258789 94.6437530517578 91.6374969482422 89.2750015258789 87.5187530517578 85.1437530517578 83.125 83.40625 83.90625 83.4812469482422 80.59375 78.4875030517578 76.3187484741211 75.4124984741211 74.6500015258789 74.15625 73.40625 73.0124969482422 73.1500015258789 72.1750030517578 71.3562469482422 70.0687484741211 68.1125030517578 66.2312469482422 63.96875 61.7687492370605 59.3375015258789 56.7125015258789 52.8687515258789 48.4249992370605 44.0750007629395 40.6187515258789 
126.456253051758 119.537498474121 115.518753051758 111.081253051758 108.712501525879 107.599998474121 107.268753051758 107.887496948242 108.775001525879 107.925003051758 104.949996948242 101.893753051758 99.2874984741211 96.7874984741211 96.3249969482422 96.4124984741211 96.7249984741211 96.0500030517578 95.375 95.1374969482422 92.0625 88.3187484741211 84.8000030517578 82.5625 80.3312530517578 78.5187530517578 78.9625015258789 78.8000030517578 78.8125 76.5625 74.2624969482422 72.4625015258789 70.9875030517578 70.21875 69.59375 69.7750015258789 69.8187484741211 69.7437515258789 69.1312484741211 68.34375 66.6937484741211 65.5875015258789 63.6500015258789 61.6187477111816 59.3875007629395 57.2000007629395 53.9562492370605 49.8250007629395 45.0875015258789 40.4249992370605 36.7625007629395 
130.637496948242 122.018753051758 113.762496948242 109.787498474121 108.143753051758 107.393753051758 107.199996948242 108.337501525879 110.431251525879 110.6875 105.900001525879 101.162498474121 98.0500030517578 95.8249969482422 95.4812469482422 95.9437484741211 95.9562530517578 94.8687515258789 93.2687530517578 91.4375 88.5 84.2562484741211 80.375 78.40625 75.4562530517578 73.4562530517578 72.9625015258789 73.7062530517578 74.2624969482422 71.5187530517578 69.2375030517578 67.5250015258789 66.3125 65.71875 65.25 65.4812469482422 65.7000045776367 65.8812484741211 65.7374954223633 64.375 63.125 61.8562507629395 60.4937515258789 58.9312515258789 56.8624992370605 54.2625007629395 51.0374984741211 46.1749992370605 41.4500007629395 37 33.1375007629395 
131.506256103516 123.5 115.275001525879 107.78125 106.849998474121 107.800003051758 107.893753051758 108 109.537498474121 110.181251525879 104.787498474121 100.237503051758 97.6750030517578 95.5999984741211 94.8687515258789 94.65625 94.5062484741211 92.4375 90.2375030517578 87.2062530517578 83.7062530517578 79.875 76.0812530517578 73.4749984741211 71.1750030517578 68.8812484741211 68.6374969482422 69.0437469482422 69.3625030517578 66.7437515258789 64.125 63.15625 61.7999992370605 61.2750015258789 60.6375007629395 61.1124992370605 61.4500007629395 61.8562507629395 62.1812515258789 61.2937507629395 59.0687484741211 57.9562492370605 56.6624984741211 55.4312515258789 54.1687507629395 51.40625 47.8375015258789 42.9874992370605 38.6312484741211 34.25 30.6187496185303 
133.34375 126.900001525879 118.787498474121 111.199996948242 107.775001525879 106.474998474121 105.849998474121 104.887496948242 103.925003051758 101.568748474121 99.1999969482422 97.0999984741211 95.9812469482422 94.65625 94.1937484741211 93.9875030517578 93.2874984741211 89.9437484741211 85.9124984741211 82.8687515258789 79.2249984741211 75.34375 71.6624984741211 68.9437484741211 66.5687484741211 64.71875 64.28125 64.3125 63.7625007629395 61.4187507629395 59.3687515258789 58.09375 56.9874992370605 56.4437484741211 56 56.1187515258789 56.2125015258789 56.7249984741211 58.0562515258789 57.0999984741211 54.7062492370605 53.4312515258789 52.2437515258789 51.0062484741211 49.90625 47.8062515258789 44.7937507629395 39.8812484741211 35.5374984741211 31.6749992370605 28.7312507629395 
136.618743896484 130.043746948242 122.824996948242 117.09375 113.131248474121 109.462501525879 104.775001525879 99.34375 95.0687484741211 92.78125 93.0875015258789 93.6937484741211 93.9250030517578 93.4937515258789 93.0812530517578 92.8812484741211 91.6062469482422 87.0749969482422 82.2624969482422 77.8937530517578 74.90625 71.375 67.3375015258789 64.6374969482422 62.6687507629395 60.0374984741211 59.3812484741211 58.9937515258789 58.625 56.09375 54.1312484741211 53.3250007629395 52.3187484741211 51.4812507629395 50.9187507629395 50.6875 50.8250007629395 50.7750015258789 51.1187515258789 50.3812484741211 48.75 47.71875 46.65625 45.5 44.5374984741211 43.4312515258789 41.125 36.6687507629395 32.6124992370605 29.2000007629395 26.3624992370605 
139.418746948242 133.850006103516 127.900001525879 122.487503051758 117.862503051758 113.106246948242 107.400001525879 100.650001525879 93.1500015258789 88.8375015258789 90.3312530517578 92.1812515258789 93.59375 93.6875 92.5374984741211 90.9375 88.6624984741211 84.4375 80.71875 76.21875 72.2312469482422 68.65625 64.34375 62.2750015258789 59.7374992370605 56.84375 55.7312507629395 55.40625 54.8624992370605 52.0250015258789 50.4937515258789 50.2062492370605 48.8499984741211 47.6624984741211 46.75 46.5999984741211 46.4562492370605 46.09375 46.0625 45.7249984741211 44.5125007629395 43.5 42.8375015258789 41.9437484741211 41.0750007629395 40.2125015258789 38.7000007629395 34.8875007629395 31.125 28.0062503814697 25.8187503814697 
142.675003051758 136.993743896484 131.574996948242 126.699996948242 122.481246948242 117.943748474121 111.443748474121 103.943748474121 97.6500015258789 93.8375015258789 92.7249984741211 92.9250030517578 94.4375 94.4749984741211 91.8562469482422 88.8625030517578 85.5124969482422 82 78.4812469482422 74.9562530517578 70.8937530517578 66.7312469482422 61.9749984741211 59.46875 56.3937492370605 53.6437492370605 52.8687515258789 52.1500015258789 51.3062515258789 48.3562507629395 47.0187492370605 46.8062515258789 45.5 44.3499984741211 43.3687515258789 43.0812492370605 42.8375015258789 42.0875015258789 41.9937515258789 41.6624984741211 40.8999977111816 40.2062492370605 39.4000015258789 38.4000015258789 38.0187492370605 37.6062507629395 36.3499984741211 33.375 30.0687503814697 27.3250007629395 24.8500003814697 
146.387496948242 140.993743896484 135.481246948242 130.818756103516 126.668746948242 123.25 117.106246948242 108.84375 102.668746948242 98.4000015258789 96.46875 95.7687530517578 95.8625030517578 95.1812515258789 90.9250030517578 86.2750015258789 82.0625 79.0374984741211 76.1937484741211 73.5124969482422 70.8249969482422 65.9312515258789 60.2374992370605 56.1062507629395 53.4000015258789 51.2625007629395 50.6062507629395 50.0562515258789 48.8187484741211 46.0750007629395 44.875 44.5374984741211 43.2562484741211 41.8937492370605 40.5062484741211 39.8187484741211 39.1812515258789 38.4500007629395 38.6812515258789 38.4874992370605 37.78125 37.28125 36.7000007629395 35.8875007629395 35.3187484741211 35.4124984741211 34.2999992370605 31.5375003814697 28.8500003814697 26.1187496185303 23.6749992370605 
150.0625 144.6875 139.237503051758 135.256256103516 131.237503051758 127.993751525879 122.71875 114.375 108.1875 103.681251525879 100.574996948242 98.4000015258789 95.6500015258789 93.2687530517578 88.8000030517578 84.1312484741211 80.1375045776367 77.34375 75.3125 73.7624969482422 71.8187484741211 66.75 60.1937484741211 55.3499984741211 51.9500007629395 49.6062507629395 48.9625015258789 48.5999984741211 48.1375007629395 45.8062477111816 44.28125 43.4437484741211 41.7874984741211 40.15625 38.8499984741211 38.21875 37.5625 37.0499992370605 37.1749992370605 37.125 36.7687492370605 36.3187484741211 35.8062515258789 35.15625 34.1375007629395 32.9437484741211 31.8187503814697 30.1625003814697 27.84375 25.6812496185303 23.21875 
153.518753051758 148.631256103516 143.331253051758 138.5 133.868743896484 130.256256103516 124.75 117.743751525879 112.15625 108.087501525879 104.393753051758 100.59375 96.0250015258789 90.3249969482422 85.3062515258789 81.03125 77.46875 75.6937484741211 74.1125030517578 72.7125015258789 71.2312469482422 66.1687469482422 59.2062492370605 54.7625007629395 50.7249984741211 47.8812484741211 47.8687515258789 47.7062492370605 47.4749984741211 45.5499992370605 43.9812507629395 42.8062477111816 40.5875015258789 38.65625 37.25 36.6937484741211 36.2000007629395 35.8062515258789 36.1875 35.9937515258789 35.9562492370605 35.8062515258789 34.9625015258789 32.9312477111816 31.9437503814697 31.9125003814697 31.0874996185303 29.0625 26.6312503814697 24.8812503814697 22.9125003814697 
156.5625 150.868743896484 145.475006103516 140.300003051758 135.568756103516 130.962493896484 125.756248474121 120.018753051758 115.712501525879 111.537498474121 107.418746948242 100.8125 94.4562530517578 87.6750030517578 81.1187515258789 77.0500030517578 74.0562515258789 72.4562530517578 71.0062484741211 69.3375015258789 67.0625 62.4562492370605 56.6687507629395 52.90625 49.6624984741211 47.1937484741211 47.4749984741211 47.5125007629395 47.1437492370605 45.2687492370605 43.8062515258789 42.40625 39.7437515258789 37.3999977111816 36.03125 35.6937484741211 35.34375 35.4625015258789 35.6500015258789 35.8937492370605 35.5374984741211 34.3499984741211 33.0562515258789 32.3062515258789 31.8687496185303 31.6687507629395 31.5812492370605 29.7749996185303 27.1749992370605 24.8875007629395 22.6437492370605 
157.456253051758 151.65625 146.368743896484 141.237503051758 136.300003051758 131.581253051758 126.993751525879 121.768753051758 117.293746948242 112.90625 108.21875 100.762496948242 93.0875015258789 85.5062484741211 77.9437484741211 73.6875 71.2624969482422 70.0562515258789 68.8687515258789 67.1687469482422 64.4124984741211 60.1500015258789 55.2687492370605 52.5999984741211 50.4312515258789 48.6187515258789 48.7062492370605 48.5999984741211 48.0875015258789 46.0125007629395 44.2937507629395 42.5812492370605 39.84375 37.3562507629395 35.6312484741211 35.2999992370605 35.5 36.2249984741211 37.0750007629395 37.0687484741211 36.125 35.125 34.4000015258789 33.7562484741211 32.5562515258789 31.875 31.2124996185303 29.7687492370605 27.7937507629395 25.3687496185303 22.8062496185303 
157.256256103516 151.368743896484 146.699996948242 141.618743896484 136.800003051758 132.59375 127.737503051758 122.775001525879 118.887496948242 115.006248474121 109.681251525879 101.3125 92.8062515258789 84.0124969482422 76.0250015258789 70.15625 68.90625 68.65625 67.5187530517578 65.75 63.0374984741211 59.0625 54.53125 52.5812492370605 51.1749992370605 50.2750015258789 50.7062492370605 50.4562492370605 49.2625007629395 46.7999992370605 44.875 43.1437492370605 40.0875015258789 37.6500015258789 35.4437484741211 35.65625 36.4375 36.4812507629395 37.4375 37.7874984741211 37.8812484741211 37.1124992370605 36 34.1749992370605 33.3812484741211 32.7249984741211 32.0437507629395 30.1187496185303 27.8875007629395 25.7937507629395 23.3875007629395 
156.625 151.518753051758 146.524993896484 141.574996948242 137.225006103516 133.09375 129.024993896484 124.199996948242 120.537498474121 116.456253051758 111.387496948242 102.662498474121 93.3249969482422 84.2249984741211 76.625 71.0250015258789 67.96875 67.2687530517578 66.6500015258789 65.2249984741211 62.4187507629395 58.4500007629395 54.1312484741211 52.3937492370605 51.65625 51.8250007629395 53.0999984741211 52.1937484741211 49.96875 47.4375 45.6687507629395 44.5250015258789 41.1437492370605 38.3250007629395 37.2874984741211 38.2437515258789 38.2249984741211 38.65625 40.0499992370605 40.2687492370605 40.7249984741211 39.6624984741211 37.3187484741211 35.5875015258789 34.5875015258789 33.625 32.6312484741211 30.8562507629395 28.9437503814697 26.7625007629395 24.6000003814697 
154.850006103516 149.787506103516 145.287506103516 140.675003051758 136 132.78125 129.074996948242 124.450004577637 121.087501525879 117.231246948242 112.362503051758 103.962501525879 94.3937530517578 86.0250015258789 79.3562469482422 73.8249969482422 69.8312530517578 67.0124969482422 66.9562530517578 65.8249969482422 63.28125 58.7437515258789 54.2312507629395 53.09375 52.9500007629395 53.4625015258789 55.96875 54.3062515258789 50.9812507629395 47.6875 45.7625007629395 44.71875 42.8499984741211 41.78125 41.0562515258789 40.2374992370605 40.5250015258789 40.9187507629395 41.1187515258789 42.1687507629395 42.1937484741211 40.8562507629395 38.9249992370605 37.25 36.0875015258789 34.9375 33.7999992370605 31.9500007629395 30.2124996185303 27.8562507629395 26.2250003814697 
152.474990844727 148.162506103516 143.71875 139.300003051758 135.074996948242 131.9375 128.21875 124.362503051758 121.762496948242 118.856246948242 114.0625 105.75 96.625 88.7249984741211 81.8812484741211 76.5124969482422 72.25 68.5999984741211 67.1750030517578 66.2312469482422 64.3312530517578 60.6312484741211 54.4437484741211 53.5687484741211 53.7687492370605 54.2249984741211 55.7562484741211 54.6437492370605 51.84375 48.28125 45.7937507629395 46.2125015258789 46.4125022888184 45.2000007629395 43.625 43.5250015258789 43.3187484741211 43.1187515258789 43.5374984741211 43.8812522888184 43.6312484741211 42.9437484741211 40.8875007629395 39.1375007629395 37.8624992370605 36.6749992370605 35.2687492370605 33.5062484741211 31.4562492370605 28.8312492370605 28.0562496185303 
149.793746948242 146.03125 141.543746948242 137.4375 133.431243896484 130.875 127.806251525879 124.34375 122.681251525879 120.699996948242 117.106246948242 109.46875 100.793746948242 92.3499984741211 85.4437484741211 79.2937469482422 73.6062469482422 70.8375015258789 68.78125 67.28125 64.1374969482422 59.2874984741211 54.8062515258789 54.0250015258789 53.84375 53.4124984741211 54.1500015258789 54.34375 52.2687492370605 49.3812484741211 48.0750007629395 50.1687507629395 49.7249984741211 48.8562507629395 47.625 47.0562515258789 46.7687492370605 46.5750007629395 46.2999992370605 45.8687515258789 45.2687492370605 44.4500007629395 42.7312507629395 41.2937507629395 39.8687477111816 38.5812492370605 36.8062515258789 34.8562507629395 32.8125 30.3624992370605 29.5 
147.074996948242 144.368743896484 140.731246948242 136.737503051758 132.412506103516 130.412506103516 128.493743896484 126.0625 125.25 123.612503051758 120.675003051758 114.224998474121 106.662498474121 98.1500015258789 90.6999969482422 83.375 76.90625 72.6062469482422 70.1875 67.3062515258789 64.1937484741211 60.1124992370605 55.8375015258789 55.0875015258789 54.9124984741211 54.4187507629395 55.125 54.7437515258789 53.7125015258789 53.8624992370605 54.5625 56.5687484741211 55.40625 54.0062484741211 52.71875 52.4124984741211 51.6187515258789 50.875 49.96875 49.1187515258789 47.9000015258789 46.5999984741211 44.9375 43.09375 41.4437484741211 39.6875 37.8624992370605 36.0125007629395 33.6812515258789 31.8999996185303 30.9624996185303 
145.350006103516 141.925003051758 138.774993896484 135.137496948242 131.493743896484 129.918746948242 128.899993896484 127.25 127.712501525879 127.068748474121 124.887496948242 120.143753051758 113.831253051758 105.731246948242 97.1812515258789 88.90625 82.0875015258789 76.46875 72.2437515258789 68.5687484741211 64.21875 59.9500007629395 56.2687492370605 55.3875007629395 54.8187484741211 54.3812484741211 55.9937515258789 56.5625 57.0250015258789 58.7062492370605 60.2125015258789 62.5812492370605 61.1875 60.0812492370605 59.1312484741211 58.4812507629395 57.3937492370605 56.1124992370605 54.25 52.7625007629395 50.9187507629395 49.1124992370605 47.1812515258789 45.2687492370605 43.3812484741211 41.0750007629395 38.96875 36.9500007629395 35.0625 33.5875015258789 32.71875 
143.862503051758 141.475006103516 138.068756103516 134.368743896484 130.912506103516 129.5 128.412506103516 128.149993896484 129.768753051758 129.75 128.981246948242 125.837501525879 122.731246948242 115.5625 104.59375 94.5999984741211 86.5625 80.0187530517578 74.4124984741211 69.53125 64.8874969482422 60.375 56.4749984741211 55.4500007629395 55.1437492370605 55.0187492370605 56.8624992370605 58.6187515258789 59.8562507629395 62.6062507629395 65.7125015258789 68.7937469482422 67.9187469482422 66.84375 65.6374969482422 64.8687515258789 63.4812507629395 61.15625 58.5187492370605 56.2999992370605 54.1124992370605 51.7874984741211 49.4874992370605 47.2437515258789 44.9500007629395 42.7062492370605 40.2999992370605 38.2062492370605 36.2999992370605 35.0374984741211 34.5999984741211 
143.25 141.175003051758 137.574996948242 133.012496948242 129.475006103516 128.975006103516 128.612503051758 129 130.324996948242 130.925003051758 130.949996948242 131.0625 130.493743896484 123.300003051758 110.831253051758 99.8000030517578 90.8125 83.5062484741211 76.8562469482422 70.84375 65.9124984741211 61.2000007629395 56.9812507629395 56.0687484741211 55.90625 55.9312515258789 59.09375 61.0812492370605 63.5249977111816 67.2125015258789 71.7562484741211 75.8000030517578 74.84375 73.4124984741211 72.1875 71.3062515258789 69.2437515258789 65.5625 62.40625 59.5562515258789 56.8312492370605 54.3312492370605 51.9124984741211 49.5 47.7937507629395 45.1312484741211 42.2750015258789 39.6124992370605 38.2062492370605 36.3312492370605 35.9562492370605 
144.881256103516 142.081253051758 137.925003051758 132.90625 129.375 128.537506103516 128.087493896484 128.356246948242 129.918746948242 130.762496948242 131.487503051758 131.1875 130.518753051758 125.356246948242 114.28125 103.4375 94.1374969482422 85.9562530517578 78.7874984741211 72.21875 66.8625030517578 61.6187515258789 57.5812492370605 56.6312484741211 56.40625 57.2562484741211 60.75 64.0124969482422 67.09375 72.2062530517578 77.4749984741211 82.3000030517578 81.2937469482422 79.6374969482422 77.8125 75.6937484741211 72.9499969482422 68.7562484741211 65.4375 62.5125007629395 59.3875007629395 56.7562484741211 54.5875015258789 52.4437484741211 50.1749992370605 47.4249992370605 43.5625 41.78125 39.9187507629395 38.1500015258789 37.6875 
148.699996948242 145.831253051758 139.012496948242 133.768753051758 128.84375 127.5625 126.837501525879 126.862503051758 128.143753051758 129.09375 129.65625 129.912506103516 128.9375 125.300003051758 115.931251525879 106.0625 97.0875015258789 88.6437530517578 81.0250015258789 74.1374969482422 68.34375 62.8812484741211 58.3499984741211 57.0999984741211 57.3562507629395 58.7625007629395 63.1312484741211 67.3937530517578 71.5562515258789 77.4875030517578 83.3874969482422 88.65625 87.5374984741211 84.9875030517578 82.6187515258789 79.4812469482422 75.78125 71.5999984741211 68.5625 65.4187469482422 62.2750015258789 59.53125 56.7874984741211 54.84375 52.6687507629395 49.0125007629395 46.4312515258789 44.4625015258789 42.2625007629395 40.7125015258789 39.9437484741211 
152.006256103516 147.356246948242 140.637496948242 134.681243896484 129.243759155273 127.368751525879 127.099998474121 126.518753051758 126.625 127.506248474121 128.649993896484 129.449996948242 129.137496948242 126.787498474121 118.506248474121 108.962501525879 100.481246948242 92.2687530517578 84.6062469482422 77.2624969482422 71.2249984741211 65.53125 60.6749992370605 59.6812515258789 60.6812515258789 62.40625 67.25 72.3000030517578 77.5 83.2125015258789 89.5499954223633 94.7687530517578 93.1125030517578 89.6937484741211 85.90625 82.3937530517578 78.5500030517578 74.2874984741211 71.6125030517578 68.71875 65.625 62.3937492370605 59.2687492370605 56.6124992370605 54.5250015258789 52.5250015258789 50.2750015258789 47.8812484741211 45.9437484741211 43.78125 42.9312515258789 
155.1875 148.774993896484 141.831253051758 135.287506103516 129.918746948242 127.387504577637 126.46875 125.837501525879 126.099998474121 126.699996948242 127.09375 128.568756103516 129.162506103516 127.849998474121 120.706253051758 111.987503051758 103.706253051758 95.9625015258789 88.2624969482422 80.9812469482422 75.0374984741211 69.1374969482422 64.875 64.4812469482422 65.3625030517578 67.0124969482422 72.0999984741211 77.8937530517578 83.5437469482422 89.2437515258789 95.03125 100.074996948242 97.5625 92.8812484741211 88.7062454223633 85.0062484741211 81.09375 77.3812484741211 74.3874969482422 72.2437515258789 69.7375030517578 66.1500015258789 61.4124984741211 58.0562515258789 57.25 56.0062484741211 54.0999984741211 52.3062515258789 50.0625 47.5750007629395 46.2000007629395 
158.206253051758 150.206253051758 142.143753051758 135.493743896484 130.074996948242 127.118751525879 125.625 124.724998474121 125.493751525879 125.837501525879 126.25 127.943748474121 129.574996948242 129.112503051758 122.650001525879 115.368751525879 108.15625 100.112503051758 92.4875030517578 85.3062515258789 79.6062469482422 73.9124984741211 69.8562469482422 70.0625 70.96875 72.5687484741211 78.1999969482422 84.1187515258789 90.2062530517578 95.2437515258789 100.631248474121 104.875 101.087501525879 95.7750015258789 91.25 87.4749984741211 83.7874984741211 79.9875030517578 77.0749969482422 74.6125030517578 72.6437530517578 68.4437484741211 63.9000015258789 61.375 61.2999992370605 60.2374992370605 58.7999992370605 57.2937507629395 54.8937492370605 52.0999984741211 49.8624992370605 
160.96875 152.3125 143.912506103516 135.84375 130.706253051758 127.925003051758 126.231246948242 125.293746948242 125.943748474121 125.900001525879 126.400001525879 128.600006103516 130.737503051758 131.456253051758 126.349998474121 120.400001525879 113.606246948242 106.506248474121 98.8499984741211 91.8312530517578 86.3312530517578 81.5124969482422 77.7062530517578 77.8499984741211 78.9437484741211 80.9124984741211 86.5625 92.375 98.0374984741211 102.412498474121 106.487503051758 109.556251525879 105.306251525879 100.137496948242 95.28125 91.0812530517578 87.0875015258789 83.7937469482422 80.0999984741211 77.2249984741211 75.0999984741211 73 69.7312469482422 67.84375 66.59375 66.9250030517578 66.3562469482422 65.1937484741211 62.5499992370605 59.2312507629395 56.3812484741211 
162.668746948242 153.925003051758 145.556243896484 137.606246948242 131.837493896484 129.568756103516 127.737503051758 126.3125 126.224998474121 126.706253051758 127.46875 130.006256103516 132.9375 133.587493896484 130.087493896484 125.71875 120.8125 113.643753051758 105.775001525879 99.7624969482422 94.8125 90.2312469482422 86.5812530517578 86.8937530517578 87.8312530517578 90.0625 95.3874969482422 101.256248474121 106.474998474121 109.456253051758 112.34375 114.393753051758 109.681251525879 104.837501525879 99.4625015258789 95.0500030517578 91.2375030517578 88.4250030517578 84.2249984741211 79.1374969482422 77.5562515258789 77.3687515258789 75.7437515258789 73.9937515258789 73.1312484741211 75.7062530517578 76.3187484741211 74.875 71.6500015258789 67.3499984741211 64.21875 
163.625 155.481246948242 147.512496948242 140.743743896484 135.78125 131.981246948242 129.631256103516 127.5625 127.3125 127.5625 128.481246948242 131.625 134.756256103516 136.625 135.193756103516 132.53125 128.84375 122.043746948242 114.943748474121 109.256248474121 104.5625 99.9124984741211 96.1750030517578 96.4749984741211 97.9124984741211 99.8312530517578 104.78125 110.349998474121 114.981246948242 117.099998474121 118.6875 119.21875 114.443748474121 109.106246948242 104.356246948242 100.025001525879 96.25 92.8812484741211 88.125 84.1374969482422 83.75 84.4937515258789 83.875 83.8625030517578 84.4812469482422 89.5062484741211 90.5625 87.9000015258789 82.5500030517578 77 72.6624984741211 
163.512496948242 156.625 149.606246948242 143.893753051758 139.293746948242 135.056243896484 132.293746948242 130.112503051758 129.456253051758 129.618743896484 131.618743896484 134.737503051758 138.774993896484 142.681243896484 142.5 141.637496948242 139.125 133.949996948242 127.75 122.25 117.699996948242 112.668746948242 108.40625 108.606246948242 110.006248474121 111.668746948242 116.193748474121 121.112503051758 125.650001525879 126.462501525879 126.681251525879 126.037498474121 121 115.53125 111.175003051758 107.150001525879 103.787498474121 100.074996948242 95.6437530517578 94.2750015258789 94.25 95.3062515258789 96.3687515258789 98.3937454223633 103.574996948242 111.987503051758 112.150001525879 104.71875 97.0812530517578 89.5999984741211 84.4625015258789 
162.768753051758 157.274993896484 151.443756103516 146.925003051758 142.4375 138.300003051758 134.71875 132.574996948242 131.762496948242 131.631256103516 133.46875 138.237503051758 143.693756103516 148.09375 149.78125 150.993743896484 150.96875 146.75 141.393753051758 136.425003051758 131.612503051758 126.487503051758 122.050003051758 121.8125 122.868751525879 124.03125 128.375 132.59375 136.475006103516 135.931243896484 134.84375 133.512496948242 128.399993896484 123.012496948242 118.84375 115.28125 111.5 107.25 104.981246948242 104.956253051758 105.056251525879 106.900001525879 110.118751525879 114.081253051758 121.206253051758 129.537506103516 128.225006103516 119.21875 110.525001525879 102.300003051758 96.4124984741211 
162.9375 158.556243896484 153.793746948242 149.493743896484 145.675003051758 141.375 137.337493896484 134.9375 132.881256103516 133.09375 135.774993896484 142.175003051758 148.918746948242 155.331253051758 159.318756103516 161.512496948242 163.512496948242 160.356246948242 155.699996948242 151.087493896484 146.587493896484 141.287506103516 136.387496948242 135.268753051758 135.381256103516 136.53125 139.9375 144.050003051758 147.0625 145.381256103516 143.449996948242 140.975006103516 135.65625 130.9375 126.212501525879 122.118751525879 118.293746948242 116.400001525879 115.150001525879 114.887496948242 115.699996948242 117.756248474121 121.525001525879 125.987503051758 132.081253051758 136.074996948242 135.34375 129.274993896484 121.368751525879 113.862503051758 108.087501525879 
165.081253051758 160.956253051758 156.699996948242 152.5 148.818756103516 144.862503051758 141.006256103516 137.324996948242 134.5 134.056243896484 138.100006103516 146.018753051758 155.237503051758 163.831253051758 168.743743896484 173.493743896484 175.912506103516 174.03125 170.887496948242 167.756256103516 163.137496948242 156.643753051758 151.100006103516 149.518753051758 149.024993896484 149.324996948242 152.199996948242 155.875 158.431243896484 155.206253051758 152.868743896484 149.506256103516 144.606246948242 139.899993896484 134.512496948242 130.100006103516 128.574996948242 126.581253051758 124.96875 125.150001525879 126.349998474121 128.100006103516 131.137496948242 135.337493896484 139.774993896484 141.868743896484 141.699996948242 137.831253051758 131.71875 125.418746948242 120.168746948242 
167.550003051758 163.975006103516 160.34375 156.706253051758 153.006256103516 149.375 145.21875 141.081253051758 137.100006103516 134.131256103516 140.306243896484 153.600006103516 164.118743896484 172.324996948242 178.712493896484 184.524993896484 188.318756103516 187.231246948242 185.137496948242 182.418746948242 177.600006103516 171.012496948242 165.368743896484 163.162506103516 162.006256103516 162.28125 163.899993896484 167.425003051758 168.993743896484 165.581253051758 162.037506103516 159.074996948242 153.893753051758 149.40625 144.081253051758 140.524993896484 138.881256103516 137.256256103516 136.15625 135.012496948242 135.287506103516 136.550003051758 139.074996948242 143.068756103516 146.774993896484 147.581253051758 148.043746948242 145.899993896484 141.493743896484 136.037506103516 131.268753051758 
171.487503051758 167.881256103516 164.381256103516 161.293746948242 157.831253051758 154.699996948242 151.300003051758 147.550003051758 143.8125 139.962509155273 151.837493896484 167.043746948242 175.393753051758 182.574996948242 189.268753051758 195.65625 200.324996948242 199.53125 197.456253051758 193.6875 189.681243896484 184.106246948242 178.931243896484 175.768753051758 174.456253051758 174.324996948242 175.287506103516 178.1875 179.568756103516 176.125 170.225006103516 166.412506103516 162.03125 157.862503051758 153.193756103516 150.712493896484 149.4375 147.5625 147.28125 146.493743896484 144.612503051758 145.774993896484 146.59375 148.831253051758 151.84375 153.024993896484 153.637496948242 153.225006103516 149.074996948242 145.018753051758 141.631256103516 
172.925003051758 169.818756103516 167.381256103516 164.78125 161.71875 159.393753051758 157.368743896484 155.425003051758 156 161.899993896484 176.600006103516 182.675003051758 187.53125 193.71875 199.324996948242 204.731246948242 209.143753051758 208.5625 205.956253051758 202.96875 198.743743896484 193.375 189.175003051758 186.387496948242 183.893753051758 183.456253051758 183.818756103516 185.599990844727 186.618743896484 183.081253051758 178.368743896484 174.481246948242 170.324996948242 166.40625 164.362503051758 162.668746948242 160.456253051758 159.625 158.681259155273 155.381240844727 152.793746948242 153.662506103516 152.693756103516 154.168746948242 156.493743896484 156.981246948242 155.3125 155.25 152.387496948242 149.65625 147.09375 
173.956253051758 171.6875 169.881256103516 167.768753051758 166.274993896484 165.606246948242 164.706253051758 165.53125 169.256256103516 176.256256103516 186 193.443756103516 198.725006103516 204.5625 209.59375 213.987503051758 218.34375 217.5 215.050003051758 212.449996948242 207.693756103516 202.675003051758 198.03125 194.762496948242 193.0625 191.756256103516 191.3125 192.518753051758 192.806243896484 189.287506103516 184.975006103516 184.09375 182.193756103516 178.96875 177.649993896484 175.425003051758 172.675003051758 170.6875 169.606246948242 164.75 161.3125 160.993743896484 159.300003051758 158.46875 159.475006103516 159.3125 158.662506103516 158.743743896484 156.993743896484 154.412506103516 152.006256103516 
174.949996948242 173.268753051758 172.262496948242 171.4375 170.493743896484 170.293746948242 171.087493896484 174.3125 178.706253051758 185.125 192.949996948242 200.587493896484 208.268753051758 213.762496948242 218.75 222.625 226.337493896484 226.331253051758 223.987503051758 221.006256103516 216.112503051758 210.675003051758 205.6875 202.625 202.137496948242 199.768753051758 198.381256103516 198.387496948242 197.837493896484 194.918746948242 193.425003051758 195.356246948242 193.481246948242 192.09375 191.4375 189.800003051758 186.681243896484 183.306243896484 180.5 174.5 169.600006103516 167.462493896484 163.962493896484 162.943756103516 163.324996948242 163.875 162.606246948242 161.393753051758 160.893753051758 159.399993896484 157.199996948242 
174.8125 173.774993896484 173.074996948242 172.324996948242 172.043746948242 172.112503051758 173.956253051758 177.03125 182.274993896484 187.524993896484 194.881256103516 202.381256103516 210.168746948242 216.46875 221.393753051758 226.84375 230.912506103516 231.537506103516 230.350006103516 225.975006103516 218.90625 214.262496948242 208.943756103516 205.643753051758 204.712493896484 202.856246948242 200.725006103516 199.993743896484 200.712493896484 200.587493896484 197.175003051758 200.96875 201.475006103516 204.556243896484 206.725006103516 203.806243896484 200.762496948242 196.793746948242 191.543746948242 184.149993896484 177.725006103516 172.168746948242 167.800003051758 167.774993896484 168.618759155273 168.993743896484 166.875 164.84375 164.762496948242 162.574996948242 160.368743896484 
174.943756103516 173.993743896484 173.5625 172.8125 171.993743896484 173.0625 175.149993896484 178.287506103516 183.3125 188.431243896484 195.024993896484 202.587493896484 210.899993896484 217.268753051758 223.506256103516 229.568756103516 234.081253051758 236.712493896484 236.337493896484 229.893753051758 221.443756103516 214.59375 209.681243896484 208.5 207.231246948242 205.274993896484 202.543746948242 201.5 202.25 202.274993896484 202.125 202.1875 205.356246948242 212.931243896484 220.387496948242 223.149993896484 217.050003051758 211.25 203.256256103516 194.100006103516 186.612503051758 180.649993896484 176.356246948242 174.462493896484 174.925003051758 173.649993896484 171.393753051758 169.537506103516 168.918746948242 166.793746948242 164.53125 
175.456253051758 174.993743896484 174.350006103516 173.024993896484 172.90625 173.5 175.024993896484 178.168746948242 182.574996948242 188.293746948242 195.056243896484 203.168746948242 210.15625 218.175003051758 225.112503051758 231.556243896484 236.850006103516 240.050003051758 242.487503051758 236.131256103516 225.90625 217.193740844727 212.043746948242 210.137496948242 209.537506103516 207.587493896484 204.675003051758 204.199996948242 203.850006103516 204.806243896484 204.481246948242 204.743743896484 207.574996948242 218.09375 232.081253051758 242.318756103516 235.9375 225.837493896484 215.387496948242 205.1875 196.943756103516 190.568756103516 185.324996948242 183.175003051758 182.231246948242 179.793746948242 177.8125 174.893753051758 172.53125 171.543746948242 169.5625 
177.393753051758 177.068756103516 176.506256103516 174.6875 174.300003051758 174.800003051758 175.231246948242 177.862503051758 181.931243896484 187.8125 194.462493896484 202.149993896484 209.462493896484 217.206253051758 224.225006103516 230.631256103516 235.587493896484 237.887496948242 239.574996948242 235.462493896484 226.824996948242 219.918746948242 213.537506103516 210.9375 210.8125 208.75 206.25 205.3125 205.625 207.368743896484 207.481246948242 207.143753051758 211.868743896484 221.412506103516 234.537506103516 247.399993896484 245.1875 233.837493896484 223.168746948242 214.524993896484 205.806243896484 199.75 194.925003051758 190.212493896484 189.306243896484 187.28125 184.143753051758 180.943756103516 176.774993896484 175.681243896484 174.59375 
