ncols        51
nrows        45
xllcorner    -63.500000000000
yllcorner    -7.500000000000
cellsize     0.166666666667
NODATA_value -99
119.849998474121 116.28125 110.012504577637 105.431251525879 100.050003051758 97.5562515258789 93.96875 89.2125015258789 85.9375 84.0687484741211 83.25 83.5875015258789 83.4437484741211 81.3625030517578 81.25 82.3562469482422 83.5687484741211 83.1937484741211 86.5500030517578 89.9499969482422 93.8249969482422 98.8000030517578 103.956253051758 108.868751525879 115.21875 121.1875 128.212493896484 136.512496948242 145.350006103516 150.4375 155.574996948242 160.800003051758 164.231246948242 169.050003051758 173.056243896484 180.443756103516 186.074996948242 190.881256103516 197.712493896484 204.412506103516 210.231246948242 215.618743896484 219.837493896484 224.556243896484 230.175003051758 232.356246948242 235.356246948242 238.193756103516 241.712509155273 247.206253051758 250.056243896484 
128.056243896484 124.1875 119.150001525879 114.474998474121 110.59375 108.806251525879 105.756248474121 102.912498474121 101.21875 99.8375015258789 98.1062469482422 97.0875015258789 95.5562515258789 94.25 93.4375 93.1312484741211 93.0812530517578 94.2312469482422 97.75 102.650001525879 108.056251525879 113.662498474121 120.025001525879 126.34375 131.981246948242 137.6875 144.612503051758 151.84375 158.837493896484 163.600006103516 167.21875 170.443756103516 173.237503051758 178.600006103516 181.912506103516 187.631256103516 195.8125 201.25 207.481246948242 214 220.59375 225.787506103516 228.643753051758 232.831253051758 237.631256103516 240.0625 243.324996948242 246.25 249.662506103516 253.512496948242 256.043762207031 
137.087493896484 134.0625 130.175003051758 127.056251525879 124.787498474121 123.787498474121 122.393753051758 121.387496948242 120.543746948242 119.481246948242 117.462501525879 115.275001525879 113.074996948242 110.324996948242 108.443748474121 106.387496948242 105.487503051758 106.550003051758 109.4375 115.1875 121.724998474121 129.175003051758 136.206253051758 142.03125 147.5 152.806243896484 159.3125 165.824996948242 170.943756103516 174.012496948242 177.981246948242 181.381256103516 185.6875 188.1875 193.231246948242 199.306243896484 207.15625 214.206253051758 220.443756103516 226.012496948242 233.056243896484 237.162506103516 240.018753051758 243.050003051758 245.175003051758 247.293746948242 249.887496948242 252.881256103516 254.181243896484 257.475006103516 258.5625 
145.412506103516 143.331253051758 142.925003051758 141.787506103516 142.168746948242 139.931243896484 140.481246948242 142 143.231246948242 143.524993896484 140.262496948242 136.262496948242 132.387496948242 128.399993896484 125.474998474121 122.162498474121 119.356246948242 118.6875 121.900001525879 129.337493896484 138.3125 146.743743896484 152.618743896484 158.912506103516 164.59375 169.837493896484 175.912506103516 179.731246948242 183.662506103516 186.431243896484 189.324996948242 193.537506103516 197.399993896484 200.443756103516 204.212493896484 212.324996948242 219.556243896484 227.318756103516 234.131256103516 240.831253051758 245.65625 250.193756103516 252.53125 253.568740844727 254.506256103516 255.643753051758 258 258.181243896484 259.181243896484 259.881256103516 259.143737792969 
159.28125 155.806243896484 155.300003051758 156.800003051758 158.649993896484 158.625 159.037506103516 162.462493896484 166.643753051758 168.800003051758 163.875 158.193756103516 153.731246948242 149.237503051758 145.068756103516 140.293746948242 135.524993896484 131.949996948242 136.65625 146.574996948242 157.568756103516 165.887496948242 172.081253051758 177.475006103516 182.418746948242 188.46875 191.03125 193.637496948242 198.643753051758 200.324996948242 202.518753051758 203.34375 208.699996948242 213.706253051758 218.162506103516 226.268753051758 235.225006103516 241.356246948242 248.356246948242 254.381256103516 261.09375 263.6875 265.806243896484 265.231262207031 264.399993896484 265.475006103516 265.825012207031 264.46875 262.912506103516 262.143737792969 259.212493896484 
172.643753051758 170.731246948242 170.518753051758 171.050003051758 172.899993896484 173.487503051758 174.8125 177.556243896484 182.074996948242 185.5625 180.362503051758 175.881256103516 171.631256103516 167.887496948242 163.256256103516 160.293746948242 155.15625 151.350006103516 158.337493896484 169.068756103516 178.506256103516 185.3125 191.649993896484 194.850006103516 199.09375 203.681243896484 205.975006103516 207.456253051758 210.918746948242 213.706253051758 215.100006103516 216.524993896484 220.4375 226.618743896484 234.443756103516 242.574996948242 251.368759155273 258.899993896484 265.975006103516 273.037506103516 276.899993896484 279.462493896484 279.793762207031 278.637481689453 276.606262207031 274.693756103516 273.537506103516 270.75 268.15625 264.09375 256.412506103516 
186.787506103516 186.024993896484 186.425003051758 185.568756103516 185.637496948242 184.512496948242 185.34375 187.050003051758 189.293746948242 190.168746948242 190.756256103516 190.03125 189.5625 187.800003051758 185.300003051758 184.081253051758 183.25 186.1875 193.481246948242 199.662506103516 202.293746948242 206.856246948242 209.412506103516 211.6875 215.456253051758 218.056243896484 219.556243896484 220.899993896484 222.34375 224.831253051758 228.237503051758 230.28125 234.449996948242 240.268753051758 247.818740844727 258.375 267.731262207031 276.831237792969 286.118743896484 290.825012207031 293.024993896484 294.293762207031 293.837493896484 292.100006103516 288.625 287.325012207031 284.325012207031 277.649993896484 271.15625 264.524993896484 258.774993896484 
202.699996948242 200.381256103516 200.337493896484 200.206253051758 199.568756103516 198.46875 196.612503051758 192.8125 190.574996948242 194.181243896484 200.643753051758 204.925003051758 208.212493896484 208.106246948242 208.675003051758 209.868743896484 213.28125 221.3125 232.306243896484 232.15625 227.425003051758 227.337493896484 227.725006103516 229.15625 232.268753051758 233.149993896484 232.949996948242 233.081253051758 235.306243896484 238.4375 240.606246948242 243.4375 248.175003051758 254.543746948242 262.256256103516 273.1875 283.793762207031 293.762512207031 301.837493896484 307.912506103516 311.087493896484 311.78125 310.78125 307.5 304.71875 303.024993896484 298.243743896484 286.912506103516 276.631256103516 267.712493896484 256.581237792969 
217.225006103516 215.112503051758 215.162506103516 213.868743896484 213.643753051758 211.056243896484 208.118743896484 203.943756103516 198.9375 200.356246948242 212.306243896484 220.125 226.487503051758 228.25 230.237503051758 232.4375 236.393753051758 244.581253051758 253.899993896484 251.318756103516 243.03125 241.824996948242 240.675003051758 244.28125 246.375 246.199996948242 245.59375 244.193756103516 246.243743896484 250.5 254.25 255.993743896484 261.518737792969 267.518737792969 275.21875 285.65625 297.712493896484 308.237487792969 316.443756103516 323.168762207031 326.25 326.356262207031 327.65625 326.412506103516 322.443756103516 319 312.518737792969 298.337493896484 282.674987792969 268.875 258.662506103516 
231.893753051758 230.03125 228.618743896484 227.712493896484 227.75 225.887496948242 223.237503051758 220.993743896484 219.849990844727 224.381256103516 233.487503051758 241.131256103516 247.118743896484 249.637496948242 251.868743896484 254.256256103516 256.225006103516 259.825012207031 262.200012207031 260.256256103516 253.018753051758 251.581253051758 251.693756103516 257.350006103516 257.762512207031 256.174987792969 255.274993896484 254.362503051758 255.143753051758 259.8125 263.681243896484 266.862487792969 273.643737792969 280.993743896484 289.443756103516 299.331237792969 310.668762207031 321.956237792969 330.256256103516 337.362487792969 343.143737792969 343.743743896484 344.418762207031 341.543762207031 338.65625 337.912506103516 328.043762207031 309.768737792969 290.762512207031 275.081237792969 260.118743896484 
247.949996948242 246.481246948242 243.8125 242.225006103516 241.324996948242 240.71875 239.8125 241.231246948242 243.574996948242 249.725006103516 260.056243896484 267.512512207031 270.506256103516 271.524993896484 272.53125 273.174987792969 272.299987792969 271.068756103516 268.350006103516 264.068756103516 259.837493896484 258.287506103516 261.649993896484 265.387512207031 268.931243896484 265.356262207031 263.356262207031 262.424987792969 262.787506103516 266.068756103516 270.6875 275.75 284.068756103516 292.737487792969 301.493743896484 312.768737792969 323.899993896484 333.875 343.568756103516 352.15625 358.34375 357.368743896484 357.875 355.518737792969 352.46875 355.331237792969 340.40625 314.225006103516 294.206237792969 278.087493896484 262.818756103516 
260.318756103516 258.518737792969 256.450012207031 256.350006103516 256.21875 255.675003051758 256.756256103516 261.993743896484 267.012512207031 273.950012207031 285.387512207031 296.006256103516 296.78125 295.262512207031 294.549987792969 291.825012207031 289.012512207031 282.231262207031 276.46875 268.681243896484 262.362487792969 261.481262207031 267.793762207031 276.149993896484 277.475006103516 269.924987792969 267.768737792969 266.875 268.331237792969 273.825012207031 279.149993896484 284.149993896484 293 301.987487792969 311.268737792969 322.700012207031 334.049987792969 343.737487792969 353.493743896484 363.174987792969 369.75 367.918762207031 363.456237792969 358.075012207031 351.912506103516 343.793762207031 326.831237792969 309.4375 292.737518310547 282.15625 264.912506103516 
273.856262207031 272.556243896484 271.149993896484 270.78125 270.9375 273.225006103516 275.793762207031 280.837493896484 287.475006103516 296.225006103516 307.96875 319.737487792969 321.6875 316.350006103516 314.018737792969 310.018737792969 304.268737792969 296.675018310547 287.78125 276.862487792969 263.262512207031 263.600006103516 272.081237792969 277.225006103516 272.28125 266.006256103516 268.831237792969 271.868743896484 274.325012207031 281.131256103516 287.331237792969 292.512512207031 300.637512207031 309.53125 318.8125 330.112487792969 340.681243896484 350.15625 359.356262207031 369.018737792969 377.518737792969 373.612487792969 361.087493896484 348.743743896484 340.168762207031 334.856262207031 322.518737792969 302.606262207031 289.231262207031 281.518737792969 270.59375 
285.575012207031 285.243743896484 284.274993896484 284.456237792969 285.712493896484 287.293762207031 291.362487792969 299.4375 307.006256103516 316.387512207031 325.625 335.40625 337.024993896484 335.168762207031 330.193756103516 326.675018310547 319.293762207031 311.137512207031 300.231262207031 289.106262207031 277.681243896484 275.206237792969 276.568756103516 277.950012207031 272.181243896484 268.481262207031 272.012512207031 275.850006103516 280.987487792969 288.068756103516 294.887512207031 300.581237792969 307.96875 315.512512207031 325.137512207031 335.568756103516 346.293762207031 356.637512207031 364.006256103516 370.799987792969 374.662506103516 360.587493896484 349.256256103516 342.331237792969 337.71875 329.481262207031 320.3125 308.018737792969 293.450012207031 284.631256103516 276.424987792969 
295.893737792969 295.762512207031 295.981262207031 296.774993896484 299.875 302.975006103516 309.018737792969 316.606262207031 323.956237792969 331.837493896484 341.1875 349.518737792969 353.012512207031 352.975006103516 347.606262207031 342.768737792969 334.924987792969 324.387512207031 313.962493896484 304.931243896484 294.587493896484 287.318756103516 285.018737792969 283.043731689453 280.399993896484 277.96875 280.631256103516 285.174987792969 289.850006103516 297.774993896484 303.668762207031 307.318756103516 315.40625 321.399993896484 329.181243896484 337.543762207031 348.293762207031 359.237487792969 363.825012207031 358.78125 348.637512207031 341.149993896484 339.993743896484 338.518737792969 332.049987792969 325.862487792969 317.643737792969 309.356262207031 301.712493896484 289.924987792969 278.206237792969 
304.837493896484 304.418762207031 305.59375 307.231262207031 311.524993896484 315.850006103516 323.012512207031 330.762512207031 337.274993896484 345.924987792969 355.318756103516 364.174987792969 369.174987792969 370.206237792969 365.931243896484 356.737487792969 349.493743896484 338.96875 327.581237792969 318.875 310.631256103516 302.375 296.662506103516 292.96875 289.556243896484 287.131256103516 288.84375 294.75 300.887512207031 309.524993896484 315.068756103516 316.993743896484 319.943756103516 324.28125 329.556243896484 339.868743896484 350.34375 358.65625 359.03125 347.899993896484 330.506256103516 326.556243896484 330.568756103516 330.237487792969 326.068756103516 321.837493896484 316.518737792969 308.8125 299.625 291.106262207031 279.206237792969 
311.399993896484 311.612487792969 312.575012207031 315.700012207031 321.631256103516 327.037506103516 335.387512207031 343.587493896484 350.587493896484 358.387512207031 368.674987792969 379.418762207031 385.59375 387.625 383.743743896484 375.143737792969 360.049987792969 348.618743896484 339.768737792969 334.237487792969 325.024993896484 316.543762207031 308.606262207031 302.793762207031 299.818756103516 295.856262207031 296.637512207031 302.875 311.59375 321.693756103516 328.262512207031 328.887512207031 327.931243896484 327.568756103516 334.225006103516 344 352.174987792969 361.543762207031 365.137512207031 347.768737792969 329.268737792969 324.087493896484 323.75 324.112487792969 321.181243896484 318.40625 313.512512207031 306.524993896484 300.131256103516 291.799987792969 282.65625 
318.643737792969 319.100006103516 320.600006103516 325.34375 331.331268310547 338.625 347.943756103516 356.84375 363.53125 371.59375 379.649993896484 393.493743896484 401.774993896484 404.637512207031 400.087493896484 389.075012207031 372.993743896484 356.53125 353.037506103516 348.924987792969 340.868743896484 330.512512207031 320.325012207031 313.506256103516 308.8125 305.237487792969 303.956237792969 312.362487792969 324.162506103516 335.981262207031 340.243743896484 331.756256103516 328.712493896484 329.393737792969 332.975006103516 341.475006103516 353.131256103516 362.299987792969 361.606262207031 351.581237792969 333.893737792969 324.90625 321.65625 320.924987792969 318.381256103516 316.112487792969 312.600006103516 306.287506103516 300.912506103516 290.887512207031 283.59375 
322.206237792969 323.393737792969 326.306243896484 333 340.856262207031 349.443756103516 357.768737792969 368.575012207031 375.918762207031 383.643737792969 391.087493896484 402.268737792969 413.59375 422.493743896484 415.5625 399.78125 380.931243896484 364.125 356.537506103516 356.78125 352.412506103516 343.543762207031 326.09375 321.293762207031 316.9375 314.674987792969 316.918762207031 323.231262207031 335.581237792969 348.03125 352.893737792969 338.987487792969 330.4375 322.706237792969 322.375 334.193756103516 348.03125 356.606262207031 359.668762207031 351.837493896484 337.631256103516 326.1875 320.34375 318.918762207031 316.362487792969 313.893737792969 312.318756103516 307.850006103516 301.637512207031 288.6875 285.787506103516 
324.65625 325.975006103516 330.043762207031 336.174987792969 345.856262207031 357.606262207031 367.868743896484 377.756256103516 384.762512207031 391.875 397.881256103516 409.462493896484 425.462493896484 440.862487792969 427.637512207031 402.662506103516 380.168762207031 369.418762207031 363.899993896484 363.231262207031 354.868743896484 341.287506103516 329.912506103516 325.287506103516 322.5 322.793762207031 325.618743896484 332.737487792969 340.09375 346.625 347.337493896484 335.84375 323.649993896484 310.493743896484 306.09375 320.006256103516 341.450012207031 357.818756103516 362.350006103516 356.75 343.049987792969 327.8125 322.293762207031 319.568756103516 316.59375 315.137512207031 313.318756103516 307.90625 301.681243896484 290.875 288.237487792969 
322.850006103516 325.568756103516 331.931243896484 340.981262207031 350.631256103516 363.212493896484 376.981262207031 387.46875 393.737487792969 396.568756103516 398.625 405.100006103516 416.106262207031 428.137512207031 417.706237792969 394.1875 377.231262207031 366.1875 363.46875 359.518737792969 353.456237792969 344.46875 334.956237792969 332.643737792969 332.200012207031 332.537506103516 334.037506103516 336.512512207031 338.524993896484 340.850006103516 335.90625 326.325012207031 314.618743896484 302.524993896484 292.21875 312.681243896484 344.112487792969 366.893737792969 373.612487792969 367.174987792969 352.512512207031 338.381256103516 329.024993896484 322.399993896484 319.075012207031 317.84375 316.787506103516 312.200012207031 303.03125 295.931243896484 291.28125 
322.212493896484 323.318756103516 329.918762207031 341.012512207031 354.131256103516 367.931243896484 382.006256103516 395.625 402.256256103516 399.600006103516 394.3125 388.918762207031 388.34375 392.5 390.818756103516 381.231231689453 374.487487792969 367.6875 363.774993896484 360.5 351.043762207031 342.625 336.0625 334.674987792969 335.006256103516 336.725006103516 341.549987792969 341.774993896484 340.056243896484 336.96875 327.162506103516 316.4375 310.162506103516 307.96875 309.325012207031 328.331237792969 360.181243896484 386.756256103516 393.012512207031 382.381256103516 364.056243896484 347.662506103516 335.96875 327.306243896484 322.831237792969 321.518737792969 320.006256103516 315.756256103516 307.34375 303.799987792969 296.350006103516 
321.899993896484 323.012512207031 327.712493896484 339 354.71875 371.731262207031 386.887512207031 401.981262207031 411.831237792969 402.793762207031 386.274993896484 368.174987792969 356.731262207031 358.237487792969 365.912506103516 368.975006103516 367.806243896484 364.4375 361.237487792969 357.59375 349.362487792969 340.556243896484 333.106262207031 331.65625 334.549987792969 339.475006103516 345.725006103516 345.231262207031 340.743743896484 332.299987792969 320.293762207031 310.587493896484 313.46875 318.774993896484 328.575012207031 346.674987792969 378.381256103516 414.393737792969 417.237487792969 395.393737792969 372.443756103516 355.125 339.456237792969 329.174987792969 324.818756103516 324.1875 324.5625 319.46875 313.856262207031 311.331237792969 303.106262207031 
322.543762207031 321.324981689453 324.556243896484 337.125 355.700012207031 372.412506103516 388.581237792969 403.131256103516 409.649993896484 396.543762207031 375.543762207031 354 330.862487792969 335.287506103516 349.943756103516 357.943756103516 360.40625 358.975006103516 356.918762207031 354.174987792969 345 336.043762207031 328.768737792969 326.993743896484 331.424987792969 336.8125 344.818756103516 343.475006103516 338.556243896484 332.256256103516 323.299987792969 317.337493896484 322.918762207031 331.743743896484 344.018737792969 361.956268310547 388.981262207031 419.712493896484 420.887481689453 399.037506103516 375.200012207031 355.975006103516 339.612487792969 328.537506103516 326.606262207031 328.456237792969 330.075012207031 323.518737792969 323.743743896484 320.0625 312.587493896484 
324.924987792969 322.412506103516 323.725006103516 340.15625 363.237487792969 377.799987792969 390.25 400.65625 401.131256103516 390.512512207031 372.743743896484 353.75 337.856262207031 336.799987792969 345.0625 353 357.087493896484 357.643737792969 355.068756103516 349.887512207031 340.493743896484 330.037506103516 322.112487792969 319.700012207031 323.637512207031 331.149993896484 337.53125 340.831237792969 338.9375 336.71875 332.256256103516 330.731262207031 335.837493896484 345.162506103516 356.975006103516 370.412506103516 390.25 405.087493896484 404.625 390.975006103516 370.693756103516 352.543762207031 336.756256103516 327.549987792969 324.462493896484 329.837493896484 331.362487792969 334.193756103516 332.25 331.181243896484 323.125 
335.268737792969 336.506256103516 340.018737792969 355.731262207031 373.506256103516 385.243743896484 393.506256103516 397.706237792969 395.049987792969 385.662506103516 373.149993896484 360.418762207031 348.674987792969 344.25 347.362487792969 352.768737792969 357.137512207031 357.700012207031 354.887512207031 348.325012207031 338.912506103516 325.431243896484 315.581237792969 310.350006103516 315.475006103516 325.212493896484 335.006256103516 339.950012207031 342.006256103516 340.325012207031 341.743743896484 343.75 350.475006103516 357.21875 367.100006103516 376.143737792969 387.756256103516 394.225006103516 391.368743896484 379.931243896484 363.59375 346.381256103516 330.081237792969 322.149993896484 324.387512207031 329.825012207031 347.293762207031 351.262512207031 345.837493896484 342.112487792969 332.462493896484 
351.174987792969 354.518737792969 361.393737792969 373.181243896484 384.90625 392.53125 397.71875 397.125 392.487487792969 386.118743896484 376.987487792969 367.168762207031 357.674987792969 352.231262207031 352.756256103516 356.493743896484 359.643737792969 359.606262207031 357.662506103516 349.506256103516 337.431243896484 325.212493896484 311.381256103516 304.537506103516 312.975006103516 322.731262207031 332.431243896484 339.056243896484 343.46875 344.799987792969 349.112487792969 352.887512207031 361.799987792969 368.262512207031 374.581237792969 381.512512207031 388.381256103516 389.34375 383.024993896484 373.149993896484 357.956237792969 340.78125 326.212493896484 319.850006103516 331.325012207031 351.200012207031 369.4375 368.46875 363.918762207031 353.543762207031 342.299987792969 
371.006256103516 374.75 382.756256103516 391.75 399.743743896484 402.075012207031 402.674987792969 399.368743896484 394.424987792969 387.743743896484 380.3125 372.462493896484 363.4375 357.350006103516 357.237487792969 360.043762207031 362.03125 364.537506103516 360.1875 353.587493896484 343.818756103516 330.024993896484 321.456237792969 315.831237792969 319.706237792969 326.268737792969 334.399993896484 340.09375 345.225006103516 349.856262207031 353.649993896484 357.931243896484 366.8125 372.912506103516 379.4375 384.375 387.068756103516 386.90625 381.024993896484 369.899993896484 356.762512207031 341.412506103516 325.950012207031 322.024993896484 347.393737792969 374.3125 392.806243896484 388.96875 380.243743896484 367.731262207031 352.462493896484 
388.274993896484 394.193756103516 401.356262207031 409.549987792969 414.78125 412.456268310547 406.887512207031 402.649993896484 396.106262207031 389.962493896484 384.03125 376.15625 367.893737792969 363.53125 363.662506103516 366.831237792969 371.362487792969 371.53125 368.231262207031 361.837493896484 351.737487792969 339.506256103516 332.112487792969 327.975006103516 328.856262207031 332.125 338.606262207031 343.5 349.268737792969 354.118743896484 356.9375 360.625 369.243743896484 377.212493896484 384.5625 387.337493896484 389.6875 388.375 383.049987792969 372.106262207031 357 343.981262207031 334.799987792969 339.90625 367.237487792969 393.068756103516 412.162506103516 405.78125 396.331237792969 383.193756103516 363.674987792969 
399.168762207031 405.137512207031 413.762512207031 422.575012207031 425.612487792969 418.350006103516 409.206237792969 403.487487792969 396.28125 389.174987792969 384.693756103516 379.518737792969 373.387512207031 369.806243896484 371.337493896484 373.568756103516 376.100006103516 377.568756103516 376.506256103516 368.943756103516 358.481262207031 349.075012207031 341.131256103516 336.34375 336.331237792969 338.412506103516 342.75 346.256256103516 351.168762207031 355.587493896484 360.049987792969 364.375 372.125 381.818756103516 389.15625 392.149993896484 393.487487792969 394.325012207031 389.056243896484 380.53125 370.412506103516 362.799987792969 359.393737792969 366.681243896484 383.475006103516 408.475006103516 424.943756103516 423.9375 414.831237792969 400.725006103516 380.587493896484 
405.5 411.450012207031 417.200012207031 425.168762207031 429.21875 417.387512207031 408.331237792969 401.018737792969 393.856262207031 388.200012207031 385.3125 381.825012207031 377.762512207031 374.162506103516 376.487487792969 378.299987792969 381.212493896484 383.818756103516 383.293762207031 376.393737792969 365.34375 355.3125 348.950012207031 343.762512207031 341.981262207031 344.418762207031 347.481262207031 349.618743896484 354.287506103516 358.25 363.399993896484 368.731262207031 376.299987792969 386.112487792969 394 397.162506103516 398.3125 400.981262207031 398.612487792969 392.337493896484 386.700012207031 383.575012207031 384.049987792969 388.118743896484 402.162506103516 427.075012207031 443.818756103516 444.65625 435.399993896484 419.287506103516 397.575012207031 
406.837493896484 411.25 414.543762207031 418.418762207031 418.556243896484 409.625 403.6875 395.731262207031 389.549987792969 384.931243896484 382.924987792969 381.012512207031 379.037506103516 378.25 380.931243896484 382.181243896484 382.412506103516 384.168762207031 382.25 377.543762207031 367.106262207031 357.987487792969 352.806243896484 347.693756103516 347.337493896484 348.587493896484 349.918762207031 351.96875 354.462493896484 360.524993896484 366.368743896484 372.337493896484 380.831237792969 390.975006103516 399.59375 402.25 406 406.987487792969 404.75 402.037506103516 403.350006103516 404.524993896484 408.068756103516 416.975006103516 431.012512207031 457.693756103516 473.9375 470.193756103516 456.850006103516 439.818756103516 416.193756103516 
399.481262207031 402.787506103516 405.487487792969 407.237487792969 404.587493896484 397.15625 390.068756103516 383.450012207031 376.799987792969 375.924987792969 378.350006103516 378.943756103516 381.5625 384.475006103516 384.893737792969 383.887512207031 381.581237792969 380.418762207031 377.53125 373.756256103516 364.893737792969 356.768737792969 351.25 348.881256103516 348.256256103516 349.762512207031 350.543762207031 350.337493896484 352.743743896484 361.618743896484 368.5 374.424987792969 384.46875 396.200012207031 404.818756103516 409.443756103516 413.206237792969 415.350006103516 413.081237792969 416.975006103516 420.237487792969 424.612487792969 432.056243896484 444.975006103516 467.268737792969 499.106262207031 509.237487792969 494.381256103516 476.731262207031 456.943756103516 431.700012207031 
389.700012207031 392.3125 393.524993896484 394.049987792969 389.53125 383 376.618743896484 369.768737792969 364.5625 363.375 368.199981689453 376.143737792969 383.924987792969 387.975006103516 387.21875 383.393737792969 380.268737792969 378.381256103516 373.46875 368.268737792969 360.787506103516 353.962493896484 349.087493896484 346.981262207031 346.831237792969 347.706237792969 347.774993896484 348.706237792969 352.231262207031 360.799987792969 370.375 378.431243896484 388.84375 401.862487792969 411.768737792969 416.918762207031 420.350006103516 421.612487792969 423.806243896484 429.106262207031 433.237518310547 440.731262207031 451.568756103516 466.956237792969 490.887512207031 519.6875 527 510.318756103516 491.912506103516 471.700012207031 446.268737792969 
381.756256103516 382.331237792969 382.40625 380.424987792969 376.337493896484 370.331237792969 362.556243896484 355.381256103516 348 348.581237792969 358.206237792969 371.293762207031 386.362487792969 394.181243896484 391.125 383.743743896484 377.59375 373.368743896484 368.049987792969 360.768737792969 355.09375 349.287506103516 345.131256103516 343.168762207031 343.637512207031 343.243743896484 344.581237792969 346.53125 350.15625 359.306243896484 370.549987792969 381.831268310547 393.799987792969 406.174987792969 416.40625 421.743743896484 424.3125 429.799987792969 433.618743896484 437.712493896484 443.268737792969 450.53125 462.418762207031 477.087493896484 496.299987792969 512.375 519.943725585938 510.5 495.556243896484 480.043762207031 457.337493896484 
373.59375 372.712493896484 371.381256103516 368.28125 363.700012207031 355.65625 347.918762207031 338.512512207031 329.237487792969 327.993743896484 340.381256103516 360.568756103516 381.068756103516 391.806243896484 388.993743896484 381.268737792969 372.681243896484 367.337493896484 361.162506103516 353.456237792969 347.287506103516 342.881256103516 338.46875 336.037506103516 336.243743896484 337.206237792969 338.5625 341.081237792969 345.59375 355.9375 369.381256103516 381.837493896484 395.868743896484 409.368743896484 420.043762207031 424.143737792969 430.787506103516 435.143737792969 436.618743896484 440.90625 446.84375 454.524993896484 464.237487792969 477.412506103516 490.706237792969 500.0625 505.543762207031 499.731262207031 491.393768310547 478.975006103516 459.818756103516 
365.174987792969 363.706237792969 360.431243896484 356.637512207031 351.581237792969 343.868743896484 336.806243896484 326.15625 313.181243896484 304.756256103516 322.987487792969 355.975006103516 377.893737792969 385.78125 383.868743896484 376.524993896484 367.306243896484 360.962493896484 353.899993896484 345.299987792969 339.825012207031 334.075012207031 330.268737792969 328.049987792969 328.618743896484 330.424987792969 332.40625 336.049987792969 341.056243896484 353.118743896484 367.743743896484 381.78125 397.543762207031 412.4375 423.743743896484 428.924987792969 434.075012207031 437.037506103516 439.162506103516 441.693756103516 444.799987792969 451.443756103516 461.78125 472.412506103516 481.28125 487.512512207031 493.556243896484 489.78125 483.506256103516 473.787506103516 458.21875 
357.8125 355.600006103516 351.424987792969 347.856262207031 343.243743896484 337.5625 330.5625 321.325012207031 310.056243896484 299.106262207031 333.399993896484 367.131256103516 380.049987792969 383.087493896484 379.918762207031 371.837493896484 361.331237792969 355.168762207031 348.174987792969 339.168762207031 332.53125 325.668762207031 321.1875 319.362487792969 320.193756103516 322.924987792969 325.075012207031 329.25 335.274993896484 349.53125 364.768737792969 378.850006103516 395.387512207031 411.774993896484 423.712493896484 429.274993896484 432.362487792969 435.71875 437.993743896484 439.1875 440.200012207031 446.981262207031 453.924987792969 460.206237792969 467.893768310547 473.600006103516 479.356231689453 479.506256103516 472.75 467.5625 456.381256103516 
359.331237792969 353.543762207031 349.3125 344.924987792969 340.462493896484 335.09375 328.887512207031 325.412506103516 326.25 341.6875 381.043762207031 385.725006103516 383.581237792969 381.799987792969 377.243743896484 368.681243896484 359.556243896484 351.59375 343.112487792969 333.875 324.643737792969 317.274993896484 312.8125 311.381256103516 312.149993896484 315.018737792969 318.818756103516 324.262512207031 331.6875 346.65625 360.862487792969 373.806243896484 387.875 400.493743896484 414.274993896484 419.256256103516 421.09375 424.256256103516 424.850006103516 423.481262207031 424.100006103516 428.487487792969 432.856262207031 439.456237792969 445.625 450.96875 454.09375 455.049987792969 452.862487792969 450.512512207031 442.662506103516 
362.631256103516 355.424987792969 349.306243896484 342.856262207031 339.668762207031 335.725006103516 331.993743896484 333.493743896484 340.818756103516 357.181243896484 376.631256103516 384.200012207031 382.587493896484 379.918762207031 374.399993896484 367.112487792969 358.543762207031 350.25 339.112487792969 328.006256103516 315.506256103516 307.96875 303.368743896484 302.149993896484 303.850006103516 306.887512207031 312.262512207031 319.662506103516 327.71875 341.393737792969 354.03125 367.53125 381.450012207031 392.143737792969 401 405.256256103516 406.881256103516 408.818756103516 408.112487792969 405.625 405.893737792969 408.693756103516 410.8125 415.46875 420.9375 426.337493896484 430.256256103516 431.993743896484 434.012512207031 433.806243896484 428.606262207031 
366.193756103516 357.793762207031 349.46875 342.643737792969 338.231262207031 335.243743896484 334.787506103516 338.59375 347.125 357.78125 368.893737792969 377.081237792969 379.087493896484 377.3125 373.5625 367.962493896484 359.512512207031 350.024993896484 336.862487792969 322.668762207031 307.625 297.231262207031 291.743743896484 291.506256103516 295.537506103516 299.868743896484 306.4375 315.243743896484 323.600006103516 336.375 350.012512207031 362.96875 374.100006103516 383.381256103516 389.21875 391.331237792969 392.306243896484 393.34375 392.381256103516 388.856262207031 387.950012207031 387.34375 387.731262207031 392.443756103516 399.306243896484 404.337493896484 407.649993896484 411.075012207031 414.568756103516 416.337493896484 414.46875 
372.362487792969 361.625 351.787506103516 344.90625 341.131256103516 339.443756103516 341.081237792969 346.600006103516 355.018737792969 364.299987792969 372 378.875 382.868743896484 382.762512207031 379.049987792969 373.587493896484 366.131256103516 356.59375 342.118743896484 322.987487792969 302.893737792969 288.46875 281.737487792969 283.399993896484 290.012512207031 295.881256103516 303.206237792969 312.84375 322.212493896484 335.625 346.306243896484 358.568756103516 368.149993896484 374.981262207031 378.412506103516 375.681243896484 375.793762207031 375.881256103516 373.65625 369.774993896484 366.943756103516 361.46875 360.15625 367.674987792969 375.625 381.912506103516 385.487487792969 388.25 393.506256103516 396.037506103516 399.512512207031 
378.012512207031 364.412506103516 353.493743896484 346.143737792969 343.174987792969 344.318756103516 346.950012207031 353.087493896484 360.350006103516 369.5625 377.581237792969 383.693756103516 387.568756103516 388.46875 385.75 379.568756103516 371.524993896484 364.568756103516 350.743743896484 325.581237792969 297.837493896484 276.318756103516 272.262512207031 278.212493896484 286.712493896484 293.299987792969 301.4375 311.262512207031 321.131256103516 333.024993896484 344.556243896484 354.481262207031 361.487487792969 364 364.75 361.975006103516 358.237487792969 357.524993896484 354.924987792969 352.643737792969 349.487487792969 345.393737792969 344.731262207031 348.662506103516 354.681243896484 359.243743896484 362.612487792969 365.450012207031 370.556243896484 376.081237792969 383.424987792969 
382.299987792969 366.174987792969 352.868743896484 344.762512207031 344.118743896484 346.524993896484 350.350006103516 356.987487792969 364.950012207031 373.287506103516 382.068756103516 389.524993896484 392.768737792969 393.96875 392.381256103516 386.618743896484 379.46875 371.337493896484 359.981262207031 331.799987792969 299.837493896484 273.675018310547 270.575012207031 277.049987792969 285.862487792969 293.887512207031 301.556243896484 310.393768310547 321.100006103516 331.28125 341.5 352.037506103516 356.768737792969 355.137512207031 352.493743896484 349.693756103516 344.8125 343.149993896484 340.681243896484 338.725006103516 336.643737792969 334.5625 333.431243896484 335.3125 338.8125 340.606262207031 343.831268310547 344.318756103516 346.462493896484 353.112487792969 364.981262207031 
384.587493896484 366.643737792969 350 341.543762207031 345.168762207031 348.543762207031 352.018737792969 359.40625 367.268737792969 376.3125 385.637512207031 393.856262207031 399.162506103516 401.518737792969 399.600006103516 393.056243896484 384.431243896484 373.412506103516 359.181243896484 334.331237792969 308.59375 289.943756103516 280.587493896484 282.6875 289.8125 296.5 302.9375 311.875 321.024993896484 330.100006103516 339.575012207031 349.4375 351.774993896484 348.287506103516 345.081237792969 340.274993896484 334.106262207031 331.84375 330.768737792969 329.200012207031 327.549987792969 325.875 325.181243896484 325.862487792969 328.299987792969 328.899993896484 329.59375 327.774993896484 325.4375 330.03125 346.3125 
