ncols        51
nrows        45
xllcorner    -63.500000000000
yllcorner    -7.500000000000
cellsize     0.166666666667
NODATA_value -99
160.881256103516 157.443756103516 151.649993896484 148.106246948242 143.46875 137.949996948242 130.618743896484 123.837501525879 118.381248474121 114.456253051758 112.224998474121 110.743751525879 108.868751525879 105.831253051758 104.287498474121 102.84375 101.318748474121 98.9124984741211 97.15625 95.3375015258789 93.7125015258789 91.6812515258789 90.1750030517578 89.9124984741211 90.1187515258789 90.875 93.0562515258789 95.7312469482422 99.0250015258789 103.131248474121 107.793746948242 112.637496948242 118.012496948242 123.987503051758 130.268753051758 134.706253051758 138.793746948242 142.4375 143.912506103516 144.762496948242 145.412506103516 144.893753051758 142.918746948242 139.981246948242 137.899993896484 134.637496948242 131.25 126.743751525879 122.368751525879 116.862503051758 110.943748474121 
160.818756103516 158.068740844727 155.574996948242 155.387496948242 155.125 149.425003051758 142.9375 137.868743896484 134.137496948242 130.362503051758 127.037498474121 123.987503051758 120.71875 117.087501525879 114.256248474121 111.949996948242 108.90625 106.849998474121 105.287498474121 103.993751525879 102.125 100.487503051758 99.1937484741211 99.1125030517578 99.2624969482422 99.3625030517578 101.381248474121 103.574996948242 106.037498474121 109.90625 115.675003051758 122.068748474121 128.493743896484 135.875 142.512496948242 147.081253051758 152.368743896484 156.600006103516 158.518753051758 159.399993896484 160.418746948242 160.125 158.21875 154.96875 152.306243896484 148.106246948242 143.699996948242 138.03125 131.762496948242 124.662498474121 117.356246948242 
156.081253051758 154.206253051758 152.668746948242 154.006256103516 155.300003051758 153.393753051758 151.612503051758 150.987503051758 150.100006103516 147.556243896484 143.725006103516 139.074996948242 134.331253051758 129.212493896484 125.125 121.487503051758 118.03125 115.481246948242 113.381248474121 111.731246948242 110.012496948242 109.168746948242 108.212501525879 108.09375 108.212501525879 108.675003051758 109.956253051758 111.456245422363 112.462501525879 116.643753051758 122.793746948242 128.8125 135.550003051758 143.600006103516 151.25 156.6875 162.3125 168.024993896484 170.962493896484 172.506256103516 174.0625 173.837493896484 172.175003051758 169.737503051758 166.087493896484 159.568756103516 154.024993896484 147.768753051758 139.568756103516 130.831253051758 122.068748474121 
149.600006103516 147.53125 148.181243896484 148.8125 151.300003051758 153.543746948242 157.418746948242 162.212493896484 166.106246948242 165.993743896484 161.15625 154.15625 147.318756103516 141.0625 136.462493896484 131.568740844727 127.099998474121 124.368751525879 121.987503051758 120.150001525879 118.956253051758 117.8125 116.5625 116.806251525879 116.993751525879 117.162498474121 117.699996948242 118.087501525879 118.587501525879 122.456253051758 128.362503051758 134.881256103516 141.100006103516 148.649993896484 156.081253051758 163.993743896484 171.475006103516 178.356246948242 182.65625 185.381256103516 186.412506103516 186.824996948242 185.743743896484 184.243743896484 178.574996948242 171.987503051758 163.606246948242 155.537506103516 146.306243896484 136.043746948242 126.081253051758 
149.568756103516 143.918746948242 141.125 141.668746948242 145.75 152.106246948242 160.024993896484 169.268753051758 179.15625 184.231246948242 177.043746948242 166.193756103516 158.21875 151.9375 146.300003051758 140.481246948242 135.743743896484 131.9375 128.96875 126.856246948242 126.599998474121 125.5625 124.487503051758 125.074996948242 125.268753051758 125.34375 124.462501525879 124.512496948242 125.018753051758 127.731246948242 133.125 139.100006103516 146.087493896484 153.850006103516 162.368743896484 170.618743896484 179.387496948242 188.324996948242 193.15625 196.675003051758 198.337493896484 198.112503051758 198.175003051758 197.106246948242 191.824996948242 182.574996948242 171.362503051758 161.53125 150.668746948242 140.850006103516 128.868743896484 
147.643753051758 141.631256103516 135.800003051758 132.112503051758 137.143753051758 146.268753051758 155.21875 165.100006103516 176.118743896484 184.943756103516 176.793746948242 166.493743896484 160.34375 154.962493896484 149.893753051758 145.618743896484 141.012496948242 137.675003051758 135.475006103516 133.631256103516 133.643753051758 133.193756103516 132.637496948242 132 131.774993896484 131.262496948242 129.53125 128.199996948242 128.556243896484 130.71875 135.59375 142.168746948242 148.71875 156.800003051758 165.574996948242 174.743743896484 184.331253051758 195.043746948242 202.556243896484 205.399993896484 204.487503051758 204.774993896484 204.662506103516 205.056243896484 203.512496948242 190.90625 175.606246948242 162.981246948242 153.300003051758 143 131.837493896484 
148.693756103516 141.743743896484 135.449996948242 130.606246948242 132.862503051758 139.625 147.018753051758 153.824996948242 159.706253051758 163.050003051758 163.487503051758 160.78125 158.481246948242 155.899993896484 152.337493896484 149.362503051758 146.0625 142.993743896484 140.856246948242 140.050003051758 140.84375 141.043746948242 140.462493896484 139.53125 138.71875 137.393753051758 135.193740844727 132.649993896484 131.143753051758 133.587509155273 138.018753051758 143.543746948242 149.899993896484 158.28125 167.574996948242 176.231246948242 186.243743896484 197.518753051758 208.0625 208.856246948242 207.168746948242 205.693756103516 206.25 208.212493896484 207.774993896484 195.243759155273 177.056243896484 161.800003051758 151.793746948242 142.5625 132.931243896484 
150.818756103516 142.662506103516 137.5625 134.600006103516 134.074996948242 138.362503051758 140.981246948242 140.956253051758 138.787506103516 141 148.356246948242 152.350006103516 154.931243896484 155.350006103516 154.618743896484 152.850006103516 150.6875 148.324996948242 146.837493896484 147.018753051758 148.5625 149.037506103516 148.731246948242 147.506256103516 145.90625 143.25 139.643753051758 135.537506103516 132.893753051758 133.875 138.100006103516 143.65625 150.231246948242 158.606246948242 167.118743896484 175.262496948242 183.387496948242 193.168746948242 199.931243896484 201.637496948242 200.237503051758 197.993743896484 197.081253051758 197.681243896484 195.912506103516 185.03125 170.274993896484 156.774993896484 146.856246948242 139.475006103516 131.368743896484 
153.149993896484 145.943756103516 142.21875 139.231246948242 138.018753051758 139.824996948242 140.087493896484 136.006256103516 128.087493896484 126.731246948242 137.431243896484 145.056243896484 150.556243896484 152.84375 154.143753051758 154.5625 153.987503051758 153.850006103516 154.356246948242 154.6875 156.168746948242 157.243743896484 155.800003051758 154.712493896484 151.53125 147.28125 141.862503051758 138.331253051758 135.25 135.03125 138.675003051758 143.356246948242 148.725006103516 155.587493896484 162.550003051758 170.212493896484 177.75 184.231246948242 187.518753051758 188.600006103516 186.725006103516 182.631256103516 180.625 177.637496948242 171.693756103516 164.143753051758 154.587493896484 144.137496948242 136.737503051758 132.137496948242 128.737503051758 
156.068756103516 149.306243896484 145.756256103516 143.762496948242 143.018753051758 144.143753051758 143.28125 138.5625 132.581253051758 131.481246948242 136.987503051758 142.431243896484 148.100006103516 151.631256103516 154.46875 156.675003051758 157.681243896484 159.762496948242 161.956253051758 164.731246948242 165.931243896484 166.293746948242 163.887496948242 160.543746948242 154.956253051758 149.643753051758 144.574996948242 139.737503051758 136.600006103516 136.106246948242 137.800003051758 141.706253051758 146.337493896484 152.574996948242 159.193756103516 165.474990844727 170.84375 175.050003051758 176.768753051758 175.368743896484 172.199996948242 166.762496948242 161.300003051758 156.081253051758 149.112503051758 141.449996948242 134.981246948242 129.225006103516 124.425003051758 121.487503051758 117.306251525879 
159.106246948242 152.524993896484 149.125 147.449996948242 147.125 150.381256103516 150.068756103516 144.600006103516 139.793746948242 138.681243896484 141.212493896484 144.46875 147.881256103516 151.793746948242 155.556243896484 158.456253051758 161.368743896484 165.206253051758 169.512496948242 174.3125 177.774993896484 176.881256103516 172.649993896484 165.1875 159.449996948242 154.362503051758 149.175003051758 144.050003051758 139.212493896484 138.112503051758 139.118743896484 141.793746948242 145.8125 150.887496948242 155.71875 160.037490844727 163.65625 165.100006103516 164.993743896484 162.143753051758 157.512496948242 150.975006103516 145.03125 137.331253051758 129 122.418746948242 116.962501525879 113.412498474121 109.643753051758 106.150001525879 100.4375 
161.631256103516 155.149993896484 152.181243896484 151.206253051758 151.481246948242 155.262496948242 156.449996948242 150.09375 145.962493896484 144.074996948242 144.78125 147.181243896484 149.543746948242 153.175003051758 157.681243896484 160.71875 164.212493896484 168.793746948242 174.137496948242 181.081253051758 187.756256103516 186.737503051758 180.856246948242 171.337493896484 162.875 155.556243896484 149.318756103516 145.237503051758 141.5625 140.59375 139.981246948242 141.412506103516 143.96875 147.925003051758 151.987503051758 154.581253051758 156.143753051758 156.662506103516 154.337493896484 150.443756103516 143.675003051758 136.362503051758 129.668746948242 122.650001525879 112.800003051758 104.28125 100.275001525879 97.4000015258789 95.5625 93.125 86.5250015258789 
163.162506103516 157.256256103516 154.556243896484 153.212493896484 153.274993896484 155.756256103516 155.1875 151.756256103516 148.768753051758 148.050003051758 148.46875 149.793746948242 152.206253051758 154.100006103516 158.412506103516 162.53125 165.699996948242 171.21875 177.300003051758 184.118743896484 193.268753051758 193.53125 187.087493896484 176.931243896484 162.725006103516 153.756256103516 151.262496948242 147.487503051758 144.668746948242 142.925003051758 141.3125 140.537506103516 142.550003051758 144.818756103516 147.806243896484 149.600006103516 149.987503051758 150.199996948242 147.78125 140.774993896484 133.356246948242 126.862503051758 119.087501525879 106.193748474121 95.2874984741211 93.0812530517578 90.8375015258789 87.96875 85.1875 82.375 76.5124969482422 
163.425003051758 157.712493896484 155.287506103516 153.75 152.868743896484 154.162506103516 153.543746948242 152.03125 150.875 150.0625 150.125 151.243743896484 153.112503051758 155.506256103516 158.125 162.393753051758 165.356246948242 170.418746948242 175.862503051758 181.899993896484 190.018753051758 191.943756103516 189.743743896484 181.71875 170.40625 162.0625 157.550003051758 152.543746948242 148.368743896484 144.399993896484 141.006256103516 139.5 140.368743896484 141.975006103516 144.293746948242 145.856246948242 146.356246948242 147.143753051758 144.787506103516 138.774993896484 129 118.5 110.118751525879 101.46875 92.6062469482422 89.4625015258789 88.9312515258789 86.5749969482422 81.9812469482422 77.4375 70.46875 
162.09375 156.987503051758 154.081253051758 152.574996948242 151.5 152.175003051758 152.987503051758 152.5 151.393753051758 151.006256103516 151.25 151.956253051758 153.262496948242 155.362503051758 157.318756103516 161.118743896484 163.262496948242 166.699996948242 170.518753051758 176.212493896484 184.324996948242 189.649993896484 192.21875 189.824996948242 184.350006103516 177.043746948242 168.631256103516 160.106246948242 152.706253051758 145.868743896484 140.368743896484 137.193756103516 137.649993896484 139.918746948242 142.043746948242 142.925003051758 144.787506103516 148.899993896484 150.71875 144.493743896484 132.90625 121.612503051758 113.356246948242 105.431251525879 96.5250015258789 91.0124969482422 87.2624969482422 84.4000015258789 80.5374984741211 75.0875015258789 67.96875 
159.425003051758 154.393753051758 151.993743896484 150.731246948242 149.681243896484 150.881256103516 151.768753051758 151.53125 151.256256103516 151.375 150.943756103516 150.481246948242 151.493743896484 153.487503051758 155.9375 158.368743896484 158.643753051758 161.024993896484 164.0625 168.662506103516 176.787506103516 185.868743896484 194.356246948242 199.362503051758 198.006256103516 190.881256103516 180.462493896484 168.90625 157.893753051758 147.387496948242 139.643753051758 134.25 133.743743896484 135.78125 136.850006103516 136.71875 142.337493896484 148.600006103516 154.699996948242 151.1875 142.912506103516 131.212493896484 120.46875 110.25 101.887496948242 95.34375 90.8249969482422 85.8312530517578 80.7125015258789 75.4875030517578 69.6812515258789 
154.981246948242 150.649993896484 149.493743896484 148.993743896484 148.125 149.481246948242 150.737503051758 151.006256103516 151.112503051758 150.493743896484 149.618743896484 148.574996948242 148.256256103516 149.162506103516 150.743743896484 152.018753051758 150.65625 152.131256103516 155.006256103516 159.743743896484 168.5625 180.199996948242 194.293746948242 206.350006103516 211.018753051758 201.056243896484 189.393753051758 174.475006103516 160.006256103516 147.231246948242 138.4375 133.449996948242 129.8125 127.987503051758 127.543746948242 131.268753051758 138.850006103516 153.568756103516 169.149993896484 163.887496948242 154.625 141.487503051758 127.543754577637 116.75 108.21875 101.137496948242 94.59375 89.3187484741211 85.0687484741211 78.8125 73.6812515258789 
149.456253051758 145.931243896484 145.881256103516 145.931243896484 145.774993896484 147.993743896484 149.793746948242 150.256256103516 150.306243896484 149.875 148.899993896484 146.443756103516 144.587493896484 143.324996948242 143.306243896484 142.912506103516 141.137496948242 141.4375 144.524993896484 148.637496948242 158.106246948242 170.84375 186.725006103516 201.143753051758 208.462493896484 203.087493896484 194.375 178.018753051758 160.574996948242 144.725006103516 134.112503051758 128.368743896484 127.800003051758 128.606246948242 124.856246948242 120.106246948242 134.756256103516 153.412506103516 166.168746948242 167.793746948242 160.368743896484 148.493743896484 135.118743896484 124.3125 114.987495422363 107.643753051758 100.706253051758 94.5562515258789 90.0500030517578 83.5124969482422 78.9000015258789 
142.78125 140.931243896484 141.887496948242 142.9375 143.899993896484 146.387496948242 148.46875 149.625 150.524993896484 149.556243896484 147.175003051758 143.912506103516 140.15625 136.881256103516 135.637496948242 135.1875 133.243743896484 132.462493896484 134.875 138.081253051758 147.487503051758 162.918746948242 175.868743896484 189.631256103516 197.868743896484 199.243743896484 191.581253051758 177.324996948242 161.600006103516 143.356246948242 129.506256103516 128.087493896484 134.40625 134.6875 132.024993896484 130.337493896484 139.893753051758 152.5625 162.493743896484 165.975006103516 162.518753051758 156.300003051758 143.056243896484 132.375 122.775001525879 114.168746948242 107.818748474121 102.181251525879 96.7375030517578 87.6437530517578 85.3312530517578 
135.543746948242 135.331253051758 137.131256103516 139.168746948242 141.300003051758 145.03125 148.168746948242 150.087493896484 150.800003051758 150.012496948242 146.975006103516 141.887496948242 136.550003051758 131.543746948242 129.4375 128.418746948242 125.818748474121 126.724998474121 128.8125 132.899993896484 140.787506103516 152.981246948242 169.162506103516 181.59375 189.381256103516 190.824996948242 185.518753051758 176.925003051758 162.231246948242 145.850006103516 134.899993896484 137.512496948242 143.306243896484 149.125 152.793746948242 151.199996948242 153.131256103516 158.787506103516 163.643753051758 165.949996948242 165.637496948242 161.125 150.568756103516 140.125 130.737503051758 122.493751525879 115.53125 109.34375 102.40625 94.6125030517578 91.875 
127.362503051758 129.0625 132.84375 136.475006103516 139.899993896484 144.25 148.625 151.462493896484 152.625 151.206253051758 147.893753051758 141.96875 135.962493896484 129.65625 127.081253051758 125.087501525879 122.856246948242 123.324996948242 127.043746948242 130.943756103516 140.649993896484 152.912506103516 165.46875 175.675003051758 184.237503051758 188.34375 184.96875 175.475006103516 165.462493896484 157.03125 151.300003051758 151.787506103516 157 164.84375 173.443756103516 170.78125 166.887496948242 167.4375 168.356246948242 169.243743896484 168.787506103516 164.487503051758 156.375 148.087493896484 139.318756103516 131.21875 124.831253051758 117.925003051758 109.5 103.693748474121 99.6812515258789 
119.762496948242 123.393753051758 128.512496948242 133.375 138.231246948242 143.850006103516 148.993743896484 153.162506103516 155.475006103516 153.737503051758 149.34375 142.850006103516 136.53125 131.268753051758 128.056243896484 126.074996948242 124.887496948242 125.856246948242 128.737503051758 132.893753051758 140.356246948242 150.824996948242 162.6875 171.637496948242 178.581253051758 183.231246948242 183.118743896484 178.350006103516 173.487503051758 168.587493896484 164.806243896484 164.662506103516 169.181243896484 176.387496948242 181.524993896484 180.9375 176.943756103516 174.25 173.068756103516 173.274993896484 172.34375 168.399993896484 162.643753051758 155.28125 147.96875 140.506256103516 134.681243896484 127.574996948242 119.625 114.34375 108.837501525879 
114.287498474121 119.800003051758 126.006248474121 131.6875 136.568756103516 142.768753051758 148.962493896484 154.818756103516 159.274993896484 156.381256103516 151.056243896484 143.649993896484 137.993743896484 133.850006103516 130.512496948242 128.193756103516 127.012496948242 128.824996948242 131.425003051758 134.899993896484 142.425003051758 150.762496948242 160.131256103516 168.53125 175.050003051758 178.206253051758 180.350006103516 181.162506103516 178.987503051758 176.831253051758 175.993743896484 176.9375 180.293746948242 185.868743896484 189.399993896484 188.375 184.762496948242 180.15625 178.199996948242 179.975006103516 179.962493896484 176.387496948242 171.149993896484 164 156.675003051758 150.662506103516 145.550003051758 138.675003051758 130.381256103516 124.425003051758 119.824996948242 
110.981246948242 117.962501525879 125.400001525879 130.256256103516 134.731246948242 140.962493896484 147 153.375 157.574996948242 155.493743896484 150.137496948242 144.262496948242 139.556243896484 136.03125 133.53125 131.518753051758 130.793746948242 132.518753051758 134.824996948242 137.806243896484 144.875 153.012496948242 160.25 167.381256103516 172.625 174.274993896484 174.925003051758 179.050003051758 182.206253051758 183.006256103516 183.75 185.199996948242 188.912506103516 193.256256103516 196.668746948242 197.493759155273 195.181243896484 190.768753051758 189.600006103516 190.381256103516 190.368743896484 186.925003051758 181.28125 173.537506103516 168.362503051758 163.431243896484 158.418746948242 150.300003051758 144.856246948242 134.856246948242 129.912506103516 
111.349998474121 118.118751525879 125.618751525879 129.087493896484 132.78125 138.518753051758 144 149.050003051758 152.293746948242 152.175003051758 149.543746948242 145.318740844727 141.925003051758 139.237503051758 137.074996948242 135.806243896484 135.143753051758 136.918746948242 139.037506103516 141.925003051758 148.256240844727 154.5 161.581253051758 167.793746948242 173.0625 177.28125 178.662506103516 182.40625 186.3125 188.0625 189.193756103516 189.993743896484 195.112503051758 199.362503051758 203.40625 204.631256103516 205.393753051758 205.131256103516 203.856246948242 204.856246948242 204.587493896484 200.350006103516 193.974990844727 187.149993896484 178.65625 173.925003051758 168.550003051758 168.587493896484 163.149993896484 148.712493896484 142.993743896484 
112.587501525879 117.96875 122.625 126.574996948242 129.712493896484 134.875 139.918746948242 144.425003051758 147.90625 149.481246948242 147.706253051758 145.78125 143.59375 141.856246948242 140.856246948242 139.96875 139.918746948242 141.431243896484 143.631256103516 146.306243896484 152.081253051758 157.493743896484 163.706253051758 170.09375 176.125 181.518753051758 184.387496948242 187.3125 190.737503051758 192.774993896484 192.59375 194.71875 200.762496948242 205.350006103516 210.675003051758 213.456253051758 216.162506103516 219.018753051758 219.399993896484 220.675003051758 220.881256103516 216.587493896484 209.506256103516 202.699996948242 193.618743896484 183.831253051758 190.543746948242 192.3125 184.90625 172.762496948242 163.09375 
112.287498474121 113.756248474121 117.418746948242 120.918746948242 124.068748474121 129.675003051758 134.787506103516 139.518753051758 142.893753051758 144.71875 145.918746948242 145.893753051758 145.475006103516 145.168746948242 144.481246948242 144.40625 144.09375 146.143753051758 148.149993896484 150.537506103516 155.90625 160.706253051758 166.018753051758 173.6875 179.387496948242 185.056243896484 187.787506103516 190.59375 194.056243896484 195.568756103516 196.824996948242 197.831253051758 205.350006103516 211.956253051758 217.756256103516 222.725006103516 227.568756103516 232.3125 235.056243896484 238.887496948242 240.612503051758 237.550003051758 231.4375 224.512496948242 218.612503051758 220.024993896484 225.556243896484 218.149993896484 206.962493896484 192.043746948242 180.081253051758 
110.775001525879 109.481246948242 112.268745422363 115.5625 118.675003051758 124.3125 130.068756103516 134.774993896484 138.443756103516 141.568756103516 143.662506103516 145.318756103516 147.081253051758 147.737503051758 147.993743896484 148.393753051758 149.018753051758 150.418746948242 152.71875 155.637496948242 159.962493896484 164.118743896484 169.65625 176.356246948242 182.243743896484 188.237503051758 191.574996948242 194.581253051758 196.699996948242 197.949996948242 198.493743896484 200.40625 209.100006103516 217.15625 225.824996948242 231.768753051758 237.643753051758 245.6875 250.162506103516 257 263.681243896484 260.78125 253 248.287506103516 252.131256103516 259.862487792969 260.868743896484 246.224990844727 228.96875 210.975006103516 195.862503051758 
109.106246948242 105.775001525879 107.5625 110.793746948242 113.900001525879 119.162498474121 124.631248474121 129.887496948242 134.318756103516 138.693756103516 142.356246948242 145.456253051758 148.356246948242 150.268753051758 151.5625 152.387496948242 153.75 155.337493896484 157.393753051758 160.212493896484 163.712493896484 167.637496948242 172.449996948242 178.6875 184.493743896484 190.84375 194.175003051758 196.949996948242 200.162506103516 200.71875 200.34375 202.418746948242 212.268753051758 222.024993896484 232.15625 240.15625 247.706253051758 256.318756103516 261.637512207031 270.03125 280.075012207031 277.850006103516 271.125 270.912506103516 279.712493896484 288.443756103516 287.412506103516 268.34375 249.625 230.800003051758 209.837493896484 
109.150001525879 104.668746948242 105.537498474121 107.318748474121 109.962501525879 114.5625 120.199996948242 125.981246948242 131.518753051758 136.25 141.375 145.25 149.71875 153.050003051758 154.78125 156.668746948242 157.75 160.175003051758 161.956253051758 163.625 167.162506103516 170.706253051758 174.5 179.550003051758 185.399993896484 192.09375 195.143753051758 197.449996948242 199.712493896484 201.006256103516 202.337493896484 205.131256103516 215.543746948242 227.024993896484 237.78125 246.793746948242 255.28125 265.524993896484 268.881256103516 275.443756103516 284.862487792969 289.125 287.837493896484 292.581237792969 298.506256103516 305.018737792969 303.537506103516 290.200012207031 271.256256103516 250.925003051758 227.199996948242 
109.087501525879 103.474998474121 103.693748474121 104.150001525879 106.15625 111.34375 116.900001525879 122.818748474121 128.587493896484 134.018753051758 140.324996948242 145.774993896484 151.837493896484 156.40625 158.262496948242 160.662506103516 162.881256103516 164.668746948242 166.231246948242 168.006256103516 170.425003051758 173.431243896484 176.668746948242 180.962493896484 186.199996948242 191.756256103516 194.606246948242 196.743743896484 198.725006103516 200.831253051758 203.862503051758 207.818756103516 219.03125 231.75 243.600006103516 252.568756103516 262.512512207031 273.743743896484 275.806243896484 275.21875 285.356262207031 296.068756103516 302.868743896484 308.637512207031 314.075012207031 321.881256103516 320.943756103516 309.600006103516 291.481262207031 269.59375 247.387496948242 
108.631248474121 102.28125 101.393753051758 101.856246948242 103.981246948242 108.256248474121 113.612503051758 119.5625 125.78125 132.074996948242 138.943756103516 145.918746948242 152.65625 158.837509155273 162.28125 165.15625 167.012496948242 168.006256103516 170.34375 171.931243896484 173.618743896484 175.787506103516 178.418746948242 181.675003051758 186.34375 190.78125 193.287506103516 195.375 197.175003051758 200.850006103516 205.012496948242 209.631256103516 221.875 236.112503051758 248.087493896484 258.4375 269.600006103516 281.28125 281.850006103516 283.643737792969 295.587493896484 308.887512207031 317.668762207031 326.931243896484 333.168762207031 343.90625 344.681243896484 332.681243896484 311.743743896484 289.537506103516 266.837493896484 
111.456253051758 105.074996948242 103.5 103.449996948242 104.143753051758 107.556251525879 111.78125 116.568748474121 122.693748474121 129.612503051758 138.943756103516 146.40625 154.912506103516 163.074996948242 166.768753051758 169.318756103516 170.699996948242 171.824996948242 173.481246948242 174.862503051758 175.949996948242 177.456253051758 179.081253051758 181.912506103516 185.25 188.59375 190.774993896484 192.28125 194.28125 200.050003051758 205.556243896484 211.774993896484 223.112503051758 238.09375 252.793746948242 266.15625 277.706237792969 288.0625 291.549987792969 300.393737792969 313.443756103516 325.587493896484 336.293762207031 346.331237792969 358.28125 373.549987792969 374.918762207031 355.087493896484 334.662506103516 311.15625 287.081237792969 
113.987503051758 108.275001525879 106.387496948242 105.5 104.59375 107.106246948242 110.175003051758 113.981254577637 119.456253051758 126.837501525879 135.887496948242 146.443756103516 157.887496948242 166.09375 170.71875 173.149993896484 174.65625 175.831253051758 176.28125 177.837493896484 178.225006103516 178.862503051758 179.793746948242 180.774993896484 183.418746948242 185.793746948242 187.100006103516 188.399993896484 190.868743896484 197.893753051758 205.681243896484 213.993743896484 227.181243896484 241.262496948242 257.743743896484 271.993743896484 284.100006103516 295.518737792969 303.556243896484 315.5625 327.5625 340.231262207031 354.237487792969 366.662506103516 380.331237792969 394.306243896484 392.068756103516 372.681243896484 351.337493896484 330.212493896484 305.962493896484 
116.743751525879 111.893753051758 109.018753051758 107.40625 105.618751525879 107.09375 108.943748474121 111.875 116.324996948242 123.53125 133.524993896484 146.018753051758 159.78125 170.737503051758 174.149993896484 176.606246948242 178.381256103516 179.118743896484 179.46875 179.850006103516 179.975006103516 179.600006103516 179.756256103516 179.331253051758 180.668746948242 182.056243896484 183.4375 185.206253051758 187.743743896484 195.75 204.787506103516 215.206253051758 229.324996948242 245.193756103516 261.075012207031 274.756256103516 287.637512207031 302.806243896484 313.381256103516 325.649993896484 338.649993896484 350.53125 365.587493896484 378.868743896484 390.737487792969 397.581237792969 396.774993896484 382.993743896484 364.875 344.46875 322.287506103516 
121.106246948242 116.581253051758 114.143753051758 111.800003051758 109.849998474121 110.59375 111.131248474121 112.512496948242 115.712501525879 121.25 131.399993896484 144.912506103516 160.25 171.84375 176.40625 179.050003051758 180.706253051758 181.506256103516 181.643753051758 181.318756103516 181.081253051758 180.53125 179 177.993743896484 178.162506103516 178.306243896484 179.306243896484 181.012496948242 183.612503051758 192.962493896484 202.862503051758 214.024993896484 228.481246948242 245.350006103516 260.149993896484 272.6875 288.931243896484 303.081237792969 314.462493896484 326.643737792969 340.575012207031 352.774993896484 363.299987792969 376.931243896484 387.756256103516 391.037506103516 390.212493896484 382.506256103516 368.956237792969 351.056243896484 329.399993896484 
125.712501525879 121.668746948242 119.268753051758 117.03125 114.96875 114.568748474121 113.962501525879 113.90625 115.381248474121 118.0625 128.631256103516 145.712493896484 160.0625 170.75 176.8125 180.662506103516 182.512496948242 183.237503051758 182.631256103516 181.59375 180.693756103516 179.337493896484 177.893753051758 175.75 174.643753051758 174.21875 174.8125 176.524993896484 179.706253051758 189.668746948242 200.949996948242 212.024993896484 228.125 245.006256103516 258.5 273.043762207031 288.237487792969 303.518737792969 314.793762207031 326.0625 339.09375 348.09375 359.443756103516 373.068756103516 382.6875 385.018737792969 387.418762207031 381.825012207031 369.725006103516 355.15625 336.100006103516 
129.712493896484 126.275001525879 123.925003051758 121.881248474121 120.012496948242 118.900001525879 118.256248474121 117.474998474121 118.493751525879 119.15625 133.181243896484 150.225006103516 162.074996948242 171.975006103516 177.899993896484 182.081253051758 184.012496948242 184.262496948242 183.556243896484 181.699996948242 179.787490844727 177.074996948242 174.96875 172.024993896484 170.800003051758 169.912506103516 170.131256103516 171.856246948242 175.112503051758 186.056243896484 197.149993896484 209.59375 225.949996948242 242.037506103516 256.799987792969 269.856262207031 285.793762207031 299.762512207031 312.693756103516 324.737487792969 334.006256103516 343.856262207031 352.106231689453 362.537506103516 370.412506103516 374.28125 379.081237792969 377.8125 367.0625 354.706237792969 338.681243896484 
130.118743896484 127.243751525879 125.943748474121 124.599998474121 123.3125 122.824996948242 122.837501525879 124.131248474121 127.381248474121 135.243759155273 150.306243896484 159.6875 167.043746948242 174.612503051758 180.268753051758 184.274993896484 186.043746948242 185.53125 183.443756103516 181.524993896484 177.725006103516 174.068756103516 171.518753051758 168.637496948242 166.706253051758 166.393753051758 167.5 169.806243896484 172.912506103516 182.912506103516 194.449996948242 205.9375 220.043746948242 234.3125 249.793746948242 263.762512207031 276.568756103516 289.956237792969 301.850006103516 309.274993896484 318.799987792969 327.043762207031 332.950012207031 341.381256103516 347.981262207031 351.700012207031 352.149993896484 351.893737792969 345.087493896484 338.3125 323.556243896484 
130.199996948242 128.125 127.768753051758 127.4375 126.71875 127.693748474121 128.537506103516 131.625 136.850006103516 145.606246948242 156.1875 165.287506103516 172.481246948242 178.412506103516 183.59375 186.631256103516 188.274993896484 187.149993896484 183.912506103516 180.34375 175.462493896484 170.637496948242 166.962493896484 164.225006103516 163.375 163.037506103516 164.618743896484 167.618743896484 171.175003051758 180.4375 190.381256103516 201.706253051758 216.112503051758 229.006256103516 243.5 255.1875 265.825012207031 277.556243896484 288.487487792969 293.112487792969 299.987487792969 307.356262207031 311.793762207031 317.987487792969 321.96875 324.743743896484 327.043762207031 326.993743896484 323.356262207031 318.0625 305.943756103516 
130.15625 129.09375 129.368743896484 129.568756103516 130.162506103516 131.262496948242 133.800003051758 137.425003051758 143.381256103516 151.46875 160.5 168.662506103516 176.581253051758 182.15625 187.03125 189.800003051758 190.456253051758 188.762496948242 184.506256103516 179.243743896484 172.662506103516 166.231246948242 162.056243896484 159.881256103516 160.231246948242 160 161.787506103516 165.074996948242 168.856246948242 177.162506103516 187.668746948242 199.824996948242 212.149993896484 224.137496948242 236.431243896484 246.481246948242 256.356262207031 265.743743896484 274.043762207031 278.075012207031 282.649993896484 287.112487792969 289.731262207031 294.725006103516 298.625 303.293762207031 305.162506103516 302.018737792969 302.287506103516 297.950012207031 288.256256103516 
128.693756103516 128.931243896484 129.287506103516 129.399993896484 129.918746948242 131.112503051758 133.881256103516 137.550003051758 143.9375 151.350006103516 160.018753051758 168.193756103516 176.8125 183.287506103516 188.018753051758 191.212493896484 192.737503051758 190.175003051758 186.206253051758 178.762496948242 169.824996948242 163.350006103516 158.606246948242 156.837493896484 158.381256103516 158.543746948242 159.943756103516 162.993743896484 167.731246948242 176.881256103516 184.631256103516 195.587493896484 207 220.043746948242 231.268753051758 238.087493896484 245.518753051758 253.53125 258.924987792969 261.331237792969 264.756256103516 264.381256103516 265.506256103516 271.71875 276.418762207031 281.556243896484 282.1875 279.325012207031 281.231262207031 276.674987792969 268.450012207031 
127.775001525879 127.912498474121 129.206253051758 129.225006103516 128.587493896484 129.506256103516 132.100006103516 135.456253051758 141.318756103516 149.212493896484 158.193756103516 167.381256103516 176.725006103516 183.71875 189.40625 192.84375 194.418746948242 193.8125 189.287506103516 179.175003051758 167.737503051758 158.600006103516 154.675003051758 155.481246948242 156.912506103516 157.956253051758 159.368743896484 162.125 166.850006103516 174.368743896484 181.762496948242 189.3125 199.337493896484 210.868743896484 223.537506103516 232.125 235.293746948242 240.59375 243.556243896484 245.268753051758 246.837493896484 246.618743896484 247.056243896484 251.181243896484 255.412506103516 257.606262207031 260.225006103516 258.8125 260.549987792969 257.287506103516 249.862503051758 
126.618751525879 127.474998474121 128.981246948242 128.787506103516 127.349998474121 127.481246948242 129 132.6875 138.318756103516 146.449996948242 156.556243896484 167.037506103516 176.331253051758 184.643753051758 191.012496948242 194.600006103516 196.34375 195.5 193.006256103516 182.074996948242 168.412506103516 156.962493896484 153.162506103516 154.350006103516 155.962493896484 157.956253051758 159.056243896484 162.0625 165.9375 172.106246948242 177.337493896484 182.912506103516 191.15625 201.712493896484 213.90625 225.75 227.193756103516 228.237503051758 229.512496948242 229.543746948242 230.475006103516 230.050003051758 230.149993896484 234.050003051758 236.168746948242 236.481246948242 238.84375 239.056243896484 237.649993896484 237.481246948242 231.824996948242 
126.400001525879 128.306243896484 130.75 129.606246948242 127.112503051758 126.443748474121 126.181251525879 128.706253051758 134.862503051758 143.987503051758 154.868743896484 166.481246948242 177.318756103516 186.168746948242 193.012496948242 196.137496948242 197.387496948242 195.462493896484 191.356246948242 183.143753051758 170.587493896484 162.118743896484 156.112503051758 155.1875 157.0625 158.625 160.3125 162.75 166.918746948242 172.287506103516 176.362503051758 181.4375 188.181243896484 195.893753051758 205.649993896484 216.293746948242 218.981246948242 218.706253051758 218.524993896484 219.1875 219.506256103516 218.662506103516 219.143753051758 220.1875 221.618743896484 222.199996948242 223.5625 224.212493896484 222.268753051758 223.162506103516 218.943756103516 
