ncols        51
nrows        45
xllcorner    -63.500000000000
yllcorner    -7.500000000000
cellsize     0.166666666667
NODATA_value -99
59.4749984741211 34.5687484741211 27.0750007629395 22.8937492370605 20.0562496185303 27.0812492370605 35.3375015258789 44.6687507629395 59.8250007629395 76.4437484741211 93.25 113.056251525879 133.75 154.649993896484 176.118743896484 198.493743896484 218.856246948242 233.300003051758 248.587509155273 265.056243896484 277.03125 287.862487792969 301.831237792969 310.34375 320.024993896484 331.193756103516 337.375 344.9375 350.274993896484 361.350006103516 368.25 377.743743896484 386.762512207031 393.5625 400.356262207031 408.018737792969 413.8125 415.837493896484 417.225006103516 420.737487792969 420.606262207031 420.243743896484 415.9375 416.793762207031 412.756256103516 406.450012207031 401.518737792969 389.231262207031 380.237487792969 375.306243896484 368.46875 
62.4249992370605 36.5437507629395 27.5874996185303 21.4750003814697 17.1187496185303 25.0625 34.7062492370605 45.5750007629395 63.4562492370605 81.9562530517578 101.131248474121 122.574996948242 143.793746948242 164.662506103516 185.225006103516 205.481246948242 224.787506103516 240.493743896484 259.75 278.912506103516 291.962493896484 304.881256103516 317.6875 329.200012207031 338.787506103516 347.856262207031 354.756256103516 360.4375 365.606262207031 374.318756103516 381.581237792969 395.143737792969 399.931243896484 407.956237792969 412.487487792969 413.518737792969 420.725006103516 422.881256103516 426.793762207031 423.587493896484 422.899993896484 427.274993896484 422.931243896484 417.299987792969 413.850006103516 405.850006103516 400.568756103516 389.787506103516 381.862487792969 375.537506103516 369.212493896484 
73.7624969482422 50.8812484741211 44.4000015258789 40.2249984741211 37.6624984741211 46.5687484741211 57.3312492370605 69.5437469482422 88.3125 107.337501525879 126.393753051758 146.15625 165.237503051758 182.65625 201.09375 219.824996948242 235.768753051758 248.768753051758 265.881256103516 284.362487792969 299.006256103516 315.825012207031 330.962493896484 343.3125 354.600006103516 368.100006103516 375.600006103516 377.943756103516 379.075012207031 386.243743896484 392.737487792969 402.524993896484 411.387512207031 416.081237792969 422.537506103516 421.881256103516 426.149993896484 429.049987792969 430.037506103516 429.393737792969 432.024993896484 429.306243896484 428.237487792969 422.943756103516 416.231262207031 409.512512207031 402.0625 392.131256103516 378.612487792969 372.543762207031 366.03125 
84.5437469482422 64.4749984741211 62.1375007629395 60.875 61.15625 70.9625015258789 82.8562469482422 96.8812484741211 117.506248474121 137.375 154.993743896484 172.3125 187.168746948242 201.631256103516 217.274993896484 232.46875 244.962493896484 255.956253051758 270.450012207031 289.456237792969 310.181243896484 327.756256103516 343.318756103516 358.618743896484 372.131256103516 384.950012207031 392.056243896484 390.28125 389.412506103516 398.356262207031 404.350006103516 412.15625 417.975006103516 421.318756103516 423.75 429.90625 435.431243896484 437.200012207031 438.237487792969 438.28125 437.737487792969 439.556243896484 432.912506103516 426.174987792969 421.674987792969 410.387512207031 401 391.387512207031 376.087493896484 364.4375 358.456237792969 
99.7312469482422 80.6999969482422 77.0812530517578 78.2562484741211 81.6937484741211 92.4437484741211 106.025001525879 122.162498474121 145.381256103516 167.34375 182.243743896484 194.581253051758 208.143753051758 220.581253051758 233.393753051758 244.8125 253.831253051758 263.049987792969 275.518737792969 294.71875 317.299987792969 335.987487792969 352.193756103516 373.34375 387.03125 400.956237792969 400.012512207031 401.243743896484 400.362487792969 406.212493896484 413.475006103516 417.831237792969 421.768737792969 428.899993896484 433.456237792969 435.668762207031 442.443756103516 447.049987792969 449.125 447.612487792969 448.75 444.71875 438.875 434.375 424.375 412.399993896484 398.350006103516 384.743743896484 368.84375 360.206237792969 354.931243896484 
111.71875 94.6999969482422 91.2937469482422 89.6374969482422 94.3125 107.993751525879 123.231246948242 139.912506103516 164.006256103516 186.737503051758 201.662506103516 211.087493896484 224.550003051758 236.806243896484 245.956253051758 257.806243896484 263.993743896484 271.762512207031 285.268737792969 306.043762207031 327.5625 348.774993896484 369.350006103516 383.756256103516 398.487487792969 411.762512207031 410.512512207031 407.774993896484 408.100006103516 414.200012207031 420.837493896484 427.168762207031 430.881256103516 436.987487792969 440.862487792969 445.375 449.75 453.237487792969 460.28125 458.65625 454.587493896484 451.256256103516 443.756256103516 438.268737792969 428.543762207031 411.762512207031 393.962493896484 380.168762207031 364.556243896484 350.993743896484 341.206237792969 
124.337501525879 108.381248474121 105.125 103.912498474121 106.118751525879 118.699996948242 134.5 151.84375 169.731246948242 191.5 209.512496948242 222.256256103516 236.84375 249.90625 259.662506103516 268.899993896484 278.524993896484 289.106262207031 301.924987792969 323.149993896484 342.225006103516 361.381256103516 377.649993896484 394.337493896484 410.075012207031 426.100006103516 421.643737792969 416.668762207031 411.443756103516 417.899993896484 425.518737792969 428.725006103516 430.956237792969 437.231262207031 443.299987792969 450.568756103516 453.131256103516 456.706237792969 464.056243896484 465.96875 459.100006103516 451.693756103516 444.268737792969 440.868743896484 427.362487792969 414.912506103516 393.318756103516 368.418762207031 349.893737792969 341.237487792969 330.75 
136.074996948242 121.400001525879 118.375 118.25 120.699996948242 134.306243896484 146.618743896484 155.693756103516 166.818756103516 188.568756103516 213.193756103516 230.612503051758 248.681243896484 262.174987792969 272.875 283.643737792969 293.431243896484 307.424987792969 321.256256103516 337.293762207031 359.337493896484 376.131256103516 392.231262207031 402.71875 420.149993896484 427.306243896484 426.887512207031 419.200012207031 413.950012207031 420.0625 426.681243896484 429.206237792969 433.612487792969 436.40625 438.737487792969 443.662506103516 448.893737792969 455.512512207031 458.206237792969 453.337493896484 451.875 445.162506103516 439.837493896484 432.268737792969 416.793762207031 398.331237792969 377.043762207031 355.581237792969 337.912506103516 321.918762207031 310.625 
145.850006103516 132.793746948242 131.081253051758 130.837493896484 132.962493896484 145.225006103516 156.662506103516 166.074996948242 172.949996948242 186.137496948242 210.068756103516 232.243743896484 254.59375 269.006256103516 280.59375 293.600006103516 305.337493896484 322.706237792969 341.556243896484 351.96875 365.381256103516 386.03125 396.212493896484 415.1875 423.299987792969 427.806243896484 421.943756103516 419.443756103516 419.418762207031 421.668762207031 429.787506103516 429.137512207031 424.831237792969 423.506256103516 428.912506103516 435.481262207031 441.850006103516 448.993743896484 454.243743896484 447.337493896484 440.225006103516 432.950012207031 431.975006103516 429.5 405.412506103516 386.71875 366.731262207031 341.243743896484 318.868743896484 303.262512207031 292.100006103516 
154.731246948242 144.081253051758 143.131256103516 144.050003051758 145.100006103516 156.850006103516 168.387496948242 178.606246948242 189.875 205.100006103516 224.231246948242 239 262.037506103516 276.356231689453 290.106262207031 301.043762207031 313.137512207031 331.662506103516 352.850006103516 370.487487792969 380.418762207031 390.662506103516 401.575012207031 415.987487792969 419.75 423.668762207031 417.09375 414.412506103516 416.799987792969 423.481262207031 424.087493896484 420.299987792969 420.168762207031 419.875 420.200012207031 425.631256103516 430.393737792969 438.243743896484 443.799987792969 444.96875 443.881256103516 441 428.78125 417.356262207031 399.318756103516 385.793762207031 362.674987792969 332.262512207031 308.15625 287.225006103516 268.356262207031 
163.337493896484 155.137496948242 154.324996948242 155.981246948242 157.40625 169.481246948242 181.300003051758 190.399993896484 203.206253051758 220.699996948242 240.618743896484 257.924987792969 269.637512207031 285.200012207031 296.268737792969 306.193756103516 318.674987792969 339.243743896484 360.825012207031 383.381256103516 405.825012207031 409.993743896484 412.518737792969 403.262512207031 416.15625 425.5 418.606262207031 414.706237792969 410.337493896484 411.274993896484 413.818756103516 412.475006103516 411 409.856262207031 408.631256103516 409.78125 414.356262207031 423.912506103516 434.28125 439.006256103516 440.34375 434.431243896484 430.362487792969 413.21875 391.818756103516 373.15625 353.34375 320.662506103516 296.6875 275.568756103516 252.800003051758 
172.649993896484 164.587493896484 164.625 166.631256103516 169.25 179.331253051758 192.643753051758 204.225006103516 219.137496948242 233.800003051758 252.899993896484 271.893737792969 277.524993896484 289.393737792969 302.549987792969 310.356262207031 322.399993896484 342.71875 365.600006103516 393.381256103516 421.581237792969 434.068756103516 434.3125 418.606262207031 411.262512207031 408.300018310547 399.018737792969 395.65625 395.78125 395.543762207031 391.90625 389.868743896484 388.65625 387.575012207031 390.65625 397.043762207031 404.774993896484 411.59375 418.75 425.225006103516 430.818756103516 425.431243896484 413.674987792969 384.431243896484 360.912506103516 336.299987792969 312.306243896484 297.943756103516 281.418762207031 263.03125 235.893753051758 
182.418746948242 173.75 173.737503051758 176.212493896484 178.787506103516 190.112503051758 201.581253051758 212.331253051758 227.862503051758 245.59375 263.674987792969 279.331237792969 287.925018310547 287.487487792969 297.537506103516 310.712493896484 322.59375 342.899993896484 364.987487792969 392.325012207031 425.993743896484 437.899993896484 439.8125 422.274993896484 392.337493896484 381.174987792969 383.581237792969 382.5625 384.399993896484 385.0625 377.725006103516 369.068756103516 366.09375 363.762512207031 368.3125 379.375 389.987487792969 402.09375 413.512481689453 419.600006103516 421.53125 416.756256103516 392.399993896484 368.693756103516 353.600006103516 334.693756103516 309.662506103516 283.09375 262.668762207031 254.131256103516 241.274993896484 
187.675003051758 180.337493896484 181.53125 184.0625 187.893753051758 198 208.618743896484 219.975006103516 236.850006103516 253.868743896484 266.506256103516 277.612487792969 284.875 288.75 288.424987792969 304.5 316.21875 333.818756103516 357.524993896484 384.681243896484 413.768737792969 429.225006103516 435.237487792969 422.668762207031 399.03125 383.493743896484 376.15625 369.018737792969 368.112487792969 364.15625 361.887512207031 351.25 347.856262207031 346.049987792969 348.425018310547 363.875 380.96875 397.993743896484 411.799987792969 413.424987792969 399.96875 382.25 374.9375 371.34375 367.037506103516 343.206237792969 319.837493896484 297.6875 276.03125 271.606262207031 263.643737792969 
189.662506103516 184.006256103516 186.287506103516 188.981246948242 192.649993896484 203.231246948242 216.087493896484 229.006256103516 243.462493896484 256.712493896484 267.543762207031 276.268737792969 280.375 282.962493896484 277.712493896484 291.237487792969 304.912506103516 325.600006103516 347.762512207031 371.493743896484 400.318756103516 420.225006103516 433.299987792969 432.918762207031 422.450012207031 410.262512207031 393.356262207031 380.6875 371.325012207031 362.206237792969 346.981262207031 333.737487792969 334.5 327.024993896484 322.125 333.268737792969 364.875 390.6875 400.262512207031 394.956237792969 379.443756103516 372.737487792969 378.09375 373.043762207031 362.28125 350.537506103516 336.018737792969 320.868743896484 304.481262207031 288.65625 277.306243896484 
190.387496948242 185.037506103516 188.9375 193.0625 196.793746948242 208.943756103516 222.625 235.231246948242 247.243743896484 260.087493896484 268.6875 275.03125 278.137512207031 281.806243896484 279.693756103516 275.975006103516 293.243743896484 319.637512207031 337.34375 359.318756103516 387.681243896484 417.024993896484 440.318756103516 448.193756103516 440.975006103516 426.337493896484 405.668762207031 386.475006103516 373.424987792969 364.03125 352.543762207031 335.681243896484 320.337493896484 306.493743896484 299.375 327.481262207031 348.84375 370.831237792969 383.462493896484 385.918762207031 377.662506103516 371.631256103516 370.587493896484 358.862487792969 348.8125 342.03125 329.46875 314.0625 304.743743896484 291.600006103516 283.881256103516 
191.768753051758 187.381256103516 190.550003051758 196.137496948242 202.456253051758 213.425003051758 226.03125 237.943756103516 250.925003051758 262.524993896484 271.693756103516 278.96875 280.768737792969 282.362487792969 283.556243896484 283.631256103516 281.375 304.21875 326.350006103516 348.575012207031 377.350006103516 407.600006103516 439.96875 457.868743896484 459.6875 431.606262207031 405.606262207031 386.875 372.868743896484 362.075012207031 351.549987792969 339.725006103516 326.318756103516 315.162506103516 324.293762207031 335.756256103516 355.862487792969 376.337493896484 394.231262207031 385.818756103516 374.106262207031 364.456237792969 353.981262207031 348.131256103516 341.162506103516 336.6875 327.625 319.618743896484 309.84375 292.037506103516 283.21875 
190.40625 187.506256103516 192.28125 197.893753051758 204.925003051758 218.5625 230.475006103516 241.556243896484 252.824996948242 264.774993896484 273.924987792969 283.518737792969 282.506256103516 285.774993896484 287.543762207031 289.34375 287.887512207031 288.399993896484 320.375 339.356262207031 365.106262207031 395.768737792969 427.53125 446.106262207031 451.243743896484 429.662506103516 397.837493896484 383.418762207031 371.174987792969 354.53125 332.075012207031 314.368743896484 327.012512207031 331.46875 334.181243896484 358.90625 377.787506103516 384.350006103516 390.59375 384.837493896484 363.243743896484 351.924987792969 342.125 337.612487792969 330.518737792969 329.549987792969 323.712493896484 314.037506103516 308.231262207031 287.375 284.850006103516 
188.574996948242 186.287490844727 191.293746948242 199.393753051758 208.262496948242 220.962493896484 234.300003051758 247.125 258.375 271.387512207031 278.743743896484 280.200012207031 281.200012207031 285.193756103516 287.443756103516 292.256256103516 295.674987792969 292.09375 302.40625 322.306243896484 348.081237792969 382.1875 391.337493896484 412.200012207031 418.518737792969 415.912506103516 397.956237792969 376.106262207031 364.174987792969 347.006256103516 328.9375 320.375 329.762512207031 334.293762207031 341.574981689453 359.59375 367.287506103516 368.931243896484 375.456237792969 365.287506103516 348.024993896484 335.131256103516 330.325012207031 329.993743896484 323.931243896484 319.59375 319.118743896484 311.668762207031 303.112487792969 277.518737792969 285.15625 
185.956253051758 184.53125 191.043746948242 198.300003051758 208.556243896484 225.618743896484 240.90625 254.056243896484 265.21875 274.943756103516 284.643737792969 291.006256103516 296.137512207031 295.237487792969 294.631256103516 287.912506103516 283.631256103516 295.431243896484 303.174987792969 317.881256103516 330.3125 354.081237792969 382.306243896484 390.637481689453 389.78125 380.418762207031 371.1875 364.487487792969 347.056243896484 327.387512207031 317.556243896484 325.700012207031 329.1875 330.612487792969 341.243743896484 353.15625 358.631256103516 360.056243896484 357.206237792969 349.793762207031 330.90625 318.681243896484 319.581237792969 320.09375 319.15625 317.362487792969 313.125 306.1875 295.943756103516 275.162506103516 284.075012207031 
180.037506103516 184.925003051758 194.9375 203.212493896484 212.199996948242 232.149993896484 250.4375 265.487487792969 276.799987792969 283.887512207031 291.600006103516 298.1875 298.893737792969 298.59375 294.943756103516 293.837493896484 287.387512207031 292.1875 305.924987792969 314.993743896484 339.524993896484 362.631256103516 382.543762207031 388.875 389.987487792969 381.149993896484 361.393737792969 350.493743896484 340.831237792969 331.131256103516 325.84375 325.987487792969 321.918731689453 322.493743896484 329.806243896484 340.412506103516 348.056243896484 350.762512207031 345.774993896484 335.962493896484 326.631256103516 315.899993896484 310.90625 313.518737792969 312.818756103516 312.78125 312.34375 303.331237792969 285.725006103516 281.756256103516 280.931243896484 
180.018753051758 179.300003051758 193.15625 207.918746948242 218.724990844727 236.399993896484 257.450012207031 276.362487792969 288.299987792969 295.768737792969 301.556243896484 304.231262207031 303.59375 301.643737792969 303.524993896484 299.318756103516 308.118743896484 310 321.524993896484 327.549987792969 336.762512207031 355.325012207031 373.018737792969 373.043762207031 366.981262207031 365.393737792969 361.237487792969 350.006256103516 348.662506103516 341.181243896484 329.293762207031 319.40625 321.137512207031 325.912506103516 326.787506103516 331.075012207031 338.762512207031 341.450012207031 336.524993896484 328.299987792969 321.681243896484 312.799987792969 307.53125 307.337493896484 306.462493896484 306.831237792969 306.549987792969 300.549987792969 286.256256103516 288.174987792969 279.34375 
180.3125 185.756256103516 199.368743896484 215.050003051758 226.868743896484 243.949996948242 257.181243896484 277.600006103516 296.237487792969 304.5625 307.40625 308.475006103516 312.337493896484 310.931243896484 312.575012207031 311.768737792969 314.65625 319.299987792969 326.149993896484 332.53125 343.3125 349.806243896484 361.431243896484 359.825012207031 361.325012207031 357.975006103516 348.912506103516 347.100006103516 346.556243896484 337.1875 323.125 317.631256103516 323.337493896484 326.212493896484 329.212493896484 323.4375 324.931243896484 330.662506103516 332.481262207031 324.850006103516 316.212493896484 309.131256103516 303.418762207031 302.09375 300.799987792969 298.875 297.5625 291.3125 289.450012207031 292.331237792969 282.524993896484 
179.78125 188.881256103516 205.550003051758 219.399993896484 230.556243896484 244.393753051758 265.737487792969 282.981262207031 294.293762207031 300.887512207031 306.662506103516 314.243743896484 316.200012207031 317.943756103516 316.825012207031 316.043762207031 318.206237792969 325.225006103516 333.15625 340.856262207031 344.193756103516 350.693756103516 356.056243896484 359.993743896484 356.481262207031 347.193756103516 342.450012207031 341.368743896484 343.131256103516 340.881256103516 335.34375 331.181243896484 336.837493896484 337.393737792969 337.112487792969 325.912506103516 330.637512207031 331.799987792969 329.325012207031 322.993743896484 313.262512207031 308.556243896484 304.206237792969 299.393737792969 296.643737792969 293.387512207031 290.625 278.700012207031 285.618743896484 289.612487792969 285.649993896484 
183.350006103516 194.987503051758 210.1875 227.243743896484 240.268753051758 254.668746948242 267.625 284.0625 293.325012207031 301.837493896484 306.574981689453 310.837493896484 317.049987792969 318.068756103516 316.399993896484 318.450012207031 324.625 330.231262207031 335.3125 342.518737792969 349.40625 351.543762207031 358.387512207031 358.668762207031 354.0625 354.756256103516 349.356262207031 348.868743896484 348.84375 352.043762207031 347.862487792969 351.25 354.793762207031 353.487487792969 344.612487792969 336.137512207031 336.293762207031 329.774993896484 325.46875 319.487487792969 311.993743896484 305.181243896484 300.831237792969 293.018737792969 284.475006103516 280.662506103516 270.225006103516 274.487487792969 275.387512207031 282.993743896484 281.306243896484 
190.75 204.993743896484 215.0625 230.668746948242 240.306243896484 252.637496948242 263.912506103516 278.143737792969 283.618743896484 288.237487792969 300.787506103516 308.299987792969 310.356262207031 312.837493896484 318.637512207031 321.018768310547 327.393737792969 332.950012207031 337.556243896484 342.575012207031 349.15625 351.237487792969 357.431243896484 353.325012207031 353.931243896484 353.681243896484 356.950012207031 356.162506103516 354.78125 358.706237792969 362.256256103516 374.943756103516 379.4375 367.5625 354.362487792969 346.556243896484 338.662506103516 332.337493896484 320.28125 313.118743896484 307.268737792969 298.15625 290.418762207031 286.456237792969 280.575012207031 268.787506103516 274.78125 272.356262207031 272.168762207031 277.375 270.5 
190.581253051758 197.512496948242 210.112503051758 222.806243896484 231.893753051758 243.8125 254.056243896484 263.081237792969 270.543762207031 283.693756103516 293.756256103516 297.53125 302.856262207031 307.431243896484 313.225006103516 319.112487792969 322.837493896484 326.3125 337.756256103516 341.787506103516 344.737487792969 348.893737792969 354.743743896484 356.637512207031 356.674987792969 357.106262207031 359.012512207031 357.65625 357.568756103516 358.100006103516 367.274993896484 380.049987792969 391.931243896484 374.46875 356.868743896484 345.956237792969 341.649993896484 330.875 318.806243896484 311.356262207031 303.774993896484 295.112487792969 287.875 280.6875 275.456237792969 274.487487792969 275.962493896484 269.956237792969 268.950012207031 261.868743896484 253.518753051758 
190.668746948242 193.318756103516 203.34375 211.9375 221.543746948242 234.037506103516 244.899993896484 251.712493896484 261.375 273.8125 282.418762207031 286.256256103516 292.100006103516 296.574981689453 304.975006103516 308.206237792969 316.231262207031 326.5625 338.081237792969 344.200012207031 347.168762207031 348.693756103516 358.106262207031 357.612487792969 358.399993896484 356.162506103516 357.924987792969 355.787506103516 356.15625 357.700012207031 363.537506103516 371.618743896484 377.887512207031 366.862487792969 357.181243896484 346.456237792969 337.456237792969 330.987487792969 321.806243896484 310.149993896484 300.03125 294.5 287.850006103516 282.543762207031 273.4375 267.118743896484 266.893737792969 267.643737792969 260.568756103516 248.381256103516 237.618743896484 
187.231246948242 188.4375 194.862503051758 202.600006103516 210.800003051758 218.306243896484 226.925003051758 238.725006103516 252.487503051758 261.318756103516 270.5 276.768737792969 281.793762207031 289.806243896484 300.743743896484 309.731262207031 317.625 325.756256103516 335.206237792969 342.806243896484 346.78125 348.174987792969 354.606262207031 353.568756103516 353.318756103516 347.831237792969 349.46875 350.212493896484 349.643737792969 348.78125 352.34375 353.549987792969 356.293762207031 352.018737792969 350.506256103516 341.931243896484 335.043762207031 326.125 317.299987792969 305.943756103516 291.587493896484 283.5625 283.318756103516 285.118743896484 279.662506103516 271.90625 271.793762207031 269.8125 256.662506103516 242.568756103516 226.131256103516 
183.21875 182.012496948242 184.899993896484 187.962493896484 193.449996948242 203.418746948242 212.331253051758 225.899993896484 237.293746948242 244.6875 255.387496948242 263.4375 270.893737792969 280.931243896484 292.049987792969 301.818756103516 309.96875 323.287506103516 330.987487792969 334.975006103516 339.512512207031 344.28125 349.262512207031 345.618743896484 340.237487792969 341.493743896484 337.356262207031 331.875 330.475006103516 330.962493896484 334.225006103516 333.087493896484 336.100006103516 337.668762207031 338.837493896484 330.15625 330.756256103516 324.287506103516 314.318756103516 310.231231689453 301.581237792969 292.206237792969 285.8125 282.03125 278.412506103516 278.106262207031 275.887512207031 273.475006103516 262.068756103516 246.475006103516 226.206253051758 
178.75 174.949996948242 174.800003051758 177.893753051758 182.768753051758 191.25 202.024993896484 211.962493896484 222.856246948242 232.524993896484 242.949996948242 250.306243896484 262.256256103516 269.424987792969 280.731262207031 293.1875 303.850006103516 314.0625 323.924987792969 331.618743896484 331.9375 334.325012207031 339.106262207031 331.75 326.087493896484 329.331237792969 322.725006103516 314.568756103516 312.450012207031 311.774993896484 316.0625 313.125 316.418762207031 320.618743896484 322.556243896484 315.287506103516 316.662506103516 316.993743896484 313.818756103516 308.412506103516 306.387481689453 296.625 289.112487792969 280.868743896484 279.887512207031 283.625 284.412506103516 278.168762207031 266.043762207031 252.931259155273 232.449996948242 
170.84375 165.512496948242 165.274993896484 168.181243896484 173.3125 179.75 191.818756103516 198.425003051758 208.293746948242 217.225006103516 227.318756103516 234.481246948242 246.137496948242 258.012512207031 268.737487792969 282.274993896484 289.106262207031 298.356262207031 308.293762207031 317.012512207031 316.537506103516 319.71875 322.956237792969 317.806243896484 317.168762207031 314.487487792969 307.612487792969 297.325012207031 290.362487792969 291.912506103516 291.125 291.450012207031 294.28125 299.331237792969 304.487487792969 300.924987792969 301.868743896484 305 302.643737792969 305.712493896484 304.712493896484 298.100006103516 292.375 289.556243896484 288.212493896484 300.924987792969 306.118743896484 293.34375 276.056243896484 261.018737792969 240.600006103516 
164.675003051758 160.612503051758 159.493743896484 162.243743896484 164.237503051758 169.4375 178.418746948242 185.131256103516 194.168746948242 204.34375 217.768753051758 225.637496948242 236.524993896484 249.643753051758 258.399993896484 266.612487792969 273.200012207031 285.09375 290.90625 298.375 297.09375 301.40625 302.212493896484 300.149993896484 298.143737792969 296.162506103516 286.899993896484 277.862487792969 268.5 268.487487792969 269.706268310547 269.481262207031 270.799987792969 280.106262207031 284.5625 287.381256103516 285.887512207031 289.993743896484 289.412506103516 296.868743896484 296.768737792969 295.462493896484 292.618743896484 293.587493896484 302.137512207031 316.537506103516 318.9375 302.181243896484 282.674987792969 266.712493896484 246.168746948242 
159.387496948242 155.056243896484 155.393753051758 156.5 158.618743896484 161.649993896484 167.25 171.949996948242 179.481246948242 188.987503051758 200.943756103516 213.324996948242 223.262496948242 233.725006103516 243.699996948242 253.524993896484 260.756256103516 269.84375 272.681243896484 276.600006103516 279.225006103516 283.331237792969 283.950012207031 279.068756103516 277.3125 273.274993896484 263.506256103516 253.9375 247.681259155273 247.606246948242 248.949996948242 249.118743896484 252.274993896484 257.625 264.28125 266.875 269.768737792969 270.206237792969 275.28125 281 282.362487792969 286.556243896484 290.5625 293.700012207031 307.600006103516 321.774993896484 320.337493896484 297.924987792969 281.100006103516 267.231262207031 248.518753051758 
153.268753051758 149.756256103516 150.225006103516 151.618743896484 153.018753051758 154.862503051758 156.181259155273 159.981246948242 164.012496948242 173.274993896484 186.050003051758 198.9375 213.100006103516 226.28125 234.425003051758 241.637496948242 246.774993896484 254.393753051758 256.762481689453 256.78125 258.962493896484 260.15625 262.524993896484 257.487487792969 254.293746948242 250.318756103516 244.243743896484 236.393753051758 229.800003051758 230.875 230.800003051758 231.068756103516 231.856246948242 237.856246948242 237.756256103516 242.768753051758 244.074996948242 253.337493896484 258.837493896484 263.1875 266.462493896484 268.731262207031 274.081237792969 281.381256103516 293.331237792969 302.543762207031 303.293762207031 291.637512207031 276.024993896484 263.46875 249.012496948242 
151.118743896484 149.143753051758 147.956253051758 148.112503051758 148.056243896484 148.606246948242 148.056243896484 150.75 154.100006103516 159.418746948242 169.618743896484 186.300003051758 203.418746948242 215.25 223.96875 229.137496948242 232.893753051758 235.831253051758 239.618743896484 238.556243896484 240.100006103516 240.712493896484 241.350006103516 237.462493896484 233.074996948242 228.262496948242 225.6875 219.606246948242 211.475006103516 212.074996948242 213.268753051758 213.606246948242 213.887496948242 214.537506103516 216.125 219.587493896484 229.09375 232.543746948242 238.381256103516 247.212493896484 249.90625 256.137512207031 259.381256103516 266.09375 270.3125 277.212493896484 279.3125 272.237487792969 265.381256103516 253.856246948242 240.768753051758 
150.106246948242 149.300003051758 147.537506103516 146.943756103516 146.962493896484 145.225006103516 144.0625 143.1875 144.556259155273 144.662506103516 159.550003051758 183.40625 198.4375 207.931243896484 214.006256103516 217.612503051758 218.34375 219.300003051758 221.59375 218.537506103516 220.275009155273 220.756256103516 219.09375 215.287506103516 211.618743896484 209.5 205.762496948242 200.193756103516 193.768753051758 195.487503051758 198.050003051758 199.756256103516 199.018753051758 196.568756103516 198.5625 204.925003051758 211.868743896484 218.15625 222.306243896484 227.662506103516 230.768753051758 233.925003051758 243.106246948242 250.912506103516 253.981246948242 254.631256103516 263.581237792969 253.681243896484 246.068756103516 239.362503051758 230.03125 
149.774993896484 148.731246948242 148.324996948242 146.837493896484 147.231246948242 145.40625 143.418746948242 140.762496948242 141.368743896484 140.706253051758 164.231246948242 187.693756103516 197.518753051758 204.675003051758 207.375 208.431243896484 207.112503051758 207.606246948242 206.143753051758 204.306243896484 201.912506103516 201.53125 199.756256103516 195.925003051758 192.293746948242 189.706253051758 184.818756103516 184.368743896484 180.675003051758 180.993743896484 182.193756103516 184.287506103516 184.931243896484 181.34375 179.931243896484 186.512496948242 195.568756103516 201.212493896484 208.918746948242 211.693756103516 215.537506103516 219.574996948242 221.518753051758 225.03125 229.631256103516 234.675003051758 238.743743896484 237.143753051758 228.231246948242 222.768753051758 217.043746948242 
148.774993896484 147.75 147.256256103516 146.925003051758 145.206253051758 144.368743896484 144.643753051758 145.987503051758 151.693756103516 165.024993896484 191.574996948242 199.03125 199.181243896484 202.600006103516 203.287506103516 202.743743896484 201.268753051758 199.574996948242 197.243743896484 192.787506103516 187.356246948242 183.399993896484 182.237503051758 180.493743896484 176.025009155273 173.4375 172.418746948242 172.574996948242 168.5625 170.743743896484 169.875 167.581253051758 169.518753051758 170.368743896484 173.512496948242 178.131256103516 183.362503051758 191.25 193.4375 193.574996948242 199.618743896484 202.399993896484 202.193756103516 207.106246948242 208.756256103516 212.837493896484 212.606246948242 211.643753051758 210.106246948242 206.481246948242 200.431243896484 
150.087493896484 148.375 148.84375 148.425003051758 147.962493896484 147.543746948242 147.399993896484 153.381256103516 161.824996948242 174.399993896484 187.543746948242 196.175003051758 196.399993896484 197.175003051758 199.118743896484 196.28125 192.912506103516 189.412506103516 184.787506103516 180.6875 173.03125 168.637496948242 164.012496948242 162.34375 160.524993896484 159.706253051758 158.831253051758 159.068756103516 156.943756103516 158.5625 159.693756103516 161.231246948242 162.537490844727 164.943756103516 168.006256103516 170.949996948242 174.4375 180.862503051758 182.175003051758 178.949996948242 182.09375 184.34375 182.425003051758 183.175003051758 187.856246948242 189.743743896484 191.949996948242 192.393753051758 192.293746948242 188.743743896484 185.212493896484 
150.46875 149.881256103516 150.556243896484 151.081253051758 149.675003051758 148.350006103516 150.831253051758 158.850006103516 165.168746948242 173.512496948242 182.706253051758 187.649993896484 191.268753051758 191.387496948242 192.024993896484 189.5625 185.556243896484 180.03125 174.387496948242 168.824996948242 160.6875 153.75 147.918746948242 146.256256103516 146.574996948242 146.1875 146.293746948242 147.550003051758 147.324996948242 147.943756103516 152.262496948242 155.712493896484 159.568756103516 162.418746948242 162.850006103516 167.106246948242 171.875 175.6875 171.925003051758 169.125 166.824996948242 163.056243896484 162.056243896484 166.118743896484 170.300003051758 173.800003051758 174.574996948242 173.362503051758 177.774993896484 176.543746948242 172.618743896484 
150.418746948242 149.962493896484 151.512496948242 152 150.649993896484 152.106246948242 155.21875 160.006256103516 166.237503051758 170.512496948242 176.9375 181.256256103516 185.6875 185.081253051758 183.449996948242 182.350006103516 178.46875 173.962493896484 169.199996948242 160.600006103516 151.818756103516 143.712493896484 135.6875 134.912506103516 135.34375 135.431243896484 136.425003051758 139.731246948242 142.550003051758 143.324996948242 143.962493896484 149.368743896484 153.331253051758 161.375 162.318756103516 162.137496948242 163.518753051758 163.625 162.487503051758 158.443756103516 153.631256103516 145.868743896484 143.09375 149.862503051758 156.481246948242 158.787506103516 159.09375 158.881256103516 160.943756103516 159.675003051758 157.350006103516 
149.887496948242 151.081253051758 153.425003051758 150.462509155273 152.59375 154.393753051758 155.631256103516 158.637496948242 162.962493896484 166.543746948242 171.893753051758 175.456253051758 177.856246948242 178.78125 177.649993896484 175.268753051758 170.337493896484 168.850006103516 163.662506103516 151.393753051758 140.412506103516 130.6875 125.474998474121 127.550003051758 128.018753051758 129.081253051758 130.506256103516 133.806243896484 135.800003051758 138.425003051758 140.28125 142.087493896484 148.0625 156.556243896484 163.399993896484 164.318756103516 159.462493896484 158.800003051758 154.543746948242 150.768753051758 145.556243896484 138.449996948242 133.625 138.300003051758 143.4375 145.418746948242 146.081253051758 146.543746948242 150.131256103516 146.212493896484 144.737503051758 
151.65625 152.3125 154.862503051758 152.78125 154.706253051758 155.787490844727 155.443740844727 158.649993896484 162.368743896484 165.612503051758 168.625 171.5625 173.899993896484 174.368759155273 174.112503051758 170.875 166.53125 164.3125 161.493743896484 149.331253051758 135.012496948242 122.118751525879 117.862503051758 120.362503051758 122.137496948242 122.6875 123.9375 126.9375 128.949996948242 130.481246948242 133.449996948242 135.15625 141.256256103516 151.125 160.168746948242 166.443756103516 161.925003051758 155.887496948242 151.40625 144.53125 137.662506103516 133.037506103516 131.550003051758 133.800003051758 134.824996948242 135.725006103516 137.793746948242 135.806243896484 135.137496948242 136.1875 133.168746948242 
150.506256103516 153.793746948242 155.012496948242 155.131256103516 155.75 156 153.21875 155.162506103516 157.006256103516 160.574996948242 163.300003051758 166.574996948242 168.806243896484 168.90625 168.587493896484 166.662506103516 161.850006103516 157.225006103516 153.600006103516 142.706253051758 131.143753051758 119.193748474121 114.5625 115.5 117.875 119.1875 121.0625 122.25 124.4375 126.700004577637 129.606246948242 131.443756103516 136.837493896484 143.050003051758 152.418746948242 160.96875 156.699996948242 150.262496948242 145.331253051758 140.018753051758 133.074996948242 130.3125 127.606246948242 128.506256103516 128.993743896484 127.9375 129.037506103516 127.912506103516 125.681251525879 127.887504577637 125.375 
