ncols        51
nrows        45
xllcorner    -63.500000000000
yllcorner    -7.500000000000
cellsize     0.166666666667
NODATA_value -99
175.631256103516 173.71875 172.03125 173.21875 171.731246948242 167.481246948242 158.918746948242 149.0625 141.518753051758 134.737503051758 130.100006103516 127.487503051758 124.987503051758 121.168746948242 119.193748474121 116.618751525879 115.356246948242 112.712501525879 111.175003051758 108.606246948242 105.787498474121 101.262496948242 97.6624984741211 93.9937515258789 89.9812469482422 87.6999969482422 87.21875 86.8874969482422 84.7249984741211 79.09375 72.28125 66.5500030517578 62.7124977111816 57.9124984741211 53.8187484741211 51.2249984741211 49.3875007629395 47.5374984741211 46.3125 45.375 44.5812492370605 43.875 42.7312507629395 41.9312515258789 42.7750015258789 43.1937484741211 44.4124984741211 45.2937507629395 46.5750007629395 47.2125015258789 49.0499992370605 
167.074996948242 165.262496948242 167.418746948242 172.356246948242 177.481246948242 169.681243896484 159.381256103516 152.431243896484 144.600006103516 137 131.350006103516 127.4375 123.912498474121 118.837501525879 116.231246948242 114.268753051758 111.756248474121 110.34375 109.212501525879 107.618751525879 104.03125 100.918746948242 97.0437469482422 93.5875015258789 88.65625 85.6374969482422 85.3562469482422 85.0250015258789 82.21875 76.9187469482422 70.9562530517578 66.2125015258789 62.3125 58.9500007629395 55.5750007629395 53.4749984741211 52.1187515258789 51.0062484741211 50.1500015258789 49.6437492370605 49.3624992370605 48.8499984741211 48.1312522888184 46.9625015258789 47.7250022888184 48.21875 49.2312507629395 49.4312515258789 49.9000015258789 49.5625 50.3687515258789 
151.793746948242 152.15625 154.46875 159.6875 163.875 160.056243896484 152.793746948242 146.574996948242 140.456253051758 134.074996948242 128.774993896484 124.643753051758 120.96875 115.762496948242 112.506248474121 110.831253051758 108.081253051758 106.293746948242 104.518753051758 102.59375 98.4875030517578 94.2312469482422 90.3375015258789 86.59375 81.6624984741211 77.7687530517578 78.4937515258789 77.8187484741211 75.625 70.3499984741211 64.3375015258789 59.6437492370605 56.7125015258789 53.40625 50.2562484741211 48.1687507629395 46.8875007629395 46.0437507629395 45.7249984741211 45.7249984741211 45.8937492370605 45.65625 45.7249984741211 45.3062515258789 45.7937507629395 46.3250007629395 47.1062507629395 47.1062507629395 46.5687484741211 45.9312515258789 47 
134.225006103516 135.199996948242 141.350006103516 144.074996948242 146.6875 145.131256103516 142.125 140.206253051758 136.1875 131.449996948242 126.037498474121 121.831253051758 116.543746948242 112.206253051758 109.112503051758 107.043746948242 104.793746948242 102.356246948242 100.768753051758 98.6624984741211 93.65625 87.5749969482422 82.1312484741211 77.9312515258789 72.5562515258789 68.8249969482422 69.0124969482422 67.9000015258789 66.7062530517578 62.2125015258789 57.09375 52.125 48.7999992370605 45.59375 42.34375 41.3687515258789 40.5687484741211 39.7750015258789 39.9249992370605 39.9625015258789 40.125 40.46875 41.0875015258789 41.5687484741211 42.4000015258789 42.75 43.1687507629395 43.2062492370605 42.2687492370605 41.0750007629395 41.8624992370605 
131.175003051758 128.037506103516 126.168754577637 127.762504577637 132.09375 132.787506103516 131.743743896484 131.818756103516 130.418746948242 126.893753051758 122.237503051758 116.849998474121 112.59375 109.581253051758 106.762496948242 104.418746948242 101.743751525879 98.5 95.8874969482422 92.4124984741211 87.5124969482422 79.7437515258789 74.0687484741211 69.3562469482422 63.875 59.875 59.1812515258789 59.15625 58.2874984741211 53.7874984741211 49.2562484741211 44.3687515258789 40.9812507629395 38.1624984741211 35.4812507629395 34.3875007629395 33.6875 33.3499984741211 33.8562507629395 34.21875 34.625 35.3562507629395 36.2437515258789 37.4625015258789 38.3937492370605 38.875 39.0250015258789 38.5250015258789 37.5125007629395 36.4937515258789 37.2625007629395 
127.506248474121 123.5 119.331253051758 114.568748474121 118.637496948242 123.550003051758 124.418746948242 123.78125 122.681251525879 120.974998474121 116.631248474121 111.806251525879 108.431251525879 106.15625 103.137496948242 101.487503051758 98.90625 94.40625 90.5875015258789 86.7062530517578 79.96875 72.5187530517578 66.1750030517578 60.7937507629395 55.96875 51.7312507629395 51.09375 51.4749984741211 50.65625 46.5125007629395 42.4000015258789 39.1312484741211 36.0875015258789 33.3687515258789 30.84375 30.3562488555908 29.9312496185303 30.0562496185303 30.8562507629395 31.2749996185303 30.9125003814697 31.6312503814697 32.5 33.8687515258789 35.5062484741211 35.9749984741211 35.78125 35.1187515258789 34.8624992370605 34.3312492370605 35.71875 
125.568748474121 121.681251525879 117.131248474121 112.21875 111.84375 112.537498474121 114.418746948242 115.118751525879 113.418746948242 110.962501525879 108.59375 105.787498474121 103.875 101.9375 99.7249984741211 98.21875 95.9937515258789 91.4250030517578 86.0250015258789 80.3625030517578 72.6374969482422 65.0124969482422 57.75 52.3687515258789 48 44.2062492370605 43.8250007629395 44.2125015258789 43.3687515258789 39.65625 36.2687492370605 33.125 30.8187503814697 28.7562503814697 26.78125 26.2250003814697 26.15625 26.7999992370605 28.1625003814697 28.0437507629395 27.625 27.9437503814697 28.6812496185303 30.0437507629395 31.8999996185303 32.625 32.46875 31.7250003814697 31.8250007629395 32.65625 34.9375 
124.143753051758 119.849998474121 115.362503051758 112.625 111.806251525879 112.224998474121 110.112503051758 105.643753051758 102.0625 100.768753051758 100.743751525879 99.8249969482422 99.1312484741211 97.7437515258789 96.6187515258789 94.28125 92.03125 87.2062530517578 81.1875 73.4250030517578 65.5812530517578 57.5437507629395 50.1937484741211 44.7125015258789 40.2750015258789 36.7125015258789 36.34375 36.5625 36.34375 33.3499984741211 30.5437507629395 27.9187507629395 26.0125007629395 24.5 22.7374992370605 22.3875007629395 22.46875 22.9624996185303 23.6625003814697 23.7937507629395 23.5062503814697 23.6875 24.3250007629395 25.2625007629395 26.9562511444092 27.8999996185303 28.2999992370605 28.3624992370605 28.8812503814697 30.2562503814697 32.9375 
124.168746948242 120.46875 116.956253051758 114.074996948242 112.706253051758 111.625 109.324996948242 104.881248474121 99.7062530517578 95.7624969482422 95.7437515258789 95.4187469482422 96.2937469482422 95.0124969482422 92.8937530517578 89.8312454223633 86.6437530517578 81.5062484741211 75.8625030517578 67.96875 59.3187522888184 51.6500015258789 43.7374992370605 39.0437507629395 34.5250015258789 30.8875007629395 30.7687492370605 31.40625 31.75 29.4624996185303 27.6375007629395 25.1124992370605 23.1687507629395 21.4812507629395 20.15625 20.2937507629395 20.6187496185303 20.9125003814697 21.1812496185303 21.25 21.0062503814697 20.96875 21.375 22.0812492370605 23.1437511444092 24.1625003814697 25.0375003814697 25.3500003814697 26.2562503814697 28.2562503814697 32.125 
122.84375 119.612503051758 116.59375 113.887496948242 113.03125 111.893753051758 109.393753051758 104.606246948242 100.25 96.9250030517578 94.9437484741211 93.4937515258789 93.7249984741211 93.2624969482422 89.1999969482422 85.4562530517578 80.5250015258789 75 69.3312530517578 62.5999984741211 54.1437492370605 45.6875 37.8875007629395 33.125 28.65625 25.375 25.6000003814697 26.4312496185303 27.0625 25.8937492370605 24.25 22.40625 20.7374992370605 19.4874992370605 18.46875 18.5625 18.9562492370605 19.1937503814697 19.1187496185303 19.0499992370605 18.7687492370605 18.7000007629395 18.3812503814697 18.71875 19.7312507629395 20.9375 21.6812496185303 22.1437492370605 22.96875 24.5687503814697 27.75 
123.262496948242 119.887496948242 116.993751525879 114.125 112.731246948242 112.387496948242 110.03125 103.943748474121 99.1062469482422 96.0250015258789 94.2562484741211 93.2937469482422 91.9562530517578 90.21875 84.7562484741211 79.4437484741211 73.3562469482422 67.8375015258789 62.3187484741211 56.4562492370605 49.1749992370605 40.8937492370605 33.0250015258789 27.2625007629395 23.5249996185303 21.1812496185303 21.6749992370605 22.3812503814697 22.8624992370605 22.2625007629395 21.40625 20.21875 18.9125003814697 17.7312507629395 16.8812503814697 16.9562492370605 17.2687492370605 17.4249992370605 17.4312496185303 17.0562496185303 16.5249996185303 16.1687507629395 16.0437507629395 15.8374996185303 16.46875 18 18.3374996185303 18.5812492370605 19.1625003814697 20.1187496185303 21.0062503814697 
122.981246948242 119.643753051758 116.849998474121 114.856246948242 113.262496948242 112.487503051758 110.775001525879 105.012496948242 99.4625015258789 95.5250015258789 93.59375 91.8812484741211 87.9812545776367 84.1062469482422 79.5 73.71875 68.0250015258789 62.0625 56.8562507629395 52.1875 45.7937507629395 37.6062507629395 29.6499996185303 24.0750007629395 20.4249992370605 18.0874996185303 18.6687507629395 19.6187496185303 20.15625 20.0249996185303 19.5499992370605 18.8187503814697 17.7312507629395 16.8812503814697 16.375 16.46875 16.6749992370605 16.8250007629395 16.2749996185303 15.5187501907349 14.7562503814697 14.1937503814697 13.9937496185303 13.625 13.6937503814697 14.1125001907349 14.6625003814697 15.1999998092651 15.8937501907349 16.2625007629395 15.9187498092651 
121.868751525879 118.556251525879 115.4375 112.5 110.206253051758 109 106.387496948242 101.443748474121 97.6687469482422 94.4812469482422 91.7312469482422 88.90625 84.34375 77.5687484741211 71.9250030517578 67.1750030517578 61.8499984741211 56.5250015258789 51.7750015258789 47.2374992370605 41.3062515258789 33.8624992370605 26.2625007629395 21.3999996185303 17.5812492370605 15.3625001907349 16.2999992370605 17.5249996185303 18.3687496185303 18.4249992370605 18.0625 17.59375 16.78125 15.90625 15.4375 15.8000001907349 16.4249992370605 16.78125 16.3687496185303 14.8937501907349 13.4499998092651 13.03125 12.5437498092651 11.1625003814697 10.9312496185303 11.9562501907349 12.6374998092651 12.90625 12.9624996185303 13.4187498092651 13.0562496185303 
119.724998474121 116.068748474121 112.106246948242 108.768753051758 106.387496948242 103.887496948242 100.806251525879 97.3624954223633 94.1750030517578 91.8562469482422 88.4562530517578 83.0625 77.6062469482422 70.9437484741211 64.15625 60.0812492370605 55.3499984741211 50.3312492370605 45.6124992370605 41.4312515258789 35.7374992370605 28.8125 22.3875007629395 18.8312492370605 15.71875 13.625 14.6062498092651 15.78125 16.6062507629395 16.96875 17.1749992370605 16.8374996185303 15.96875 15.1437501907349 14.8312501907349 15.6062498092651 16.7312507629395 17.8187503814697 17.6499996185303 16.4375 13.7875003814697 12.1312503814697 11.5812501907349 11.0375003814697 11.0562496185303 11.5187501907349 12.34375 12.7250003814697 12.65625 12.9312496185303 12.5562496185303 
116.381248474121 112.025001525879 107.793746948242 104.40625 101.893753051758 97.8312530517578 95.46875 91.9625015258789 88.8625030517578 87.0875015258789 83.09375 77.0500030517578 70.6937484741211 64.0250015258789 57.15625 52.4312515258789 48.53125 44.53125 40.1500015258789 36.4500007629395 31.375 25.5249996185303 20.0874996185303 17.625 15.6312494277954 14.0187501907349 14.9125003814697 15.7624998092651 16.3875007629395 16.875 16.7687492370605 16.4812507629395 15.8312501907349 14.9624996185303 14.3062496185303 15.5249996185303 17.75 20.3500003814697 21.5187492370605 20.34375 18.09375 15.5375003814697 14.0749998092651 12.7437496185303 12.2562503814697 12.3874998092651 12.6999998092651 13.3312501907349 13.7562503814697 13.4125003814697 13.0500001907349 
111.831253051758 107.193748474121 103.5 99.875 96.2874984741211 93.3375015258789 90.3125 86.71875 84.21875 82.40625 78.2750015258789 71.2874984741211 64.3125 57.75 51.4375 45.8062515258789 42.15625 39.1687507629395 35.4437484741211 32.3187484741211 27.5812492370605 22.7437496185303 18.3687496185303 16.9624996185303 15.7250003814697 14.4312496185303 15.21875 16.125 16.7687492370605 17.1625003814697 17.5187492370605 17.0499992370605 16.0562496185303 15.3000001907349 14.3874998092651 16.40625 19.7875003814697 22.9375 25.7562503814697 25.8374996185303 24.5874996185303 20.53125 16.9187507629395 14.2375001907349 13.5749998092651 13.3500003814697 13.6750001907349 14.03125 14.1750001907349 14.1625003814697 14.4312496185303 
105.824996948242 101.837501525879 98.71875 95.2687530517578 91.5 88.7624969482422 85.6624984741211 82.5749969482422 79.9875030517578 77.4625015258789 73.8187484741211 66.46875 58.7125015258789 51.8687515258789 46.7750015258789 41.8562507629395 36.9937515258789 34.0499992370605 31.4562492370605 28.625 24.3187503814697 20.1375007629395 16.7000007629395 16.3624992370605 15.9499998092651 14.8187494277954 15.65625 16.6062507629395 17.3624992370605 18.0375003814697 18.8624992370605 19.2875003814697 18.03125 16.9624996185303 17.3500003814697 19.1812496185303 22.2937507629395 27.3687496185303 32.7999992370605 31.7562503814697 28.8250007629395 23.6687507629395 18.6937503814697 15.7312498092651 14.7875003814697 14.4875001907349 14.5500001907349 15.1999998092651 15.8374996185303 15.6625003814697 16.3062496185303 
99.4562530517578 96.0124969482422 92.1750030517578 88.7874984741211 85.7937469482422 83.0687484741211 79.625 76.1687469482422 74.1687469482422 71.4312515258789 67.9625015258789 61.1375007629395 53.8562507629395 47.4500007629395 42.6062507629395 38.3187484741211 33.96875 29.8312492370605 27.9937496185303 25.3937492370605 21.8812503814697 18.1875 15.4250001907349 15.7937498092651 16.1437492370605 15.6125001907349 16.7999992370605 17.875 18.5499992370605 19.0625 19.7999992370605 20.2749996185303 21.0625 21.6437492370605 21.1937503814697 21.71875 25.5687503814697 30.2312507629395 33.2625007629395 32.6624984741211 28.625 23.7749996185303 19.5249996185303 17.2937507629395 16.3624992370605 16.0625 16.2875003814697 16.5687503814697 17.2374992370605 16.90625 17.96875 
93.0124969482422 89.4499969482422 85.5437469482422 82.6062469482422 79.4250030517578 76.7937469482422 73.3812484741211 70.6312484741211 68.5812530517578 66.1374969482422 62.8312492370605 56.21875 49.3250007629395 43.5187492370605 38.7374992370605 35.125 31.4437503814697 27.3999996185303 24.7062492370605 22.4562492370605 19.8812503814697 17.7000007629395 14.0874996185303 14.7937498092651 15.8312501907349 16.5750007629395 18.2749996185303 19.4125003814697 20.6124992370605 21.0187492370605 21.4375 23.59375 26.28125 26.9249992370605 26.9125003814697 27.4874992370605 29.2250003814697 31.0562496185303 31.9187507629395 30.4375 27.0812492370605 23.2437496185303 20.09375 18.4249992370605 17.9187507629395 17.90625 18.0687503814697 18.5125007629395 18.7875003814697 17.5187492370605 19.3500003814697 
86.1687469482422 83.5562515258789 79.6624984741211 76.4124984741211 73.4312515258789 71.3125 68.4250030517578 65.2562484741211 64.09375 62.1124992370605 59.2312507629395 53.4874992370605 47.2249984741211 41.4187507629395 36.4249992370605 32.375 28.1937503814697 25.7875003814697 23.0687503814697 21.3125 18.3374996185303 15.5187501907349 13.7687501907349 14.7375001907349 15.9624996185303 16.9125003814697 18.9937496185303 21.1312503814697 22.1499996185303 23.0187492370605 24.4125003814697 28.8812503814697 31.2937507629395 34.1812515258789 36.0187492370605 35.15625 33.8687515258789 32.8937492370605 31.5750007629395 29.2625007629395 25.9624996185303 22.34375 20.9375 20.4562492370605 20.1000003814697 20.1875 20.3187503814697 20.5249996185303 20.2437496185303 19.1375007629395 20.9437503814697 
78.9625015258789 77.2562484741211 74.2874984741211 71.3000030517578 68.3249969482422 65.8249969482422 63.5499992370605 61.03125 60.5 59.3562507629395 56.8499984741211 52.25 46.6062507629395 40.7750015258789 36.15625 31.4312496185303 27.3312492370605 24.3999996185303 22.5812492370605 20.2687492370605 18.3562507629395 16.3999996185303 14.7312498092651 15.9499998092651 17.6875 19.0625 21.1875 23 24.625 27.3187503814697 30.3125 34.9312515258789 37.7062492370605 41.1937484741211 45.0562515258789 42.2562484741211 37.6624984741211 34.6312484741211 32.0625 29.6062507629395 27.1312503814697 24.5812492370605 23.1124992370605 22.4750003814697 22.2625007629395 22.40625 22.3562507629395 22.4375 21.2999992370605 21.5812492370605 22.8062496185303 
73.1124954223633 70.6937484741211 67.9499969482422 65.2312469482422 63.03125 61.2999992370605 59.1375007629395 57.4500007629395 57.2125015258789 56.5374984741211 54.7374992370605 51.1312484741211 46.9812507629395 42.0687484741211 37.1500015258789 31.9750003814697 27.8312492370605 24.7437496185303 22.7625007629395 20.53125 18.3312492370605 16.6937503814697 15.4937496185303 16.9187507629395 18.6625003814697 20.4500007629395 23.4937496185303 25.7749996185303 28.5249996185303 32.1124992370605 35.8812484741211 40.1875 42.5125007629395 45.1124992370605 45.7437515258789 43.4749984741211 39.0062484741211 35.8062515258789 32.9437484741211 30.7562503814697 28.9375 27.2562503814697 26.3624992370605 25.7000007629395 25.3062496185303 25.3812503814697 25.0687503814697 24.59375 23.5249996185303 24.3062496185303 24.9249992370605 
68.0124969482422 66.4437484741211 63.21875 60.5999984741211 58.2750015258789 56.7374992370605 55.2750015258789 53.9625015258789 54.4937515258789 53.90625 53.3624992370605 50.9375 48.4562492370605 44.4249992370605 38.5250015258789 33.0374984741211 28.3812503814697 25.4187507629395 22.9249992370605 20.7124996185303 18.8812503814697 17.4874992370605 16.4562492370605 17.8374996185303 19.9437503814697 21.9874992370605 25.1625003814697 28.6187496185303 31.78125 35.6624984741211 40.3062515258789 45.1937484741211 46.4000015258789 46.8499984741211 45.6875 42.2249984741211 38.9375 36.0125007629395 33.6875 32.4124984741211 31.5375003814697 30.2875003814697 29.5187492370605 28.9125003814697 28.4249992370605 28.625 28.125 27.4937496185303 26.7749996185303 27.1124992370605 28.1499996185303 
64.2562484741211 61.9124984741211 59.0875015258789 56.0374984741211 53.2437515258789 52.6624984741211 51.8687515258789 50.9249992370605 51.59375 51.5812492370605 51.2562484741211 50.7125015258789 50.1812515258789 46.6749992370605 40.2999992370605 34.46875 29.7625007629395 26.7437496185303 24.2250003814697 21.8250007629395 20.1124992370605 18.6812496185303 17.9750003814697 19.6625003814697 21.8312492370605 23.8812503814697 27.1937503814697 30.8500003814697 35.0499992370605 39.4437484741211 44.2249984741211 49.2000007629395 49.4562492370605 48.8312492370605 47.2000007629395 43.0812492370605 40.1749992370605 38.0562515258789 36.0875015258789 35.375 34.4874992370605 33.4124984741211 32.8937492370605 32.3624992370605 32.6624984741211 32.5187492370605 31.96875 30.2062492370605 30.4812507629395 29.7999992370605 31.2625007629395 
61.4625015258789 58.65625 55.25 51.8125 50.2562484741211 49.59375 48.9124984741211 48.3499984741211 48.9249992370605 49.4249992370605 49.6375007629395 49.2312507629395 48.8125 46.65625 41.2125015258789 35.6124992370605 31.0750007629395 27.90625 25.2749996185303 23.0812492370605 21.5625 20.1812496185303 19.78125 21.75 23.7625007629395 26.3562507629395 29.8999996185303 33.9312515258789 38.34375 43.2374992370605 48.0250015258789 52.6437492370605 53.1312484741211 52 49.7374992370605 45.9812507629395 43.6875 41.6437492370605 39.6500015258789 38.6187515258789 37.6375007629395 36.9124984741211 36.4249992370605 36.7312507629395 37.4812507629395 37.6937484741211 34.46875 34.6624984741211 34.0187492370605 32.7999992370605 34.8999977111816 
59.90625 57.6749992370605 53.2687492370605 50.0437507629395 47.3562507629395 46.6812515258789 46.4375 46.0625 46.625 47.375 47.3562507629395 47.5999984741211 47.5687484741211 46.1437492370605 41.5625 36.5999984741211 32.1500015258789 29.2250003814697 26.6062507629395 24.3687496185303 23 21.7374992370605 21.5812492370605 23.8687496185303 26.2312507629395 28.78125 33.0187492370605 37.7437515258789 42.25 47.3250007629395 52.2374992370605 57.125 56.4937515258789 55.0687484741211 53.3375015258789 50.9625015258789 48.2374992370605 46.0499992370605 44.5250015258789 42.9749984741211 42.1062507629395 40.9874992370605 40.3312492370605 40.8187484741211 42.8125 40.2249984741211 39.6875 39.375 38.4312515258789 38.1499977111816 39.3812484741211 
59.0125007629395 55.9749984741211 52.25 49.3312492370605 46.5625 46.0125007629395 45.5437507629395 44.9312515258789 45.1437492370605 45.9375 46.6375007629395 47.5562515258789 47.9937515258789 47.5 43.4500007629395 38.8250007629395 34.8875007629395 31.6749992370605 28.9874992370605 26.65625 25.4562492370605 24.2625007629395 24.0249996185303 27.0125007629395 29.5687503814697 32.5250015258789 37.1812515258789 41.9124984741211 46.7874984741211 51.6687507629395 56.4375 60.5374984741211 60.8250007629395 59.5 57.4749984741211 55.78125 53.90625 51.7687492370605 50.1687507629395 48.6624984741211 47.1500015258789 45.9312515258789 45.1749992370605 44.5374984741211 44.7000007629395 45.4500007629395 44.9874992370605 43.4812507629395 43.0437507629395 42 42.4000015258789 
57.9124984741211 54.7437515258789 51.7062492370605 48.5875015258789 46.3499984741211 45.5187492370605 45.03125 44.4249992370605 44.4874992370605 45.4000015258789 46.1124992370605 47.5562515258789 48.7687492370605 49.3937492370605 45.5625 41.25 37.3937492370605 34.2374992370605 31.4562492370605 29.2875003814697 28.0375003814697 27.0125007629395 26.8812503814697 30 33.3125 36.4562492370605 41.3624992370605 46.5125007629395 51.6812515258789 56.7750015258789 60.8875007629395 64.8375015258789 65.3874969482422 63.9749984741211 62.4312477111816 60.9749984741211 60.2874984741211 58.9937515258789 57.2062492370605 55.4124984741211 53.6812515258789 52.1312484741211 49.75 48.9749984741211 49.375 49.8250007629395 48.7999992370605 48.1937484741211 47.1812515258789 45.6437492370605 45.8562507629395 
57.8499984741211 54.3375015258789 51.15625 48.3312492370605 46.1875 45.0999984741211 44.34375 43.8875007629395 44.2124977111816 44.9187507629395 45.6500015258789 47.46875 49.84375 50.8125 47.375 44.0812492370605 40.9749984741211 36.9500007629395 34.03125 31.8687496185303 30.8875007629395 30.1124992370605 30.1937503814697 33.65625 36.9500007629395 40.7000007629395 45.9375 51.7374992370605 57.7874984741211 61.9562492370605 65.4625015258789 69.0374984741211 69.1374969482422 68.4124984741211 68.1687469482422 67.0187530517578 67.3375015258789 67.1374969482422 65.6624984741211 63.5187492370605 59.9562492370605 56.8562507629395 54.8875007629395 54.0750007629395 54.8499984741211 53.9625015258789 52.8187484741211 52.6124992370605 51.46875 50.1124992370605 48.6624984741211 
63.4562492370605 59.4812507629395 55.2999992370605 51.9812507629395 49.3562507629395 47.8312492370605 46.5187492370605 45.4749984741211 45.6062507629395 46.0250015258789 46.65625 49.0187492370605 51.4749984741211 52.9187507629395 50.7687492370605 47.7437477111816 44.7687492370605 41.3875007629395 38.0750007629395 35.7999992370605 35.0562515258789 34.6312484741211 34.5250015258789 37.9500007629395 41.9625015258789 46.4375 51.6812515258789 57.2999992370605 62.71875 67.0062484741211 71.0124969482422 74.5562515258789 74.5999984741211 74.3125 74.8062515258789 74.84375 76.1125030517578 77.65625 75.1062469482422 74.3499984741211 71.8000030517578 67.7249984741211 64.2750015258789 62.9249992370605 61.9749984741211 61.0812492370605 60.1437492370605 59.625 57.6375007629395 55.9312515258789 53.875 
68.9499969482422 64.6937484741211 60.7249984741211 56.4312515258789 53.5062484741211 51.4500007629395 48.9749984741211 47.15625 47.2999992370605 47.7874984741211 48.2874984741211 50.625 54.1437492370605 55.6624984741211 53.9249992370605 51.5812492370605 49.71875 46.4375 42.9812507629395 40.8937492370605 40.0812492370605 39.875 39.9812507629395 43.4375 47.4749984741211 52.2687492370605 57.6124992370605 63.125 68.5749969482422 71.6374969482422 75.9250030517578 79.6125030517578 79.9499969482422 81.4250030517578 82.5875015258789 82.5687484741211 84.8125 87.8375015258789 87.3000030517578 86.6374969482422 84.0187530517578 79.09375 74.75 72.28125 70.2062530517578 69.3062515258789 67.8187484741211 66.6999969482422 64.6812515258789 62.5437507629395 60.6500015258789 
75.8249969482422 70.34375 65.71875 61.5999984741211 58.8250007629395 55.625 52.5687484741211 50.125 50.1500015258789 50.2312507629395 50.7437515258789 53.0062484741211 55.6062507629395 58.0999984741211 57.71875 57.1062507629395 55.4874992370605 52.3687515258789 49.3875007629395 47.5374984741211 46.875 45.7999992370605 45.9437484741211 49.2437515258789 54.2000007629395 58.1937484741211 63.21875 69.4625015258789 74.7750015258789 77.7750015258789 81.625 84.3000030517578 85.5812530517578 87.5 89.1187515258789 89.9312515258789 92.7687530517578 95.6062469482422 95.9875030517578 96.1875 95.09375 90.0374984741211 85.7625045776367 82.4124984741211 80.6999969482422 80.5437469482422 78.4749984741211 76.8062515258789 73.3000030517578 70.0812530517578 68.3125 
85.7062530517578 80.6187515258789 75.375 71.1875 68 64.6875 61.6375007629395 58.4249992370605 57.3562507629395 56.1312484741211 56.9937515258789 58.0812492370605 60.3250007629395 63.5062484741211 63.9000015258789 64.5749969482422 64.1624984741211 62.0187492370605 59.0750007629395 57.1062507629395 55.8125 54.4625015258789 53.6124992370605 56.75 61.1937484741211 64.6125030517578 69.5999984741211 75.59375 80.9375 84.8937530517578 87.9250030517578 90.8187484741211 91.9562530517578 94.3249969482422 97.0812530517578 98.3187484741211 100.756248474121 102.512496948242 103.625 105.612503051758 105.612503051758 101.71875 98.5062484741211 95.2312469482422 94.625 95.75 94.7437515258789 89.9562530517578 85.8249969482422 81.8687515258789 79.1187515258789 
95.1500015258789 90.8687515258789 86.2624969482422 81.84375 77.9875030517578 74.4375 71.3937530517578 67.9499969482422 65.28125 63.40625 62.3187484741211 64.2750015258789 65.9625015258789 67.6062469482422 69.8625030517578 71.8499984741211 73.7874984741211 72.3000030517578 70.0250015258789 68.0250015258789 66.28125 64.0250015258789 62.4749984741211 64.5999984741211 67.7562484741211 70.7125015258789 75.6062469482422 81.4749984741211 86.5062484741211 90.2937469482422 93.8625030517578 97.0374984741211 98.8499984741211 101.237503051758 104.443748474121 107.768753051758 109.074996948242 110.550003051758 112.599998474121 114.043746948242 114.5625 113.512496948242 112.256248474121 109.918746948242 109.800003051758 110.09375 107.981246948242 103.181251525879 98.1125030517578 92.9375 89.8812484741211 
104.993751525879 101.056251525879 96.71875 92.8562469482422 89.0062484741211 84.6687469482422 81.6125030517578 77.8625030517578 73.59375 70.7437515258789 69.3687515258789 71.3687515258789 72.6312484741211 74.0749969482422 77.2687530517578 80.9375 83.8937530517578 82.5437469482422 81.875 79.7375030517578 77.875 74.8375015258789 71.7125015258789 72.5999984741211 74.0875015258789 77.0500030517578 82.1687469482422 87.3375015258789 92.1875 95.5500030517578 99.03125 101.78125 104.418746948242 107.550003051758 110.525001525879 112.84375 115.418746948242 119.056251525879 120.587501525879 122.9375 122.324996948242 121.337501525879 122.456253051758 120.75 121.087501525879 120.956253051758 119.125 114.537498474121 110.006248474121 104.1875 99.7249984741211 
113.881248474121 109.868751525879 106.337501525879 102.84375 99.2249984741211 95.4250030517578 91.3562469482422 88.3874969482422 84.3687515258789 81.0437469482422 79.9812469482422 81.3062515258789 83.0187530517578 84.5250015258789 87.5562515258789 91.4000015258789 94.1812515258789 94.0250015258789 93.8187484741211 93.1312484741211 89.8249969482422 85.9562530517578 81.3125 80.5812530517578 81.3562469482422 83.0875015258789 87.0687484741211 91.9187469482422 96.5 99.5 103.106254577637 106.387496948242 108.606246948242 112.043746948242 115.131248474121 116.650001525879 120.962501525879 123.71875 125.293746948242 127.137496948242 128.481246948242 127.625 127.637496948242 127.337501525879 127.931251525879 127.09375 125.368751525879 124.300003051758 119.96875 113.724998474121 109.4375 
122.387496948242 119.037498474121 115.53125 111.887496948242 109.537498474121 105.925003051758 102.5 99.2937469482422 95.8062515258789 91.7125015258789 91.8499984741211 95.6624984741211 96.7375030517578 97.15625 99.9875030517578 102.643753051758 105.381248474121 104.599998474121 103.981246948242 103.056251525879 100.525001525879 94.875 89.8375015258789 87.6999969482422 87.4499969482422 88.5124969482422 91.4312515258789 95.2312469482422 99.3687515258789 102.824996948242 106.262496948242 109.868751525879 113.15625 116.875 120.175003051758 122.487503051758 125.806251525879 129.149993896484 129.831253051758 130.743743896484 131.806243896484 131.074996948242 132.375 133.418746948242 135.59375 133.881256103516 134.143753051758 134.087509155273 127.875 123.050003051758 117.056251525879 
130.4375 128.143753051758 125.143753051758 121.375 119.556251525879 116.887496948242 114.068748474121 111.65625 109.006248474121 105.118751525879 111.425003051758 114.099998474121 112.568748474121 110.962501525879 112.606246948242 114.743751525879 114.875 114.03125 111.912498474121 109.525001525879 107.293746948242 101.849998474121 96.9187469482422 93.875 92.40625 92.2874984741211 95.2249984741211 98.7624969482422 102.400001525879 105.974998474121 107.818748474121 111.212501525879 115.0625 120.525001525879 124.65625 124.981246948242 127.981254577637 130.862503051758 133.699996948242 135.318756103516 134.5 136.493743896484 135.59375 135.899993896484 137.949996948242 137.96875 140.193756103516 141.456253051758 133.337493896484 128.806243896484 123.474998474121 
140.793746948242 137.600006103516 134.300003051758 131.243743896484 128.137496948242 125.525001525879 123.981246948242 122.925003051758 122.78125 126.349998474121 134.375 131.625 126.418746948242 124.462501525879 124.337501525879 124.456253051758 123.387496948242 120.96875 116.96875 113.675003051758 110.275001525879 105.118751525879 100.712501525879 97.4937515258789 95.4625015258789 94.4000015258789 96.375 99.7375030517578 103.118751525879 106.768753051758 109.681251525879 112.03125 115.318748474121 118.0625 121.768753051758 123.199996948242 126.099998474121 128.625 131.643753051758 131.475006103516 131.475006103516 133.574996948242 132.649993896484 132.774993896484 134.256256103516 134.193756103516 132.181243896484 134.456253051758 130.824996948242 128.918746948242 122.150001525879 
149.150009155273 145.287506103516 142.431243896484 139.206253051758 136.550003051758 134.881256103516 132.574996948242 133.074996948242 134.737503051758 139.550003051758 142.831253051758 141.837493896484 139.056243896484 136.800003051758 136.268753051758 133.9375 131.412506103516 127.1875 122.943748474121 117.518753051758 112.46875 107.337501525879 102.087501525879 98.7375030517578 96.90625 95.7937469482422 96.9749984741211 100.224998474121 102.493751525879 106.574996948242 107.668746948242 110.8125 114.862503051758 117.112503051758 119.90625 121.900001525879 123.543746948242 126.724998474121 128.875 126.525001525879 127.131248474121 129.762496948242 128.899993896484 127.681251525879 128.037506103516 126.724998474121 127.199996948242 128.65625 127.506248474121 126.650001525879 121.800003051758 
158.306243896484 154.637496948242 151.8125 148.737503051758 145.356246948242 143.331253051758 143.100006103516 143.931243896484 145.318756103516 148.225006103516 149.574996948242 150.181243896484 150.506256103516 147.706253051758 145.962493896484 142.943756103516 138.90625 135.125 128.493743896484 120.4375 114.824996948242 107.650001525879 102.012496948242 98.21875 97.1937484741211 96.4812469482422 98.125 100.03125 102.237503051758 105.087501525879 107.856246948242 112.275001525879 115.731246948242 118.224998474121 120.418746948242 121.59375 122.618751525879 124.3125 126.443748474121 123.856246948242 124.099998474121 125.037498474121 124.018753051758 122.262496948242 122.243751525879 122.668746948242 123.487503051758 123.1875 125.068748474121 123.318748474121 121.768745422363 
171.743743896484 168.012496948242 165.181243896484 161.631256103516 158.931243896484 156.287506103516 155.84375 156.356246948242 157.956253051758 159.399993896484 160.862503051758 161.550003051758 161.662506103516 159.193756103516 155.168746948242 151.287506103516 146.018753051758 140.768753051758 132.65625 121.481246948242 112.043746948242 105.53125 98.1750030517578 94.5687484741211 95.6812515258789 95.3562469482422 96.0124969482422 97.6374969482422 101.050003051758 105.099998474121 105.8125 110.737495422363 113.237503051758 119.106246948242 121.731246948242 119.724998474121 119.956253051758 121.081253051758 121.243751525879 119.181251525879 118.981246948242 117.943748474121 115.568748474121 115.675003051758 116 117.699996948242 116.637496948242 116.418746948242 121.518753051758 119.15625 116.800003051758 
184.512496948242 180.762496948242 179.106246948242 175.581253051758 172.324996948242 169.443756103516 168.300003051758 168.581253051758 168.956253051758 170.756256103516 172.631256103516 172.0625 170.518753051758 168.03125 164.96875 159.75 153.71875 147.40625 137.78125 121.849998474121 109.293746948242 99.7562484741211 94.5062484741211 94.0562515258789 93.8562469482422 93.8375015258789 94.1937484741211 95.5562515258789 98.2375030517578 101.724998474121 103.181251525879 106.106246948242 109.662498474121 114.106246948242 120.462501525879 120.912498474121 117.0625 117.237503051758 116.193748474121 114.650001525879 113.393753051758 112.606246948242 110.925003051758 109.737503051758 110.5 110.393753051758 111.518753051758 111.5 115.6875 114.537498474121 112.125 
196.556243896484 192.743743896484 190.899993896484 186.274993896484 181.831253051758 179.987503051758 177.043746948242 176.493743896484 178.037506103516 180.537490844727 182.181243896484 182.09375 181.568756103516 176.568756103516 173.006256103516 166.306243896484 158.743743896484 151.931243896484 143.324996948242 124.581253051758 109.337501525879 98.1812515258789 91.96875 91.3874969482422 92.2874984741211 92.7562484741211 93.2874984741211 93.9625015258789 95.5500030517578 98.9375 100.537498474121 102.837501525879 105.300003051758 109.21875 117.087501525879 122.881248474121 116.487503051758 113.587501525879 113.868751525879 110.574996948242 108.956253051758 107.631248474121 106.106246948242 105.75 106.306251525879 105.006248474121 105.256248474121 105.974998474121 107 109.643753051758 107.637496948242 
204.993743896484 203.324996948242 204.387496948242 196.768753051758 193.675003051758 189.831253051758 185.143753051758 183.993743896484 185.662506103516 188.837493896484 191.149993896484 191.137496948242 190.393753051758 186.087493896484 180.181243896484 170.668746948242 160.518753051758 151.175003051758 140.043746948242 124.237503051758 108.074996948242 98.375 91.1125030517578 89.3125 90.3125 91.3125 91.4375 92.4375 94.9000015258789 97.7624969482422 98.4124984741211 100.8125 103.012496948242 105.09375 109.743751525879 116.074996948242 113.287498474121 110.418746948242 109.418746948242 108.037498474121 106.793746948242 105.306251525879 103.393753051758 101.756248474121 101.356246948242 100.618751525879 101.362503051758 102.099998474121 100.881248474121 104.525001525879 103.818748474121 
