ncols        51
nrows        45
xllcorner    -63.500000000000
yllcorner    -7.500000000000
cellsize     0.166666666667
NODATA_value -99
109.018753051758 107.574996948242 104.793746948242 103.650001525879 101.65625 102.9375 103.074996948242 101.587501525879 100.525001525879 100.818748474121 102.112503051758 103.193748474121 103.425003051758 101.018753051758 99.9749984741211 100.3125 100.806251525879 99.4812469482422 102.731246948242 106.018753051758 110.150001525879 115.581253051758 121.081253051758 125.46875 131.28125 136.28125 140.8125 146.237503051758 151.868743896484 153.350006103516 154.649993896484 155.90625 155.84375 157.03125 157.037506103516 158.506256103516 157.962493896484 156.59375 156.887496948242 157.012496948242 156.65625 157.600006103516 157.956253051758 158.618743896484 159.756256103516 158.449996948242 157.75 156.90625 156.537506103516 157.975006103516 160.975006103516 
114.881248474121 112.099998474121 109.525001525879 107.381248474121 106.081253051758 107.59375 107.956253051758 108.349998474121 109.087501525879 109.974998474121 110.168746948242 109.699996948242 108.412498474121 107.212501525879 105.881248474121 105.012496948242 104.324996948242 104.443748474121 107.037498474121 111.199996948242 116.293746948242 121.65625 127.681251525879 133.25 137.931243896484 142.506256103516 147.643753051758 152.850006103516 157.5 158.856246948242 158.787506103516 158.25 157.875 159.762496948242 159.212493896484 158.206253051758 158.65625 156.699996948242 155.818756103516 155.131256103516 154.787506103516 155.28125 154.481246948242 154.637496948242 155.1875 154.181243896484 153.71875 153.006256103516 152.587493896484 153.012496948242 155.793746948242 
122.175003051758 119.412498474121 116.356246948242 114.03125 112.71875 114.118751525879 115.443748474121 117.043746948242 118.387496948242 119.443748474121 119.34375 118.025001525879 116.5 114.28125 112.412498474121 110.306251525879 109.275001525879 109.568748474121 111.612503051758 116.5625 122.324996948242 128.925003051758 135.037506103516 139.699996948242 143.899993896484 147.899993896484 153.181243896484 158.449996948242 162.068756103516 162.356246948242 163.112503051758 163.149993896484 163.606246948242 162.293746948242 162.581253051758 161 160.243743896484 158.762496948242 157.443756103516 155.787506103516 155.425003051758 155.112503051758 154.3125 153.731246948242 152.962493896484 152.274993896484 151.862503051758 151.631256103516 150.375 150.806243896484 152.862503051758 
128.893753051758 126.287498474121 124.481246948242 121.974998474121 121.168746948242 120.506248474121 122.625 125.662498474121 128.512496948242 130.525009155273 129.262496948242 126.737503051758 124.1875 121.381248474121 119.275001525879 116.693748474121 114.40625 113.493751525879 116.143753051758 122.706253051758 130.262496948242 137.143753051758 141.537506103516 146.262496948242 150.331253051758 154.087493896484 159.606246948242 163.206253051758 166.662506103516 167.324996948242 167.699996948242 168.90625 168.324996948242 166.662506103516 164.993743896484 164.206253051758 162.081253051758 160.34375 159.125 157.943756103516 155.90625 155.806243896484 154.737503051758 153.024993896484 152.03125 151.3125 151.3125 149.899993896484 148.981246948242 148.362503051758 149.46875 
140.112503051758 135.462493896484 131.824996948242 129.637496948242 128.243743896484 128.449996948242 129.556243896484 133.21875 138.006256103516 141.243759155273 138.53125 135.131256103516 132.675003051758 130.112503051758 127.599998474121 124.4375 121.09375 118 122.175003051758 130.862503051758 139.587493896484 145.675003051758 149.84375 153.449996948242 156.668746948242 161.012496948242 164.137496948242 167.600006103516 172.893753051758 173.231246948242 173.568740844727 172.268753051758 172.331253051758 171.462493896484 169.524993896484 167.84375 166.131256103516 162.512496948242 161.0625 159.237503051758 158.181243896484 156.868743896484 155.6875 153.175003051758 151.699996948242 151.506256103516 150.881256103516 149.137496948242 147.274993896484 146.287506103516 146.300003051758 
148.712493896484 144.524993896484 140.587493896484 137.118743896484 135.237503051758 135.699996948242 137.287506103516 140.09375 144.899993896484 149.037506103516 146.199996948242 144.056243896484 142.09375 140.431243896484 137.837493896484 136.524993896484 133.118743896484 129.612503051758 135.199996948242 143.856246948242 150.84375 155.387496948242 159.568756103516 161.606246948242 164.537506103516 168.006256103516 171.387496948242 174.443756103516 178.850006103516 180.193756103516 179.887496948242 179.068756103516 177.456253051758 176.96875 177.125 175.074996948242 172.887496948242 169.96875 168.324996948242 166.893753051758 163.949996948242 162.5625 160.293746948242 157.512496948242 155.756256103516 154.331253051758 153.337493896484 151.375 149.506256103516 147.143753051758 144.587493896484 
157.28125 153.087493896484 149.300003051758 144.487503051758 141.024993896484 140.043746948242 141.125 142.949996948242 145.787506103516 147.649993896484 149.362503051758 150.350006103516 151.574996948242 151.756256103516 151.081253051758 151.399993896484 151.75 153.418746948242 158.324996948242 162.331253051758 163.443756103516 166.09375 167.225006103516 168.90625 171.943756103516 174.3125 177.506256103516 180.949996948242 184.087493896484 185.1875 186.506256103516 186.106246948242 184.237503051758 183 182.481246948242 181.9375 179.993743896484 177.943756103516 177.46875 174.399993896484 170.293746948242 168.09375 165.350006103516 162.28125 160.162506103516 159.550003051758 157.993743896484 154.449996948242 151.012496948242 147.712509155273 146.293746948242 
166.943756103516 160.481246948242 156.050003051758 151.662506103516 147.512496948242 146.481246948242 145.412506103516 143.018753051758 142.362503051758 146.149993896484 152.199996948242 157.118743896484 161.40625 163.024993896484 164.84375 167.118743896484 170.800003051758 175.875 182.787506103516 181.03125 176.318756103516 175.393753051758 174.931243896484 176.412506103516 179.356246948242 180.90625 183.25 186.193756103516 190.375 192.043746948242 192.337493896484 192.512496948242 190.737503051758 189.512496948242 188.793746948242 188.350006103516 187.112503051758 185.506256103516 184.118743896484 181.699996948242 178.03125 175.399993896484 172.287506103516 168.381256103516 167.03125 166.681243896484 164.618743896484 159.087493896484 154.112503051758 150 145.631256103516 
175.037506103516 168.1875 163.824996948242 158.625 154.856246948242 152.693756103516 150.831253051758 148.199996948242 145.71875 148.050003051758 158.3125 166.193756103516 173.193756103516 176.543746948242 178.875 181.168746948242 184.550003051758 189.600006103516 195.1875 191.668746948242 184.475006103516 182.774993896484 181.318756103516 184.493743896484 186.737503051758 187.568756103516 189.75 191.675003051758 195.868743896484 198.618743896484 200.418746948242 199.975006103516 198.78125 197.268753051758 196.537506103516 195.831253051758 195.693756103516 194.53125 193.03125 190.756256103516 186.806243896484 183.725006103516 181.731246948242 178.84375 177.087493896484 176.037506103516 173.324996948242 166.618743896484 159.006256103516 152.462493896484 148.631256103516 
182.850006103516 175.712493896484 170.3125 165.556243896484 162.09375 160.456253051758 158.78125 157.5625 158.206253051758 163.149993896484 171.606246948242 179.75 186.956253051758 191.206253051758 192.918746948242 194.324996948242 195.318756103516 196.875 197.362503051758 194.699996948242 188.587493896484 186.912506103516 186.550003051758 191.225006103516 192.181243896484 191.925003051758 193.993743896484 196.399993896484 199.699996948242 203.0625 205.28125 206.274993896484 206.149993896484 205.693756103516 205.600006103516 204.612503051758 204.168746948242 203.612503051758 201.96875 199.712493896484 197.068756103516 194.081253051758 191.59375 187.725006103516 186.743743896484 187.456253051758 183.137496948242 174.506256103516 165.375 158.03125 151.518753051758 
191.662506103516 184.331253051758 178.050003051758 172.975006103516 168.943756103516 168.162506103516 167.693756103516 169.056243896484 172.481246948242 178.931243896484 188.581253051758 196.943756103516 202.25 205.574996948242 205.550003051758 204.681243896484 202.768753051758 200.84375 197.868743896484 193.875 190.293746948242 188.75 190.893753051758 194.131240844727 197.375 195.737503051758 197.09375 199.574996948242 202.693756103516 205.274993896484 208.412506103516 211.212493896484 212.4375 213.074996948242 213.375 213.550003051758 213.143753051758 211.943756103516 210.993743896484 209.3125 206.643753051758 202.618743896484 199.9375 196.256256103516 195.381256103516 198.306243896484 191.381256103516 178.612503051758 169.181243896484 161.84375 155.168746948242 
198.862503051758 191.1875 185.393753051758 181.418746948242 177.9375 177.149993896484 178 182 187.574996948242 194.862503051758 205.487503051758 215.287506103516 217.975006103516 218.556243896484 217.125 213.84375 210.581253051758 205.03125 200.300003051758 194.206253051758 189.487503051758 188.737503051758 193.268753051758 199.993743896484 201.75 197.400009155273 198.78125 201.487503051758 205.625 210.243743896484 214.28125 217.425003051758 219.34375 220.537506103516 221.568740844727 222.274993896484 222.46875 221.375 220 218.462493896484 215.46875 210.887496948242 205.4375 200.056243896484 197.387496948242 194.112503051758 185.831253051758 177.887496948242 170.28125 166.150009155273 158.456253051758 
207.074996948242 199.725006103516 194.431243896484 190.237503051758 186.949996948242 188.0625 189.887496948242 193.6875 200.59375 209.449996948242 220.375 229.806243896484 231.9375 228.5625 226.043746948242 222.106246948242 217.081253051758 211.425003051758 204.956253051758 197.09375 187.587493896484 188.03125 194.412506103516 198.9375 196.318756103516 193.03125 198.21875 204.037506103516 209.149993896484 215.118759155273 220.206253051758 223.881256103516 225.612503051758 227.131256103516 228.543746948242 229.681243896484 229.875 229.087493896484 226.931243896484 224.8125 222.46875 216.681243896484 206.681259155273 197.418746948242 193.25 191.375 185.537506103516 175.987503051758 170.15625 167.668746948242 163.90625 
213.662506103516 207.0625 202.087509155273 198.331253051758 195.824996948242 196.399993896484 199.149993896484 205 212.737503051758 222.25 231.399993896484 238.112503051758 238.550003051758 236.512496948242 232.181243896484 228.918746948242 223.100006103516 217.556243896484 210.21875 202.706253051758 195.237503051758 194.09375 195.725006103516 197.75 194.774993896484 193.537506103516 199.418746948242 206.006256103516 213.350006103516 219.899993896484 225.881256103516 230.331253051758 231.868743896484 232.768753051758 234.893753051758 235.962493896484 236.893753051758 237.168746948242 233.862503051758 229.856246948242 224.675003051758 212.643753051758 203.074996948242 196.699996948242 194.543746948242 190.75 186.543746948242 181.25 174.600006103516 171.425003051758 169.425003051758 
218.681243896484 212.34375 208.3125 205.037506103516 203.8125 205.449996948242 209.5 215.006256103516 222.425003051758 230.712493896484 239.631256103516 244.4375 245.28125 243.774993896484 239.28125 235.243743896484 229.368743896484 222.625 216.100006103516 210.556243896484 204.5 200.612503051758 200.243743896484 200.393753051758 200.100006103516 200.293746948242 205.793746948242 213.112503051758 220.381256103516 228 233.774993896484 237.125 239.550003051758 239.618743896484 240.787506103516 241.181243896484 242.981246948242 244.775009155273 242.056243896484 233.100006103516 221.125 211.087493896484 205.125 199.71875 195.5625 192.268753051758 187.931243896484 184.600006103516 181.756256103516 176.456253051758 171.824996948242 
222.474990844727 216.137496948242 212.881256103516 210.268753051758 209.90625 212.362503051758 217.199996948242 222.774993896484 229.40625 237.912506103516 246.449996948242 250.8125 251.831253051758 250.387496948242 246.681243896484 239.925003051758 234.6875 228.412506103516 221.6875 216.824996948242 212.899993896484 209.074996948242 207.006256103516 206.550003051758 206.318756103516 207.03125 212.118759155273 220.637496948242 229.262496948242 237.918746948242 243.956253051758 246.4375 245.274993896484 244.4375 244.225006103516 246.856246948242 249.375 250.537506103516 247.868743896484 237.65625 222.693756103516 212.762496948242 207.418746948242 200.306243896484 196.524993896484 193.606246948242 190.306243896484 186.881256103516 182.731246948242 178.981246948242 173.649993896484 
224.256256103516 218.5625 215.25 213.737503051758 214.512496948242 217.675003051758 223.268753051758 229.037506103516 235.787506103516 243.487503051758 252.28125 257.206237792969 258.25 256.850006103516 253.475006103516 247.324996948242 237.15625 230.662506103516 226.024993896484 223.743743896484 219.9375 216.756256103516 213.9375 212.65625 213.362503051758 213.556243896484 218.231246948242 227.206253051758 238.050003051758 248.356246948242 255.75 257.737487792969 253.818756103516 249.712493896484 250.931243896484 253.925003051758 255.5625 258.537506103516 260.543762207031 248.09375 233.550003051758 220.862503051758 210.556243896484 202.03125 198.081253051758 195.300003051758 191.543746948242 188.118743896484 185.256256103516 181.243743896484 177.056243896484 
225.243743896484 219.675003051758 216.59375 215.931243896484 216.5 220.649993896484 226.587493896484 232.550003051758 239.225006103516 247.256256103516 254.731246948242 261.725006103516 264.162506103516 263.34375 259.549987792969 251.887496948242 241.225006103516 231.59375 230.543746948242 229.368743896484 227.4375 224.21875 221.0625 219.862503051758 220.0625 221.15625 224.681243896484 235.59375 249.15625 261.381256103516 267.606262207031 262.912506103516 257.674987792969 254.693756103516 253.931243896484 256.3125 260.90625 263.924987792969 262.068756103516 253.90625 239.212493896484 224.837493896484 213.862503051758 205.706253051758 201.387496948242 198.137496948242 194.46875 190.925003051758 188.256256103516 182.75 179.431243896484 
223.387496948242 218.268753051758 215.975006103516 216.375 217.868743896484 222.524993896484 227.475006103516 234.381256103516 241.668746948242 249.75 257.024993896484 262.387512207031 266.975006103516 270.1875 264.912506103516 254.293746948242 241.993743896484 232.243743896484 228.550003051758 230.28125 231.850006103516 230.949996948242 224.074996948242 225.087493896484 226.237503051758 228.981246948242 235.46875 245.21875 259.612487792969 272.987487792969 280.306243896484 271.731262207031 262.399993896484 253.125 249.712493896484 255.050003051758 261.662506103516 264.362487792969 264.006256103516 255.899993896484 242.699996948242 228.037506103516 217.15625 210.043746948242 205.225006103516 201.018753051758 197.793746948242 194.912506103516 191.274993896484 183.4375 182.675003051758 
220.75 215.78125 214.074996948242 213.899993896484 216.28125 222.643753051758 228.506256103516 234.587493896484 241.78125 249.65625 256.243743896484 262.068756103516 269.868743896484 277.381256103516 268.193756103516 251.931259155273 237.493743896484 231.693756103516 229.331253051758 230.612503051758 230.46875 227.475006103516 225.731246948242 227.631256103516 230.612503051758 235.912506103516 243.212493896484 253.918746948242 264.831237792969 274.106262207031 278.606262207031 272.325012207031 260.375 247.050003051758 240.818756103516 248.293746948242 261.21875 269.918762207031 269.53125 261.643737792969 247.806243896484 231.731246948242 222.662506103516 215.943756103516 210.268753051758 205.912506103516 201.806243896484 197.793746948242 193.668746948242 186.774993896484 186.018753051758 
215.481246948242 211.412506103516 211.0625 212.518753051758 214.681243896484 221.493743896484 229.53125 235.993743896484 242.649993896484 247.737503051758 251.800003051758 255.068756103516 260.537506103516 266.681243896484 259.399993896484 244.131256103516 233.256256103516 227.518753051758 227.168746948242 226.600006103516 228.106246948242 228.337493896484 228.1875 232.493759155273 238.112503051758 244.337493896484 251.106246948242 258.65625 265.762512207031 272.200012207031 272.600006103516 268.212493896484 256.950012207031 244.762496948242 234.09375 247.125 268.212493896484 281.96875 282.806243896484 273.662506103516 258.524993896484 243.15625 231.537506103516 222.193756103516 215.731246948242 210.868743896484 206.643753051758 202.600006103516 196.0625 191.09375 189.118743896484 
211.118743896484 206.006256103516 205.712493896484 208.256256103516 212.331253051758 219.887496948242 228.143753051758 236.524993896484 243.287506103516 244.893753051758 244.387496948242 241.024993896484 240.21875 242.256256103516 240.550003051758 233.96875 229.462493896484 226.618743896484 225.8125 225.912490844727 225.368743896484 226.024993896484 227.981246948242 233.65625 240.693756103516 248.762496948242 258.431243896484 264.600006103516 269.131256103516 271.768737792969 268.649993896484 263.65625 257.181243896484 253.375 252.331253051758 264.306243896484 285.993743896484 302.856262207031 302.90625 289.931243896484 271.443756103516 254.1875 240.712493896484 229.787490844727 221.881256103516 216.350006103516 211.199996948242 206.850006103516 200.212493896484 197.131256103516 193.475006103516 
207.106246948242 202.118743896484 200.481246948242 202.893753051758 208.274993896484 217.756256103516 226.756256103516 236.0625 244.625 242.375 235.149993896484 224.856246948242 218.268753051758 219.449996948242 223.574996948242 224.737503051758 223.637496948242 223.118743896484 222.981246948242 223.056243896484 223.331253051758 223.71875 225.149993896484 231.399993896484 240.993743896484 252.162506103516 263.337493896484 269.231262207031 271.899993896484 270.600006103516 266.0625 262.225006103516 263.78125 266.575012207031 272.799987792969 284.181243896484 305.962493896484 330.487487792969 327.3125 304.924987792969 282.231262207031 263.987487792969 247.456253051758 235.206253051758 226.71875 220.962493896484 216.481246948242 211.03125 205.725006103516 202.912506103516 198.837493896484 
203.956253051758 198.212493896484 195.324996948242 197.9375 204.412506103516 213.90625 223.850006103516 233.21875 239.956253051758 235.5 225.899993896484 214.524993896484 201.800003051758 205.574996948242 214.09375 218.237503051758 219.350006103516 220.037506103516 220.65625 221.3125 220.84375 220.912506103516 222.287506103516 228.668746948242 239.837493896484 251.84375 264.612487792969 270.143737792969 272.693756103516 273.356262207031 271.549987792969 271.225006103516 275.581237792969 281.837493896484 290.662506103516 302.056243896484 320.256256103516 340.787506103516 335.912506103516 312.793762207031 288.774993896484 268.625 251.237503051758 238.024993896484 230.40625 225.493743896484 221.112503051758 214.506256103516 212.943756103516 209.21875 205.518753051758 
202.056243896484 196.212493896484 191.793746948242 195.949996948242 204.274993896484 212.774993896484 221.024993896484 228.462493896484 231.887496948242 229.068756103516 221.774993896484 212.943756103516 205.681243896484 206.987503051758 211.6875 215.78125 217.831253051758 219.756256103516 220.106246948242 219.237503051758 218.443756103516 217.287506103516 217.962493896484 224.15625 235.306243896484 249.225006103516 261.006256103516 270.331237792969 275.537506103516 279.868743896484 282.137512207031 286.006256103516 290.543762207031 297.84375 306.831237792969 314.581237792969 327.0625 334.8125 328.443756103516 311.424987792969 289.637512207031 269.987487792969 252.693756103516 240.449996948242 231.168746948242 227.862503051758 222.737503051758 222.206253051758 219.149993896484 217.050003051758 212.793746948242 
204.274993896484 201.206253051758 197.75 200.875 205.675003051758 212.899993896484 219.262496948242 223.662506103516 225.506256103516 223.668746948242 219.856246948242 215.800003051758 212.175003051758 212.362503051758 213.993743896484 216.512496948242 218.71875 220.675003051758 220.887496948242 219.149993896484 218.168746948242 214.806243896484 213.987503051758 218.375 230.606246948242 246.443756103516 261.0625 271.993743896484 280.681243896484 285.731262207031 293.299987792969 300.712493896484 307.212493896484 312.893737792969 320.837493896484 325.03125 330.793762207031 331.774993896484 323.293762207031 307.71875 288.618743896484 269.25 251.143753051758 239.493743896484 233.356246948242 229.381256103516 234.40625 234.481246948242 229.012496948242 225.09375 219.587493896484 
205.34375 203.181243896484 202.818756103516 205.056243896484 207.899993896484 213.518753051758 218.731246948242 221.024993896484 222.212493896484 222.550003051758 221.318756103516 220.181243896484 219.212493896484 219.899993896484 220.143753051758 221.71875 223.237503051758 224.737503051758 225.368743896484 222.5 219.5625 216.681243896484 212.925003051758 216.112503051758 230.787506103516 246.800003051758 261.631256103516 274.212493896484 285.149993896484 292.731262207031 302.850006103516 311.950012207031 320.893737792969 326.84375 332.243743896484 335.356262207031 337.931243896484 334.962493896484 323.4375 308.8125 290.087493896484 269.462493896484 251.425003051758 239.956253051758 240.506256103516 246.550003051758 251.78125 248.550003051758 243.712493896484 235.387496948242 228.59375 
207.387496948242 204.881256103516 206.662506103516 209.212493896484 211.831253051758 215.387496948242 218.712493896484 220.106246948242 221.65625 222.306243896484 222.675003051758 223.949996948242 224.600006103516 226.081253051758 226.168746948242 227.243743896484 228.106246948242 231.137496948242 230.131256103516 228.03125 226.362503051758 222.231246948242 221.862503051758 226.199996948242 237.949996948242 251.818756103516 265.856262207031 278.087493896484 290.012481689453 300.368743896484 310.043762207031 319.662506103516 329.018737792969 335.1875 341.3125 343.59375 343.462493896484 340.262512207031 328.9375 312.862487792969 295.25 274.581237792969 254.387496948242 243.612503051758 254.381256103516 265.356262207031 270.587493896484 265.381256103516 257.756256103516 247.96875 238.25 
208.21875 206.456253051758 209.237503051758 213.212493896484 216.131256103516 217.993743896484 218.600006103516 220.056243896484 221.225006103516 222.71875 224.5625 226.962493896484 229.331253051758 233.106246948242 233.699996948242 235.212493896484 237.893753051758 239.368743896484 238.862503051758 236.762496948242 234.65625 231.337493896484 231.65625 237.3125 247.193756103516 258.862487792969 272.03125 284.056243896484 296.868743896484 307.46875 316.225006103516 325.28125 334.862487792969 343.28125 350.756256103516 352.037506103516 352.581237792969 349.1875 338.231262207031 322 302.206237792969 282.125 265.475006103516 260.462493896484 272.543762207031 282.662506103516 288.237487792969 281.143737792969 272.899993896484 262.493743896484 249.506256103516 
210.181243896484 208.96875 213.231246948242 218.331253051758 220.84375 220.556243896484 219.574996948242 220.5625 221.78125 223.206253051758 226.387496948242 230.993743896484 235.350006103516 240.399993896484 242.912506103516 244.862503051758 247.193756103516 249.537506103516 250.34375 247.193756103516 244.487503051758 242.712493896484 242.381256103516 247.506256103516 256.662506103516 267.424987792969 279.112487792969 290.299987792969 302.549987792969 312.549987792969 322.424987792969 331.806243896484 341.125 351.693756103516 359.881256103516 362.700012207031 363.768737792969 363.625 353.399993896484 339.774993896484 324.481262207031 308.368743896484 295.662506103516 291.931243896484 296.006256103516 305.90625 309.643737792969 305.362487792969 296.106262207031 283.818756103516 269.543762207031 
210.418746948242 209.943756103516 213.356246948242 218.631256103516 222.274993896484 219.899993896484 219.193756103516 219.543746948242 221.237503051758 223.918746948242 228.493743896484 234.625 240.887496948242 246.59375 250.806243896484 253.774993896484 257.475006103516 260.637512207031 261.643737792969 258.649993896484 255.112503051758 252.456253051758 252.856246948242 257.475006103516 265.168762207031 276.075012207031 286.987487792969 297.25 309.475006103516 318.806243896484 328.90625 338.924987792969 348.549987792969 359.868743896484 369.3125 373.681243896484 376.075012207031 379.049987792969 372.431243896484 361.506256103516 350.65625 338.075012207031 328.1875 321.556243896484 323.5 333.737487792969 337.662506103516 333.524993896484 322.649993896484 307.412506103516 290.987487792969 
209.106246948242 208.600006103516 211.268753051758 214.912506103516 216.975006103516 216.25 217.3125 217.46875 219.993743896484 223.662506103516 229.175003051758 236.712509155273 244.762496948242 253.037506103516 258.737487792969 262.700012207031 265.756256103516 268.418762207031 268.237487792969 266.462493896484 262.8125 260.299987792969 261.100006103516 265.418762207031 273.881256103516 283.631256103516 293.225006103516 303.556243896484 314.012512207031 324.868743896484 335.21875 345.537506103516 356.487487792969 368.71875 379.581237792969 384.793762207031 391.037506103516 393.756256103516 388.243743896484 381.556243896484 377.868743896484 369.174987792969 361.887512207031 359.325012207031 361.287506103516 373.237487792969 376.674987792969 367.637512207031 351.993743896484 334.46875 315.450012207031 
209.881256103516 209.300003051758 211.449996948242 213.637496948242 213.84375 213.556243896484 213.668746948242 214.262496948242 216.443756103516 222.268753051758 230.537506103516 239.925003051758 251.356246948242 262.756256103516 268.399993896484 272.375 275 275.6875 274.625 273.256256103516 270.149993896484 267.837493896484 267.875 273.375 280.706237792969 289.868743896484 298.899993896484 307.237487792969 317.53125 330.631256103516 341.575012207031 351.53125 364.325012207031 378.581237792969 389.931243896484 397.674987792969 404.59375 409.162506103516 404.956237792969 406.100006103516 405.774993896484 401.668762207031 399.568756103516 402.181243896484 412.200012207031 429.674987792969 428.381256103516 409.118743896484 388.631256103516 367.443756103516 345.393737792969 
210.425003051758 209.912506103516 210.893753051758 211.918746948242 210.587493896484 210.34375 210.475006103516 210.581253051758 213.425003051758 218.987503051758 228.756256103516 243.03125 258.325012207031 271.200012207031 277.524993896484 281.143737792969 284.625 284.806243896484 282.037506103516 279.325012207031 276.71875 274.831237792969 274.818756103516 279.475006103516 286.106262207031 293.768737792969 301.956237792969 311.174987792969 322.331237792969 334.862487792969 347.875 359.524993896484 373.037506103516 389.043762207031 402.125 410.887512207031 417.975006103516 422.268737792969 423.962493896484 428.125 430.424987792969 431.387512207031 434.75 441.918762207031 454.950012207031 471.331237792969 468.268737792969 446.356262207031 423.856262207031 400.850006103516 376.75 
212.431243896484 211.137496948242 211.193756103516 210.362503051758 208.774993896484 208.40625 207.337493896484 206.868743896484 208.193756103516 214.706253051758 227.456253051758 245.324996948242 265.96875 282.237487792969 288.462493896484 291.087493896484 293.649993896484 292.09375 288.725006103516 284.068756103516 282.3125 280.674987792969 280.649993896484 284.3125 290.299987792969 295.862487792969 304.793762207031 314.706237792969 325.71875 338.46875 352.668762207031 367.056243896484 382.4375 398.25 412.106262207031 421.362487792969 427.912506103516 436.918762207031 441.543762207031 446.006256103516 451.28125 454.21875 461.006256103516 469.956237792969 480.5 487.118743896484 485.65625 469.774993896484 449.462493896484 429.518737792969 406.112487792969 
217.637496948242 215.5 214.637496948242 213.037506103516 210.912506103516 208.90625 207.324996948242 204.987503051758 204.637496948242 209.59375 223.9375 246.53125 271.100006103516 289.668762207031 297.068756103516 300.462493896484 301.981262207031 299.40625 295.0625 289.662506103516 286.9375 285.84375 284.9375 287.131256103516 291.8125 297.481262207031 305.631256103516 315.274993896484 326.487487792969 340.118743896484 356.3125 371.6875 389.212493896484 406.362487792969 420.6875 428.256256103516 438.293762207031 445.65625 448.081237792969 453.043762207031 459.243743896484 464.387512207031 471.09375 480.868743896484 488.612487792969 491.943756103516 491.450012207031 480.368743896484 467.162506103516 450.59375 429.700012207031 
223.318756103516 220.712493896484 218.600006103516 216.418746948242 213.8125 211.524993896484 209.824996948242 206.112503051758 202.818756103516 202.568756103516 220.768753051758 252.431243896484 278.356262207031 295.037506103516 303.950012207031 308.556243896484 310.287506103516 306.762512207031 301.331237792969 294.75 291.975006103516 289.137512207031 288.081237792969 289.350006103516 293.225006103516 298.643737792969 306.481262207031 316.356262207031 327.225006103516 342.337493896484 359.537506103516 376.362487792969 395.725006103516 414.424987792969 429.418762207031 437.399993896484 445.174987792969 450.4375 453.475006103516 456.71875 460.274993896484 466.118743896484 475.506256103516 484.943756103516 491.350006103516 494.818756103516 497.975006103516 490.700012207031 480.912506103516 467.962493896484 450.068756103516 
228.387496948242 225.324996948242 222.65625 220.65625 218.262496948242 216.925003051758 214.975006103516 211.837493896484 209.275009155273 207.068756103516 237.175003051758 270.306243896484 290.168762207031 303.293762207031 311.90625 316.631256103516 317.756256103516 314.243743896484 308.568756103516 301.243743896484 296.818756103516 292.3125 289.975006103516 290.575012207031 293.712493896484 298.993743896484 306.037506103516 315.487487792969 326.543762207031 343.512512207031 361.143737792969 377.856262207031 398 418.21875 433.756256103516 441.481262207031 446.412506103516 451.431243896484 454.600006103516 456.487487792969 458.162506103516 465.618743896484 473.21875 480.049987792969 487.8125 493.493743896484 498.987487792969 497.462493896484 488.618743896484 481.356262207031 467.693756103516 
230.931243896484 226.5625 224.868743896484 223.3125 221.975006103516 221.743743896484 221.149993896484 222.668746948242 229.256256103516 246.90625 283.200012207031 296.356262207031 304.931243896484 313.987487792969 320.725006103516 324.018737792969 325.431243896484 320.356262207031 313.53125 305.962493896484 298.643737792969 292.993743896484 290.0625 290.393737792969 292.893737792969 297.662506103516 305.125 314.581237792969 325.868743896484 343.1875 359.5625 374.831237792969 391.90625 407.668762207031 424.443756103516 431.274993896484 434.649993896484 439.274993896484 440.71875 440.006256103516 441.331237792969 446.443756103516 451.53125 458.881256103516 465.418762207031 471.037506103516 474.181243896484 474.112487792969 470.59375 466.868743896484 457.03125 
233.287506103516 229.15625 227.4375 225.706253051758 226.362503051758 228.225006103516 230.456253051758 236.725006103516 249.243743896484 269.431243896484 292.943756103516 308.4375 317.037506103516 324.84375 329.625 332.706237792969 333.456237792969 328.15625 319.049987792969 309.831237792969 298.75 292.25 288.606262207031 288.587493896484 291.462493896484 295.8125 303.637512207031 313.712493896484 324.481262207031 340.131256103516 354.700012207031 370.212493896484 386.431243896484 399.462493896484 410.53125 416.331237792969 419.337493896484 422.5625 422.693756103516 420.868743896484 421.862487792969 425.256256103516 427.924987792969 433.1875 438.9375 444.575012207031 448.568756103516 449.712493896484 451.024993896484 449.943756103516 443.337493896484 
235.268753051758 231.381256103516 229.274993896484 228.331253051758 229.206253051758 232.743743896484 238.362503051758 247.493743896484 262.212493896484 279.549987792969 297.962493896484 313.993743896484 325.287506103516 333.412506103516 338.837493896484 342.393737792969 342.368743896484 336.112487792969 325.381256103516 313.306243896484 299.131256103516 289.231262207031 284.162506103516 284.600006103516 289.299987792969 294.399993896484 302.350006103516 312.700012207031 322.637512207031 337.018737792969 352.306243896484 367 379.731262207031 390.625 397.950012207031 401.356262207031 403.549987792969 405.700012207031 405.59375 402.731262207031 402.506256103516 402.331237792969 403.118743896484 408.362487792969 415.549987792969 420.762512207031 424.15625 427.350006103516 430.5625 431.912506103516 429.21875 
235.643753051758 230.356246948242 227.293746948242 226.3125 227.587493896484 232.074996948242 239.243743896484 249.65625 264.443756103516 280.84375 296.75 312.318756103516 326.024993896484 336.487487792969 342.787506103516 347.362487792969 349.174987792969 343.931243896484 333.006256103516 316.899993896484 297.674987792969 283.662506103516 277.243743896484 279.299987792969 286.293762207031 292.637512207031 300.806243896484 311.368743896484 321.787506103516 336.350006103516 348.256256103516 361.8125 372.681243896484 380.793762207031 385.418762207031 383.756256103516 384.943756103516 385.993743896484 384.537506103516 381.268737792969 379.024993896484 373.774993896484 372.787506103516 380.887512207031 389.181243896484 395.662506103516 399.331237792969 401.893768310547 406.96875 409.174987792969 412.087493896484 
235.074996948242 227.931243896484 224.037506103516 222.581253051758 224.181243896484 230.368743896484 238.074996948242 248.762496948242 262.600006103516 278.837493896484 294.943756103516 310.618743896484 325.181243896484 337.543762207031 345.912506103516 351.006256103516 353.506256103516 352.056243896484 342.924987792969 321.862487792969 295.0625 273.912506103516 270.068756103516 276.193756103516 284.875 291.693756103516 300.25 310.53125 320.943756103516 333.518737792969 345.818756103516 356.575012207031 364.600006103516 368.131256103516 369.868743896484 368.012512207031 365.149993896484 365.299987792969 363.368743896484 361.706237792969 359.081237792969 355.25 354.931243896484 359.293762207031 365.537506103516 370.274993896484 373.725006103516 376.34375 381.256256103516 386.512512207031 393.431243896484 
233.962493896484 225.243743896484 219.725006103516 217.568756103516 220.387496948242 227.206253051758 235.46875 246.262496948242 260.418762207031 275.8125 292.40625 309.768737792969 324.631256103516 338.212493896484 348.618743896484 355.287506103516 359.831237792969 358.53125 353.081237792969 330.006256103516 299.037506103516 273.174987792969 270.28125 276.799987792969 285.612487792969 293.6875 301.399993896484 310.293762207031 321.100006103516 331.587493896484 342.125 353.068756103516 358.568756103516 357.712493896484 355.84375 353.84375 349.693756103516 348.774993896484 346.899993896484 345.493743896484 343.956237792969 342.1875 341.34375 343.581237792969 347.237487792969 349.112487792969 352.424987792969 352.637512207031 354.481262207031 360.899993896484 372.456237792969 
234.012496948242 224.112503051758 216.331253051758 213.693756103516 218.887496948242 226.006256103516 233.71875 244.631256103516 258.325012207031 273.831237792969 290.456237792969 308.331237792969 324.943756103516 339.706237792969 350.34375 356.899993896484 360.78125 357.756256103516 350.556243896484 331.743743896484 307.456237792969 289.399993896484 280.537506103516 282.6875 289.8125 296.5 302.9375 311.875 321.049987792969 330.287506103516 339.956237792969 350.068756103516 352.924987792969 349.993743896484 347.331237792969 343.15625 337.556243896484 335.893737792969 335.337493896484 334.262512207031 333.049987792969 331.674987792969 331.256256103516 332.206237792969 334.756256103516 335.418762207031 336.112487792969 334.006256103516 331.331237792969 335.6875 351.75 
