ncols        51
nrows        45
xllcorner    -63.500000000000
yllcorner    -7.500000000000
cellsize     0.166666666667
NODATA_value -99
186.893753051758 186.256256103516 180.306243896484 178.056243896484 175.368743896484 173.637496948242 170.649993896484 167.756256103516 165.481246948242 162.393753051758 159.375 155.175003051758 151.300003051758 145.268753051758 140.943756103516 136.243743896484 131.962509155273 126.737503051758 121.974998474121 118.025001525879 114.193748474121 110.393753051758 107.293746948242 103.775001525879 100.931251525879 98.7937469482422 98.375 98.1999969482422 97.625 96.78125 96.3062515258789 96.5562515258789 97.1062469482422 98.4250030517578 99.6437530517578 102.21875 105.300003051758 108.056251525879 110.693748474121 113.474998474121 115.28125 117.543746948242 118.412498474121 119.112503051758 118.793746948242 117.400001525879 114.618751525879 110.900001525879 107.681251525879 102.78125 96.7437515258789 
192.887496948242 190.8125 187.28125 185.912506103516 185.787506103516 184.175003051758 180.987503051758 179.881256103516 177.587493896484 173.868743896484 170.137496948242 164.462493896484 158.481246948242 152.350006103516 146.412506103516 141.818756103516 136.231246948242 131.306243896484 126.393753051758 122.331253051758 117.981246948242 113.78125 110.4375 107.087501525879 102.675003051758 99.4312515258789 98.6125030517578 97.6374969482422 96.7125015258789 95.625 94.9937515258789 95.1624984741211 95.0812454223633 97.1062469482422 98.9312515258789 102.175003051758 106.012496948242 109.599998474121 112.462501525879 115.587501525879 118.40625 120.231246948242 121.625 121.168746948242 120.525001525879 118.543746948242 116.131248474121 111.893753051758 108.074996948242 102.887496948242 96.8625030517578 
196.112503051758 194.199996948242 190.337493896484 187.762496948242 187.737503051758 186.768753051758 187.318756103516 187.324996948242 186.731246948242 183.706253051758 178.918746948242 172.112503051758 165.487503051758 158.443756103516 151.71875 145.762496948242 140.34375 135.574996948242 130.206253051758 125.849998474121 121.081253051758 116.318748474121 112.287498474121 108.318748474121 103.556251525879 99.2687530517578 97.6875 96.3562469482422 94.5187530517578 92.6812515258789 92.2375030517578 91.8125 93.4312515258789 95.4312515258789 98.0875015258789 101.824996948242 106.4375 112.081253051758 116.068748474121 120.387496948242 123.837501525879 125.293746948242 126.5625 126.737503051758 125.025001525879 122.349998474121 119.375 115.212501525879 109.643753051758 103.456253051758 97.1812515258789 
194.581253051758 191.918746948242 190.068756103516 186.831253051758 186.775009155273 187.356246948242 189.056243896484 192.243743896484 194.399993896484 193.168746948242 187.65625 179.306243896484 171.5 163.574996948242 156.5 150.1875 144.762496948242 139.3125 134.287506103516 130.449996948242 125.212501525879 119.525001525879 113.956245422363 108.675003051758 103.306251525879 98.5250015258789 96.3062515258789 93.4812469482422 91.4437484741211 89.8937530517578 88.8312530517578 88.5374984741211 89.8125 92.28125 95.3187484741211 101.3125 107.762496948242 114.318748474121 119.75 124.931251525879 128.356246948242 130.899993896484 131.331253051758 131.237503051758 129.175003051758 126.881248474121 122.425003051758 118.012496948242 111.962501525879 105.074996948242 97.6875 
197.84375 191.837493896484 183.662506103516 181.881256103516 183.824996948242 186.199996948242 189.493743896484 195.037506103516 200.4375 202.199996948242 194.256256103516 183.149993896484 174.637496948242 167.356246948242 160.287506103516 154.387496948242 148.5 143.606246948242 138.449996948242 133.375 128.524993896484 122.087501525879 115.856246948242 110.212501525879 103.043746948242 97.2624969482422 93.1125030517578 90.625 88.6187515258789 86.0437469482422 84.5625 84.0749969482422 86.0250015258789 89.1875 93.125 100.181251525879 108.112503051758 116.375 123.537498474121 128.5 133.1875 134.818756103516 135.675003051758 135.774993896484 133.8125 130.21875 125.456253051758 119.368751525879 113.449996948242 107.074996948242 98.3187484741211 
196.181243896484 190.350006103516 182.1875 174.706253051758 177.737503051758 183.612503051758 188.225006103516 192.787506103516 197.8125 201.012496948242 192.581253051758 182.15625 174.975006103516 168.362503051758 161.606246948242 155.637496948242 150.618743896484 145.9375 141.649993896484 136.118743896484 130.118743896484 123.712501525879 116.9375 109.668746948242 102.731246948242 95.9625015258789 91.625 88.3375015258789 85.71875 82.875 80.5812530517578 80.7874984741211 83.0124969482422 86.9562530517578 91.3687515258789 99.6875 108.768753051758 118.418746948242 127.012496948242 133.1875 135.881256103516 137.637496948242 138.3125 138.793746948242 137.993743896484 133.043746948242 126.318748474121 119.112503051758 113.131248474121 105.868751525879 97.0250015258789 
195.893753051758 191.662506103516 183.693756103516 176.112503051758 175.043746948242 177.662506103516 181.662506103516 184.943756103516 186.043746948242 184.293746948242 181.90625 176.412506103516 172.206253051758 167.381256103516 162.393753051758 157.712493896484 153.081253051758 148.412506103516 143.231246948242 139.356246948242 132.625 125.300003051758 117.918746948242 109.743751525879 102.012496948242 95.2687530517578 90.1937484741211 85.9937515258789 81.9250030517578 79.0374984741211 77.09375 76.6812515258789 79.6812515258789 84.2937469482422 89.8062515258789 98.3312530517578 107.862503051758 118.737503051758 129.943756103516 136.018753051758 138.087493896484 139.231246948242 139.893753051758 140 138.725006103516 134.306243896484 127.71875 118.787498474121 111.443748474121 104.431251525879 96.8249969482422 
197.699996948242 192.5625 185.893753051758 181.243743896484 179.462493896484 178.912506103516 176.75 172.831253051758 168.4375 167.081253051758 169.918746948242 169.71875 168.3125 165.600006103516 162.21875 159.181243896484 155.162506103516 150.443756103516 145.925003051758 141.399993896484 135.462493896484 127.893753051758 119.087501525879 110.1875 102.40625 93.7437515258789 87.8625030517578 82.7624969482422 78.6500015258789 75.1500015258789 72.9312515258789 72.9375 76.5 81.3125 87.3125 95.8937530517578 106.262496948242 116.712501525879 125.8125 132.193756103516 135.612503051758 136.993743896484 137.618743896484 137.393753051758 135.475006103516 132.762496948242 126.775001525879 117.5625 109.568748474121 102.693748474121 94.5374984741211 
199.056243896484 195.043746948242 190.3125 186.256256103516 183.587493896484 181.456253051758 177.756256103516 171.756256103516 161.862503051758 156.918746948242 161.712493896484 163.875 164.649993896484 163.381256103516 161.59375 159.225006103516 156.206253051758 152.637496948242 150.425003051758 145.993743896484 137.84375 129.84375 120.043746948242 111.762496948242 102.625 93.1624984741211 86.34375 81.1437530517578 76.7062530517578 72.6374969482422 70.9749984741211 71.6875 74.8625030517578 79.3312530517578 84.8249969482422 93.5999984741211 103.393753051758 113.09375 121.056251525879 128.012496948242 132.074996948242 133.037506103516 134.21875 134.262496948242 131.75 128.824996948242 124.431251525879 115.712501525879 107.318748474121 100.1875 93.8125 
200.949996948242 196.5 192.568756103516 189.462493896484 187.431259155273 185.712493896484 180.924987792969 173.831253051758 166.212493896484 162.199996948242 162.356246948242 161.618743896484 162.649993896484 161.800003051758 160.46875 159.168746948242 157.237503051758 155.456253051758 153.774993896484 151.28125 142.712493896484 133.087493896484 121.987503051758 112.518753051758 102.006248474121 92.4312515258789 85.9250030517578 79.9562530517578 74.9375 70.59375 69.1312484741211 69.9812469482422 73.2624969482422 77.84375 83.3249969482422 91.7687530517578 101.3125 109.900001525879 117.46875 124.199996948242 129.168746948242 130.443756103516 130.6875 129.675003051758 127.993751525879 125.762496948242 121.331253051758 113.893745422363 105.637496948242 98.6999969482422 90.6312484741211 
203.324996948242 199.0625 195.03125 192.262496948242 190.412506103516 190.449996948242 186.356246948242 178.237503051758 170.943756103516 166.274993896484 164.987503051758 163.050003051758 161.987503051758 160.606246948242 159.118743896484 157.9375 157.268753051758 156.887496948242 156.712493896484 156.137496948242 150.199996948242 138.8125 125.193748474121 112.050003051758 101.824996948242 93.0062484741211 86.4437484741211 80.46875 74.6312484741211 70.3874969482422 69.0374984741211 69.6999969482422 73.1624984741211 77.4437484741211 82.2624969482422 89.7750015258789 98.1750030517578 106.506248474121 114.8125 121.6875 126.518753051758 127.956253051758 128.350006103516 127.443748474121 124.375 123.199996948242 118.40625 110.487503051758 102.962501525879 94.96875 86.4312515258789 
205.425003051758 201.181243896484 197.350006103516 195.637496948242 194.050003051758 194.0625 191.112503051758 182.756256103516 175.331253051758 170.143753051758 166.975006103516 164.46875 160.818756103516 158.537506103516 157.199996948242 156.306259155273 156.306243896484 156.493759155273 157.987503051758 160 155.975006103516 144.362503051758 128.962493896484 114.125 102.412498474121 93.1374969482422 86.4749984741211 80.8625030517578 76.1875 72.34375 70.3125 70.09375 72.8000030517578 76.4250030517578 81.1125030517578 88.21875 95.9187469482422 104.175003051758 112.025001525879 119.34375 125.224998474121 126.375 126.543746948242 125.668754577637 120.862503051758 115.09375 110.137496948242 105.4375 98.6374969482422 92.1624984741211 83.4187469482422 
207.050003051758 203.556243896484 199.993743896484 197.21875 194.706253051758 193.831253051758 190.081253051758 183.487503051758 176.856246948242 172.125 168.112503051758 165.162506103516 160.987503051758 155.231246948242 153.068756103516 152.649993896484 153.268753051758 155.393753051758 157.862503051758 160.293746948242 157.737503051758 146.46875 130.337493896484 116.206253051758 103.118751525879 92.8375015258789 87.3874969482422 82.0500030517578 77.6937484741211 74.2687530517578 71.9875030517578 71.0625 72.6312484741211 75.4499969482422 79.5749969482422 86.2312469482422 93.6062469482422 101.400001525879 109.912498474121 116.743751525879 123.662498474121 125.412498474121 123.856246948242 117.6875 112.806251525879 111.212501525879 107.300003051758 100.956253051758 93.3874969482422 87.9437484741211 80.8375015258789 
208.225006103516 203.631256103516 200.03125 196.800003051758 194.106246948242 191.375 187.649993896484 182.662506103516 177.762496948242 172.693740844727 168.149993896484 162.681243896484 157.84375 152.106246948242 147.237503051758 146.837493896484 148.25 150.568756103516 153.162506103516 154.90625 151.087493896484 141.206253051758 128.006256103516 115.449996948242 103.96875 94.4312515258789 89.4812469482422 84.4499969482422 79.7624969482422 76.1374969482422 73.7750015258789 72.2125015258789 72.8125 74.5999984741211 78.46875 85.0749969482422 92.1062469482422 100.625 108.306251525879 116.256248474121 121.90625 119.90625 116.662498474121 114.900001525879 112.231246948242 110.050003051758 108.637496948242 102.762496948242 94.3312530517578 86.7562484741211 78.5999984741211 
207.65625 203.012496948242 199.481246948242 196.1875 193.043746948242 189.84375 186.65625 182.206253051758 177.131240844727 171.887496948242 166.693756103516 160.631256103516 154.443756103516 147.956253051758 141 139.787506103516 141.8125 144.643753051758 147.537506103516 149.081253051758 144.649993896484 136.193756103516 125.612503051758 115.84375 106.96875 98.8687515258789 93.5812530517578 88.2750015258789 83.2874984741211 78.8812484741211 75.65625 73.25 73.4437484741211 74.6750030517578 77.375 83.3062515258789 90.9749984741211 100.175003051758 107.881248474121 112.96875 114.931251525879 115.143753051758 116 116.59375 112.15625 109.075004577637 106.306251525879 101.787498474121 95.6624984741211 87.8062515258789 78.6937484741211 
205.806243896484 201.118743896484 198.300003051758 194.931243896484 191.850006103516 189.018753051758 185.143753051758 180.8125 176.75 172.456253051758 166.537506103516 159.681243896484 152.762496948242 144.693756103516 136.762496948242 132.074996948242 135.806243896484 140.331253051758 143.162506103516 144.462493896484 140.631256103516 133.4375 124.300003051758 116.587501525879 109.637496948242 103.6875 99.1062469482422 93.4749984741211 87.125 81.6312484741211 77.5812530517578 74.7062530517578 74.0875015258789 75.1374969482422 76.5124969482422 83.0374984741211 91.3625030517578 97.8874969482422 103.706245422363 107.387496948242 110.737503051758 113.349998474121 115.349998474121 114.256248474121 112.275001525879 110.043746948242 107.875 102.03125 95.2437515258789 88.7375030517578 80.3625030517578 
203.487503051758 199.881256103516 196.556243896484 193.306243896484 190.743743896484 187.806243896484 184.743743896484 180.443756103516 176.793746948242 172.324996948242 166.993743896484 160.068756103516 152.387496948242 144.231246948242 136.875 132.481246948242 132.462493896484 135.90625 139.643753051758 141.618743896484 138.081253051758 131.606246948242 123.537498474121 116.824996948242 111.712501525879 108.349998474121 105.5 98.5250015258789 90.1875 84.0062484741211 79.7125015258789 77.46875 76.0625 76.1999969482422 79.8249969482422 87.7312469482422 93.7562484741211 100.574996948242 105.993751525879 107.65625 110.737503051758 113.956253051758 114.175003051758 115.1875 113.518753051758 111.131248474121 108.5625 103.525001525879 98.0250015258789 91.3499984741211 84.0437469482422 
200.181243896484 196.774993896484 194.287506103516 191.662506103516 188.824996948242 187.28125 184.918746948242 180.943756103516 177.581253051758 173.212493896484 167.943756103516 161.162506103516 152.71875 145.449996948242 139.712493896484 135.425003051758 133.581253051758 132.743743896484 137.46875 139.949996948242 137.793746948242 131.018753051758 123.443748474121 118.474998474121 115.081253051758 112.699996948242 112.21875 103.543746948242 92.90625 84.7874984741211 79.6750030517578 77.1875 78.21875 81.6875 86.0124969482422 89.9625015258789 96.53125 103.193748474121 106.087501525879 110.6875 113.193748474121 115.3125 116.21875 117.043746948242 115.5 113.25 110.9375 105.856246948242 100.987503051758 93.8687515258789 88.4562530517578 
196.225006103516 193.893753051758 191.699996948242 189.574996948242 187.606246948242 186.34375 184.168746948242 181.462493896484 178.949996948242 175.699996948242 170.21875 163.100006103516 154.850006103516 147.962493896484 141.84375 137.837493896484 135.487503051758 133.081253051758 134.881256103516 137.706253051758 137.699996948242 133.75 123.368751525879 119.606246948242 117.349998474121 115.1875 112.768753051758 105.106246948242 95.2375030517578 86.0062484741211 79.4187469482422 78.96875 83.5562515258789 86.7312469482422 89.28125 94.7687530517578 100.137496948242 105.4375 109.862503051758 113.8125 116.518753051758 119.837501525879 119.556251525879 119.474998474121 118.231246948242 116.681251525879 114.231246948242 109.556251525879 103.78125 95.8499984741211 93.2687530517578 
191.662506103516 190.131256103516 188.068756103516 186.600006103516 185.15625 184.912506103516 183.831253051758 181.868743896484 180.550003051758 178.4375 174.493743896484 167.881256103516 159.925003051758 151.793746948242 145.581253051758 140.268753051758 135.274993896484 134.625 135.274993896484 137.074996948242 135.081253051758 129.518753051758 123.712501525879 120.612503051758 117.987503051758 114.300003051758 110.349998474121 105.28125 96.6624984741211 88.03125 82.8874969482422 84.7750015258789 88.0687484741211 91.8312530517578 95.125 99.5999984741211 104.818748474121 110.193748474121 113.987503051758 117.181251525879 119.943748474121 122.40625 122.375 122.668746948242 121.712501525879 120.849998474121 117.956253051758 112.806251525879 107.099998474121 99.8499984741211 96.8000030517578 
185.918746948242 185.743743896484 184.956253051758 183.893753051758 182.3125 183.03125 183.756256103516 183.518753051758 183.649993896484 182.212493896484 179.337493896484 174.056243896484 167.306243896484 158.712493896484 151.90625 144.949996948242 139.012496948242 136.012496948242 136.431243896484 135.912506103516 134.225006103516 130.462493896484 125.387496948242 122.712501525879 120.375 116.893753051758 112.699996948242 106.287498474121 99.3312530517578 95.3187484741211 92.6374969482422 93.5187530517578 95.46875 98.2562484741211 101.400001525879 106.556251525879 110.893753051758 115.3125 118.306251525879 121.212501525879 123.143753051758 124.943748474121 125.606246948242 125.474998474121 124.956245422363 123.875 121.893753051758 117.193748474121 110.481246948242 105.25 100.8125 
181.28125 180.162506103516 180.181243896484 179.824996948242 179.381256103516 180.856246948242 183.056243896484 184.131256103516 186.368743896484 186.662506103516 185.074996948242 181.824996948242 176.393753051758 168.118743896484 159.96875 151.956253051758 145.912506103516 141.3125 138.962493896484 137.487503051758 133.4375 129.368743896484 125.668746948242 123.012496948242 120.256248474121 117.150001525879 114.6875 109.875 105.349998474121 102.993751525879 100.643753051758 101.168746948242 102.543746948242 105.743751525879 109.46875 114.143753051758 118.150001525879 121.712501525879 123.275001525879 125.462501525879 126.6875 127.943748474121 128.712493896484 129.287506103516 129.443756103516 128.024993896484 126.268753051758 121.243751525879 115.912498474121 111.349998474121 105.737503051758 
176.96875 177.118743896484 176.956253051758 176.75 176.800003051758 178.637496948242 180.875 184.137496948242 188.28125 189.743743896484 190.368743896484 188.949996948242 187.75 180.518753051758 169.125 158.899993896484 151.34375 145.856246948242 141.681243896484 138.399993896484 134.037506103516 129.512496948242 125.425003051758 122.762504577637 120.893753051758 118.65625 116.487503051758 113.768753051758 110.237503051758 108.75 108.074996948242 108.831253051758 110.824996948242 113.949996948242 117.150001525879 121.787498474121 125.506248474121 127.324996948242 127.9375 129.231246948242 130.431243896484 131.168746948242 131.71875 132.225006103516 132.581253051758 132.84375 131.550003051758 126.368751525879 120.868751525879 116.793746948242 111.300003051758 
173.262496948242 173.662506103516 173.412506103516 172.268753051758 172.393753051758 175.512496948242 178.743743896484 182.956253051758 186.818756103516 189.418746948242 191.3125 194.193756103516 196.199996948242 188.675003051758 175.606246948242 164.568756103516 156.168746948242 150.068756103516 144.706253051758 139.824996948242 135.125 130.381256103516 125.712501525879 123.293746948242 121.706253051758 119.71875 119.868751525879 117.050003051758 115.224998474121 114.712501525879 115.65625 117.212501525879 118.837501525879 121.15625 124.199996948242 129.087493896484 132.193756103516 132.09375 132.262496948242 132.818756103516 133.318756103516 133.887496948242 134.375 134.868743896484 138.756256103516 139.84375 138.831253051758 131.899993896484 128.118743896484 121.918746948242 116.474998474121 
172.175003051758 171.637496948242 170.787506103516 169.300003051758 169.649993896484 172.324996948242 175.462493896484 179.475006103516 183.831253051758 186.956253051758 189.96875 191.59375 192.731246948242 187.837509155273 177.506256103516 167.462493896484 159.1875 152.337493896484 146.71875 141.362503051758 136.043746948242 130.399993896484 126.193748474121 123.650001525879 121.856246948242 121.518753051758 121.824996948242 121.006248474121 119.768753051758 121.050003051758 122.4375 124.53125 125.75 127.40625 129.193756103516 132.318756103516 134.6875 134.262496948242 134.643753051758 135.506256103516 135.631256103516 136.125 137.387496948242 138.981246948242 143.181243896484 146.274993896484 143.868743896484 140.125 134.756256103516 128.893753051758 123.137496948242 
173.550003051758 172.875 169 167.375 166.0625 168.225006103516 170.981246948242 174.668746948242 178.725006103516 182.181243896484 185.012496948242 186.881256103516 186.887496948242 183.706253051758 176.306243896484 168.34375 161.293746948242 154.637496948242 148.862503051758 143.493743896484 137.693756103516 131.824996948242 126.731246948242 123.431251525879 122.574996948242 123.25 124.8125 125.3125 125.393753051758 127.418746948242 129.181243896484 131.34375 132.131256103516 132.143753051758 132.850006103516 134.481246948242 135.481246948242 135.462493896484 136.831253051758 137.756256103516 138.356246948242 138.931243896484 139.106246948242 141.731246948242 147.850006103516 150.181243896484 153.725006103516 149.649993896484 143.131256103516 138.03125 131.175003051758 
173.943756103516 170.862503051758 167.050003051758 164.40625 162.287506103516 163.800003051758 167.318740844727 170.324996948242 172.96875 176.456253051758 180.256256103516 182.46875 182.881256103516 181.181243896484 175.493743896484 168.300003051758 162.287506103516 156.512496948242 151.175003051758 145.475006103516 139.75 133.931243896484 128.556243896484 125.606254577637 125.949996948242 126.912498474121 128.699996948242 129.96875 131.28125 132.862503051758 135.243743896484 137.324996948242 137.625 136.793746948242 135.59375 136.162506103516 136.362503051758 135.743743896484 137.918746948242 139.581253051758 140.71875 141.512496948242 142.25 144.368743896484 150.987503051758 158.46875 163.543746948242 158.506256103516 153.237503051758 146.324996948242 139.112503051758 
173.943756103516 168.524993896484 164.356246948242 160.899993896484 158.731246948242 159.556243896484 162.381256103516 165.481246948242 168.537506103516 171.90625 174.737503051758 177.481246948242 178.6875 178.074996948242 174.024993896484 168.28125 162.774993896484 158.143753051758 153.181243896484 148.125 143.168746948242 137.612503051758 133.881256103516 131.993743896484 131.712509155273 132.012496948242 133.512496948242 135.318756103516 136.756256103516 138.337493896484 139.993743896484 141.943756103516 141.418746948242 139.181243896484 137.756256103516 137.456253051758 136.862503051758 136.612503051758 138.212493896484 141.481246948242 144.25 145.856246948242 144.643753051758 146.456253051758 156.412506103516 166.087493896484 172.443756103516 169.800003051758 163.96875 156.3125 147.28125 
173.84375 166.350006103516 160.8125 157.100006103516 154.712493896484 155.112503051758 157.324996948242 160.181243896484 164.050003051758 167.225006103516 170.25 172.931243896484 175.199996948242 175.443756103516 172.28125 168.574996948242 164.78125 160.0625 155.606246948242 151.206253051758 147.287506103516 142.75 139.987503051758 139.018753051758 138.393753051758 138.143753051758 139.862503051758 141.118743896484 142.706253051758 143.418746948242 144.762496948242 145.862503051758 143.850006103516 141.056243896484 139.368743896484 138.375 137.399993896484 136.412506103516 138.043746948242 140.668746948242 144.693756103516 146.199996948242 146.9375 152.056243896484 164.162506103516 174.306243896484 182.368743896484 181.1875 175.449996948242 167.443756103516 155.574996948242 
174.768753051758 166.212493896484 159.975006103516 154.268753051758 151.768753051758 152.274993896484 154.1875 156.912506103516 160.587493896484 163.243743896484 166.362503051758 169.743743896484 172.71875 174.475006103516 172.512496948242 169.956253051758 166.175003051758 162.912506103516 158.631256103516 154.756256103516 151.606246948242 149.15625 147.262496948242 145.912506103516 145.3125 145.399993896484 146.731246948242 147.475006103516 148.306243896484 149.006256103516 149.574996948242 149.949996948242 147.481246948242 144.931243896484 142.681243896484 140.418746948242 138.262496948242 137.399993896484 137.21875 138.556243896484 141.65625 147.606246948242 151.693756103516 158.943756103516 168.03125 181.800003051758 192.512496948242 193.449996948242 188.399993896484 180.037506103516 166.618743896484 
174.75 165.756256103516 159.181243896484 153.225006103516 149.631256103516 150.618743896484 152.256256103516 154.306243896484 157.012496948242 160.34375 163.762496948242 167.618743896484 171.699996948242 173.350006103516 172.756256103516 171.518753051758 169.71875 166.381256103516 161.975006103516 159.887496948242 158.056243896484 156.481246948242 155.243743896484 153.993743896484 152.793746948242 153 153.481246948242 154.056243896484 154.25 154.056243896484 154.231246948242 154.287506103516 151.306243896484 149.1875 146.050003051758 142.899993896484 140.331253051758 139.537506103516 138.068756103516 135.100006103516 138.568756103516 147.881256103516 155.556243896484 163.350006103516 173.25 192.3125 206.53125 207.899993896484 202.912506103516 193.268753051758 179.443756103516 
174.1875 165.556243896484 159.012496948242 153.962493896484 150.893753051758 149.981246948242 150.90625 152.012496948242 154.487503051758 157.475006103516 161.068756103516 165.725006103516 170.09375 173.306243896484 174.662506103516 174.84375 174.056259155273 171.1875 168.118743896484 166.737503051758 165.675003051758 164.362503051758 163.212493896484 161.793746948242 161.181243896484 160.662506103516 160.337493896484 160.337493896484 159.818756103516 159.5625 159.212509155273 158.306243896484 155.381256103516 152.574996948242 150.21875 146.706253051758 143.681243896484 141.46875 138.668746948242 137.100006103516 142.09375 152.90625 162.606246948242 174.21875 187.543746948242 212.181243896484 227.875 227.699996948242 218.956253051758 207.712493896484 191.149993896484 
174.268753051758 166.893753051758 160.762496948242 156.15625 152.831253051758 150.856246948242 150.625 150.975006103516 152.725006103516 155.412506103516 160.118743896484 164.762496948242 170.306243896484 175.993743896484 178.137496948242 179.75 179.675003051758 178.912490844727 177.181243896484 176.09375 175.143753051758 173.181243896484 171.137496948242 169.59375 168.918746948242 167.993743896484 167.293746948242 166.649993896484 166.362503051758 165.618743896484 164.84375 163.631256103516 160.681243896484 157.768753051758 156.068756103516 153.125 150.818756103516 148.137496948242 145.518753051758 147.699996948242 152.706253051758 162.9375 174.456253051758 188.762496948242 210.600006103516 241.318756103516 254.737503051758 244.725006103516 232.337493896484 218.131256103516 201 
173.912506103516 168.03125 162.493743896484 158.4375 154.556243896484 151.993743896484 150.175003051758 149.893753051758 151.21875 153.356246948242 157.65625 164.237503051758 171.524993896484 177.675003051758 181.34375 184.53125 186.78125 187.043746948242 186.40625 186.050003051758 184.587493896484 182.268753051758 179.831253051758 177.712493896484 176.618743896484 175.100006103516 174.4375 173.162506103516 172.543746948242 171.362503051758 170.306243896484 169.46875 166.737503051758 164.106246948242 162.787506103516 160.681243896484 158.012496948242 154.774993896484 154.931243896484 158.668746948242 163.193740844727 173.262496948242 186.706253051758 202.643753051758 226.412506103516 254.618743896484 264.049987792969 252.212493896484 239.375 225.34375 208.068756103516 
174.524993896484 169.806243896484 164.831253051758 160.368743896484 156.568756103516 153.199996948242 150.175003051758 149.018753051758 148.675003051758 150.9375 155.943740844727 164.318756103516 173.043746948242 181.399993896484 187 190.5 194.362503051758 195.681243896484 195.850006103516 195.793746948242 194.46875 191.712509155273 188.493743896484 185.318756103516 183.037506103516 181.693756103516 180.206253051758 179.28125 178.068756103516 176.743743896484 176.012496948242 174.943756103516 172.256256103516 170.625 168.71875 166.1875 163.743743896484 163.975006103516 165.3125 168.193756103516 173.112503051758 181.993743896484 194.381256103516 208.868743896484 228.34375 245.5 254.125 248.949996948242 239.125 228.087493896484 212.537506103516 
177.006240844727 172.556243896484 167.9375 163.375 159.518753051758 155.956253051758 152.581253051758 149.456253051758 147.737503051758 148.662506103516 154.518753051758 164.225006103516 175.387496948242 185.893753051758 191.931243896484 197.725006103516 201.474990844727 203.756256103516 205.25 206.59375 204.712493896484 200.143753051758 195.850006103516 192.256256103516 189.412506103516 187.21875 185.78125 185.018753051758 184 181.837493896484 181.5625 180.324996948242 178.475006103516 177.050003051758 174.524993896484 172.112503051758 173.362503051758 174.024993896484 175.125 178.793746948242 184.262496948242 191.643753051758 201.399993896484 213.524993896484 227.081253051758 237.368743896484 243.662506103516 241.050003051758 233.831253051758 224.9375 211.712493896484 
179.78125 175.956253051758 171.90625 167.793746948242 163.712493896484 160.006256103516 155.768753051758 151.612503051758 148.087493896484 145.681243896484 153.199996948242 168.34375 180.537506103516 190.143753051758 197.231246948242 203.587493896484 208.306243896484 210.875 212.975006103516 214.21875 211.625 206.59375 201.943756103516 197.806243896484 194.356246948242 192.399993896484 190.199996948242 190.056243896484 188.631256103516 187.1875 186.475006103516 186.53125 184.681259155273 183.706253051758 181.5625 180.912506103516 182.693756103516 184.506256103516 186.618743896484 188.8125 193.006256103516 198.581253051758 206.225006103516 216.193756103516 225.568756103516 230.524993896484 234.725006103516 233.106246948242 227.512496948242 219.40625 208.256256103516 
184.300003051758 180.449996948242 176.399993896484 172.75 168.756256103516 165.074996948242 161.131256103516 156.887496948242 153.112503051758 149.262496948242 162.212493896484 178.918746948242 188.318756103516 196.399993896484 203.28125 209.71875 214.800003051758 217.074996948242 218.506240844727 217.899993896484 215.737503051758 211.5 207.149993896484 202.100006103516 198.756256103516 196.612503051758 194.462493896484 194.350006103516 193.506256103516 192.837493896484 190.262496948242 189.993743896484 189.306243896484 188.881256103516 187.75 188.975006103516 191.78125 193.8125 197.40625 200.28125 201.631256103516 206.168746948242 210.112503051758 216.006256103516 221.806243896484 224.768753051758 226.668746948242 225.993743896484 219.675003051758 213.024993896484 204.78125 
187.268753051758 183.706253051758 180.612503051758 177.300003051758 173.46875 170.362503051758 167.574996948242 164.9375 165.237503051758 171.212493896484 186.506256103516 192.943756103516 198.112503051758 204.631256103516 210.125 215.356246948242 219.918746948242 221.649993896484 221.681243896484 221.112503051758 218.100006103516 213.65625 210.074996948242 205.875 201.662506103516 199.675003051758 197.800003051758 197.412506103516 196.943756103516 196.050003051758 194.581253051758 194.03125 193.5625 193.331253051758 195.350006103516 197.662490844727 199.412506103516 202.875 205.59375 205.168746948242 205.5 209.256256103516 210.318756103516 214.612503051758 218.693756103516 219.981246948242 218.0625 217.306243896484 212.399993896484 207.456253051758 200.793746948242 
189.949996948242 187.100006103516 184.449996948242 181.431259155273 179.100006103516 177.462493896484 175.581253051758 175.543746948242 178.649993896484 185.149993896484 194.574996948242 201.850006103516 206.925003051758 212.543746948242 217.287506103516 221.356246948242 225.681243896484 226.375 225.693756103516 224.71875 220.618743896484 216.074996948242 211.681243896484 207.362503051758 204.556243896484 202.137496948242 200.324996948242 200.243743896484 199.768753051758 198.65625 197.199996948242 199.506256103516 201.462493896484 202.050003051758 204.84375 206.600006103516 207.756256103516 209.831253051758 212.34375 209.981246948242 209.149993896484 211.106246948242 211.050003051758 211.862503051758 213.787506103516 213.893753051758 213.087509155273 212.09375 208.431243896484 203.475006103516 197.293746948242 
192.862503051758 190.399993896484 188.40625 186.606246948242 184.662506103516 183.237503051758 182.881256103516 185.100006103516 188.368743896484 193.712493896484 200.524993896484 207.462493896484 214.46875 219.237503051758 223.725006103516 227.125 230.506256103516 231.337493896484 229.975006103516 227.831253051758 223.125 217.762496948242 212.75 209.018753051758 207.856246948242 204.793746948242 202.84375 202.356246948242 201.643753051758 200.824996948242 201.893753051758 206.712493896484 208.512496948242 211.037506103516 214.481246948242 216.9375 217.762496948242 218.162506103516 218.550003051758 214.84375 212.168746948242 211.618743896484 209.137496948242 209.506256103516 210.268753051758 211.03125 209.256256103516 206.225006103516 203.943756103516 200.21875 194.512496948242 
195.625 193.793746948242 192.106246948242 190.331253051758 189.012496948242 187.774993896484 188.412506103516 190.381256103516 194.393753051758 198.34375 204.493743896484 210.949996948242 217.65625 222.837493896484 226.837493896484 231.393753051758 234.675003051758 235.456253051758 234.53125 230.318756103516 223.25 218.600006103516 213.225006103516 209.487503051758 208.118743896484 205.84375 203.381256103516 202.368743896484 203.106246948242 204.681243896484 203.175003051758 209.3125 213.024993896484 219.774993896484 225.768753051758 226.431243896484 227.012496948242 226.399993896484 223.668746948242 218.231246948242 213.581253051758 208.737503051758 205.081253051758 206.493743896484 207.818740844727 208.337493896484 205.568756103516 201.725006103516 200.087493896484 195.762496948242 190.612503051758 
198.956253051758 197.21875 195.787506103516 193.956253051758 192.012496948242 191.774993896484 192.637496948242 194.606246948242 198.287506103516 202 207.231246948242 213.399993896484 220.306243896484 225.149993896484 229.962493896484 234.637496948242 237.837493896484 239.9375 239.112503051758 232.243743896484 223.662506103516 216.774993896484 211.793746948242 210.431243896484 208.925003051758 206.78125 203.875 202.675003051758 203.506256103516 204.6875 205.893753051758 207.5 213.28125 223.975006103516 234.831253051758 241.131256103516 237.975006103516 235.012496948242 229.012496948242 221.475006103516 215.474990844727 210.162506103516 206.587493896484 205.637496948242 206.431243896484 205.037506103516 202.318756103516 198.943756103516 196.868743896484 192.956253051758 188.231246948242 
202.699996948242 201.550003051758 199.837493896484 197.324996948242 196.125 195.3125 195.46875 197.387496948242 200.293746948242 204.587493896484 209.893753051758 216.337493896484 221.4375 227.612503051758 232.693756103516 237.268753051758 240.756240844727 242.75 244.068756103516 236.75 226.299987792969 217.543746948242 212.300003051758 210.362503051758 209.737503051758 207.787506103516 204.850006103516 204.362503051758 204.0625 205.725006103516 206.193756103516 207.368743896484 212.112503051758 224.975006103516 241.78125 255.287506103516 251.443756103516 243.512496948242 234.725006103516 225.96875 219.068756103516 213.356246948242 208.662506103516 207.34375 206.5625 203.9375 201.662506103516 197.331253051758 193.506256103516 191.143753051758 187.149993896484 
207.518753051758 206.568756103516 204.981246948242 201.912506103516 200.4375 199.506256103516 198.399993896484 199.731246948242 202.225006103516 206.600006103516 211.699996948242 217.493743896484 222.712493896484 228.324996948242 233.237503051758 237.46875 240.268753051758 241.09375 241.393753051758 236.050003051758 227.112503051758 220.049987792969 213.5625 210.9375 210.8125 208.75 206.25 205.3125 205.6875 207.875 208.481262207031 208.75 214.78125 225.931243896484 240.987503051758 256.412506103516 256.424987792969 246.756256103516 237.487503051758 230.231246948242 222.618743896484 217.206253051758 212.96875 208.699996948242 207.899993896484 205.78125 202.318756103516 197.981246948242 192.493743896484 190.274993896484 187.668746948242 
