ncols        51
nrows        45
xllcorner    -63.500000000000
yllcorner    -7.500000000000
cellsize     0.166666666667
NODATA_value -99
262.131256103516 269.393737792969 274.556243896484 287.387512207031 297.075012207031 304.825012207031 306.743743896484 307.112487792969 303.8125 305.387481689453 312.25 316.212493896484 319.768768310547 318.34375 314.53125 309.774993896484 308.618743896484 302.012512207031 299.450012207031 296.731262207031 298.8125 300.006256103516 301.831237792969 298.581237792969 297.706237792969 295.881256103516 289.681243896484 286.28125 281.762512207031 277.912506103516 279.006256103516 277.625 282.393737792969 290.3125 297.881256103516 307.625 316.524993896484 325.875 334.649993896484 341.543762207031 348.662506103516 354.237487792969 357.756256103516 362.03125 360.043762207031 360.200012207031 358.049987792969 351.418762207031 344.143737792969 339.868743896484 333.112487792969 
268.131256103516 274.556243896484 285.443756103516 298.381256103516 310.03125 315.793762207031 316.350006103516 317.537506103516 318.356262207031 320.0625 324.862487792969 325.443756103516 325.59375 323.200012207031 317.943756103516 312.950012207031 309.53125 302.100006103516 294.037506103516 287.018737792969 286.162506103516 285.71875 286.28125 284.012512207031 282.200012207031 280.606262207031 276.893737792969 276.581237792969 274.450012207031 273.881256103516 275.65625 279.512512207031 286.612487792969 299.756256103516 309.212493896484 321.643737792969 334.087493896484 345.03125 353.806243896484 360.106262207031 367.962493896484 372.90625 375.806243896484 379 377.350006103516 376.737487792969 372.943756103516 364.1875 356.662506103516 350.637512207031 342.006256103516 
273.518737792969 281.3125 292.487487792969 304.28125 313.206237792969 316.84375 319.90625 323.306243896484 324.431243896484 326.631256103516 326.4375 323.418731689453 321.75 318.524993896484 312.918762207031 309.168762207031 305.231262207031 299.193756103516 291.456237792969 284.875 283.65625 283.168762207031 281.356262207031 279.25 277.193756103516 273.6875 272.1875 273.387512207031 272.40625 273.481262207031 278.325012207031 284.131256103516 294.193756103516 306.137512207031 320.412506103516 331.756256103516 345.912506103516 360.4375 369.287506103516 377.587493896484 385.46875 388.818756103516 390.387512207031 391.200012207031 390.325012207031 387.46875 383.350006103516 373.137512207031 364.28125 357.200012207031 348.887512207031 
276.068756103516 286.237487792969 299.024993896484 307.975006103516 314.75 315.537506103516 317.875 321.568756103516 324.918762207031 326.1875 322.774993896484 315.881256103516 310.53125 305.90625 301.4375 297.90625 296.431243896484 293.21875 288.518737792969 283.462493896484 282.84375 280.337493896484 275.987487792969 272.856262207031 269.950012207031 266.087493896484 266.475006103516 267.28125 268.393737792969 272.912506103516 278.450012207031 288.237487792969 299.325012207031 312.256256103516 327.056243896484 342.137512207031 358.412506103516 374.8125 386.40625 394.825012207031 401.049987792969 404.25 404.931243896484 403.431243896484 401.418762207031 396.431243896484 391.681243896484 381.568756103516 369.09375 361.231262207031 353.84375 
286.368743896484 294.40625 301.049987792969 308.899993896484 313.606262207031 312.256256103516 310.956237792969 313.362487792969 318.462493896484 321.075012207031 314.100006103516 303.34375 296.65625 293.375 288.5 286.568756103516 285.487487792969 285.59375 282.256256103516 278.243743896484 277.606262207031 273.575012207031 269.756256103516 266.612518310547 262.693756103516 258.9375 259.274993896484 261.78125 267.237487792969 271.931243896484 280.787506103516 290.450012207031 304.924987792969 320.081237792969 336.068756103516 353.0625 370.53125 387.762512207031 401.212493896484 409.537506103516 417.606262207031 417.887512207031 416.587493896484 415.068756103516 410.256256103516 404.006256103516 398.056243896484 385.768737792969 372.587493896484 363.037506103516 357.481231689453 
294.806243896484 303.331237792969 311.056243896484 314.475006103516 314.149993896484 312.087493896484 309.612487792969 309.556243896484 313.943756103516 317.350006103516 306.618743896484 295.5625 290.506256103516 286.337493896484 283 281.518737792969 281.09375 280.831237792969 278.774993896484 274.612487792969 273.162506103516 270.618743896484 267.774993896484 265.081237792969 262.456237792969 261.15625 262.931243896484 265.537506103516 270.03125 276.362487792969 284.237487792969 294.450012207031 307.087493896484 325 342.875 359.231262207031 378.84375 396.668762207031 410.731262207031 421.581268310547 427.518737792969 427.881256103516 426.100006103516 423.375 416.662506103516 407.856262207031 399.78125 387.143737792969 374.081237792969 361.700012207031 351.887512207031 
300.78125 308.15625 314.0625 314.318756103516 310.743743896484 306.162506103516 301.756256103516 297.0625 294.024993896484 291.075012207031 287.456237792969 282.381256103516 279.768737792969 277.412506103516 275.787506103516 274.931243896484 274.862487792969 273.149993896484 270.368743896484 268.931243896484 267.28125 266.46875 264.331237792969 263.674987792969 263.462493896484 263.3125 266.475006103516 269.668762207031 272.993743896484 278.075012207031 288.043762207031 297.568756103516 310.237487792969 325.84375 344.024993896484 362.168762207031 380.8125 399.393737792969 417.899993896484 427.5625 430.212493896484 430.924987792969 429.024993896484 426.362487792969 421.762512207031 409.424987792969 398.674987792969 385.53125 368.075012207031 357.1875 349.649993896484 
302.306243896484 308.081237792969 310.668762207031 310.493743896484 307.868743896484 301.3125 291.368743896484 278.9375 267.612487792969 263.59375 266.0625 267.174987792969 268.568756103516 268.756256103516 268.075012207031 268.043762207031 266.618743896484 263.674987792969 261.350006103516 260.418762207031 260.850006103516 261.243743896484 260.981262207031 261.75 264.881256103516 265.443756103516 268.293762207031 272.006256103516 274.756256103516 279.53125 287.5625 299.375 311.018737792969 326.0625 343.518737792969 361.112487792969 379.837493896484 398.118743896484 415.399993896484 424.725006103516 428.943756103516 429.568756103516 427.962493896484 425.118743896484 418.943756103516 406.631256103516 390.65625 373.543762207031 360.712493896484 348.09375 340.487487792969 
303.149993896484 307.28125 309.600006103516 309.21875 305.600006103516 298.081237792969 286.96875 272.237487792969 254.856246948242 247.625 254.887496948242 260.325012207031 265.068756103516 265.774993896484 266.09375 266.59375 265.25 262.225006103516 261.193756103516 260.274993896484 259.206237792969 261.524993896484 262.149993896484 267.731262207031 271.34375 271.287506103516 271.65625 273.3125 276.774993896484 280.006256103516 287.65625 298.581237792969 309.643737792969 323 338.162506103516 355.887512207031 375.725006103516 393.075012207031 409.387512207031 418.518737792969 423.487487792969 424.237487792969 423.806243896484 421.149993896484 411.768737792969 399.174987792969 383.518737792969 364.75 348.975006103516 335.268737792969 327.662506103516 
303.850006103516 306.4375 307.5 306.65625 303.831237792969 296.762512207031 286.962493896484 274.049987792969 260.549987792969 254.237503051758 256.618743896484 259.149993896484 263.59375 265.399993896484 265.568756103516 266.131256103516 265.524993896484 262.475006103516 260.587493896484 259.375 258.924987792969 262.1875 266.162506103516 274.818756103516 277.168762207031 276.699981689453 276.393737792969 276.506256103516 277.625 279.03125 284.737487792969 296.106262207031 307.518737792969 320.956237792969 334.768737792969 350.893737792969 368.924987792969 386.450012207031 402.606262207031 413.368743896484 419.862487792969 421.693756103516 418.993743896484 411.6875 403.03125 393.056243896484 378.21875 358.868743896484 339.693756103516 325.087493896484 315.806243896484 
304.09375 305.850006103516 305.462493896484 304.643737792969 302.918762207031 297.600006103516 289.506256103516 278.081237792969 268.299987792969 263.243743896484 262 263.056243896484 264.887512207031 266.956237792969 266.774993896484 266.262512207031 265.125 261.987487792969 258.75 257.087493896484 258.850006103516 263.043762207031 270.34375 278.112487792969 284.356262207031 281.443756103516 279.856262207031 280.881256103516 280.306243896484 279.350006103516 284.8125 294.006256103516 304.125 316.4375 329.8125 344.331237792969 360.649993896484 377.331237792969 393.424987792969 406.493743896484 413.912506103516 414.299987792969 409.756256103516 401.575012207031 391.987487792969 382.024993896484 365.75 343.881256103516 326.274993896484 316.1875 304.768737792969 
303.631256103516 305.268737792969 304.768737792969 304.725006103516 302.46875 299.193756103516 293.681243896484 284.662506103516 276.818756103516 271.375 268.618743896484 267.825012207031 267.600006103516 268.412506103516 269.674987792969 268.743743896484 265.262512207031 261.049987792969 257.556243896484 255.068756103516 255.225006103516 260.568756103516 270.612487792969 283.637512207031 288.568756103516 281.174987792969 278.462493896484 279.256256103516 281.34375 283.1875 285.318756103516 291.543762207031 299.831237792969 310.268737792969 321.625 337.149993896484 353.787506103516 370 384.943756103516 399.3125 408.075012207031 406.618743896484 397.90625 383.225006103516 369.356262207031 355.712493896484 338.25 322.649993896484 311.950012207031 305.768737792969 294.837493896484 
302.912506103516 303.96875 303.981262207031 303.106262207031 301.825012207031 300.006256103516 295.356262207031 289.012512207031 282.256256103516 278.25 276.381256103516 274.462493896484 273.924987792969 271.837493896484 271.743743896484 269.96875 265.59375 261.537506103516 258.362487792969 254.300003051758 251.581253051758 256.40625 265.862487792969 276.8125 276.737487792969 271.912506103516 275.125 278.78125 282.662506103516 285.293731689453 287.274993896484 289.837493896484 295.274993896484 303.8125 313.712493896484 327.4375 343.668762207031 359.837493896484 376.024993896484 392.068756103516 403.118743896484 399.40625 381.868743896484 363.543731689453 346.543762207031 337.481262207031 324.918731689453 310.487487792969 301.381256103516 297.8125 295.868743896484 
300.587493896484 302.018737792969 301.868743896484 301.081237792969 300.768737792969 298.068756103516 295.475006103516 292.274993896484 288.5625 285.256256103516 282.899993896484 280.856262207031 278.881256103516 277.5 273.318756103516 271.03125 266.068756103516 261.356262207031 257.612487792969 254.362503051758 253.568756103516 256.03125 261.0625 267.200012207031 268.075012207031 267.862487792969 272.506256103516 277.34375 281.912506103516 284.787506103516 287.762512207031 289.412506103516 291.15625 295.912506103516 303.887512207031 317.868743896484 334.649993896484 350.006256103516 365.162506103516 379.725006103516 389.71875 380.024993896484 365.274993896484 351.774993896484 337.568756103516 327.518737792969 317.912506103516 309.006256103516 300.299987792969 298.5625 301.5 
297.487487792969 297.837493896484 298.09375 299.106262207031 299.575012207031 297.481262207031 296.706237792969 295.443756103516 292.350006103516 289.649993896484 288.174987792969 285.71875 283.21875 280.762512207031 274.306243896484 270.706237792969 265.231262207031 261.581237792969 257.350006103516 254.081253051758 254.425003051758 255.956253051758 258.556243896484 263.243743896484 266.393737792969 269.662506103516 274.331237792969 279.056243896484 284.237487792969 287.512512207031 287.943756103516 288 289.181243896484 289.106262207031 293.325012207031 308.818756103516 327.143737792969 342.712493896484 353.856262207031 361.899993896484 363.825012207031 359.743743896484 354.712493896484 344.625 333.681243896484 325.162506103516 318.556243896484 310.575012207031 305.256256103516 300.787506103516 301.381256103516 
292.012512207031 292.987487792969 294.299987792969 295.931243896484 297.34375 297.875 297.325012207031 296.368743896484 295.774993896484 294.774993896484 292.700012207031 290.693756103516 287.96875 284.325012207031 277.59375 270.893737792969 264.431243896484 260.993743896484 256.856262207031 254.25 254.237503051758 254.975006103516 256.856262207031 261.075012207031 264.943756103516 269.887512207031 275.28125 281.043762207031 287.637512207031 290.668762207031 291.856262207031 290.65625 288.537506103516 287.456237792969 289.356262207031 309.693756103516 326.012512207031 334.375 340.46875 345.612487792969 346.8125 345.756256103516 343.03125 336.450012207031 327.631256103516 320.868743896484 314.0625 306.462493896484 301.299987792969 296.649993896484 295.15625 
286.887512207031 288.868743896484 289.799987792969 292.40625 295.231262207031 296.462493896484 298.112487792969 298.274993896484 298.231262207031 298.181243896484 296.337493896484 294.84375 292.362487792969 287.293762207031 281.174987792969 272.618743896484 262.950012207031 258.0625 255.100006103516 252.375 252.53125 253.675003051758 255.949996948242 260.193756103516 265.075012207031 269.162506103516 275.143737792969 282.181243896484 288.506256103516 293.212493896484 295.368743896484 294.487487792969 292.743743896484 294.737487792969 307.231262207031 324.075012207031 331.387512207031 332.075012207031 332.15625 333.174987792969 335.993743896484 335.568756103516 331.90625 326.84375 321.15625 315.618743896484 309.318756103516 303.625 299.793762207031 293.056243896484 290.475006103516 
279.756256103516 282.706237792969 285.487487792969 289.431243896484 292.987487792969 294.6875 296.21875 297.625 298.706237792969 299.0625 298.462493896484 298.256256103516 294.71875 290.375 283.081237792969 272.899993896484 262.575012207031 252.0625 250.800003051758 247.731246948242 249.53125 250.975006103516 252.768753051758 257.112487792969 262.28125 268.75 273.850006103516 282.03125 290.274993896484 295.462493896484 296.887512207031 291.75 291.5625 298.368743896484 315.875 340.587493896484 337.056243896484 329.299987792969 325.262512207031 326.15625 326.087493896484 325.4375 323.381256103516 319.34375 314.287506103516 310.725006103516 306.075012207031 301.512512207031 298.424987792969 290.731262207031 288.393737792969 
271.893737792969 275.975006103516 279.381256103516 284.237487792969 289.46875 292.875 295.325012207031 297.25 298.475006103516 299.431243896484 299.337493896484 297.068756103516 295.550018310547 292.337493896484 282.8125 271.137512207031 259.3125 247.899993896484 242.112503051758 239.462493896484 243.462493896484 247.112503051758 246.09375 251.443756103516 258.174987792969 266.09375 272.78125 279.8125 288.793762207031 295.799987792969 298.825012207031 290.787506103516 285.493743896484 284.675018310547 295.59375 316.3125 318.6875 316.649993896484 317.337493896484 317.543762207031 318.293762207031 316.993743896484 315.899993896484 313.5 309.15625 306.262512207031 303.524993896484 300.137512207031 296.793762207031 285.587493896484 286.65625 
261.493743896484 267.581237792969 271.943756103516 277.793762207031 284.375 289.731262207031 293.512512207031 296.331237792969 298.112487792969 298.712493896484 298.331268310547 295.65625 295 293.418762207031 280.962493896484 265.09375 250.3125 242.481246948242 235.175003051758 231.418746948242 233.59375 235.868743896484 239.175003051758 244.487503051758 251.681243896484 259.518737792969 266.993743896484 275.487487792969 282.868743896484 287.725006103516 288.549987792969 283.481262207031 271.84375 260.71875 256.431243896484 272.325012207031 291.081237792969 300.612487792969 306.837493896484 310.456237792969 311.387512207031 310.4375 310.537506103516 309.481262207031 306.412506103516 304.350006103516 302.243743896484 298.475006103516 293.256256103516 281.693756103516 284.75 
249.949996948242 258.84375 265.40625 271.84375 278.706268310547 285.618743896484 291.506256103516 295.387512207031 297.931243896484 297.0625 293.5625 289.793762207031 286.40625 284.262512207031 273.181243896484 257.450012207031 243.53125 234.125 228.1875 223.381256103516 225.550003051758 228.793746948242 231.600006103516 238.081253051758 245.712493896484 253.818756103516 261.21875 268.306243896484 275.068756103516 279.799987792969 279.774993896484 274.837493896484 261.431243896484 244.137496948242 228.131256103516 247.043746948242 274.037506103516 290.575012207031 300.556243896484 305.53125 307.568756103516 307.793762207031 306.34375 305.456237792969 303.90625 302.143737792969 300.600006103516 297.143737792969 288.362487792969 281.762512207031 283.362487792969 
239.381256103516 249.03125 257.393737792969 264.631256103516 272.387512207031 281.03125 288.587493896484 294.549987792969 297.612487792969 294.162506103516 286.225006103516 278.34375 271.381256103516 266.693756103516 258.4375 248.074996948242 238.581253051758 230.368743896484 223.78125 218.268753051758 217.475006103516 218.324996948242 221.931243896484 227.65625 235.375 245.087493896484 255.768753051758 263.293762207031 270.012512207031 274.362487792969 273.918731689453 269.668762207031 258.96875 247.581253051758 241.762496948242 253.981246948242 274.975006103516 290.950012207031 300.8125 304.543762207031 305.487487792969 305.456237792969 304.462493896484 303.662506103516 302.649993896484 301.299987792969 299.950012207031 296.137512207031 286.818756103516 285.075012207031 282.443756103516 
231.774993896484 242.712493896484 250.731246948242 258.606262207031 266.3125 274.756256103516 282.631256103516 291.924987792969 297.962493896484 290.674987792969 278.674987792969 265.381256103516 254.493743896484 249.637496948242 245.425003051758 239.087493896484 231.643753051758 224.568756103516 217.90625 212.137496948242 210.068756103516 208.581253051758 209.350006103516 214.587493896484 223.868743896484 235.25 247.012496948242 256.337493896484 263.40625 267.46875 268.931243896484 269.299987792969 265.393737792969 260.387512207031 262.006256103516 272.162506103516 286.181243896484 297.362487792969 303.881256103516 305.662506103516 304.96875 304.118743896484 303.15625 301.5 300.700012207031 300.575012207031 300.100006103516 295.5625 289.512481689453 287.606262207031 283.200012207031 
225.506256103516 234.831253051758 243.175003051758 251.643753051758 259.793762207031 267.787506103516 276.793762207031 286.049987792969 290.756256103516 282.081237792969 268.600006103516 255.837493896484 242.337493896484 238.893753051758 237.431243896484 233.475006103516 228.143753051758 221.975006103516 214.331253051758 207.706253051758 204.03125 200.675003051758 199.399993896484 203.725006103516 211.287506103516 222.0625 234.637496948242 246.581253051758 256.293762207031 263.924987792969 270.056243896484 274.056243896484 273.912506103516 273.875 278.237487792969 288.4375 298.637512207031 303.318756103516 305.418762207031 305.524993896484 304.362487792969 302.306243896484 300.831237792969 298.206237792969 298.712493896484 299.262512207031 299.587493896484 293.799987792969 294.212493896484 288.21875 283.862487792969 
223.518753051758 229.793746948242 236.162506103516 244.762496948242 254.206253051758 262.006256103516 268.737487792969 274.96875 276.637512207031 271.3125 262.443756103516 251.012496948242 242.256256103516 237.8125 234.118743896484 231.024993896484 226.112503051758 220.287506103516 213.0625 204.712509155273 198.462493896484 193.100006103516 189.268753051758 190.918746948242 198.59375 211.418746948242 224.306243896484 238.918746948242 250.981246948242 263.112487792969 272.256256103516 279.350006103516 282.462493896484 284.799987792969 288.8125 293.96875 300.787506103516 303.918762207031 304.543762207031 305.393737792969 304.106262207031 301.200012207031 297.524993896484 296.537506103516 293.212493896484 293.9375 293.674987792969 298.193756103516 298.78125 291.46875 285.200012207031 
225.1875 229.774993896484 233.393753051758 241.131256103516 248.462493896484 254.787506103516 260.125 264.431243896484 264.6875 261.181243896484 255.387496948242 248.6875 242.787506103516 238.149993896484 233.962493896484 230.868743896484 225.649993896484 220.262496948242 213.462493896484 203.5 196.300003051758 187.537506103516 179.881256103516 178.300003051758 187.175003051758 202.112503051758 218.362503051758 233.356246948242 247.818756103516 262.65625 275.306243896484 286.243743896484 291.506256103516 293.081237792969 294.862487792969 297.21875 300.868743896484 302.799987792969 303.962493896484 304.21875 303.387512207031 299.256256103516 292.799987792969 290.393737792969 287.774993896484 288.356262207031 299.350006103516 305.012512207031 303.331237792969 298.3125 290.806243896484 
231.637496948242 232.556243896484 235.774993896484 240.475006103516 245.28125 250.03125 253.375 255.899993896484 255.762496948242 254.300003051758 251.368743896484 246.793746948242 242.449996948242 238.856246948242 235.506256103516 232.193756103516 228.856246948242 223.050003051758 215.875 207.368743896484 198.15625 187.956253051758 176.625 173.125 184.518753051758 199.162506103516 216.125 231.237503051758 246.487503051758 262.206237792969 276.956237792969 291.200012207031 298.024993896484 297.268737792969 296.537506103516 297.987487792969 300.78125 301.887512207031 303.412506103516 304.46875 302.5 297.049987792969 289.056243896484 284.506256103516 288.637512207031 297.087493896484 308.03125 310.693756103516 309.649993896484 301.381256103516 295.625 
239.387496948242 238.112503051758 239.475006103516 241.949996948242 243.46875 246.09375 249.387496948242 250.78125 250.493743896484 249.681243896484 247.293746948242 244.024993896484 241.3125 238.912506103516 236.46875 233.8125 231.637496948242 228.206253051758 222.087493896484 214.375 205.306243896484 194.59375 186.631256103516 184.387496948242 191.337493896484 203.024993896484 218.09375 233.193756103516 247.762496948242 262.15625 276.606262207031 289.956237792969 295.981262207031 295.21875 294.518737792969 296.212493896484 297.424987792969 299.631256103516 302.331237792969 305.274993896484 306.537506103516 299.637512207031 288.131256103516 282.681243896484 295.068756103516 305.71875 316.049987792969 317.200012207031 314.668762207031 305.662506103516 298.693756103516 
246.5 243.818756103516 243.300003051758 242.856246948242 243.837493896484 244.6875 245.262496948242 245.956253051758 246.03125 245.149993896484 244.225006103516 242.193756103516 240.237503051758 239.106246948242 238.462493896484 237.818756103516 237.768753051758 235.481246948242 231.21875 224.862503051758 216.068756103516 206.106246948242 199.462493896484 196.993743896484 201.71875 209.59375 222.356246948242 236.318756103516 249.981246948242 263.375 275.537506103516 286.818756103516 291.71875 292 291.912506103516 293.5625 294.21875 296.356262207031 299.59375 302.387512207031 307.15625 300.081237792969 288.743743896484 290.075012207031 305.006256103516 315.799987792969 324.081237792969 325.125 319.762512207031 311.40625 300.28125 
255.1875 250.90625 248.199996948242 245.856246948242 244.824996948242 243.350006103516 243.0625 242.949996948242 243.043746948242 242.25 241.787506103516 241.574996948242 241.618743896484 241.668746948242 241.856246948242 242.125 242.675003051758 244.368743896484 241.731246948242 233.84375 224.981246948242 216.3125 209.931259155273 208.600006103516 211.631256103516 218.306243896484 229.662506103516 241.71875 253.487503051758 264.325012207031 274.712493896484 283.200012207031 286.8125 288.868743896484 289.631256103516 290.431243896484 290.774993896484 293.018737792969 292.65625 294.4375 298.887512207031 299.25 295.456237792969 301.0625 308.725006103516 322.137512207031 331.631256103516 331.34375 324.768737792969 315.65625 304.299987792969 
261.943756103516 256.049987792969 251.625 248.512496948242 246.199996948242 242.893753051758 242.149993896484 240.949996948242 240.581253051758 240.043746948242 240.100006103516 240.40625 241.693756103516 242.237503051758 243.574996948242 245.324996948242 248.356246948242 250.949996948242 251.350006103516 243.168746948242 234.143753051758 225.068756103516 219.59375 218.518753051758 220.587493896484 227.331253051758 236.618759155273 246.512496948242 257.299987792969 265.850006103516 274.149993896484 281.756256103516 284.768737792969 286.612487792969 287.700012207031 287.225006103516 287.368743896484 289.549987792969 287.293762207031 282.706237792969 288.15625 296.243743896484 300.825012207031 307.387512207031 314.918762207031 332.162506103516 340.743743896484 339.712493896484 331.75 320.149993896484 307.40625 
266.8125 259.774993896484 254.074996948242 249.631256103516 246.449996948242 242.306243896484 240.743743896484 238.268753051758 237.550003051758 237.125 237.381256103516 238.268753051758 239.65625 242.09375 244.993743896484 248.175003051758 249.875 252.212493896484 252.631256103516 247.881256103516 239.418746948242 232.287506103516 226.387496948242 225.512496948242 229.225006103516 234.487503051758 241.881256103516 251.518753051758 259.96875 267.46875 274.568756103516 280.75 282.418762207031 283.950012207031 285.006256103516 284.493743896484 285.662506103516 286.587493896484 281.762512207031 279.737487792969 287.825012207031 299.306243896484 307.493743896484 318.78125 328.84375 347.475006103516 356.362487792969 351.581237792969 338.868743896484 323.962493896484 309.868743896484 
271.231262207031 264.356262207031 257.756256103516 252.337493896484 247.393753051758 243.393753051758 239.918746948242 236.225006103516 234.256256103516 234.256256103516 236.581253051758 237.149993896484 239.400009155273 243.8125 246.912506103516 249.618743896484 250.768753051758 253.118743896484 252.612503051758 249.256256103516 243.543746948242 237.237503051758 231.324996948242 231.543746948242 234.231246948242 238.237503051758 244.856246948242 253.387496948242 262.206237792969 268.887512207031 275.5 281.350006103516 283.21875 284.287506103516 284.149993896484 285.268737792969 286.368743896484 286.200012207031 282.674987792969 286.700012207031 294.506256103516 305.112487792969 315.8125 328.268737792969 346.149993896484 369.631256103516 375.168762207031 360.875 343.818756103516 327.143768310547 311.256256103516 
275.21875 268.274993896484 262.306243896484 256.243743896484 250.40625 244.625 239.293746948242 234.5 231.668746948242 231.087493896484 233.149993896484 236.131256103516 239.34375 242.600006103516 245.581253051758 249.28125 252.012496948242 253.699996948242 252.199996948242 249.449996948242 245.662506103516 240.15625 235.681243896484 234.868743896484 236.887496948242 239.512496948242 246.350006103516 254.056243896484 263.606262207031 269.84375 275.625 282.399993896484 284.568756103516 284.931243896484 285.756256103516 286.725006103516 287.131256103516 286.418762207031 287.506256103516 292.34375 298.325012207031 308.412506103516 321.506256103516 335.0625 354.90625 376.193756103516 378.268737792969 362.125 344.431243896484 327.625 312.568756103516 
279.287506103516 273.03125 266.962493896484 259.993743896484 252.087493896484 245.637496948242 238.606246948242 233.243743896484 228.524993896484 226.574996948242 229.4375 234.393753051758 239.5 243.225006103516 247.318756103516 249.949996948242 252.643753051758 253.831253051758 252.425003051758 249.850006103516 247.106246948242 241.943756103516 237.568756103516 236.34375 238.131256103516 240.725006103516 246.712493896484 254.949996948242 263.181243896484 270.262512207031 277.424987792969 284.362487792969 285.893737792969 286.493743896484 286.393737792969 286.325012207031 286.575012207031 289.456237792969 292.0625 295.918762207031 301.225006103516 309.137512207031 320.9375 334.043762207031 349.981262207031 361.674987792969 362.862487792969 353.649993896484 339.643737792969 324.768737792969 312.100006103516 
284.399993896484 277.731262207031 270.993743896484 263.743743896484 255.875 248.300003051758 241.143753051758 233.568756103516 226.8125 224.25 227.024993896484 233.606246948242 241.518753051758 247.287506103516 250.387496948242 252.487503051758 253.324996948242 253.856246948242 253.306243896484 251.643753051758 248.543746948242 243.34375 238.5625 238.037506103516 239.443756103516 241.643753051758 247.462493896484 255.675003051758 263.943756103516 271.518737792969 280.149993896484 287.53125 288.037506103516 289.043762207031 288.65625 287.931243896484 289.924987792969 292.412506103516 293.40625 297.356262207031 302.743743896484 309.256256103516 317.59375 329.481262207031 340.700012207031 347.268737792969 348.450012207031 343.681243896484 333.837493896484 323.462493896484 311.806243896484 
288.487487792969 282.431243896484 275.875 268.237487792969 260.825012207031 253.393753051758 245.143753051758 236.6875 227.550003051758 220.881256103516 225.96875 238.081253051758 247.1875 251.962493896484 254.53125 254.59375 253.512496948242 253.475006103516 253.337493896484 250.443756103516 247.743743896484 242.90625 238.631256103516 237.418746948242 238.550003051758 241.087493896484 247.024993896484 255.868743896484 264.018737792969 273.056243896484 282.368743896484 290.46875 292.0625 292.943756103516 291.918762207031 291.9375 293.631256103516 295.75 296.487487792969 297.587493896484 300.65625 305.818756103516 312.96875 322.40625 331.412506103516 335.40625 336.668762207031 334.362487792969 328.4375 320.5625 312.34375 
293.143737792969 287.875 280.90625 273.725006103516 267.325012207031 260.325012207031 252.28125 243.050003051758 234.725006103516 225.893753051758 237.412506103516 250.412506103516 255.987503051758 259.056243896484 258.668762207031 257.075012207031 253.381256103516 252.399993896484 251.024993896484 247.318756103516 243.506256103516 239.387496948242 236.806243896484 235.649993896484 237.074996948242 240.256256103516 246.243743896484 255.681243896484 264.662506103516 274.481262207031 283.956237792969 292.65625 294.618743896484 296.012512207031 294.581237792969 295.662506103516 296.831237792969 296.806243896484 298.012512207031 299.168762207031 299.143737792969 303.649993896484 307.831237792969 311.975006103516 319.243743896484 323.512512207031 325.950012207031 327.350006103516 323.887512207031 317.84375 314.049987792969 
296.881256103516 291.962493896484 286.3125 280.337493896484 274.8125 267.84375 262.018737792969 255.318756103516 251.800003051758 255.418746948242 268.606262207031 269.774993896484 268.193756103516 267.431243896484 265.0625 261.225006103516 255.856246948242 252.818756103516 249.118743896484 243.850006103516 238.850006103516 235.050003051758 232.887496948242 232.949996948242 235.237503051758 239.518753051758 246.537506103516 255.637496948242 265.28125 275.5 286.318756103516 294.556243896484 296.643737792969 299.09375 301.59375 301.231262207031 300.912506103516 301.549987792969 300.731262207031 299.700012207031 298.950012207031 303.081237792969 305.643737792969 309.256256103516 314.043731689453 317.793762207031 320.056243896484 321.049987792969 320.731262207031 320.09375 316.299987792969 
301.106262207031 296.774993896484 292.200012207031 286.799987792969 282.862487792969 278.899993896484 273.725006103516 271.368743896484 270.818756103516 273.899993896484 279.649993896484 281.431243896484 279.75 276.462493896484 272.587493896484 266.493743896484 259.40625 254 247.412506103516 240.949996948242 234.943756103516 230.899993896484 227.918746948242 228.637496948242 232.662506103516 238.081253051758 245.381256103516 255.375 265.356262207031 275.493743896484 285.481262207031 296.631256103516 302.325012207031 305.03125 307.987487792969 307.962493896484 305.943756103516 305.112487792969 304.487487792969 300.84375 298.318756103516 301.387512207031 303.262481689453 305.356262207031 309.262512207031 313.668762207031 317.493743896484 320.868743896484 321.6875 322.050018310547 320.899993896484 
304.818756103516 301.899993896484 298.268737792969 294.756256103516 290.975006103516 287.768737792969 284.75 285.106262207031 285.606262207031 288.087493896484 290.262512207031 291 289.337493896484 285.09375 280.043762207031 273.212493896484 264.337493896484 256.625 247.737503051758 238.256256103516 230.550003051758 225.34375 222.606246948242 223.96875 230.0625 236.625 244.40625 254.800003051758 265.993743896484 276.962493896484 288.424987792969 301.912506103516 307.712493896484 311.756256103516 315.212493896484 314.462493896484 311.831237792969 310.393737792969 307.9375 301.981262207031 298.78125 298.537506103516 298.4375 301.131256103516 306.243743896484 311.881256103516 315.743743896484 318.481262207031 321.993743896484 324.587493896484 325.475006103516 
309.075012207031 306.731262207031 304.337493896484 302.3125 299.674987792969 297.643737792969 296.25 296.662506103516 297.46875 298.65625 299.875 300.46875 298.856262207031 294.387512207031 288.506256103516 280.487487792969 271.600006103516 261.993743896484 251.881256103516 239.143753051758 227.306243896484 219.543746948242 216.949996948242 220.318756103516 228.550003051758 235.793746948242 244.481246948242 255.268753051758 267.881256103516 280.4375 290.118743896484 304.850006103516 312.006256103516 318.825012207031 324.84375 322.325012207031 319.212493896484 317.450012207031 314.087493896484 307.418762207031 302.131256103516 297.818756103516 296.200012207031 301.181243896484 306.806243896484 313.181243896484 316.456237792969 319.274993896484 323.868743896484 325.981262207031 327.181243896484 
314.03125 312.856262207031 311.693756103516 308.956237792969 307.418762207031 307.318756103516 307.299987792969 306.450012207031 306.700012207031 307.762512207031 309.4375 309.575012207031 307.893737792969 303.868743896484 297.262512207031 289.143737792969 278.462493896484 270.512512207031 259.375 241.287506103516 224.037506103516 211.456253051758 210.875 218.5625 228.087493896484 236.762496948242 246.137496948242 255.893753051758 268.875 281.649993896484 293.756256103516 304.868743896484 313.274993896484 323.356262207031 332.75 335.243743896484 329.825012207031 326.118743896484 321.106262207031 313.793762207031 308.875 304.443756103516 301.356262207031 303.34375 310.362487792969 314.5 317.799987792969 321.243743896484 326.399993896484 329.075012207031 331.575012207031 
319.706237792969 319.393737792969 318.774993896484 316.325012207031 316.362487792969 316.162506103516 316.043762207031 316.518737792969 316.618743896484 317.462493896484 319.487487792969 319.768737792969 317.46875 312.856262207031 305.962493896484 296.725006103516 286.481262207031 278.431243896484 269.1875 248.40625 228.193756103516 212.043746948242 212.4375 219.956253051758 229.506256103516 238.637496948242 247.925003051758 258.712493896484 271.15625 284.256256103516 295.0625 306.200012207031 315.862487792969 327.59375 339.837493896484 347.84375 342.606262207031 336.012512207031 328.987487792969 322.462493896484 317.131256103516 313.643737792969 309.774993896484 310.587493896484 314.881256103516 317.59375 321.318756103516 323.65625 326.262512207031 331.46875 335.493743896484 
327.787506103516 328.075012207031 326.993743896484 325.668762207031 325.256256103516 324.818756103516 324.456237792969 324.887512207031 325.793762207031 326.918762207031 327.518737792969 328.962493896484 328.149993896484 324.125 317.5 306.481262207031 295.293762207031 284.362518310547 272.762512207031 254.612503051758 237.306243896484 226.125 221.949996948242 227.018753051758 235.831253051758 243.681243896484 252.462493896484 263.337493896484 275.368743896484 288.537506103516 298.981262207031 308.65625 317.706237792969 328.237487792969 340.587493896484 350.112487792969 348.325012207031 341.381256103516 334.481262207031 329.568756103516 324.106262207031 320.706237792969 318.731262207031 316.174987792969 320.1875 321.956237792969 323.475006103516 326.137512207031 326.743743896484 330.018737792969 336.768737792969 
