ncols        51
nrows        45
xllcorner    -63.500000000000
yllcorner    -7.500000000000
cellsize     0.166666666667
NODATA_value -99
30.4937496185303 27.1937503814697 25.2062492370605 23.96875 22.8062496185303 23.7625007629395 24.6937503814697 25.4312496185303 27.7124996185303 30.5187492370605 33.8312492370605 38.53125 43.0499992370605 46.53125 51.3375015258789 56.9000015258789 62.53125 67.2874984741211 75.1812515258789 83.0625 89.7375030517578 97.3375015258789 105.112503051758 111.087501525879 118.331253051758 124.912498474121 130.737503051758 137.425003051758 144.131256103516 145.162506103516 145.649993896484 146.056243896484 145.125 145.306243896484 144.262496948242 144 141.737503051758 138.762496948242 137.668746948242 136.456253051758 134.918746948242 135.131256103516 134.90625 134.862503051758 134.725006103516 132.46875 130.3125 125.831253051758 121.368751525879 118.28125 116.487503051758 
32.8812484741211 28.9624996185303 26.9249992370605 25.3187503814697 24.21875 25.4624996185303 26.7124996185303 28.2000007629395 31.3937492370605 34.8624992370605 38.2874984741211 42.8312492370605 47.0812492370605 51.3312492370605 56.2062492370605 61.2312507629395 66.2687530517578 72.0374984741211 79.6937484741211 88.3375015258789 95.4187469482422 102.53125 110.362503051758 117.668746948242 124.306251525879 130.887496948242 137.324996948242 143.8125 149.587493896484 150.393753051758 149.462493896484 147.981246948242 146.112503051758 146.1875 143.862503051758 140.737503051758 138.756256103516 134.706253051758 132.287506103516 130.15625 128.381256103516 128.112503051758 126.887496948242 126.324996948242 125.506248474121 123.34375 121.193748474121 116.237503051758 111.106246948242 106.674995422363 104.224998474121 
39.1062507629395 35.2937507629395 33.375 31.9874992370605 31.15625 32.3875007629395 33.8250007629395 35.6375007629395 39.0187492370605 42.5812492370605 45.9124984741211 50.0750007629395 54.2000007629395 57.9000015258789 62.5625 66.9437484741211 71.7062530517578 77.1750030517578 83.8874969482422 92.6875 100.150001525879 108.212501525879 116.09375 122.875 129.418746948242 135.800003051758 142.362503051758 148.856246948242 153.59375 153.131256103516 152.675003051758 151.399993896484 149.84375 146.487503051758 144.40625 140.181243896484 136.5 132.237503051758 129 125.625 123.481246948242 122.431251525879 121.1875 120.043746948242 118.175003051758 116.306251525879 114.193748474121 109.53125 103.712501525879 99.21875 96.3625030517578 
46.0687484741211 42.5437507629395 41.46875 40.53125 40.2937507629395 40.8499984741211 42.4625015258789 44.7125015258789 48.5750007629395 52.4375 55.1749992370605 58.6437492370605 62.03125 65.2125015258789 69.7437515258789 73.8499984741211 77.6875 81.6312484741211 88.0500030517578 97.4312515258789 106.268753051758 114.53125 120.987503051758 128.081253051758 134.887496948242 141.368743896484 148.15625 153.081253051758 157.518753051758 157.068756103516 155.899993896484 155.337493896484 152.356246948242 148.231246948242 143.887496948242 139.712493896484 134.206253051758 129.068756103516 125.381248474121 121.900001525879 117.981246948242 117.018753051758 115.59375 113.59375 111.668746948242 109.849998474121 108.099998474121 102.581253051758 97.0687484741211 91.9375 88.6937484741211 
55.2999992370605 51.2437515258789 50.03125 49.7562484741211 49.8312492370605 50.6875 51.90625 54.4124984741211 59.0437507629395 63.3624992370605 65.2062530517578 67.9000015258789 71.0187530517578 74.0625 78.2937469482422 81.96875 84.9312515258789 86.5749969482422 93.34375 103.674995422363 113.368751525879 120.993751525879 127.306251525879 133.774993896484 140.15625 147.5 152.0625 156.756256103516 162.800003051758 161.706253051758 160.125 156.856246948242 154.024993896484 150.043746948242 144.893753051758 139.256256103516 133.362503051758 126.018753051758 121.618751525879 117.125 113.493751525879 111.59375 110.068748474121 107.574996948242 105.40625 104.099998474121 102 96.3874969482422 90.3687515258789 85.1687469482422 81.5562515258789 
64.7750015258789 61.21875 59.9812507629395 59.2874984741211 59.28125 60.2750015258789 61.7687492370605 64.0562515258789 68.6875 73.3249969482422 74.7750015258789 77.8125 80.9437484741211 84.2624969482422 88.0124969482422 92.4937515258789 95.0500030517578 95.8562469482422 103.224998474121 113.150001525879 121.606254577637 128.28125 134.899993896484 140.131256103516 146.368743896484 152.975006103516 157.6875 161.84375 166.893753051758 166.556243896484 164.175003051758 161.074996948242 156.162506103516 151.912490844727 147.899993896484 141.337493896484 134.462493896484 127.112503051758 122.056251525879 117.34375 111.9375 109.887496948242 107.650001525879 105.03125 102.881248474121 100.931251525879 98.8625030517578 93.4937515258789 87.9250030517578 82.34375 77.71875 
75.0062484741211 71.9187469482422 70.7937469482422 69.46875 68.7437515258789 69.0749969482422 70.375 72.2750015258789 75.78125 79.03125 82.4625015258789 86.8499984741211 91.5749969482422 95.7874984741211 100.175003051758 105.28125 110.037498474121 114.212501525879 120.643753051758 126.5625 130.699996948242 136.237503051758 140.649993896484 145.65625 152 157.587493896484 162.018753051758 166.349990844727 170.03125 169.28125 168.199996948242 165.231246948242 159.475006103516 153.918746948242 148.712493896484 142.8125 135.543746948242 128.268753051758 123.487503051758 117.125 110.568748474121 107.900001525879 105.34375 102.587501525879 100.443748474121 99.25 97.0812530517578 91.2562484741211 85.28125 79.71875 76.125 
86.3874969482422 82.6624984741211 81.28125 80.0999984741211 78.9875030517578 79.2750015258789 79.5062484741211 79.0875015258789 80.4499969482422 84.5 90.1875 96.6500015258789 103.081253051758 107.9375 113.268753051758 119.025001525879 125.568748474121 131.65625 138.993743896484 140.006256103516 139.9375 142.949996948242 146.40625 151.287506103516 157.568756103516 162.387496948242 165.850006103516 169.518753051758 173.943756103516 173.487503051758 171.268753051758 168.556243896484 162.306243896484 156.106246948242 150.112503051758 143.725006103516 136.46875 129.018753051758 123.106246948242 116.71875 110.037498474121 106.987503051758 104.137496948242 100.893745422363 99.4499969482422 98.6500015258789 96.4749984741211 90.0187530517578 83.71875 78.2750015258789 73.5500030517578 
96.8187484741211 93.09375 91.7125015258789 90.0250015258789 89.0625 88.6500015258789 88.3499984741211 87.6624984741211 87.8249969482422 91.0062484741211 99.3625030517578 107.681251525879 115.893753051758 121.693748474121 126.275001525879 130.762496948242 135.993743896484 141.862503051758 148.143753051758 147.787506103516 145.918746948242 148.512496948242 151.274993896484 157.618743896484 163.28125 167.418746948242 170.46875 172.893753051758 176.987503051758 177.125 175.8125 172.168746948242 166.018753051758 159.143753051758 152.787506103516 145.962493896484 139.306243896484 131.956253051758 125.668746948242 119.068748474121 111.931251525879 108.368751525879 106.012496948242 103.237503051758 101.737503051758 100.75 98.4562530517578 91.8812484741211 84.7562484741211 78.5749969482422 74.5124969482422 
107.5625 103.856254577637 101.849998474121 100.3125 99.4499969482422 99.28125 98.9875030517578 99.1125030517578 101.131248474121 106.0625 113.59375 122.256248474121 130.6875 136.893753051758 139.65625 141.931243896484 143.987503051758 147.09375 149.524993896484 149.800003051758 148.793746948242 151.475006103516 155.15625 162.743743896484 167.256256103516 170.387496948242 172.987503051758 175.487503051758 178.362503051758 178.631256103516 177.331253051758 174.556243896484 168.912506103516 162.550003051758 156.324996948242 149.118743896484 142.087509155273 135.018753051758 128.393753051758 121.512496948242 114.868751525879 111.125 108.206253051758 104.668746948242 103.793746948242 104.006248474121 101.143753051758 94.1312484741211 86.7937469482422 80.7437515258789 75.7062530517578 
119.368751525879 115.737503051758 113.118751525879 111.268753051758 109.993751525879 110.331253051758 110.793746948242 112.581253051758 116.493751525879 122.599998474121 131.262496948242 140.125 147.137496948242 152.331253051758 152.393753051758 151.393753051758 149.899993896484 150.206253051758 149.956253051758 149.118743896484 150.03125 152.793746948242 158.53125 164.793746948242 171.112503051758 172.84375 174.443756103516 176.581253051758 178.850006103516 178.0625 177.225006103516 175.65625 170.8125 165.018753051758 158.84375 152.337493896484 145.262496948242 137.693756103516 131.21875 124.431251525879 117.5 112.90625 109.59375 105.987503051758 105.331253051758 106.956253051758 102.981246948242 94.40625 87.5625 82.0500030517578 77.3375015258789 
129.987503051758 125.962501525879 123.506248474121 122.300003051758 121.349998474121 121.881248474121 123.46875 127.368751525879 133.006256103516 140.024993896484 149.631256103516 158.925003051758 163.068756103516 165.318756103516 163.993743896484 160.956253051758 158.25 155.606246948242 153.800003051758 151.118743896484 150.887496948242 154.043746948242 161.543746948242 170.28125 174.850006103516 173.649993896484 174.681243896484 176.34375 178.90625 179.612503051758 179.28125 177.806243896484 173.381256103516 167.931243896484 162.1875 156.137496948242 149.556243896484 142.162506103516 135.318756103516 128.356246948242 121.012496948242 115.949996948242 110.987503051758 106.40625 104.881248474121 103.231246948242 98.7375030517578 93.1624984741211 87.6812515258789 84.15625 79.3249969482422 
141.568756103516 137.543746948242 135.3125 133.893753051758 133.0625 135.181243896484 137.800003051758 141.9375 148.868743896484 157.418746948242 167.506256103516 175.618743896484 178.043746948242 176.081253051758 173.774993896484 170.243743896484 166.168746948242 163.193756103516 159.8125 155.462493896484 151.137496948242 155.006256103516 163.756256103516 170.0625 170.1875 169.231246948242 172.912506103516 176.631256103516 179.387496948242 180.949996948242 181.324996948242 180.081253051758 175.412506103516 170.149993896484 164.712493896484 159.09375 152.71875 145.681243896484 138.268753051758 130.831253051758 123.706253051758 117.887496948242 110.393753051758 103.737503051758 101.449996948242 100.662498474121 97.5749969482422 91.5 87.2874984741211 84.9562530517578 82.5062484741211 
152.206253051758 148.475006103516 146.393753051758 145.243743896484 145.006256103516 147.006240844727 150.681243896484 156.818756103516 164.693756103516 174.106246948242 183.018753051758 188.137496948242 187.956253051758 185.856246948242 182 178.987503051758 174.262496948242 171.112503051758 166.71875 162.362503051758 159.393753051758 161.737503051758 166.243743896484 169.818756103516 168.875 169.012496948242 172.631256103516 176.331253051758 180.356246948242 182.131256103516 183.056243896484 182.331253051758 177.425003051758 171.668746948242 166.756256103516 161.268753051758 155.600006103516 149.431243896484 141.225006103516 132.606246948242 123.862495422363 114.637496948242 107.387496948242 102.243751525879 101.081253051758 99.3125 97.1937484741211 93.6187515258789 89.28125 86.8625030517578 85.6750030517578 
160.21875 156.606246948242 155.28125 154.643753051758 155.556243896484 158.712493896484 163.837493896484 170.125 177.993743896484 186.618743896484 195.550003051758 199.068756103516 198.962493896484 197.024993896484 193.09375 189.612503051758 184.831253051758 180.387496948242 176.225006103516 173.012496948242 170.537506103516 169.987503051758 172.162506103516 173.118743896484 173.443756103516 173.787506103516 176.443756103516 180.181243896484 183.568756103516 186.0625 186.737503051758 185.081253051758 180.800003051758 174.34375 168.743743896484 162.881256103516 157.925003051758 152.850006103516 145.037506103516 133.668746948242 121.462501525879 113.481246948242 108.268753051758 103.631248474121 101.324996948242 99.71875 97.4625015258789 95.0125045776367 92.7312469482422 89.3312530517578 86.9749984741211 
167.206253051758 163.512496948242 162.9375 162.975006103516 164.800003051758 168.981246948242 175.143753051758 181.912506103516 189.350006103516 198.362503051758 207.125 210.3125 210.3125 208.368743896484 205.181243896484 199.587493896484 195.337493896484 190.887496948242 186.081253051758 182.975006103516 181.5625 180.306243896484 180.225006103516 179.537506103516 178.712493896484 178.40625 180.087493896484 184.25 188.199996948242 191.375 192.175003051758 189.818756103516 182.706253051758 175.59375 169.037506103516 164.8125 160.456253051758 155.106246948242 147.443756103516 135.568756103516 122.006248474121 114.237503051758 109.40625 103.9375 101.681251525879 100.168746948242 98.3312530517578 95.90625 93.0562515258789 90.5562515258789 87.9000015258789 
172.762496948242 169.475006103516 168.981246948242 170.056243896484 173.03125 178.137496948242 185.34375 192.731246948242 200.46875 208.962493896484 218.137496948242 221.931243896484 222 220.081253051758 217.331253051758 212.306243896484 203.862503051758 198.818756103516 195.40625 194.043746948242 191.837493896484 190.212493896484 188.537506103516 185.90625 184.65625 182.75 183.412506103516 187.399993896484 192.649993896484 196.975006103516 198.774993896484 196.012496948242 186.737503051758 177.199996948242 171.637496948242 167.699996948242 162.837493896484 158.699996948242 153.868743896484 140.8125 127.631248474121 118.40625 110.981246948242 104.762496948242 102.34375 100.787498474121 98.6312484741211 96.3125 94.21875 91.6999969482422 89.7249984741211 
177.331253051758 174.100006103516 173.893753051758 175.868743896484 178.893753051758 185.074996948242 192.887496948242 200.762496948242 208.643753051758 217.699996948242 226.03125 232.181243896484 233.993743896484 233.012496948242 230.006256103516 223.693756103516 214.668746948242 206.643753051758 206.21875 205.606246948242 203.5 200.162506103516 196.506256103516 192.693756103516 189.84375 187.643753051758 186.818756103516 191.925003051758 198.912506103516 204.71875 205.699996948242 197.975006103516 187.675003051758 178.824996948242 171.793746948242 167.4375 164.4375 160.331253051758 153.53125 143.34375 130.337493896484 120.231246948242 112.425003051758 106.40625 103.793746948242 101.981246948242 99.8937530517578 97.7249984741211 95.9749984741211 92.8625030517578 91.4312515258789 
179.637496948242 176.71875 177.268753051758 180.274993896484 184.300003051758 191.162506103516 198.431243896484 207.418746948242 216.09375 225.4375 233.893753051758 239.206253051758 243.600006103516 246.824996948242 242.606246948242 233.506256103516 222.831253051758 214.425003051758 211.556243896484 213.368743896484 212.806243896484 209.631256103516 200.84375 197.699996948242 194.493743896484 192.625 193.712493896484 197.34375 204.53125 211.225006103516 213.193756103516 202.731246948242 189.306243896484 175.981246948242 167.175003051758 164.831253051758 163.137496948242 158.887496948242 153.412506103516 143.699996948242 131.837493896484 121.587501525879 113.824996948242 108.375 105.5 103.181251525879 101.387496948242 99.75 97.75 93.6687469482422 93.65625 
181.574996948242 178.706253051758 179.856246948242 182.574996948242 187.587493896484 196.15625 204.462493896484 212.987503051758 221.743743896484 231.043746948242 239.050003051758 245.368743896484 253.375 261.168762207031 253.324996948242 238.743743896484 225.768753051758 220.768753051758 218.993743896484 220.112503051758 216.493743896484 209.662506103516 203.875 200.3125 197.5625 196.793746948242 198.03125 201.96875 206.050003051758 209.737503051758 209.887496948242 201.53125 186.293746948242 170.274993896484 159.768753051758 158.981246948242 161.324996948242 160.737503051758 155.53125 146.231246948242 134.243743896484 123.21875 116.387496948242 111.074996948242 107.737503051758 105.318748474121 103.081253051758 101.09375 99.09375 95.7375030517578 95.9250030517578 
182.756256103516 180.6875 183.212493896484 187.649993896484 192.756256103516 201.774993896484 212.03125 220.850006103516 228.912506103516 235.393753051758 240.800003051758 244.78125 250.731246948242 257.356262207031 250.981246948242 236.831253051758 226.756256103516 221.193756103516 220.762496948242 219.506256103516 216.768753051758 212.199996948242 207.024993896484 204.668746948242 203.143753051758 202.175003051758 202.618743896484 203.768753051758 204.756256103516 206.662506103516 204.293746948242 197.875 183.262496948242 168.106246948242 154.743743896484 157.71875 165.212493896484 167.59375 162.975006103516 152.850006103516 139.96875 129.037506103516 120.543746948242 113.631248474121 109.631248474121 106.6875 104.199996948242 102.5625 99.7375030517578 97.8312530517578 98.09375 
184.787506103516 181.84375 184.637496948242 190.356246948242 197.537506103516 207.25 217.649993896484 228.1875 236.125 238.868743896484 239.487503051758 236.899993896484 236.725006103516 239.362503051758 238.087493896484 231.943756103516 227.693756103516 224.28125 222.75 221.581253051758 216.243743896484 211.506256103516 207.681243896484 205.681243896484 204.5 204.243743896484 206.71875 206.556243896484 205.4375 204.918746948242 200.4375 194.074996948242 183.03125 173.574996948242 166.331253051758 168.350006103516 175.925003051758 179.856246948242 174.493743896484 161.893753051758 146.931243896484 134.625 124.84375 116.831253051758 111.775001525879 108.150001525879 105.03125 103.568748474121 101.150001525879 100.6875 100.900001525879 
187.112503051758 184.28125 186.0625 192.006256103516 200.774993896484 212.300003051758 223.287506103516 234.556243896484 244.043746948242 242.493743896484 235.918746948242 226.131256103516 219.962493896484 221.612503051758 225.943740844727 227.268753051758 226.081253051758 224.418746948242 222.975006103516 221.168746948242 216.168746948242 210.712493896484 205.925003051758 203.731246948242 204 205.618743896484 209 208.475006103516 205.868743896484 202.800003051758 197.78125 192.6875 187.400009155273 182.225006103516 179.412506103516 180.625 187.856246948242 195.931243896484 188.293746948242 170.0625 152.618743896484 139.506256103516 127.912498474121 119.012496948242 113.34375 109.287498474121 106.212501525879 104.574996948242 103.287498474121 103.425003051758 104.175003051758 
191.006256103516 187.28125 188.100006103516 194.65625 204.943756103516 216.09375 227.4375 238.125 245.331253051758 240.881256103516 231.225006103516 219.637496948242 206.662506103516 210.550003051758 219.081253051758 223.100006103516 223.806243896484 222.962493896484 221.850006103516 220.28125 214.475006103516 208.75 203.962493896484 201.556243896484 202.793746948242 204.75 209.375 208.537506103516 205.887496948242 204.556243896484 201.850006103516 199.512496948242 195.875 192.649993896484 190.987503051758 191.412506103516 195.550003051758 200.462493896484 191.78125 173.256256103516 155.206253051758 141.46875 129.78125 120.599998474121 114.96875 110.862503051758 107.481246948242 105.474998474121 106.362503051758 106.349998474121 107.556251525879 
196.024993896484 192.03125 191.574996948242 200.212493896484 212.981246948242 222.693756103516 231.587493896484 239.524993896484 242.768753051758 239.399993896484 231.393753051758 221.768753051758 213.78125 214.693756103516 219 222.631256103516 223.962509155273 223.981246948242 222.225006103516 218.768753051758 212.693756103516 205.931243896484 200.606246948242 197.850006103516 198.84375 202.175003051758 206.050003051758 208.237503051758 207.662506103516 209.256256103516 209.793746948242 210.668746948242 206.693756103516 203.643753051758 201.524993896484 198.737503051758 198.5 195.262496948242 185.931243896484 171.15625 154.618743896484 141.65625 130.493743896484 122.099998474121 115.237503051758 111.456253051758 107.318748474121 108.487503051758 108.912498474121 110.03125 111.137496948242 
205.487503051758 204.199996948242 204.881256103516 212.962493896484 222.5 230.362503051758 236.506256103516 240.46875 241.475006103516 238.53125 233.53125 228.243743896484 223.475006103516 222.725006103516 223.518753051758 225.206253051758 226.375 226.056243896484 223.787506103516 219.149993896484 212.931243896484 204.15625 197.537506103516 193.068756103516 194.899993896484 199.71875 205.868743896484 209.331253051758 211.393753051758 213.668746948242 218.362503051758 221.887496948242 218.731246948242 213.84375 210.349990844727 204.53125 199.431243896484 191.743743896484 181.362503051758 167.725006103516 152.943756103516 140.606246948242 129.512496948242 121.762496948242 116.199996948242 111.712501525879 112.143753051758 113.793746948242 113.34375 113.8125 114.474998474121 
216.256256103516 216.331253051758 219.293746948242 225.293746948242 231.512496948242 236.943756103516 241.243743896484 242.268753051758 241.962493896484 240.737503051758 237.837493896484 234.981246948242 232.324996948242 231.550003051758 230.574996948242 231.018753051758 231.212493896484 230.331253051758 228.393753051758 222.581253051758 214.574996948242 206.5625 197.40625 192.012496948242 196.087493896484 201.131256103516 207.574996948242 212.368743896484 216.149993896484 220.237503051758 226.668746948242 231.131256103516 228.512496948242 222.418746948242 215.993743896484 208.824996948242 201.293746948242 191.006256103516 179.074996948242 166.206253051758 151.875 139.337493896484 128.675003051758 121.356246948242 119.493751525879 120.150001525879 120.862503051758 120.831253051758 120.556251525879 118.737503051758 119.018753051758 
229.074996948242 229.487503051758 233.449996948242 238.15625 242.481246948242 244.818756103516 246.356246948242 245.706253051758 245.137496948242 243.649993896484 241.84375 240.875 239.268753051758 238.725006103516 237.256256103516 236.918746948242 236.231246948242 236.831253051758 233.131256103516 228.118743896484 221.53125 212.449996948242 206.649993896484 202.024993896484 203.362503051758 206.600006103516 212.393753051758 216.9375 221.475006103516 227.512496948242 233.399993896484 237.931243896484 234.356246948242 226.987503051758 219.787506103516 211.543746948242 202.03125 191.393753051758 179.706253051758 166.225006103516 152.725006103516 140.5 129.068756103516 122.40625 126.0625 129.518753051758 130.524993896484 129.412506103516 127.525001525879 124.818748474121 123.900001525879 
240.399993896484 242.212493896484 246.018753051758 250.643753051758 253.643753051758 253.225006103516 251 249.756256103516 248.168746948242 247 246.1875 245.824996948242 245.456253051758 246.731246948242 245.487503051758 245.362503051758 246.262496948242 245.181243896484 241.962493896484 236.831253051758 229.975006103516 221.856246948242 216.774993896484 213.175003051758 212.699996948242 214.03125 219.081253051758 223.4375 228.631256103516 234.5625 239.4375 243.050003051758 238.493743896484 231.381256103516 223.912506103516 214.443756103516 204.918746948242 193.862503051758 182.368743896484 168.893753051758 154.381240844727 142.743743896484 133.425003051758 129.918746948242 134.524993896484 137.96875 139.487503051758 137.3125 134.912506103516 131.75 129.506256103516 
247.949996948242 249.981246948242 254.9375 260.200012207031 262.068756103516 258.712493896484 254.324996948242 252.237503051758 250.412490844727 248.793746948242 249.143753051758 250.850006103516 252.237503051758 254.543746948242 255.068756103516 255.1875 255.518753051758 255.28125 253.350006103516 247.206253051758 240.068756103516 233.806243896484 228.375 224.456253051758 223.631256103516 224.4375 228.331253051758 232.024993896484 236.699996948242 241.087493896484 245.5625 248.212493896484 242.518753051758 236.143753051758 228.350006103516 219.143753051758 209.268753051758 199.475006103516 188.037506103516 175.618743896484 163.168746948242 153.618743896484 146.350006103516 143.512496948242 144.418746948242 148.043746948242 149 148.262496948242 145.4375 141.46875 139.081253051758 
252.681243896484 254.962493896484 258.356262207031 263.350006103516 266.0625 259.924987792969 255.65625 252.643753051758 251.006256103516 250.5625 252.15625 255.274993896484 258.418762207031 261.112487792969 263.212493896484 264.15625 265.737487792969 266.287506103516 264.524993896484 258.600006103516 250.987503051758 244.262496948242 239.956253051758 235.875 234.043746948242 235.337493896484 238.65625 241.600006103516 246.112503051758 248.75 251.956253051758 253.6875 247.350006103516 240.762496948242 233.050003051758 224.087493896484 214.306243896484 205.637496948242 195.675003051758 184.25 173.675003051758 165.887496948242 160.037506103516 155.831253051758 155.943756103516 160.043746948242 161.393753051758 160.881256103516 157.393753051758 152.175003051758 149.243743896484 
254.737503051758 256.325012207031 258.393737792969 261.037506103516 261.481262207031 257.206237792969 254.925003051758 251.568756103516 250.71875 251.087493896484 253.512496948242 257.918762207031 262.774993896484 267.924987792969 271.368743896484 273.106262207031 273.837493896484 273.862487792969 270.931243896484 266.318756103516 259.049987792969 252.931243896484 249.475006103516 245.574996948242 244.943740844727 245.668746948242 247.943756103516 251.025009155273 253.987503051758 256.581237792969 258.456237792969 258.962493896484 252.737503051758 246.012496948242 238.5 229.306243896484 221.09375 211.643753051758 201.850006103516 192.224990844727 184.868743896484 178.90625 174.293746948242 172.012496948242 172.387496948242 177.587493896484 178.993743896484 176.3125 170.668746948242 164.5625 160.931243896484 
253.756256103516 254.737503051758 256.475006103516 257.806243896484 256.518737792969 253.231246948242 250.287506103516 247.824996948242 246.699996948242 249.59375 255.081253051758 261.387512207031 269.731262207031 278 281.118743896484 282.612487792969 282.6875 280.725006103516 277.018737792969 272.9375 266.649993896484 261.125 257.443756103516 255.643753051758 255.03125 256.231262207031 258.231262207031 259.762512207031 262.518737792969 265.5625 266.293762207031 265.006256103516 259.274993896484 253.231246948242 245.387496948242 237.074996948242 228.587493896484 219.618743896484 210.25 204.387496948242 198.443756103516 194.225006103516 191.587493896484 191.337493896484 195.612503051758 203.556243896484 202.893753051758 195.574996948242 187.8125 180.168746948242 175.643753051758 
251.59375 252.181243896484 252.975006103516 253.493743896484 250.993743896484 248.3125 245.875 243.324996948242 243.118743896484 245.84375 253.09375 264.693756103516 277.037506103516 286.668762207031 290.243743896484 291.143737792969 291.887512207031 289.462493896484 284.100006103516 278.825012207031 273.443756103516 268.787506103516 265.606262207031 264.15625 264.125 265.081237792969 266.637512207031 269.0625 272.518737792969 273.668762207031 274.375 272.78125 266.674987792969 261.125 253.662506103516 245.287506103516 236.28125 226.637496948242 220.125 215.649993896484 210.731246948242 208.475006103516 207.868743896484 209.28125 215 222.543746948242 221.206253051758 212.806243896484 204.287506103516 196.018753051758 191.112503051758 
250.931243896484 250.25 250.28125 249.162506103516 246.868743896484 244.550003051758 241.199996948242 238.443756103516 236.731246948242 240.6875 251.393753051758 266.90625 284.912506103516 297.956237792969 301.162506103516 300.774993896484 300.412506103516 296.287506103516 290.443756103516 283.412506103516 279.299987792969 275.375 272.674987792969 271.46875 272.149993896484 272.34375 274.9375 278.231262207031 281.581237792969 281.512512207031 281.549987792969 280.549987792969 274.96875 268.625 261.106262207031 252.525009155273 242.768753051758 235.324996948242 230.131256103516 225.625 222.012496948242 220.212493896484 220.712493896484 222.5 227.074996948242 230.112503051758 229.6875 224.256256103516 216.881256103516 210.262496948242 206.175003051758 
252.412506103516 250.693756103516 249.800003051758 247.912506103516 245.231246948242 241.443756103516 238.037506103516 233.618743896484 230.46875 233.137496948242 246.006256103516 266.90625 289.256256103516 304.862487792969 309.212493896484 309.475006103516 307.987487792969 303.049987792969 296.450012207031 288.924987792969 284.193756103516 281.143737792969 278.09375 276.674987792969 277.450012207031 278.931243896484 281.549987792969 285.28125 289.212493896484 288.899993896484 289.331237792969 288.024993896484 283.743743896484 278.212493896484 270.950012207031 261.581237792969 254.212493896484 246.09375 239.5625 235.15625 231.856246948242 230.793746948242 230.90625 232.8125 235.949996948242 237.337493896484 237.225006103516 234.068756103516 230.143753051758 225.175003051758 222.143753051758 
254.1875 251.918746948242 249.693756103516 247.262496948242 244.181243896484 240.518753051758 237.456253051758 231.981246948242 226.043746948242 223.431243896484 240.837493896484 271.768737792969 295.71875 309.456237792969 315.337493896484 316.806243896484 315.475006103516 309.78125 302.362487792969 293.931243896484 289.506256103516 285.075012207031 282.350006103516 281.231262207031 282.581237792969 285.100006103516 288.243743896484 292.918762207031 297.112487792969 297.075012207031 297.143737792969 295.918762207031 292.831237792969 288.337493896484 281.506256103516 272.793762207031 264.518737792969 255.606246948242 249.28125 243.800003051758 238.993743896484 237.962493896484 239.106246948242 240.581253051758 242.912506103516 244.137496948242 245.637496948242 244.362503051758 242.15625 238.931243896484 237.137496948242 
255.668746948242 252.9375 250.074996948242 247.90625 245.193756103516 242.96875 239.949996948242 235.487503051758 230.743743896484 226.306243896484 256.806243896484 289.237487792969 306.737487792969 316.899993896484 322.46875 324.012512207031 322.125 316.6875 309.274993896484 300.356262207031 294.631256103516 288.90625 285.368743896484 284.75 286.618743896484 290.200012207031 293.418762207031 298.487487792969 303.399993896484 304.418762207031 304 302.018737792969 299.706237792969 296.606262207031 290.481262207031 282.068756103516 272.5625 263.975006103516 257.631256103516 251.243743896484 245.318756103516 244.84375 244.8125 244.768753051758 247.65625 249.862503051758 252.381256103516 254.043746948242 252.34375 252.050003051758 252.175003051758 
257.100006103516 252.606246948242 250.550003051758 248.587493896484 246.737503051758 245.543746948242 243.868743896484 244.393753051758 249.574996948242 266.549987792969 303.162506103516 314 319.71875 325.956237792969 329.899993896484 330.350006103516 329.125 322.368743896484 314.0625 305.162506103516 296.899993896484 290.40625 286.668762207031 286.287506103516 288.056243896484 291.706237792969 295.962493896484 301.668762207031 307.587493896484 310.274993896484 310.225006103516 308.512512207031 305.59375 301.068756103516 297.46875 289.15625 279.168762207031 270.799987792969 263.431243896484 255.493743896484 249.337493896484 247.8125 246.668746948242 247.143753051758 249.731246948242 252.212493896484 253.8125 256.350006103516 257.512512207031 259.118743896484 260.856231689453 
258.756256103516 254.175003051758 251.725006103516 249.206253051758 249.25 250.037506103516 251.181243896484 256.543762207031 267.975006103516 287.299987792969 309.875 323.4375 329.59375 334.90625 337.287506103516 337.962493896484 336.4375 329.737487792969 319.418762207031 309.118743896484 297.475006103516 290.5 286.443756103516 286.112487792969 288.674987792969 292.356262207031 297.556243896484 304.549987792969 310.774993896484 313.75 314.043762207031 314.443756103516 312.962493896484 308.337493896484 302.450012207031 294.15625 284.4375 275.618743896484 267.456237792969 258.743743896484 252.412506103516 250.137496948242 247.831253051758 247.493743896484 250.074996948242 252.993743896484 255.443756103516 258.893737792969 262.981262207031 266.225006103516 269.431243896484 
260.087493896484 255.487503051758 252.331253051758 250.362503051758 250.324996948242 252.6875 257.231262207031 265.412506103516 278.962493896484 295.037506103516 312.037506103516 326.412506103516 335.743743896484 341.768737792969 345.15625 346.712493896484 344.768737792969 337.34375 325.625 312.700012207031 298.293762207031 288.256256103516 283.087493896484 283.543762207031 288.268737792969 293.125 299.081237792969 307.018737792969 313.356262207031 317.056243896484 320.056243896484 321.818756103516 319.549987792969 315.299987792969 308.337493896484 299.012512207031 289.262512207031 280.256256103516 271.893737792969 262.40625 255.362503051758 251.056243896484 247.868743896484 247.868743896484 251.75 254.862503051758 257.306243896484 262.262512207031 267.78125 272.706237792969 277.981262207031 
260.450012207031 254.28125 250.087493896484 248.106246948242 248.53125 251.931243896484 258.125 267.693756103516 281.3125 296.40625 310.756256103516 324.637512207031 336.431243896484 344.8125 349.118743896484 351.674987792969 351.606262207031 345.287506103516 333.424987792969 316.549987792969 297.15625 283.075012207031 276.59375 278.712493896484 285.762512207031 291.975006103516 298.806243896484 307.774993896484 315.587493896484 322 324.649993896484 328.09375 326.425018310547 321.899993896484 314.581237792969 302.431243896484 292.981262207031 284.131256103516 275.3125 265.825012207031 257.756256103516 250.324996948242 246.243743896484 248.568756103516 253.456253051758 257.587493896484 260.3125 264.912506103516 271.75 277.212493896484 285.84375 
259.862487792969 251.71875 246.675003051758 244.231246948242 245.100006103516 250.425003051758 257.262512207031 267.149993896484 279.787506103516 294.756256103516 309.368743896484 323.287506103516 335.887512207031 346.149993896484 352.475006103516 355.518737792969 356.056243896484 353.587493896484 343.59375 321.762512207031 294.837493896484 273.637512207031 269.762512207031 275.893737792969 284.612487792969 291.350006103516 299.256256103516 308.725006103516 317.643737792969 324.831237792969 330.831237792969 334.606262207031 332.681243896484 326.231262207031 318.34375 307.231262207031 295.674987792969 287.168762207031 278.537506103516 270.59375 262.587493896484 256.15625 252.706253051758 252.956253051758 256.743743896484 259.831237792969 262.456237792969 267.131256103516 273.950012207031 281.581237792969 292.90625 
258.600006103516 248.75 242 238.887496948242 241.149993896484 247.231246948242 254.75 264.818756103516 277.881256103516 292.018737792969 307.206237792969 322.825012207031 335.681243896484 347.106262207031 355.481262207031 360.024993896484 362.600006103516 360.287506103516 354.006256103516 330.1875 299.068756103516 273.168731689453 270.25 276.768737792969 285.587493896484 293.649993896484 301.274993896484 310.087493896484 320.387512207031 327.987487792969 335.125 341.943756103516 339.962493896484 331.53125 322.25 312.293762207031 300.712493896484 292.399993896484 284.34375 277.081237792969 270.243743896484 265.424987792969 261.737487792969 260.75 262.868743896484 263.943756103516 266.5625 269.387512207031 273.924987792969 282.481262207031 297.293762207031 
257.981262207031 246.875 237.706253051758 234.162506103516 239.143753051758 245.612503051758 252.618743896484 262.924987792969 275.600006103516 289.956237792969 305.318756103516 321.581237792969 336.34375 349.075012207031 357.706237792969 362.1875 364.087493896484 359.950012207031 351.75 332.118743896484 307.625 289.475006103516 280.537506103516 282.6875 289.8125 296.5 302.9375 311.875 320.793762207031 328.287506103516 335.875 343.34375 341.03125 332.818756103516 324.856262207031 314.537506103516 303.024993896484 295.450012207031 289.506256103516 283.34375 277.493743896484 273.306243896484 270.243743896484 268.618743896484 270.15625 270.418762207031 271.100006103516 271.6875 272.162506103516 278.75 296.975006103516 
