ncols        51
nrows        45
xllcorner    -63.500000000000
yllcorner    -7.500000000000
cellsize     0.166666666667
NODATA_value -99
334.975006103516 334.693756103516 332.59375 336.25 336.643737792969 333.456237792969 325.725006103516 320.256256103516 314.956237792969 312.350006103516 308.024993896484 301.875 297.725006103516 294.543762207031 291.668762207031 290.8125 288.868743896484 286.237487792969 286.118743896484 288.137512207031 289.118743896484 289.46875 293.068756103516 292.71875 293.65625 296.46875 298.556243896484 302.443756103516 302.299987792969 294.65625 281.368743896484 270.34375 261.200012207031 250.693756103516 240.78125 236.15625 231.068756103516 224.412506103516 221.149993896484 219.612503051758 216.393753051758 214.612503051758 211.056243896484 210.737503051758 211.6875 212.012496948242 213.306243896484 212.28125 213.181243896484 216.574996948242 220.362503051758 
329.96875 329.174987792969 332.443756103516 339.40625 345.881256103516 344.53125 337.5 332.8125 329.149993896484 323.387512207031 318.743743896484 311.543762207031 304.587493896484 298.431243896484 293.131256103516 288.831237792969 285.012512207031 282.34375 284.962493896484 288.3125 289.756256103516 291.681243896484 293.524993896484 295.243743896484 295.34375 295.712493896484 298.818756103516 301.65625 301.950012207031 293 280.825012207031 273.568756103516 263.587493896484 256.125 246.981246948242 240.212493896484 237.675003051758 232.743743896484 231.987503051758 227.90625 225.356246948242 226.293746948242 222.737503051758 219.181243896484 220.443756103516 219.850006103516 220.737503051758 219.112503051758 219.087493896484 220.125 222.199996948242 
311.512512207031 313.606262207031 320.537506103516 327.487487792969 333.181243896484 335.731262207031 335.924987792969 337.024993896484 335.793762207031 331.412506103516 326.34375 317.387512207031 308.306243896484 298.450012207031 292.15625 287.668762207031 281.475006103516 276.706237792969 277.637481689453 280.356262207031 281.3125 284.337493896484 285.762512207031 285.799987792969 285.006256103516 287 291.243743896484 292.668762207031 291.162506103516 282.25 270.774993896484 261.887512207031 254.925003051758 245.5 237.712493896484 230.274993896484 226.212493896484 221.899993896484 219.875 217.606246948242 217.256256103516 215.574996948242 214.949996948242 212.737503051758 212.875 213.443756103516 213.574996948242 212.1875 208.800003051758 209.71875 212.018753051758 
288.481262207031 288.399993896484 301.575012207031 308.856262207031 316.25 321.168762207031 326.40625 333.9375 339.549987792969 338.537506103516 331.893737792969 321.387512207031 308.493743896484 297.475006103516 289.981262207031 283.368743896484 275.443756103516 269.96875 269.056243896484 272.53125 276.75 277.493743896484 276.568756103516 276.399993896484 274.918762207031 274.274993896484 278.868743896484 278.643737792969 277.118743896484 270.674987792969 260.049987792969 250.731246948242 241.862503051758 231.675003051758 221.618743896484 217.756256103516 214.125 209.15625 207.381256103516 205.725006103516 204.149993896484 205.90625 204.018753051758 202.449996948242 204.28125 203.162506103516 202.712493896484 201.5 197.137496948242 194.975006103516 198.15625 
283.818756103516 280.068756103516 278.53125 285.787506103516 295.9375 302.762512207031 312.818756103516 325.431243896484 337.875 342.768737792969 333.21875 318.100006103516 307.231262207031 296.793762207031 288.262512207031 279.524993896484 269.893737792969 263.693756103516 261.399993896484 265.012512207031 268.5625 267.774993896484 265.043762207031 267.018737792969 263.568756103516 262.03125 261.774993896484 264.78125 264.518737792969 257.149993896484 248.543746948242 238.1875 228.431243896484 220.3125 211.331253051758 205.40625 202.1875 198.375 197.181243896484 195.024993896484 194.506256103516 194.59375 194.350006103516 194.96875 194.831253051758 193.962493896484 191.731246948242 188.612503051758 184.024993896484 183.493743896484 187.556243896484 
272.34375 268.712493896484 265.674987792969 261.393737792969 271.706237792969 283.706237792969 294.46875 305.287506103516 319.625 327.662506103516 321.556243896484 306.9375 300 292.799987792969 282.987487792969 277.506256103516 267.087493896484 259.125 257.03125 260.8125 261.424987792969 260.71875 259.412506103516 255.606246948242 252.237503051758 249.731246948242 249.756256103516 250.787506103516 252 246.274993896484 238.856246948242 231.143753051758 222.006256103516 213.96875 205.28125 200.612503051758 196.393753051758 192.231246948242 192.943756103516 190.587493896484 187.75 188.0625 187.043746948242 187.181243896484 187.612503051758 185.106246948242 181.737503051758 179.287506103516 175.699996948242 173.40625 175.387496948242 
262.831237792969 257.3125 253.706253051758 250.231246948242 251.756256103516 258.362487792969 267.993743896484 278.181243896484 282.825012207031 292.037506103516 294.668762207031 289.868743896484 288.200012207031 285.293762207031 279.318756103516 273.618743896484 268.625 262.568756103516 258.475006103516 260.831237792969 257.5 253.418746948242 247.712493896484 244.862503051758 241.631256103516 240.306243896484 238.868743896484 239.09375 237.643753051758 233.581253051758 228.456253051758 220.668746948242 211.887496948242 204.831253051758 198.03125 194.887496948242 190.112503051758 186.137496948242 186.768753051758 185.662506103516 181.512496948242 179.875 178.600006103516 179.368743896484 178.59375 178.512496948242 174.112503051758 167.443756103516 163.318756103516 164.012496948242 165.862503051758 
252.693740844727 245.850006103516 241.9375 240.587493896484 241.581253051758 247.774993896484 248.912506103516 244.887496948242 242.149993896484 253.881240844727 268.043762207031 272.712493896484 277.993743896484 278.206237792969 275.649993896484 273.549987792969 270.125 266.225006103516 261.5625 258.274993896484 255.306243896484 247.943756103516 240.706253051758 233.600006103516 230.925003051758 224.506256103516 225.574996948242 224.756256103516 223.875 221.074996948242 217.018753051758 210.543746948242 203.818756103516 196.081253051758 188.550003051758 184.831253051758 181.568756103516 179.112503051758 177.743743896484 173.837493896484 171.681243896484 170.006256103516 169.25 168.100006103516 166.743743896484 164.4375 160.5625 156.100006103516 153.012496948242 150.731246948242 152.143753051758 
244.300003051758 237.587493896484 235.168746948242 232.706253051758 232.324996948242 236.475006103516 237.34375 235.149993896484 227.956253051758 229.4375 243.9375 256.0625 267.6875 270.456237792969 269.350006103516 269.575012207031 267.931243896484 266.231262207031 264.8125 256.362487792969 246.381256103516 240.824996948242 229.581253051758 227.362503051758 219.71875 212.262496948242 210.71875 212.681259155273 214.793746948242 211.28125 209.412506103516 202.90625 193.212493896484 184.731246948242 179.612503051758 177.368743896484 175.318756103516 173.75 173.4375 168.831253051758 164.5625 162.306243896484 162.75 163.175003051758 158.393753051758 155.912506103516 152.53125 146.65625 141.743743896484 139.774993896484 140.956253051758 
235.487503051758 230.149993896484 227.981246948242 226.75 224.118743896484 228 230.074996948242 230.09375 229.625 233.693756103516 242.25 247.168746948242 260.375 264.237487792969 265.268737792969 263.40625 261.825012207031 260.549987792969 260.418762207031 256.731262207031 243.618743896484 230.925003051758 220.168746948242 215.5625 206.112503051758 198.862503051758 197.125 198.987503051758 202.425003051758 202.331253051758 198.318756103516 191.90625 185.256256103516 178.225006103516 171.9375 170 168.0625 167.481246948242 167.443756103516 165.956253051758 163.90625 162.943756103516 158.8125 155.524993896484 152.899993896484 152.368743896484 147.762496948242 140.149993896484 134.756256103516 130.487503051758 127.724998474121 
227.087493896484 223.137496948242 220.399993896484 219.637496948242 217.262496948242 222.006256103516 225.106246948242 224.606246948242 226.631256103516 233.518753051758 242.84375 250.868743896484 253.643753051758 259.537506103516 258.087493896484 255.268753051758 253.824996948242 253.893753051758 253.675003051758 253.006256103516 247.09375 229.975006103516 214.25 197.975006103516 193.787506103516 189.449996948242 187.743743896484 189.0625 189.443756103516 187.8125 186.15625 182.300003051758 176.0625 169.637496948242 163.631256103516 160.75 159.487503051758 160.206253051758 162.118743896484 162.012496948242 160.831253051758 158.4375 156.962493896484 151.268753051758 147.293746948242 144.587493896484 141.199996948242 132.893753051758 127.743751525879 123.487503051758 118.712501525879 
223.237503051758 218.475006103516 216.487487792969 215.8125 214.881256103516 217.125 222.237503051758 224.956253051758 229.681243896484 233.8125 242.356246948242 251.3125 248.131240844727 250.306243896484 250.600006103516 246.087493896484 244.418746948242 244.556243896484 245.587493896484 248.4375 245.481246948242 232.693756103516 215.46875 196.956253051758 184.175003051758 175.456253051758 172.831253051758 174.231246948242 176.643753051758 175.418746948242 172.131256103516 169.087493896484 163.800003051758 158.181243896484 154.606246948242 154.287506103516 154.737503051758 154.831253051758 155.618743896484 156.193756103516 156.587493896484 154.181243896484 149.681243896484 139.393753051758 134.243743896484 128.793746948242 123.324996948242 122.03125 119.78125 116.550003051758 109.46875 
220.5 214.34375 211.987503051758 211.600006103516 210.362503051758 214.243743896484 217.362503051758 219.481246948242 225.350006103516 233 240.706253051758 245.887496948242 244.868743896484 236.15625 234.081253051758 234.175003051758 232.643753051758 233.331253051758 234.381256103516 237.34375 237.5 224.631256103516 208.818756103516 190.84375 169.493743896484 158.493743896484 160.887496948242 163.1875 166.331253051758 166.306243896484 162.387496948242 157.449996948242 152.112503051758 146.662506103516 144.300003051758 146.275009155273 148.225006103516 150.712493896484 153.149993896484 153.59375 152.600006103516 150.262496948242 141.068740844727 132.631256103516 130.350006103516 126.90625 120.949996948242 114.65625 110.599998474121 111.393753051758 110.662498474121 
212.96875 207.831253051758 206.637496948242 205.987503051758 206.043746948242 208.612503051758 211.024993896484 214.012496948242 221.512496948242 228.856246948242 231.993743896484 232.756256103516 230.231246948242 224.931243896484 215.243743896484 217.8125 216.681243896484 216.381240844727 219.287506103516 222.800003051758 220.925003051758 210.806243896484 197.993743896484 183.743743896484 166.543746948242 154.681243896484 153.15625 152.800003051758 154.731246948242 153.46875 152.587493896484 147.675003051758 142.731246948242 138.043746948242 135.306259155273 139.337493896484 144.137496948242 148.731246948242 152.131256103516 150.943756103516 144.449996948242 137.300003051758 134.081253051758 132.712493896484 134.21875 128.975006103516 123.662498474121 119.381248474121 115.068748474121 117.893753051758 119.662498474121 
204.537506103516 201.199996948242 200.9375 200.21875 199.84375 202.712493896484 207.131256103516 211.368743896484 216.487503051758 220.431243896484 222.03125 220.168746948242 214.574996948242 208.056243896484 195.606246948242 196.65625 197.337493896484 200.131256103516 203.106246948242 205.71875 205.037506103516 198.693756103516 190.53125 183.118759155273 172.75 163.125 157.881256103516 155.231246948242 153.65625 150.800003051758 145.137496948242 139.725006103516 136.84375 130.143753051758 124.900001525879 127.518753051758 138.0625 146.206253051758 148.287506103516 144.8125 137.75 134.399993896484 135.46875 133.356246948242 132.324996948242 131.381256103516 129.399993896484 128.143753051758 126.4375 124.793746948242 125.300003051758 
195.550003051758 192.550003051758 193.756256103516 194.274993896484 193.731246948242 197.90625 202.725006103516 206.399993896484 209.287506103516 212.84375 212.643753051758 208.306243896484 201.400009155273 195.3125 185.612503051758 175.637496948242 179.056243896484 186.09375 187.475006103516 190.112503051758 190.5 189.949996948242 187.412506103516 184.787490844727 177.100006103516 167.568756103516 160.925003051758 155.600006103516 152.46875 150.056243896484 146.59375 140.225006103516 130.850006103516 121.84375 116.006248474121 125.337501525879 132.150009155273 139.068756103516 142.556243896484 142.268753051758 138.012496948242 134.71875 133.212493896484 128.4375 127.368751525879 127.949996948242 126.474998474121 125.050003051758 126.15625 125.699996948242 127.875 
187.581253051758 185.568756103516 185.774993896484 187.449996948242 189.15625 191.818756103516 195.331253051758 198.199996948242 201.887496948242 204.46875 204.71875 200.506256103516 192.225006103516 184.387496948242 177.21875 170.037506103516 161.9375 167.643753051758 172.399993896484 176.074996948242 177.925003051758 179.106246948242 181.668746948242 184.381256103516 181.600006103516 167.931243896484 159.293746948242 154.037506103516 150.487503051758 148.024993896484 145.568756103516 141.800003051758 133.300003051758 125.318748474121 125.724998474121 128.631256103516 135.018753051758 141.412506103516 147.0625 142.90625 137.53125 132.756256103516 127.71875 124.893753051758 124.662498474121 125.8125 125.449996948242 126.90625 127.9375 125.525001525879 127.125 
176.643753051758 176.412506103516 177.681243896484 178.706253051758 180.40625 184.612503051758 186.712493896484 188.25 190.737503051758 193.893753051758 194.537506103516 192.043746948242 182.243743896484 175.774993896484 169.274993896484 163.443756103516 156.1875 150.243743896484 160.425003051758 163.112503051758 165.493743896484 169.012496948242 173.356246948242 177.543746948242 177.15625 166.931243896484 156.087493896484 152.449996948242 149.600006103516 145.25 138.331253051758 132.443740844727 134.762496948242 132.824996948242 130.40625 138.193756103516 143.818756103516 144.731246948242 145.949996948242 142.743743896484 133.743743896484 128.625 124.118751525879 122 121.462501525879 123.599998474121 124.168746948242 124.737503051758 127.175003051758 123.256248474121 127.306251525879 
165.693756103516 166.324996948242 167.318756103516 169.893753051758 172.443756103516 174.975006103516 177.393753051758 179.637496948242 182.262496948242 186.393753051758 186.118743896484 178.568756103516 170.662506103516 165.100006103516 159.40625 155.443756103516 151.09375 143.625 143.287506103516 147.206253051758 151.618743896484 158.899993896484 156.168746948242 162.431243896484 163.550003051758 161.612503051758 156.199996948242 149.568756103516 146.856246948242 142.699996948242 138.081253051758 136.481246948242 137.300003051758 135.143753051758 134.293746948242 139.256256103516 140.375 139.225006103516 140.487503051758 135.625 128.25 122.881248474121 120.543746948242 120.21875 119.824996948242 120.400001525879 122.699996948242 123.90625 124.981246948242 118.775001525879 126.881248474121 
154.4375 155.931243896484 157.725006103516 158.981246948242 161.975006103516 167.09375 170.162506103516 171.96875 174.706253051758 176.9375 178.587493896484 174.543746948242 169.381256103516 161.274993896484 154.131256103516 144.550003051758 136.875 137.543746948242 136.443756103516 138.393753051758 138.731246948242 143.537506103516 150.493743896484 152.693756103516 151.818756103516 147.96875 145.931243896484 145.131256103516 140.193756103516 135.331253051758 134.543746948242 140.5 138.706253051758 135.068756103516 135.362503051758 137.75 137.78125 136.350006103516 134.006256103516 130.125 122.106246948242 117.231254577637 117.268753051758 117.462501525879 118.724998474121 119.96875 120.550003051758 121.731246948242 121.818748474121 117.456253051758 125.856246948242 
140.28125 146.612503051758 150.387496948242 151.5625 152.75 159.3125 164.024993896484 166.806243896484 169.90625 170.9375 171.918746948242 169.137496948242 162.78125 156.231246948242 148.100006103516 141.649993896484 133.381256103516 131.362503051758 133.543746948242 133.649993896484 140.21875 145.912506103516 150.574996948242 152.381256103516 152.606246948242 149.175003051758 143.100006103516 140.699996948242 139.006256103516 138.806243896484 140.668746948242 143.818756103516 138.643753051758 134.425003051758 133.28125 134.956253051758 135.625 134.399993896484 130.96875 125.893753051758 121.150001525879 116.693748474121 114.474998474121 115.299995422363 116.34375 117.900001525879 119.612503051758 119.831253051758 116.787498474121 119.375 123.775001525879 
131.231246948242 133.056243896484 138.918746948242 143.887496948242 145.574996948242 150.100006103516 156.162506103516 161.074996948242 164.8125 166.506256103516 166.90625 163.237503051758 157.668746948242 151.568756103516 146.662506103516 139.074996948242 137.993743896484 135.100006103516 136.712493896484 136.100006103516 137.287506103516 142.293746948242 147.1875 146.837493896484 144.40625 144 144.193756103516 141.774993896484 143.706253051758 145.162506103516 144.993743896484 144.350006103516 141.5625 138.824996948242 134.706253051758 133.581253051758 134.056243896484 132.568756103516 128.837493896484 124.018753051758 120.006248474121 116.03125 113.550003051758 113.175003051758 113.856246948242 115.224998474121 116.6875 117.868751525879 116.043746948242 121.006248474121 122.418746948242 
122.71875 128.543746948242 133.231246948242 137.774993896484 139.356246948242 143.237503051758 144.618743896484 150.318756103516 157.962493896484 160.625 160.143753051758 157.024993896484 155.21875 150.612503051758 145.925003051758 140.131256103516 136.543746948242 135.4375 135.587493896484 135.743743896484 138.53125 139.699996948242 143.143753051758 142.487503051758 143.206253051758 142.274993896484 140.600006103516 142.112503051758 144.600006103516 145.824996948242 145.25 147.09375 145.925003051758 142.018753051758 138.46875 132.84375 130.487503051758 129.90625 128.5 123.574996948242 118.518753051758 115.056251525879 112.262496948242 111.324996948242 111.599998474121 111.862503051758 112.625 113.487503051758 116.443748474121 121.712501525879 123.0625 
112.662498474121 119.581253051758 125.625 128.637496948242 129.787506103516 132.606246948242 139.375 144.181243896484 148.618743896484 151.149993896484 153.0625 154.949996948242 153.918746948242 152.393753051758 146.706253051758 141.081253051758 137.362503051758 137.631256103516 138.65625 139.75 139.881256103516 141.443756103516 142.756256103516 144.537506103516 143.481246948242 140.350006103516 140.618743896484 142.662506103516 146.418746948242 151.018753051758 154.699996948242 157.59375 156.037506103516 150.574996948242 145.024993896484 136.15625 134.212493896484 130.981246948242 127.556251525879 122.881248474121 117.193748474121 114.568748474121 112.287498474121 110.0625 109.84375 109.637496948242 109.881248474121 108.243751525879 114.25 119.612503051758 123.243751525879 
105.525001525879 112.525001525879 117.143753051758 121.581253051758 123.731246948242 127.668754577637 131.024993896484 136.368743896484 140.53125 144.693756103516 147.012496948242 148.96875 151.793746948242 151.475006103516 145.962493896484 141.793746948242 139.975006103516 140.03125 140.25 141.53125 143.399993896484 143.487503051758 145.668746948242 146.199996948242 144.899993896484 146.018753051758 146.34375 149.056243896484 152.4375 159.918746948242 164.75 171.756256103516 168.699996948242 161.737503051758 151.675003051758 142.800003051758 137.875 130.662506103516 126.181251525879 121.400001525879 116.393753051758 112.949996948242 110.668746948242 107.356246948242 105.106246948242 104.78125 102.125 106.331253051758 109.574996948242 115.987503051758 120.150001525879 
101.018753051758 108.293746948242 109.706253051758 113.09375 113.675003051758 117.4375 121.03125 126.243751525879 129.362503051758 132.356246948242 139.106246948242 144.1875 146.800003051758 148.71875 147.118743896484 143.268753051758 141.699996948242 142.043746948242 142.412506103516 143.106246948242 145.149993896484 145.462493896484 147.637496948242 146.568756103516 147.612503051758 148.581253051758 152.856246948242 155.856246948242 159.081253051758 167.356246948242 176.324996948242 188.443756103516 185.15625 172.181243896484 159.262496948242 149.53125 140.199996948242 132.193756103516 124.362503051758 118.956253051758 114.393753051758 110.081253051758 106.574996948242 104.693748474121 103.456253051758 100.193748474121 103.737503051758 105.162498474121 107.712501525879 112.793746948242 114.443748474121 
94.4000015258789 97.1062469482422 100.3125 103.043746948242 104.275001525879 108.53125 112.337501525879 115.925003051758 120.574996948242 128.081253051758 134.487503051758 139.481246948242 145.425003051758 149.931243896484 148.806243896484 146.787506103516 144.212493896484 143.574996948242 146.818756103516 147.012496948242 147.643753051758 148.943756103516 151.162506103516 152.768753051758 153.743743896484 155.231246948242 159.375 162.5625 166.774993896484 173.387496948242 184.975006103516 196.956253051758 195.956253051758 178.506256103516 162.143753051758 150.606246948242 142.518753051758 132.431243896484 124.449996948242 118.793746948242 113.456253051758 109.193748474121 105.737503051758 102.543746948242 101.324996948242 101.856246948242 103.518753051758 103.543746948242 105.75 105.793746948242 106.46875 
88.1374969482422 88.1437530517578 90.7687530517578 92.5749969482422 95.0124969482422 100.150001525879 104.831253051758 108.056251525879 114.28125 122.068748474121 128.574996948242 135.149993896484 143.024993896484 149.006256103516 149.693756103516 146.756256103516 146.46875 148.793746948242 151.90625 152.856246948242 153.506256103516 153.75 157.65625 158.4375 159.9375 160.456253051758 165.024993896484 168.28125 173.106246948242 179.943756103516 189.581253051758 198.631256103516 193.5 177.712493896484 163.75 152 141.78125 133.368743896484 126.34375 118.931251525879 112.512496948242 109.275001525879 105.893753051758 103.224998474121 100.331253051758 98.625 99.3562469482422 101.931251525879 101.768753051758 99.7249984741211 99.0999984741211 
81.0250015258789 79.9562530517578 81.6500015258789 83.96875 86.65625 90.25 94.4937515258789 100.375 108.856246948242 115.599998474121 122.993751525879 131.981246948242 140.931243896484 150.056243896484 152.675003051758 152.925003051758 152.831253051758 154.087493896484 156.143753051758 157.59375 158.743743896484 158.943756103516 161.706253051758 162.362503051758 163.606246948242 162.806243896484 167.637496948242 172.681243896484 177.337493896484 182.4375 190.199996948242 194.743743896484 186.856246948242 173.443756103516 162.449996948242 151.443756103516 142.03125 132.5 125.518753051758 118.099998474121 110 105.724998474121 104.581253051758 104.387496948242 102.59375 100.087501525879 100.662498474121 102.193748474121 99.7437515258789 96.875 93.7937469482422 
78.875 76.75 77.2375030517578 77.9437484741211 79.8562469482422 84.7874984741211 89.4812469482422 96.4499969482422 104.306251525879 110.737503051758 119.1875 129.28125 139.681243896484 150.399993896484 154.493743896484 156.637496948242 157.918746948242 161.75 162.818756103516 162.375 163.800003051758 165.612503051758 167.793746948242 167.34375 166.25 168.806243896484 170.931243896484 172.887496948242 176.893753051758 181.056243896484 186.71875 188.162506103516 180.337493896484 170.0625 160.381256103516 149.25 143.006256103516 134.331253051758 126.612503051758 121.806251525879 115.5625 110.574996948242 107 104.625 103.300003051758 103.368751525879 102.987503051758 104.137496948242 102.09375 98.4562530517578 93.8812484741211 
77.3187484741211 74.1937484741211 73.5875015258789 74.5374984741211 76.4124984741211 80.9937515258789 86.78125 92.5124969482422 100.487503051758 108.268753051758 116.931251525879 126.800003051758 139.6875 149.1875 154.893753051758 160.143753051758 164.149993896484 166.568756103516 168.606246948242 169.856246948242 169.118743896484 169.787506103516 171.96875 169.649993896484 168.493743896484 172.262496948242 173.0625 173.431243896484 176.725006103516 178.5 182.731246948242 181.225006103516 173.6875 165.193756103516 156.175003051758 145.699996948242 139.90625 134.068756103516 128.9375 123.34375 119.4375 114.087501525879 109.949996948242 105.768753051758 105.237495422363 106.650001525879 107.206253051758 106.668746948242 104.037498474121 101.125 96.5812530517578 
74.9499969482422 71.2624969482422 70.7624969482422 71.78125 73.9437484741211 77.8937530517578 84.4749984741211 89 96.7562484741211 104.456253051758 113.175003051758 122.931251525879 135.699996948242 148.050003051758 154.856246948242 162.443756103516 165.737503051758 167.893753051758 170.006256103516 171.800003051758 170.550003051758 171.612503051758 173.056243896484 171.912506103516 173.456253051758 174.225006103516 174.737503051758 173.618743896484 173.731246948242 175.081253051758 174.399993896484 173.0625 165.524993896484 158.03125 151.100006103516 142.46875 136.518753051758 131.956253051758 127.050003051758 124.800003051758 121.125 116.837501525879 113.212501525879 110.925003051758 110.112503051758 114.78125 116.868751525879 113.59375 108.712501525879 104.84375 100.4375 
77.0812530517578 73.90625 72.9437484741211 73.8874969482422 74.6624984741211 78.03125 83.34375 87.8937530517578 95.2687454223633 103.599998474121 114.150001525879 124.287498474121 136.712493896484 150.149993896484 157.268753051758 163.425003051758 168 172.162506103516 172.03125 173.268753051758 171.393753051758 173.100006103516 173.112503051758 173.53125 174.28125 175.368743896484 174.112503051758 173.256256103516 171.268753051758 170.112503051758 168.918746948242 165.806243896484 157.75 153.306243896484 146.512496948242 141.09375 134.024993896484 129.943756103516 125.818748474121 125.431251525879 122.081253051758 119.793746948242 117.168746948242 116.231246948242 119.212501525879 124.650001525879 125.574996948242 120.462501525879 114.331253051758 109.8125 105.181251525879 
79.8312530517578 76.4249954223633 76.1125030517578 76.2937469482422 77.15625 79.4625015258789 83.1999969482422 86.7312469482422 93.3187484741211 101.318748474121 111.150001525879 123.712501525879 135.59375 147.550003051758 156.818756103516 165.662506103516 172.043746948242 174.931243896484 173.043746948242 172.3125 172.706253051758 174.318756103516 174.1875 172.756256103516 173.574996948242 173.268753051758 171.131256103516 169.318756103516 168.662506103516 165.96875 163.256256103516 159.056243896484 152.412506103516 146.393753051758 141.418746948242 136.106246948242 131.268753051758 125.599998474121 124.09375 123.125 120.418746948242 120.368751525879 120.481246948242 120.337501525879 125.568748474121 131.018753051758 130.356246948242 122.525001525879 117.068748474121 113.050003051758 108.962501525879 
82.0187530517578 78.9812469482422 78.75 79.1875 79.7312469482422 81.4187469482422 82.9000015258789 85.9875030517578 90.6500015258789 98.4937515258789 108.84375 121.6875 136.112503051758 150.112503051758 159.481246948242 168.087493896484 174.337493896484 176.762496948242 174.6875 171.475006103516 171.643753051758 171.449996948242 172.481246948242 170.681243896484 170.449996948242 169.943756103516 169.731246948242 168.537506103516 166.90625 163.693756103516 158.53125 153.225006103516 145.443756103516 140.556243896484 132.443740844727 128.806243896484 123.474998474121 122.356246948242 121.206253051758 119.75 117.987503051758 117.174995422363 117.868751525879 119.53125 124.106246948242 127.675003051758 127.84375 124.0625 118.675003051758 114.893753051758 112.356246948242 
87.9187469482422 85.6312484741211 84.6187515258789 84.4875030517578 84.3562469482422 85.34375 85.8187484741211 88.3312530517578 92.4124984741211 97.8812484741211 106.737503051758 121.887496948242 138.212493896484 151.287506103516 161.837493896484 169.818756103516 175.8125 175.375 174.712493896484 170.90625 170.699996948242 170.15625 169.943756103516 168.681243896484 167.362503051758 165.931243896484 167.574996948242 166.893753051758 163.300003051758 158.96875 153.981246948242 148.162506103516 140.493743896484 132.993743896484 126.556251525879 122.612503051758 122.068748474121 118.425003051758 117.637496948242 118.5 116.550003051758 117.568748474121 117.418746948242 118.956253051758 120.456253051758 123.3125 124.237503051758 122.21875 120.449996948242 116.837501525879 114.381248474121 
94.3499984741211 92.7437515258789 91.4000015258789 90.9499969482422 90.9875030517578 90.7000045776367 90.8312530517578 91.2375030517578 93.9375 95.8625030517578 107.987503051758 128.318756103516 143.40625 154.881256103516 164.162506103516 171.649993896484 175.862503051758 174.337493896484 173.050003051758 167.931243896484 168.03125 167.381256103516 165.518753051758 164.018753051758 162.918746948242 163.181243896484 163.337493896484 162.199996948242 159.037506103516 154.96875 150.362503051758 145.09375 137.043746948242 128.03125 122.456253051758 120.53125 119.03125 117.21875 115.762496948242 115.074996948242 113.456253051758 113.181251525879 115.949996948242 118.15625 119.337501525879 119.5625 123.900001525879 120.4375 118.175003051758 116.587501525879 115.393753051758 
99.7312469482422 98.09375 97.8250045776367 97 97.5250015258789 97.3625030517578 97.1687469482422 96.5812530517578 98.7750015258789 100.118751525879 119.21875 140.043746948242 151.524993896484 161.300003051758 168.4375 174.337493896484 177.168746948242 175.743743896484 171.818756103516 167.9375 164.818756103516 163.637496948242 161.649993896484 159.862503051758 158.475006103516 158.087493896484 156.524993896484 158.887496948242 157.162506103516 151.399993896484 145.368743896484 140.175003051758 133.493743896484 124.150001525879 116.862503051758 115.675003051758 115.90625 114.15625 114.824996948242 112.949996948242 111.806251525879 112.025001525879 111.362503051758 111.706253051758 113.818748474121 116.381248474121 118.599998474121 119.081253051758 116.025001525879 114.862503051758 114.981246948242 
98.0749969482422 97.21875 97.7062530517578 98.4437484741211 98.3625030517578 99.6374969482422 101.800003051758 104.818748474121 111.599998474121 124.362503051758 147.6875 157.425003051758 161.518753051758 168.243743896484 173.181243896484 177 179.131256103516 176.368743896484 172.381256103516 166.78125 161.256256103516 157.193756103516 155.8125 155.375 152.850006103516 151.987503051758 152.84375 154.806243896484 151.993743896484 148.399993896484 141.375 133.425003051758 128.581253051758 122.993751525879 119.3125 117.206253051758 115.543746948242 115.612503051758 113.324996948242 110.112503051758 110.456253051758 110.181251525879 108.462501525879 109.699996948242 110.40625 112.599998474121 112.668746948242 113.418746948242 114.018753051758 113.668746948242 113.28125 
96.96875 96.5062484741211 98.4875030517578 100.050003051758 101.724998474121 104.199996948242 106.956253051758 114.387496948242 124.506248474121 138.293746948242 152.993743896484 163.943756103516 167.868743896484 172.149993896484 177.418746948242 178.287506103516 177.987503051758 174.168746948242 168.824996948242 164.112503051758 156.706253051758 152.306243896484 147.912506103516 147.237503051758 146.581253051758 146.818756103516 146.925003051758 148.056259155273 146.143753051758 142.875 138.475006103516 134.443756103516 129.631256103516 125.637496948242 122.362503051758 119.431251525879 116.943748474121 116.550003051758 113.893753051758 108.675003051758 107.618751525879 107.168746948242 104.518753051758 103.581253051758 106.081253051758 107.181251525879 108.587501525879 110.099998474121 111.46875 111.068748474121 111.837501525879 
94.8874969482422 95.8625030517578 98.7125015258789 101.637496948242 103.393753051758 106 111.481246948242 121.400001525879 131.03125 142.737503051758 155.368743896484 163.481246948242 170.318756103516 173.981246948242 177.512496948242 178.018753051758 176.556243896484 171.431243896484 165.84375 160.356246948242 152.475006103516 145.768753051758 140.212493896484 139.231246948242 140.21875 140.506256103516 140.75 142.09375 141.40625 137.962493896484 137.375 135.78125 133.637496948242 130.5 125.574996948242 123.881248474121 122.587501525879 120.712501525879 114.662498474121 109.668746948242 105.293746948242 101.224998474121 99.1875 100.425003051758 102.762496948242 104.887496948242 105.525001525879 106.006248474121 110.150001525879 111.050003051758 111.368751525879 
90.1937484741211 91.1812515258789 94.4937515258789 97.34375 99.1437530517578 103.793746948242 109.837501525879 117.331253051758 126.993751525879 135.581253051758 146.024993896484 154.193756103516 162.481246948242 166.300003051758 168.481246948242 170.925003051758 170.337493896484 167.087493896484 163.149993896484 155.418746948242 146.975006103516 139.106246948242 131.350006103516 130.96875 131.837493896484 132.300003051758 133.331253051758 136.568756103516 138.868743896484 136.568756103516 133.725006103516 135.112503051758 133.987503051758 136.068756103516 132.118743896484 127.431251525879 124.09375 120.074996948242 116 110.193748474121 104.206245422363 97.4499969482422 94.3000030517578 97.5625 101.699996948242 103.15625 103.493751525879 104.53125 107.231246948242 107.931251525879 108.881248474121 
85.0187530517578 86.8312530517578 90.3562469482422 90.9375 94.7624969482422 99.5749969482422 104.275001525879 110.381248474121 118.487503051758 126.456253051758 135.975006103516 144.137496948242 151.425003051758 157.418746948242 160.925003051758 163.056243896484 162.318756103516 162.818756103516 159.362503051758 148.65625 138.0625 128.518753051758 123.425003051758 125.668746948242 126.34375 127.549995422363 129.03125 132.274993896484 133.949996948242 134.487503051758 133.943756103516 133.112503051758 134.887496948242 138.506256103516 140.362503051758 136.962493896484 128.875 124.5625 118.21875 112.550003051758 106.1875 99.5875015258789 94.9250030517578 97.1187515258789 100.5 101.78125 102.387496948242 103.787498474121 107.637496948242 106.256248474121 107.481246948242 
81.6750030517578 83.0250015258789 86.4187469482422 87.4187469482422 90.9250030517578 95.1937484741211 98.8375015258789 104.949996948242 112.574996948242 120.287498474121 128.018753051758 136.199996948242 144.081253051758 150.425003051758 155.487503051758 157.631256103516 158.256256103516 158.84375 158.487503051758 148.449996948242 134.556259155273 121.793746948242 117.612503051758 120.112503051758 121.925003051758 122.487503051758 123.737503051758 126.737503051758 128.600006103516 128.993743896484 130.600006103516 130.762496948242 133.75 139.818756103516 144.756256103516 146.606246948242 138.956253051758 130.318740844727 123.743751525879 115.568748474121 107.818748474121 102.856246948242 100.493751525879 101.131248474121 101.662498474121 102.243751525879 103.875 103.375 104.087501525879 106.21875 105.943748474121 
78.7375030517578 81.34375 83.7750015258789 85.84375 88.3625030517578 91.9562530517578 93.9437484741211 98.9749984741211 105.106246948242 112.743751525879 120.081253051758 128.493743896484 136.425003051758 142.612503051758 147.887496948242 151.568756103516 152.143753051758 150.850006103516 150.068756103516 141.65625 130.681243896484 119.012504577637 114.543746948242 115.5 117.875 119.1875 121.0625 122.25 124.349998474121 125.918746948242 127.987503051758 128.831253051758 132.137496948242 135.893753051758 142.356246948242 147.331253051758 140.443756103516 131.925003051758 125.224998474121 118.5 110.675003051758 107.162498474121 103.849998474121 103.612503051758 103.806251525879 102.90625 103.837501525879 103.806251525879 103.037498474121 105.96875 105.643753051758 
