ncols        51
nrows        45
xllcorner    -63.500000000000
yllcorner    -7.500000000000
cellsize     0.166666666667
NODATA_value -99
264.875 257.731231689453 253.043746948242 253.693756103516 250.693756103516 249.162506103516 247.481246948242 243.449996948242 244.418746948242 247.418746948242 245.912506103516 243.637496948242 240.043746948242 240.106246948242 240.90625 239.125 236.949996948242 229.962493896484 225.043746948242 223.225006103516 222.168746948242 215.425003051758 210.21875 205.237503051758 202.649993896484 196.431243896484 192.893753051758 189.818756103516 184.46875 182.274993896484 172.75 167.90625 168.725006103516 166.181243896484 163.324996948242 158.981246948242 151.706253051758 152.493743896484 146.137496948242 141.037506103516 141.225006103516 142.568756103516 139.550003051758 138.693756103516 138.981246948242 141.206253051758 141.425003051758 140.762496948242 142.362503051758 147.949996948242 154.231246948242 
250.84375 243.206253051758 238.800003051758 240.125 239.881256103516 238.762496948242 236.543746948242 234.318756103516 235.3125 235.368743896484 233.256256103516 229.368743896484 225.643753051758 223.337493896484 220.868743896484 218.881256103516 215.693756103516 210.243743896484 206.962493896484 204.237503051758 197.449996948242 194.774993896484 191.518753051758 190.962493896484 184.256256103516 179.96875 178.256256103516 177.056243896484 171.574996948242 166.318756103516 161.512496948242 161.712493896484 161.59375 162.550003051758 160.837493896484 154.037506103516 147.193756103516 145.4375 138.712493896484 135.368743896484 136.862503051758 135.512496948242 133.699996948242 130.53125 132.65625 135.568756103516 136.456253051758 137.574996948242 137.6875 144.556243896484 149.868759155273 
222.806243896484 221.431243896484 222.231246948242 221.318756103516 219.09375 216.587493896484 216.100006103516 218.137496948242 219.981246948242 219.587493896484 217.256240844727 211.600006103516 209.84375 203.800003051758 200.037506103516 196.756256103516 194.28125 189.068756103516 184.675003051758 183.306243896484 177.324996948242 175.556243896484 173.962493896484 172.587493896484 168.631256103516 162.856246948242 166.449996948242 165.09375 161.931243896484 158.800003051758 155.03125 150.131256103516 151.081253051758 154.53125 148.199996948242 140.725006103516 137.524993896484 137.524993896484 130.618743896484 127.925003051758 128.418746948242 128.081253051758 125.162498474121 123.568748474121 126.831253051758 127.175003051758 127.325004577637 131.006256103516 130.456253051758 136.293746948242 145.050003051758 
198.212493896484 194.143753051758 198.568740844727 202.199996948242 199.206253051758 195.337509155273 194.081253051758 198.993743896484 203.75 204.737503051758 198.71875 193.199996948242 189.899993896484 187.90625 182.106246948242 176.581253051758 172.25 168.237503051758 166.287506103516 168.606246948242 164.300003051758 158.34375 156.212493896484 156.731246948242 154.699996948242 151.15625 152.1875 148.756256103516 149.375 151.362503051758 148.706253051758 143.8125 140.449996948242 138.15625 133.75 133.71875 132.699996948242 127.21875 122.650001525879 119.381248474121 121.525001525879 122.981246948242 120.393753051758 118.318748474121 119.3125 118.474998474121 119.556251525879 122.8125 125.224998474121 129.375 137.293746948242 
195.131256103516 183.512496948242 174.487503051758 177.875 181.512496948242 177.350006103516 178.268753051758 182.318756103516 185.600006103516 185.162506103516 184.199996948242 177.912506103516 174.493743896484 171.231246948242 165.212493896484 160.068756103516 155.006256103516 152.418746948242 147.737503051758 148.556243896484 147.131256103516 141.787506103516 138.774993896484 143.262496948242 141.175003051758 137.90625 137.443756103516 139.837493896484 140.375 138.862503051758 138.462493896484 136.6875 135.75 132.362503051758 127.981246948242 123.293746948242 121.993751525879 119.537498474121 114.431251525879 112.84375 113.987503051758 112.550003051758 112.943748474121 112.831253051758 112.125 111.5 113.03125 114.693748474121 115.574996948242 120.356246948242 127.087501525879 
179.581253051758 174.03125 167.756256103516 153.331253051758 159.431243896484 167.193756103516 167.75 169.425003051758 174.125 173.100006103516 170.268753051758 165.712493896484 163.081253051758 156.300003051758 153.087493896484 148.399993896484 141.631256103516 136.25 133.862503051758 135.162506103516 133.518753051758 130.550003051758 129.893753051758 129.487503051758 130.362503051758 129.149993896484 129.231246948242 130.931243896484 130.587493896484 129.518753051758 129.225006103516 130.818756103516 127.881248474121 126.693748474121 121.137496948242 117.887496948242 111.65625 109.493751525879 108.556251525879 109.050003051758 105.943748474121 106.456253051758 105.381248474121 104.0625 105.800003051758 105.681251525879 103.881248474121 106.09375 106.574996948242 110.28125 116.087501525879 
167.143753051758 162.743743896484 158.243743896484 152.15625 147.668746948242 145.274993896484 150.649993896484 155.712493896484 157.09375 158.125 157.725006103516 151.100006103516 150.581253051758 145.981246948242 140.524993896484 137.4375 133.199996948242 124.962501525879 118.912498474121 122.068748474121 120.543746948242 118 116.618751525879 119.074996948242 119.837501525879 121.462501525879 124.512496948242 122.706253051758 120.931251525879 123.456253051758 122.493751525879 120.162498474121 117.275001525879 117.668746948242 115.712501525879 110.762496948242 104.481246948242 100.893753051758 101.143753051758 102.487503051758 99.2312469482422 97.5500030517578 97.7562484741211 96.3375015258789 98.2062530517578 100.131248474121 99.4499969482422 96.8687515258789 95.6750030517578 99.9749984741211 107.099998474121 
158 151.518753051758 149.149993896484 146.699996948242 145.100006103516 147.925003051758 144.256256103516 136.625 135.381256103516 137.268753051758 138.462493896484 137.293746948242 136.537506103516 132.506240844727 129.731246948242 126.568748474121 121.5625 114.568748474121 109.206253051758 106.431251525879 109.125 109.493751525879 107.831253051758 110.15625 113.212501525879 112.162498474121 114.712501525879 112.331253051758 113.868751525879 113.293746948242 115.912498474121 114.018753051758 112.125 109.493751525879 106.087501525879 99.9499969482422 94.6875 91.6500015258789 89.7624969482422 88.5999984741211 87.0250015258789 87.2375030517578 87.0812530517578 85.4124984741211 86.3812484741211 85.9562454223633 85.4000015258789 83.0625 84.1875 87.8249969482422 96.4875030517578 
149.949996948242 144.699996948242 141.518753051758 141.556243896484 141.987503051758 141.681243896484 139.918746948242 136.868759155273 131.618743896484 125.974998474121 124.849998474121 122.206253051758 126.099998474121 122.699996948242 119.487503051758 115.837501525879 112.900001525879 109.668746948242 108.5 101.699996948242 100.150001525879 103.618751525879 102.787498474121 106.6875 109.018753051758 105.612503051758 105.193748474121 108.387496948242 110.387496948242 108.949996948242 111.949996948242 107.46875 101.150001525879 96.9625015258789 94.7437515258789 93.2874984741211 90.6937484741211 88.7562484741211 85.3000030517578 82.1437530517578 79.8062515258789 79.1624984741211 79.4812469482422 77.1812515258789 76.5562515258789 75.65625 75.7312469482422 73.2874984741211 74.0562515258789 77.28125 84.0812530517578 
140.350006103516 136.875 135.756256103516 136.168746948242 136.699996948242 138.53125 136.78125 134.28125 131.081253051758 128.412506103516 123.012496948242 115.956253051758 117.25 115.71875 112.71875 109.90625 104.893753051758 105.118751525879 104.893753051758 101.949996948242 100.074996948242 97.6187515258789 95.3812484741211 99.2249984741211 100.587501525879 101.4375 100.856246948242 102.731246948242 102.918746948242 102.25 103.162498474121 98.9250030517578 94.96875 90.5187530517578 86.9749984741211 86.3687515258789 84.8687515258789 83.40625 80.4937515258789 79.4875030517578 78.5562515258789 76.5374984741211 73.6187515258789 69.75 67.4875030517578 68.90625 69.4749984741211 66.125 65.4749984741211 66.5687484741211 69.6437530517578 
134.100006103516 131.481246948242 130.006256103516 131.46875 131.6875 133.668746948242 133.09375 128.018753051758 122.699996948242 120.46875 118.550003051758 114.106246948242 108.456253051758 108.306251525879 103.162498474121 99.7062530517578 97.7874984741211 98.4562530517578 98.6812515258789 100.637496948242 102.162498474121 98.7312469482422 92.9375 89.125 94.8812484741211 101.162498474121 101.131248474121 100.518753051758 96.9437484741211 96.0250015258789 95.34375 93.9625015258789 90.8625030517578 85.6750030517578 83.28125 81.4812469482422 80.1187515258789 76.7562484741211 77.6812515258789 75.7312469482422 72.9000015258789 70.3937530517578 69.4000015258789 64.0687484741211 60.6124992370605 61.5687484741211 61.4749984741211 60.4562492370605 60.21875 58.5374984741211 59.75 
129.3125 125.756248474121 124.9375 126.856254577637 128.0625 130.037506103516 130.618743896484 126.118751525879 119.275001525879 113.637496948242 110.512496948242 108.699996948242 101 98.1500015258789 97.1125030517578 92.28125 90.5687484741211 91.5 92.6687469482422 96.4250030517578 101.65625 100.356246948242 98.09375 92.5124969482422 92.3499984741211 90.7062454223633 90.9562530517578 92.4812469482422 91.0625 89.4749984741211 86.375 85.0812530517578 83.3812484741211 80.5124969482422 79.4124984741211 78.8625030517578 76.3375015258789 75.4749984741211 71.9124984741211 70.2562484741211 67.1999969482422 66.3125 62.4562492370605 56.6187515258789 52.4749984741211 50.1187515258789 48.5562515258789 51.5750007629395 52.9937515258789 51.9749984741211 49.0374984741211 
121.056251525879 119.818748474121 120.474998474121 120.712501525879 120.6875 122.78125 121.918746948242 116.881248474121 111.237503051758 108.481246948242 106.462501525879 101.90625 98.1062469482422 88.59375 84.8812484741211 84.6312484741211 83.3249969482422 85.3687515258789 87.1812515258789 89.4937515258789 93.1624984741211 93.0687484741211 93.4625015258789 90.0437469482422 85.3000030517578 83.7874984741211 84.7687530517578 86.46875 85.6624984741211 83.1999969482422 80.0187530517578 76.40625 76.4312515258789 74.6624984741211 73.4375 73.5687484741211 73.9312515258789 74.7937469482422 74.40625 69.46875 63.8562507629395 61.3187484741211 55.6624984741211 51.8499984741211 51.7874984741211 50.5562515258789 47.0750007629395 45.5562515258789 45.8875007629395 46.9749984741211 46.9249992370605 
114.175003051758 112.849998474121 113.775001525879 113.443748474121 112.712501525879 112.887496948242 111.481246948242 107.768753051758 106.012496948242 101.974998474121 99.5187530517578 95.4875030517578 89.2125015258789 82.2312469482422 73.9375 75.40625 73.8937530517578 76.7624969482422 77.9499969482422 80.8812484741211 83.7375030517578 85.875 87.1750030517578 85.7125015258789 81.7249984741211 79.2687530517578 78.5749969482422 77.5250015258789 76.5124969482422 74.5500030517578 74.6937484741211 72.5250015258789 70.0875015258789 68.5 67.8812484741211 70.5687484741211 73.8562469482422 77.0812530517578 78.1062469482422 72.4812469482422 61.0875015258789 54.9249992370605 54.21875 57.5499992370605 59.7125015258789 55.4187507629395 52.3125 51.4562492370605 48.5499992370605 49.7874984741211 48.9312515258789 
108.331253051758 105.849998474121 105.581253051758 105.987503051758 104.1875 103.293746948242 104.243751525879 100.806251525879 97.9812469482422 94.3312530517578 91.6437530517578 86.5562515258789 81.6437530517578 76.2937469482422 66.3249969482422 65.3562469482422 64.7562484741211 67.0062484741211 68.8562469482422 72.3000030517578 76.8687515258789 79.2437515258789 81.2375030517578 82.3375015258789 81.3187484741211 79.9937515258789 78.5875015258789 75.9437484741211 75.1687469482422 73.96875 70.4749984741211 69.1875 69.5374984741211 66.7687530517578 62.9312515258789 64.6812515258789 71.8000030517578 79.0812530517578 80.8562469482422 74.4875030517578 66.6937484741211 62.0062522888184 64.6125030517578 62.7937507629395 60.9437484741211 58.8375015258789 59.65625 59.4000015258789 58.9124984741211 52.03125 49.40625 
100.168746948242 98.3187484741211 98.5749969482422 97.7125015258789 96.7125015258789 97.6624984741211 95.4000015258789 92.59375 90.3375015258789 88.5437469482422 84.8687515258789 80.1374969482422 75.5437469482422 70.3625030517578 62.7750015258789 53.96875 55.0875015258789 58.4000015258789 59.96875 63.7312507629395 67.8312530517578 72.4250030517578 76.2624969482422 81.3125 81.9312515258789 80.2750015258789 76.9625015258789 72.4562454223633 71.71875 70.9312515258789 71.8625030517578 67.7312545776367 64.375 60.9437484741211 58.2312507629395 65.4562530517578 71.1750030517578 77.2437515258789 81.09375 80.6062545776367 76.3499984741211 72.1187515258789 69.2312469482422 64.3375015258789 59.2625007629395 56.84375 55.0750007629395 55.0625 55.4937515258789 52.6187515258789 49.7125015258789 
92.4312515258789 91.0999984741211 91.8312530517578 91.9875030517578 91.7249984741211 90.0687484741211 89.2125015258789 86.78125 84.78125 83.0187530517578 79.96875 74.3562469482422 68.8125 64.8499984741211 61.8187484741211 55.6749992370605 49.6624984741211 50.1312484741211 54.4375 57.6749992370605 61.5499992370605 66.7624969482422 73.3312530517578 80.3062515258789 83.65625 76.9875030517578 70.6999969482422 66.8125 67.4812469482422 68.8187484741211 70.1312484741211 70.40625 66.5500030517578 63.5249977111816 67.15625 70.6999969482422 77.8874969482422 87.0124969482422 92.7874984741211 85.0500030517578 78.5812530517578 72.7624969482422 66.5875015258789 63.3375015258789 58.5187492370605 54.3375015258789 53.6687507629395 55.2999992370605 55.2312507629395 50.1937484741211 49.75 
84.0999984741211 84.3375015258789 84.1437530517578 85.0875015258789 84.7125015258789 82.1624984741211 80.6312484741211 79.1750030517578 77.5749969482422 74.1374969482422 71.8187484741211 68.6812515258789 63.9625015258789 60.3375015258789 58.8062515258789 55.78125 50.7750015258789 45.0562515258789 49.9375 52.4562492370605 56.2874984741211 61.2312507629395 70 75.9875030517578 78.2750015258789 71.8000030517578 65.375 63.0999984741211 64.4562530517578 64.3937530517578 62.5187492370605 62.15625 69.7687530517578 71.5124969482422 69.6500015258789 76.21875 85.2562484741211 90.2562484741211 92.0812530517578 86.1312484741211 75.375 69.4375 63.5750007629395 60.2937507629395 55.875 52.8499984741211 53.7437515258789 52.78125 51.875 47.0812492370605 48.0437507629395 
76.3125 76.7687530517578 75.8812484741211 76.0875015258789 76.6875 75.2062530517578 72.6999969482422 72.0124969482422 71.3187484741211 68.8187484741211 66.6937484741211 62.3187484741211 58.8687515258789 56.7312507629395 53.5875015258789 52.3312492370605 49.7625007629395 45.9749984741211 43.8375015258789 45.2625007629395 51.5187492370605 60.6687507629395 58.8312492370605 65.3687515258789 68.2562484741211 67.6937484741211 63.9562492370605 60.6625022888184 62.1375007629395 63.09375 62.7874984741211 63.9312515258789 68.9562530517578 68.9250030517578 69.2874984741211 74.3249969482422 78.2062530517578 80.7562484741211 82.8375015258789 76.4000015258789 70.1624984741211 63.6500015258789 59.3624992370605 56.2312507629395 53.2687492370605 50.7937507629395 51.9437484741211 51.8999977111816 48.4749984741211 42.6187515258789 46.1375007629395 
67.2937469482422 68.9875030517578 68.8937530517578 68.6937484741211 68.0124969482422 69.2062530517578 66.96875 66.3499984741211 66.3874969482422 64.5812530517578 63.0250015258789 61.7750015258789 58.4500007629395 55.2312507629395 50.75 45.84375 42.8187484741211 46.3125 43.8375015258789 43.1187515258789 42.6937484741211 47.8624992370605 55.2374992370605 59.1687507629395 60.2749977111816 58.0875015258789 57.1749992370605 58.7312507629395 58.0625 57.1500015258789 59.9937515258789 66.625 67.4937515258789 67.6624984741211 68.75 72.125 73.3874969482422 73.0250015258789 72.3312530517578 68.6437530517578 62.0750007629395 56.7750015258789 54.9249992370605 52.0750007629395 49.6375007629395 48.6312484741211 49.2062492370605 48.3125 44.7937507629395 41.1124992370605 44.4812507629395 
57.9937515258789 63.1124992370605 65.6812515258789 64.2062530517578 62.5062484741211 63.46875 62.4562492370605 62.1500015258789 61.7000007629395 60.8624992370605 58.8624992370605 57.9000015258789 55.8624992370605 52.5437507629395 48.4124984741211 44.5750007629395 42.375 42.5062484741211 43.7000007629395 41.6624984741211 45.7687492370605 50.7374992370605 56.4937515258789 61.0125007629395 61.8250007629395 58.84375 54.6749992370605 55.4874992370605 57.0250015258789 57.8499984741211 62.1375007629395 66.40625 64.4562530517578 65.03125 66.1062469482422 68.25 69.5749969482422 67.8625030517578 65.5250015258789 61.8624992370605 57.6062507629395 54.7000007629395 51.7249984741211 49.375 47.4249992370605 46.3125 45.7000007629395 44.8812484741211 40.7937507629395 40.4812507629395 41.5187492370605 
53.46875 54.9812507629395 58.2000007629395 58.9500007629395 58.7437515258789 57.3312492370605 56.8250007629395 56.5875015258789 56.9187507629395 56.3937492370605 55.8125 53.5125007629395 51.34375 50.8499984741211 48.96875 45.2999992370605 44.4312515258789 43.71875 44.0562515258789 43.9812507629395 45.5562515258789 49.9500007629395 55.3687515258789 56.7249984741211 56.0125007629395 54.4562492370605 55.4312515258789 54.0375022888184 57.2749977111816 60.5125007629395 62.4375 63.8562507629395 62.3687477111816 61.6500015258789 60.8125 63.4312515258789 64.4437484741211 63.25 61.2625007629395 58.46875 55.0999984741211 52.7374992370605 50.3375015258789 47.875 45.6187515258789 44.2000007629395 42.71875 40.53125 37.5125007629395 39.2687492370605 38.8250007629395 
49.0125007629395 52.8812484741211 54.75 54.71875 54.125 53.6062507629395 50.5750007629395 50.3562507629395 51.5374984741211 53.4812507629395 53.7999992370605 52.0187492370605 51.53125 50.5125007629395 49.7000007629395 47.9625015258789 45.1875 43.5562515258789 43.3125 44.3562507629395 48.34375 50.7874984741211 53.8937492370605 54.75 55.8312492370605 53.5250015258789 52.3312492370605 53.3875007629395 54.5562515258789 56.4000015258789 58.3562507629395 60.7000007629395 58.7625007629395 56.4124984741211 56.3062515258789 56.5437507629395 58.2437515258789 56.6749992370605 56.4562492370605 55.2374992370605 52.8375015258789 49.7062492370605 47.65625 45.2437515258789 42.1187515258789 41.3499984741211 39.03125 37.8062515258789 37.125 37.8562507629395 37.25 
42.9500007629395 47.7125015258789 50.8562507629395 50.6375007629395 50.1624984741211 48.90625 48.8250007629395 47.9375 47.8125 48.0875015258789 49.1937484741211 51.3187484741211 51.4312515258789 51.6937484741211 49.5562515258789 47.8187484741211 44.8125 44.9000015258789 44.4249992370605 46.3187484741211 48.34375 52.2125015258789 54.6812515258789 56.9437484741211 57.1124992370605 54.1937484741211 54.0687484741211 51.9625015258789 51.8937492370605 53.1875 55.1749992370605 56.7437515258789 53.7999992370605 50.625 51.5499992370605 50.3937492370605 52.1437492370605 52.3937492370605 52.2937507629395 51.09375 49.6312484741211 47.1624984741211 45.7312507629395 43.3624992370605 41.1624984741211 38.75 35.9562492370605 34.2999992370605 34.9874992370605 35.5875015258789 34.4874992370605 
38.5499992370605 43.28125 47 47.5 47.5250015258789 45.8687515258789 45.6187515258789 45.1437492370605 45.2625007629395 46.7374992370605 48.0625 47.9312515258789 50.46875 50.8062515258789 48.5999984741211 45.8937492370605 44.28125 44.9500007629395 45.4937515258789 46.6500015258789 49.4375 52.3499984741211 56.9500007629395 57.4437484741211 55.6375007629395 55.5187492370605 52.2625007629395 50.09375 48.8187484741211 49.8062515258789 49.3875007629395 49.3125 48.3125 45.9874992370605 44.84375 45.2687492370605 47.0625 46.7874984741211 47.4375 47.25 45.6437492370605 44.5499992370605 43.7312507629395 41.5062522888184 37.59375 35.8250007629395 32.15625 32.8812484741211 32.8687515258789 32.9187507629395 32.7374992370605 
36.5125007629395 40.7374992370605 42.1187515258789 43.4249992370605 43.5437507629395 42.7562484741211 42.5499992370605 42.1875 42.0437507629395 41.9249992370605 45.3312492370605 46.7562484741211 47.4000015258789 48.625 47.28125 45.5 43.6812515258789 44.4000015258789 45.5374984741211 46.2937507629395 50.2437515258789 53.4500007629395 57.5 57.9187507629395 55.5187492370605 53.3125 51.0125007629395 47.9249992370605 45.3375015258789 44.6624984741211 43.9874992370605 43.0687484741211 41.2750015258789 40.1187515258789 40.375 40.9812507629395 42.1749992370605 42.7874984741211 43.34375 43.40625 43.4124984741211 41.7750015258789 40.8125 38.8187484741211 35.9187507629395 31.9750003814697 31.125 30.9187507629395 31.2000007629395 31.6000003814697 31.1687507629395 
33.09375 35.375 37.6875 39.3062515258789 39.59375 39.6624984741211 40.0687484741211 39.75 39.1812515258789 41.5374984741211 44.2750015258789 46.1437492370605 47.59375 48.0625 46.5 45.9375 44.3624992370605 44.1812515258789 45.65625 47.125 49.4249992370605 52.6375007629395 57.1062507629395 58.7312507629395 55.0374984741211 50.8375015258789 48.28125 45.8062515258789 43.4312515258789 40.9249992370605 40.4749984741211 37.96875 35.7625007629395 36.3937492370605 35.9187507629395 37.1124992370605 37.0062484741211 37.59375 38.625 39.4187507629395 40.3687515258789 39.5750007629395 38.3562507629395 36.40625 33.0125007629395 30.6312503814697 30.1000003814697 28.6687507629395 28.7687492370605 27.9562492370605 27.4187507629395 
30.0249996185303 30.7000007629395 32.7687492370605 35.03125 35.7062492370605 36.3624992370605 37.0374984741211 37.0374984741211 37.8937492370605 39.8937492370605 42.0499992370605 43.6937484741211 45.8062515258789 47.1124992370605 45.5374984741211 44.5125007629395 43.6500015258789 43.9562492370605 44.0499992370605 45.8937492370605 49.3312492370605 51.625 53.4625015258789 54.6312484741211 52.5625 48.90625 46.2625007629395 43.7999992370605 41.4249992370605 39.8187484741211 38.3875007629395 36.7937507629395 34.4124984741211 32.8812484741211 32.3312492370605 33.0499992370605 32.8375015258789 33.4437484741211 34.7874984741211 36.5562477111816 37.4624977111816 38.1812515258789 36.3875007629395 35.0875015258789 31.1312503814697 28.7124996185303 27.4187488555908 26.8249988555908 25.7374992370605 23.9812507629395 23.5687503814697 
26.9562492370605 27.3687496185303 29.5625 30.375 31.75 32.1749992370605 32.90625 34.0812492370605 35.2374992370605 37.7000007629395 39.6875 41.7437515258789 44.3999977111816 46.6437492370605 45.46875 44.3499984741211 44.125 43.15625 43.7750015258789 45.34375 47.6500015258789 49.5250015258789 51.5750007629395 51.2687492370605 49.5062484741211 46.6312484741211 44.1624984741211 41.84375 40.6937484741211 39.0875015258789 37.0562515258789 35.5187492370605 32.6749992370605 30.40625 29.3374996185303 29.6812496185303 29.5187492370605 29.8875007629395 31.0499992370605 31.8562507629395 33.6062507629395 33.4749984741211 32.9500007629395 32.0562515258789 29.0874996185303 25.8374996185303 25.1124992370605 24.40625 22.4812507629395 21.1687507629395 19.3562507629395 
24.9500007629395 25.8875007629395 27.3624992370605 28.1375007629395 28.7062492370605 29.6812496185303 30.3062496185303 32.2374992370605 34.2125015258789 36.1375007629395 38.2625007629395 41.3375015258789 44.0374984741211 45.6312484741211 45.0062484741211 44.3187484741211 43.5750007629395 43.5562515258789 43.3375015258789 44.0562515258789 46.5 47.9249992370605 49.6749992370605 48.2874984741211 46.9000015258789 44.75 42.25 40.4187507629395 39.3375015258789 37.375 35.5750007629395 33.6124992370605 30.6312503814697 28.4500007629395 26.7374992370605 26.4125003814697 26.8187503814697 26.3125 26.3937492370605 27.1062507629395 28.6312503814697 28.8562507629395 28.4624996185303 27.4249992370605 25.3999996185303 24.1124992370605 23.0437507629395 21.4249992370605 19.6124992370605 18.8624992370605 17.46875 
23.71875 24.25 24.4937496185303 25.9562492370605 26.9750003814697 28.2749996185303 29.0687503814697 30.4750003814697 32.6312484741211 34.8624992370605 37.4500007629395 40.09375 43.9000015258789 44.6687507629395 43.9812507629395 44.0499992370605 44.7437515258789 43.1749992370605 41.9187507629395 43.4437484741211 45.8125 46.9562492370605 47.7625007629395 45.5625 43.6437492370605 43.0625 40.875 38.4812507629395 36.6187515258789 35.2625007629395 33.5750007629395 32.0562515258789 29.3562507629395 27.1625003814697 25.1124992370605 23.9750003814697 23.5750007629395 23.4375 22.7625007629395 22.3187503814697 23.03125 23.8875007629395 23.7250003814697 22.7124996185303 21.7062492370605 21.2687492370605 19.9500007629395 18.5249996185303 17.2625007629395 16.5687503814697 15.8812503814697 
22.6749992370605 22.0625 22.21875 23.0375003814697 24.3812503814697 26.0687503814697 27.6687488555908 28.9750003814697 31.4624996185303 33.2999992370605 36.1062507629395 39.6812515258789 42.4562492370605 45.0875015258789 45.0125007629395 44.9500007629395 44.9874992370605 43.34375 41.5062484741211 42.9249992370605 43.8624992370605 45.0625 45.1124992370605 42.9874992370605 42.0125007629395 40.375 38.6375007629395 37.2750015258789 34.7625007629395 33.3875007629395 32.2562484741211 30.53125 27.6625003814697 25.3624992370605 23.4874992370605 21.8937492370605 21.28125 19.7687492370605 19.1000003814697 19.1312503814697 19.40625 19.5125007629395 19.2999992370605 19.2437496185303 18.6687507629395 18.5687503814697 18.2437496185303 16.9562492370605 15.2875003814697 14.4750003814697 13.9624996185303 
22.5437507629395 21.65625 21.3187503814697 21.7625007629395 22.875 24.3875007629395 26.15625 27.71875 29.4125003814697 32.4124984741211 35.9437484741211 38.5999984741211 41.90625 45.4187507629395 46.0499992370605 45.34375 44.4937515258789 44.4124984741211 43.4249992370605 44.0812492370605 44.2437515258789 44.0750007629395 43.2062492370605 41.7874984741211 41.2312507629395 39.3375015258789 38.2437515258789 36.2062492370605 34.59375 32.4812507629395 30.8312492370605 28.75 25.5874996185303 23.4249992370605 21.8562507629395 20.6749992370605 18.9312496185303 17.3312492370605 16.6625003814697 16.8812503814697 16.8125 16.8812503814697 16.0750007629395 16.0874996185303 15.78125 15.8562498092651 16.3374996185303 15.0249996185303 14.03125 12.90625 12.7375001907349 
22.4750003814697 21.5874996185303 21.4624996185303 21.7062492370605 22.0437507629395 22.7437496185303 24.1812496185303 25.1499996185303 27.9187488555908 30.2374992370605 33.8125 37.5875015258789 41.6437492370605 44.5187492370605 45.4249992370605 44.7687492370605 44.8624992370605 44.3812484741211 43.4187507629395 43.5187492370605 44.0062484741211 42.65625 42.5625 41.3937492370605 39.65625 37.75 36.6124992370605 35.5125007629395 33.8562507629395 31.75 29.7312507629395 27.2375011444092 24.1437492370605 22.2312507629395 20.4250011444092 18.7749996185303 16.71875 15.2687501907349 14.8937501907349 14.5812501907349 14.4187498092651 14.5187501907349 14.3062496185303 13.875 13.84375 13.4562501907349 13.1875 12.46875 11.7937498092651 11.4437503814697 11.1937503814697 
22.6875 21.1312503814697 21.4437503814697 21.3374996185303 21.75 22.3125 22.9812507629395 23.7687492370605 25.3875007629395 27.8250007629395 31.6625003814697 36.5 42.125 45.8875007629395 45.7750015258789 45.4749984741211 45.3499984741211 44.3250007629395 43.9937515258789 43.0687484741211 43.1812515258789 42.9562492370605 42.0062484741211 40.5875015258789 38.7374992370605 36.6124992370605 35.5812492370605 34.5250015258789 32.8562507629395 29.2000007629395 27.1749992370605 25.5750007629395 23.0249996185303 20.8812503814697 18.6000003814697 16.9249992370605 15.2937498092651 14.125 13.3562498092651 12.6125001907349 12.1000003814697 11.7875003814697 12.0375003814697 11.7624998092651 11.5812501907349 11.4437494277954 11.1437501907349 10.7562503814697 10.21875 9.79374980926514 9.70625019073486 
23.2374992370605 22.1375007629395 22.59375 22.0249996185303 22.1499996185303 22.375 22.9249992370605 23.3999996185303 24.6124992370605 26.28125 29.6812496185303 35.0374984741211 41.6624984741211 44.3624992370605 45.5437507629395 45.7437515258789 46.0374984741211 44.5437507629395 43.1187515258789 42.4000015258789 40.6062507629395 41.2562484741211 39.8499984741211 38.2437515258789 36.03125 35.4500007629395 34.5125007629395 33.5437507629395 31.8812503814697 28.4312496185303 26.1625003814697 24.6687507629395 22.0562496185303 20.0750007629395 17.9125003814697 16.0062503814697 14.6312503814697 13.3500003814697 12.84375 12.0874996185303 11.1812496185303 10.9312496185303 10.53125 10.3062505722046 10.2062501907349 9.96249961853027 9.58749961853027 9.51875019073486 9.23750019073486 8.69375038146973 8.72500038146973 
23.3875007629395 22.9125003814697 23.0625 22.3500003814697 22.375 22.8812503814697 23.1625003814697 23.3374996185303 23.8999996185303 24.28125 27.7437496185303 33.5 39.125 42.0874977111816 44.2249984741211 45.1687507629395 45.2874984741211 43.3250007629395 41.7312507629395 41.0374984741211 39.0437507629395 38.1062507629395 37.0250015258789 36.3062515258789 34.3875007629395 33.5812492370605 32.8812484741211 31.7562503814697 30.3125 27.8562507629395 25.28125 23.0750007629395 20.6062507629395 18.7749996185303 16.8125 14.8812503814697 13.5437498092651 12.8374996185303 12.4187498092651 11.4624996185303 10.4375 10.0812501907349 9.58125019073486 9.51249980926514 9.39999961853027 8.82499980926514 8.76249980926514 8.51875019073486 8.35624980926514 8.02499961853027 7.96875 
22.6749992370605 22.7124996185303 22.3500003814697 22.4624996185303 22.5 22.84375 23.1187496185303 23.15625 23.65625 23.4874992370605 28.5125007629395 33.7625007629395 37.5750007629395 40.5750007629395 43.1624984741211 44.4124984741211 43.4375 42.8250007629395 40.5499992370605 39.5499992370605 38.1124992370605 36.625 34.7874984741211 34.2437515258789 33.21875 32.3499984741211 31.3812503814697 30.4125003814697 29.1625003814697 26.40625 22.96875 21.25 19.0500011444092 17.5437488555908 15.3937501907349 13.5562496185303 12.9437503814697 12.1499996185303 11.71875 10.90625 9.94375038146973 9.78125 9.19375038146973 8.3125 8.16874980926514 7.88124990463257 7.77500009536743 7.93125009536743 7.40000009536743 7.19374990463257 7.53749990463257 
20.9375 20.59375 20.21875 21.0375003814697 21.3624992370605 21.7749996185303 21.6687507629395 23 24.7124996185303 27.5249996185303 32.5750007629395 35.1375007629395 37.3374977111816 40.2874984741211 42.375 42.3875007629395 41.7249984741211 40.6312484741211 38.1187515258789 37.1375007629395 35.7000007629395 33.9500007629395 32.9749984741211 32.3812484741211 30.8812503814697 30.0625 29.5812492370605 28.3187503814697 27.3875007629395 25.40625 22.59375 20.15625 18.2562503814697 16.9437503814697 15.34375 14 13.4375 12.8874998092651 12.1999998092651 10.8812503814697 10.4125003814697 10.4750003814697 9.52499961853027 8.83125019073486 8.57499980926514 8.27499961853027 7.90000009536743 7.81874990463257 7.65625 7.75 7.95625019073486 
19.1375007629395 19.1499996185303 18.8624992370605 19.9500007629395 20.2062492370605 21.2250003814697 21.7749996185303 23.15625 25.3312492370605 28.0499992370605 31.6687507629395 34.59375 36.5625 38.28125 40.2312507629395 41.2999992370605 39.8499984741211 39.3125 37.1437492370605 35.1624984741211 32.4625015258789 31.2437496185303 30.0187492370605 29.4624996185303 28.3812503814697 27.6000003814697 26.8812503814697 26.1000003814697 24.9437503814697 23.7999992370605 22.15625 20.0375003814697 18.2312507629395 16.8937492370605 16.0625 14.6437501907349 13.6000003814697 13.0062503814697 12.8999996185303 11.8187503814697 11.25 11.1187496185303 10.2124996185303 9.33749961853027 8.79374980926514 8.38125038146973 8.28125 8.10000038146973 8.13749980926514 8.22500038146973 8.32499980926514 
16.6875 17.0687503814697 17.7437496185303 18.5187492370605 19.1812496185303 20.0499992370605 21.2687492370605 23.2000007629395 24.375 27.7374992370605 31.0687503814697 33.9249992370605 35.8812484741211 36.2937507629395 37.1187515258789 37.9937515258789 37.9187507629395 36.7125015258789 34.5187492370605 32.6437492370605 30.0812492370605 28.8500003814697 27.28125 26.6687507629395 26.7124996185303 25.8875007629395 25.1187496185303 24.6375007629395 23.9249992370605 21.9562492370605 20.6437492370605 20.2250003814697 18.6062507629395 17.4500007629395 16.3312492370605 15.1687498092651 14.2624998092651 13.53125 13.3062496185303 12.7749996185303 11.8312501907349 11.4375 10.7687501907349 9.91250038146973 9.375 8.88749980926514 8.51875019073486 8.19375038146973 8.48124980926514 8.41874980926514 8.58125019073486 
14.5687503814697 15.0124998092651 15.8374996185303 16.5249996185303 17.5125007629395 18.5187492370605 20.03125 21.0437507629395 22.3875007629395 25.0062503814697 27.8125 30.7937507629395 32.5374984741211 32.3624992370605 33.1187515258789 34.5687484741211 34.8499984741211 34.1749992370605 32.0999984741211 30.6187496185303 28.1124992370605 26.46875 24.7687511444092 23.4500007629395 23.5499992370605 22.9312496185303 22.71875 22.4312496185303 22.2937507629395 21.46875 19.2374992370605 18.8062496185303 18.1437492370605 18.25 17.2562503814697 15.4499998092651 14.78125 14.53125 14.34375 13.8812503814697 12.8187503814697 12.1750001907349 11.2437496185303 10.5124998092651 9.98124980926514 9.60000038146973 8.90625 8.30624961853027 8.72500038146973 8.64375019073486 8.5625 
12.3187503814697 12.96875 13.6062498092651 14.15625 14.5437498092651 15.8375005722046 16.9937496185303 17.8500003814697 19.6124992370605 21.8187503814697 24.0187492370605 26.2000007629395 27.6000003814697 28.4437503814697 29.6687488555908 31.03125 31.4312496185303 31.3999996185303 29.9437503814697 27.6124992370605 25.2062492370605 23.2437496185303 22.2249984741211 22.0374984741211 22.1187496185303 20.9375 20.8999996185303 20.5437507629395 19.9500007629395 19.3875007629395 18.3312492370605 17.0187492370605 16.2625007629395 16.8875007629395 18.1312503814697 17.3562507629395 15.5249996185303 15.1875 14.9187498092651 13.78125 12.9250001907349 12.5874996185303 12 11.09375 10.9624996185303 10 9.05624961853027 8.71875 9.40000057220459 9.01875019073486 8.39375019073486 
10.5687503814697 10.96875 11.46875 11.9125003814697 12.5500001907349 13.5625 14.2875003814697 15.2375001907349 16.6812496185303 18.6499996185303 20.4125003814697 22.4312496185303 23.75 25.3812503814697 26.53125 27.1499996185303 28.5375003814697 29.0874996185303 27.6499996185303 26 23.65625 21.6625003814697 19.8500003814697 19.9312496185303 19.5625 18.875 18.4812507629395 18.2250003814697 17.8187503814697 17.7124996185303 16.7562503814697 15.9812498092651 15.5874996185303 15.90625 17.9187507629395 18.7625007629395 16.4750003814697 15.6937503814697 15.2437496185303 13.8187503814697 13.0562496185303 12.7312498092651 11.9187498092651 11.2562503814697 10.9624996185303 10.1812505722046 9.68124961853027 8.92500019073486 8.68124961853027 9.03125 8.30624961853027 
9.05000019073486 9.26249980926514 9.89375019073486 10.34375 11.2687501907349 12.1812496185303 12.6374998092651 13.1187496185303 14.5437498092651 16.0812492370605 17.40625 18.7999992370605 20.5874996185303 22.4812507629395 23.8500003814697 23.9249992370605 24.7687492370605 25.8062496185303 25.1437492370605 23.4312496185303 21.2687492370605 19.8250007629395 17.75 17.4375 17.375 17.125 16.1875 16.125 15.9250001907349 15.8624992370605 15.1625003814697 14.6437501907349 14.5500001907349 15.5562496185303 16.6312503814697 18 16.4874992370605 15.5625 14.8562498092651 14.3125 13.1625003814697 12.6812496185303 12.3562498092651 11.53125 11.0500001907349 10.2937498092651 9.84375 9 8.30000019073486 8.63125038146973 8.47500038146973 
