ncols        51
nrows        45
xllcorner    -63.500000000000
yllcorner    -7.500000000000
cellsize     0.166666666667
NODATA_value -99
197.800003051758 197.681243896484 197.106246948242 199.743743896484 199.306243896484 195.493743896484 186.5625 175.949996948242 167.5 159.831253051758 154.550003051758 150.78125 146.987503051758 141.481246948242 137.100006103516 131.912506103516 128.243743896484 123.018753051758 119.099998474121 114.506248474121 111.668746948242 107.324996948242 103.974998474121 100.949996948242 97.5812530517578 95.9000015258789 95.3625030517578 94.8312530517578 92.7062530517578 89.0187530517578 84.3062515258789 80.6750030517578 78.7624969482422 75.5062484741211 73 71.28125 70.46875 69.5625 68.75 68.2249984741211 67.9875030517578 68.2437515258789 67.8625030517578 67.6875 68.1500015258789 67.59375 68.15625 67.5999984741211 67.46875 66.46875 67.1374969482422 
188.65625 188.356246948242 192.012496948242 198.868743896484 205.96875 197.875 186.800003051758 179.506256103516 170.675003051758 162.050003051758 155.53125 150.125 145.074996948242 138.024993896484 132.806243896484 128.21875 122.949996948242 118.300003051758 113.925003051758 109.706253051758 106.175003051758 103.556251525879 100.21875 97.9000015258789 94.0250015258789 91.9625015258789 92.0437469482422 91.9749984741211 89.4000015258789 85.5437469482422 81.1437530517578 78.0374984741211 75.1187515258789 72.7374954223633 70.2062530517578 68.28125 67.1374969482422 66.2249984741211 65.2249984741211 64.59375 64.3874969482422 64.7437515258789 64.9812469482422 64.2624969482422 64.3812484741211 63.8624992370605 64.0124969482422 63.03125 62.4187507629395 60.9124984741211 61.40625 
174.199996948242 176.443756103516 180.943756103516 188.943756103516 195.75 192.081253051758 184.087493896484 177.168746948242 169.668746948242 161.693756103516 154.831253051758 148.306243896484 142.175003051758 134.143753051758 127.6875 122.925003051758 117.112503051758 112.612503051758 108.293746948242 104.368751525879 101.074996948242 98.03125 95.3499984741211 93.1750030517578 89.6687469482422 86.9937515258789 88.1312484741211 87.4875030517578 85.3874969482422 81.3000030517578 76.6125030517578 73.2937469482422 71.375 68.9187469482422 66.4625015258789 64.2874984741211 63 62.2000007629395 61.5999984741211 61.3687515258789 61.4124984741211 61.5 62.125 61.8562507629395 61.5812492370605 61.1937484741211 61.1500015258789 60.34375 58.8875007629395 57.34375 58.0750007629395 
156.993743896484 160.018753051758 169.806243896484 175.824996948242 181.600006103516 180.449996948242 177.181243896484 175.087493896484 169.3125 162.456253051758 154.568756103516 146.862503051758 137.737503051758 129.762496948242 122.875 117.15625 111.59375 107.212501525879 103.993751525879 100.762496948242 97.4187469482422 93.3000030517578 89.7750015258789 87.5625 83.9000015258789 81.6374969482422 82.0187530517578 80.5562515258789 79.2874984741211 75.9124984741211 72.0500030517578 68.2062530517578 65.6999969482422 63.3125 60.6312484741211 59.8687515258789 59.15625 58.28125 58.1375007629395 57.6749992370605 57.4375 57.5625 58.1312484741211 58.3937492370605 58.6062507629395 58.0875015258789 57.7437515258789 57.3937492370605 55.84375 53.8687515258789 53.9375 
156.699996948242 155.018753051758 155.737503051758 160.956253051758 169.600006103516 171.25 170.181243896484 170.387496948242 167.231246948242 161.112503051758 153.262496948242 143.043746948242 134.125 126.775001525879 119.518753051758 112.962501525879 106.631248474121 102.162498474121 98.8000030517578 95.0125045776367 92.5999984741211 87.46875 84.3562469482422 81.9812469482422 78.4812469482422 76.125 75.1875 74.6937484741211 73.5 69.8562469482422 66.4625015258789 62.4500007629395 59.7374992370605 57.7687492370605 55.8250007629395 54.7249984741211 54.03125 53.7625007629395 53.96875 53.7874984741211 53.6062507629395 53.5812492370605 53.7687492370605 54.4812507629395 54.8562507629395 54.6375007629395 54.0374984741211 53.3312492370605 52.0125007629395 50.46875 50.125 
156.912490844727 154.368743896484 152 148.881256103516 157.043746948242 164.481246948242 166.28125 165.743743896484 162.75 158.643753051758 150.699996948242 140.368743896484 131.699996948242 124.493751525879 116.456253051758 110.137496948242 103.543746948242 98.4499969482422 94.65625 91.1937484741211 87.2562484741211 82.75 79.125 75.9562530517578 73.1937484741211 70.4312515258789 69.34375 69.1750030517578 67.8062515258789 64.2249984741211 61.0125007629395 58.8937492370605 56.3375015258789 54.1749992370605 52.0374984741211 51.6749992370605 51.1500015258789 51.4124984741211 52.0750007629395 51.8875007629395 50.3875007629395 50.3375015258789 50.5374984741211 51.4874992370605 52.9000015258789 52.6124992370605 51.4437484741211 50.25 49.7750015258789 48.6375007629395 48.7562484741211 
159.662506103516 157.475006103516 154.287506103516 150.581253051758 152.712493896484 154.818756103516 158.375 160.012496948242 156.087493896484 150.71875 145.068756103516 136.643753051758 129.081253051758 121.550003051758 113.912498474121 107.231246948242 100.681251525879 96.1875 91.5875015258789 87 82.3062515258789 77.78125 73.1687469482422 69.90625 67.5437469482422 65.2437515258789 64.2750015258789 63.9000015258789 62.21875 58.78125 56.1749992370605 53.7374992370605 51.8312492370605 50.25 48.5875015258789 47.7687492370605 47.5437507629395 48.5187492370605 50.1124992370605 48.9812507629395 47.3187484741211 46.7374992370605 46.875 48.0125007629395 49.8125 49.8125 48.5812492370605 46.9500007629395 46.625 47.1375007629395 48.1500015258789 
163.131256103516 160.643753051758 157.225006103516 156.09375 157.493743896484 159.59375 157.96875 152.5 145.725006103516 141.800003051758 139.149993896484 132.649993896484 126.037498474121 118.618751525879 111.962501525879 104.09375 97.3499984741211 93.1750030517578 88.5749969482422 82.2750015258789 77.6937484741211 72.7687530517578 68.1062469482422 64.4749984741211 61.8499984741211 59.6375007629395 58.4437484741211 57.5812492370605 56.5374984741211 53.6187515258789 51.3125 49.1500015258789 47.4187507629395 46.2562484741211 44.4312515258789 43.625 43.3312492370605 43.7750015258789 44.2374992370605 43.5687484741211 42.125 41.5062522888184 41.7062492370605 42.375 44 44.3875007629395 43.9625015258789 43.2625007629395 43.28125 44.2999992370605 45.6749992370605 
168.193756103516 166.631256103516 164.262496948242 162.643753051758 163.0625 162.9375 160.875 155.243743896484 145.918746948242 138.074996948242 135.375 129.462493896484 124.662498474121 117.306251525879 110.625 103.206253051758 96.4000015258789 91.59375 86.9124984741211 79.96875 74.03125 69.28125 63.4437484741211 60.6749992370605 57.5625 54.8624992370605 53.7562484741211 53.3875007629395 52.96875 50.3624992370605 48.7999992370605 45.9375 43.5499992370605 41.5125007629395 39.96875 39.8499984741211 39.7874984741211 39.625 39.3250007629395 38.6062507629395 37.3687515258789 36.6500015258789 36.7249984741211 37.2562484741211 38.0062484741211 38.6375007629395 39.0562515258789 38.5875015258789 39.0687484741211 40.8624992370605 43.9437484741211 
171.581253051758 170.756256103516 168.806243896484 167.043746948242 167.981246948242 167.543746948242 164.975006103516 158.512496948242 150.137496948242 142.899993896484 137.237503051758 129.4375 123.474998474121 117.199996948242 109.543746948242 102.849998474121 95.1999969482422 89.5687484741211 84.1437530517578 77.8625030517578 71.7249984741211 65.5250015258789 59.3312492370605 56.0250015258789 52.4874992370605 49.9437484741211 49.2062492370605 48.9562492370605 48.7249984741211 47.1062507629395 44.9187507629395 42.2750015258789 39.8562507629395 38.1749992370605 36.71875 36.28125 36.1937484741211 35.8125 34.9000015258789 34.0250015258789 32.8875007629395 32.3312492370605 31.3875007629395 31.5249996185303 32.3624992370605 33.40625 33.7312507629395 33.4749984741211 33.7687492370605 34.9874992370605 37.34375 
177.362503051758 176.462493896484 174.399993896484 172.081253051758 171.887496948242 172.537506103516 169.899993896484 161.112503051758 151.71875 144.675003051758 139.150009155273 131.862503051758 123.693748474121 115.943748474121 107.8125 100.574996948242 92.6187515258789 86.53125 80.6312484741211 74.7375030517578 69.7062530517578 63.2750015258789 56.4625015258789 50.7999992370605 48.0187492370605 46.8875007629395 46.3624992370605 45.5750007629395 44.7312507629395 43.2750015258789 41.5374984741211 39.2437515258789 36.9812507629395 35.0625 33.5250015258789 32.8562507629395 32.5062484741211 31.9187507629395 31.2562503814697 29.9437503814697 28.4375 27.59375 27.1999988555908 26.5562496185303 26.9249992370605 28.6124992370605 28.3812503814697 27.8250007629395 27.8250007629395 28.2062492370605 27.875 
180.612503051758 179.518753051758 177.34375 176.087493896484 175.350006103516 175.056243896484 173.181243896484 164.524993896484 153.787506103516 145.21875 139.5625 132.868743896484 122.9375 113.84375 107.162498474121 99.4499969482422 91.9812469482422 84.8625030517578 78.8562469482422 74.1062469482422 69.7125015258789 62.7000007629395 54.9625015258789 48.7750015258789 45.3624992370605 43.5062484741211 42.7687492370605 42.1624984741211 41.1187515258789 39.8937492370605 38.2750015258789 36.3187522888184 34.2125015258789 32.6749992370605 31.6062507629395 30.8999996185303 30.2937507629395 29.6312503814697 28.125 26.3062496185303 24.6062507629395 23.5375003814697 23.1124992370605 22.375 21.9125003814697 21.9937496185303 22.2312507629395 22.2999992370605 22.5750007629395 22.3562507629395 20.8374996185303 
182.4375 181 178.037506103516 175.0625 172.9375 171.6875 168.068756103516 160.350006103516 152.175003051758 144.668746948242 137.9375 131.631256103516 122.868751525879 111.356246948242 103.349998474121 96.9812469482422 89.8187484741211 83.0749969482422 77.2624969482422 72.1624984741211 67.8249969482422 61.1687507629395 53.1687507629395 47.3624992370605 42.59375 40.2000007629395 39.8937492370605 39.5999984741211 38.8250007629395 37.4375 35.4749984741211 33.5499992370605 31.7937507629395 30.0062503814697 28.9249992370605 28.6312503814697 28.7437496185303 28.4437503814697 27.2374992370605 24.40625 21.7437496185303 20.9874992370605 20.2124996185303 17.9125003814697 17.1124992370605 18.2062492370605 18.75 18.5375003814697 18.0125007629395 18.0874996185303 16.8250007629395 
182.712493896484 180.40625 175.793746948242 171.856246948242 169.324996948242 165.693756103516 161.006256103516 155.399993896484 148.068756103516 141.824996948242 134.393753051758 126.081253051758 117.993751525879 108.112503051758 98.4562530517578 92.9437484741211 86.4625015258789 79.6500015258789 73.3812484741211 68.375 63.5562515258789 56.7437515258789 49.8562507629395 45.7999992370605 41.7562484741211 38.7625007629395 38.0374984741211 37.3250007629395 36.2562484741211 34.9625015258789 33.6937484741211 31.6312503814697 29.625 27.84375 26.9312496185303 27.3624992370605 28.2562503814697 29.1312503814697 28.3500003814697 25.96875 21.5062503814697 18.9624996185303 18.1687507629395 17.3374996185303 16.9312496185303 17.15625 17.9187507629395 17.8937492370605 17.21875 17.03125 15.9499998092651 
181.087493896484 177.300003051758 171.975006103516 167.731246948242 164.768753051758 158.443756103516 154.706253051758 148.818756103516 141.925003051758 136.931243896484 128.975006103516 120.574996948242 112.137496948242 102.96875 92.9625015258789 86.3312530517578 81.03125 75.5625 69.4187469482422 64.8312530517578 60.1624984741211 54.2750015258789 48.4124984741211 45.6124992370605 43.125 40.4312515258789 39.0125007629395 37.2562484741211 35.4874992370605 34.2000007629395 32.0250015258789 30.0062503814697 28.3500003814697 26.4937496185303 24.96875 26.2062492370605 28.8999996185303 32.0750007629395 33.1749992370605 30.7374992370605 26.8875007629395 23.2687492370605 21.3187503814697 19.4624996185303 18.2937507629395 18.0062503814697 17.9874992370605 18.2749996185303 18.2687492370605 17.2625007629395 16.1875 
177.506256103516 172.837493896484 168.131256103516 163.243743896484 158.262496948242 153.550003051758 148.568756103516 142.4375 136.824996948242 132.168746948242 124.387496948242 115.287498474121 106.518753051758 98.03125 88.7624969482422 80.3312530517578 75.2750015258789 71.3125 65.9625015258789 62.0437507629395 57.0875015258789 52.3125 47.90625 46.4937515258789 44.7062492370605 41.7562484741211 39.5875015258789 37.71875 35.8875007629395 34.0374984741211 32.5437507629395 30.0499992370605 27.75 26.1062507629395 24.1937503814697 26.6875 31.1499996185303 35.0125007629395 38.2562484741211 37.4437484741211 34.9625015258789 29.5375003814697 24.7875003814697 21.1375007629395 19.7687492370605 18.9375 18.90625 18.78125 18.375 17.8125 17.4750003814697 
171.568756103516 167.53125 163.524993896484 158.756256103516 153.324996948242 148.8125 143.59375 138.199996948242 132.681243896484 127.15625 120.462501525879 111.287498474121 101.681251525879 93.0124969482422 85.6875 78.3062515258789 70.75 66.6187515258789 63.0499992370605 59.3562507629395 54.3562507629395 50.0999984741211 47.0812492370605 47.3125 46.4187469482422 42.6499977111816 40.25 38.2750015258789 36.4749984741211 34.9124984741211 34.0062484741211 32.8125 30.0750007629395 27.9375 28.0812492370605 30.1625003814697 34.0187492370605 40.5437507629395 47.21875 44.53125 39.6500015258789 33 26.6312503814697 22.7749996185303 21.0062503814697 20.0874996185303 19.6499996185303 19.8624992370605 20.09375 19.2374992370605 19.3250007629395 
165.706253051758 162.318756103516 157.212493896484 152.675003051758 148.71875 144.53125 138.9375 133.081253051758 128.375 122.275001525879 115.5625 106.824996948242 97.5500030517578 89.2312469482422 82.1187515258789 75.6875 68.9000015258789 62.0625 59.9124984741211 56.3250007629395 52.0062484741211 47.5875015258789 45.0187492370605 46.0999984741211 46.09375 42.9562492370605 41.21875 39.375 37.3062515258789 35.3125 34.1062507629395 32.9937515258789 33.6437492370605 34.15625 33 32.96875 37.8250007629395 43.625 46.9312515258789 45.09375 38.875 32.5437507629395 27.1312503814697 24.2625007629395 22.5562496185303 21.6625003814697 21.46875 21.1937503814697 21.3812503814697 20.3937492370605 20.9249992370605 
159.449996948242 155.693756103516 150.612503051758 147.09375 143.037506103516 139.306243896484 134.043746948242 129.681243896484 124.650001525879 118.65625 111.837501525879 102.881248474121 93.6312484741211 85.8249969482422 78.5687484741211 73.3000030517578 67.6312484741211 60.6687507629395 56.4625015258789 53.3125 50.2062492370605 48.4874992370605 42.2937507629395 43.1624984741211 44.0250015258789 43.4437484741211 42.6500015258789 40.78125 39.625 37.2125015258789 35.3499984741211 36.7562484741211 40.2874984741211 40.90625 40.3937492370605 40.3687515258789 42.0187492370605 43.7437515258789 44.2374992370605 41.5 36.4249992370605 31.3687496185303 27.28125 25.09375 24.0249996185303 23.5125007629395 23.2374992370605 23.1687507629395 22.8624992370605 20.71875 22.1625003814697 
152.118743896484 149.893753051758 144.912506103516 141.0625 137.568756103516 135.087493896484 131.137496948242 126.162498474121 122.581253051758 117.043746948242 110.625 102.618751525879 93.9625015258789 85.5812530517578 77.6937484741211 71.3125 64.2874984741211 60.6749992370605 56.1812515258789 53.9312515258789 48.9187507629395 44.40625 42.1937484741211 42.7562484741211 43.0750007629395 42.2249984741211 42.2750015258789 42.46875 40.8125 39.0812492370605 38.6124992370605 43.2125015258789 46.1749992370605 50.0250015258789 52.21875 50.0562515258789 47.40625 45.25 42.9437484741211 39.375 34.59375 29.75 27.84375 27.15625 26.2687492370605 25.90625 25.6187496185303 25.1749992370605 24.1749992370605 22.2687492370605 23.6375007629395 
143.368743896484 142.737503051758 139.725006103516 136.637496948242 133.5 130.393753051758 127.568748474121 123.893753051758 121.512496948242 117.493751525879 111.431251525879 104.662498474121 96.1875 86.8562469482422 79.53125 71.6437530517578 64.7437515258789 59.59375 56.9625015258789 53.0625 50 46.8937492370605 43.9937515258789 44.3687515258789 45.1812515258789 44.7000007629395 44.4562492370605 43.8062515258789 43.1437492370605 44.1812515258789 45.7874984741211 50.03125 53.3499984741211 57.9249992370605 62.9312515258789 58.2937507629395 51.2249984741211 46.4812507629395 42.7374992370605 39.1687507629395 35.6749992370605 32.2374992370605 30.2562503814697 29.3125 28.5812492370605 28.2625007629395 27.7062492370605 27.1312503814697 25.125 24.8312492370605 25.4937496185303 
136.65625 134.65625 132.237503051758 129.981246948242 128.637496948242 127.206253051758 124.643753051758 122.631248474121 120.931251525879 117.818748474121 112.868751525879 107.09375 100.481246948242 92.1750030517578 84.1437530517578 75.2437515258789 68.1437530517578 62.4562492370605 59.2750015258789 55.2937507629395 50.6437492370605 47.5374984741211 44.8812484741211 45.03125 45.2687492370605 45.21875 46.6875 46.6812515258789 47.6749992370605 49.7249984741211 51.9749984741211 55.3125 57.9124984741211 61.1749992370605 61.7437515258789 58.1312484741211 51.6437492370605 47 43.0374984741211 40.0437507629395 37.5437507629395 35.2437515258789 33.9812507629395 32.9874992370605 31.9812507629395 31.5249996185303 30.5812492370605 29.34375 27.4500007629395 27.71875 27.6375007629395 
130.962493896484 130.625 127.53125 125.849998474121 124.631248474121 123.574996948242 122.5 121.337501525879 121.324996948242 118.268753051758 115.699996948242 111.287498474121 107.118751525879 99.7375030517578 89.3937530517578 79.8499984741211 71.59375 66.0062484741211 61.2750015258789 57.0562515258789 52.5750007629395 49.2687492370605 46.2062492370605 45.5 45.9312515258789 45.9437484741211 47.4562492370605 49.46875 50.875 53.0062484741211 56.2125015258789 60.0250015258789 61.0562477111816 61.46875 59.71875 54.8687515258789 50.2687492370605 46.25 43.2312507629395 41.5750007629395 40.4249992370605 38.6937484741211 37.5812492370605 36.5999984741211 35.4500007629395 35.0687484741211 33.8687515258789 32.4124984741211 30.90625 30.6187496185303 30.9624996185303 
127.993751525879 126.056251525879 124.068748474121 121.875 119.974998474121 120.525001525879 120.231246948242 119.212501525879 119.25 117.206253051758 114.681251525879 113.143753051758 111.90625 104.443748474121 93.0812530517578 82.96875 74.7687530517578 68.9562530517578 64.0437469482422 59.1500015258789 54.6875 50.7249984741211 48.0250015258789 47.3875007629395 47.34375 46.8937492370605 48.4375 50.5999984741211 53.4812507629395 56.2562484741211 59.4625015258789 63.2562484741211 63.0499992370605 62.0437507629395 59.7937507629395 54.4500007629395 50.6624984741211 47.9187507629395 45.5625 44.7750015258789 43.7874984741211 42.4000015258789 41.75 40.9625015258789 40.59375 39.5625 38.0812492370605 35.2937507629395 34.9312515258789 33.5250015258789 34.2687492370605 
126.78125 123.900001525879 121 118.393753051758 119.706253051758 119.518753051758 118.65625 117.762496948242 117.25 116.143753051758 114.375 111.818748474121 109.275001525879 103.606246948242 94.3499984741211 84.9499969482422 77.34375 71.0749969482422 65.7874984741211 61.2749977111816 56.96875 52.7312507629395 50.3687515258789 49.78125 48.71875 48.8624992370605 50.5437507629395 53.0437507629395 56.0437507629395 59.3875007629395 62.4750022888184 65.6875 65.7874984741211 64.1750030517578 61.2000007629395 56.6437492370605 53.8937492370605 51.4937515258789 49.2687492370605 48.28125 47.3250007629395 46.5875015258789 46.1687507629395 46.5499992370605 46.4625015258789 45.5687484741211 40.6812515258789 40.1687507629395 38.7750015258789 36.7374992370605 38.1187515258789 
128.287506103516 126.699996948242 121.84375 120.081253051758 119.006248474121 118.206253051758 117.631248474121 116.40625 115.550003051758 114.737503051758 111.956253051758 109.556251525879 106.481246948242 101.231246948242 93.8375015258789 86.0124969482422 78.7437515258789 73.0374984741211 67.6687469482422 62.9500007629395 58.7312507629395 54.5437507629395 52.3062515258789 51.8499984741211 50.9937515258789 50.5812492370605 53.15625 56.4375 59.2874984741211 62.7437515258789 65.90625 69.3625030517578 68.0999984741211 66.15625 63.9750022888184 61.3062515258789 58.2437515258789 55.9000015258789 54.4500007629395 52.9812507629395 52.34375 51.3312492370605 50.8937492370605 51.6875 52.9437484741211 48.3687515258789 46.4937515258789 45.3562507629395 43.5999984741211 42.5875015258789 42.9249992370605 
132.256256103516 129.037506103516 124.775001525879 122.568748474121 120.131248474121 119.081253051758 117.506248474121 115.256248474121 113.050003051758 112.037498474121 110.412498474121 108.162498474121 104.643753051758 100.231246948242 93.8249969482422 86.8937530517578 80.96875 74.8562469482422 69.625 64.9000015258789 60.9812507629395 56.84375 54.2750015258789 54.8499984741211 53.9562492370605 53.9124984741211 56.7374992370605 59.65625 62.7937507629395 66.03125 69.0812530517578 71.65625 71.5374984741211 69.8312530517578 67.3625030517578 65.5062484741211 63.4500007629395 61.1312484741211 59.7125015258789 58.4874992370605 57.2000007629395 56.3875007629395 56.0812492370605 55.7625007629395 54.9562492370605 54.6624984741211 52.9500007629395 50.1687507629395 48.78125 46.7125015258789 46.0750007629395 
136.199996948242 132.925003051758 129.006256103516 124.78125 122.206253051758 119.849998474121 117.793746948242 115.137496948242 112.181251525879 111.025001525879 108.943748474121 106.487503051758 103.268753051758 100.050003051758 93.9625015258789 87.7937469482422 82.0812530517578 76.3812484741211 71.2562484741211 67.0687484741211 63.09375 59.2750015258789 56.7750015258789 57.1749992370605 57.34375 57.3125 60.1375007629395 63.3125 66.5749969482422 70.1062469482422 72.4562530517578 74.9499969482422 75.1937484741211 73.4937515258789 71.6500015258789 69.9875030517578 69.2125015258789 67.8062515258789 66.3375015258789 64.8937530517578 63.5562515258789 62.6375007629395 60.7125015258789 60.5125007629395 60.3499984741211 59.9937515258789 57.8312492370605 55.8250007629395 53.4625015258789 50.5875015258789 49.6375007629395 
140.774993896484 136.887496948242 131.449996948242 126.474998474121 122.868751525879 119.518753051758 116.662498474121 114.168746948242 111.637496948242 109.618751525879 107.168746948242 104.425003051758 102.556251525879 99.0124969482422 93.4437484741211 89.2062530517578 85.0687484741211 77.8062515258789 72.6312484741211 68.6875 65.2437515258789 61.9625015258789 59.71875 60.4000015258789 60.2249984741211 60.875 63.875 67.6500015258789 71.7687530517578 74.2062530517578 75.9625015258789 78.0999984741211 77.8874969482422 77.0124969482422 76.6500015258789 75.2249984741211 75.4562530517578 75.1999969482422 74.1437530517578 72.4375 69.1875 66.6937484741211 65.5812530517578 65.6312484741211 66.2687530517578 64.65625 62.6187515258789 60.8937492370605 58.1124992370605 55.28125 52.4312515258789 
145.3125 141.006256103516 133.618743896484 127.793746948242 123.337501525879 120.137496948242 117.21875 114.412498474121 111.581253051758 108.900001525879 106.118751525879 104.337501525879 102.256248474121 99.2437515258789 95.3187484741211 90.6624984741211 85.9625015258789 80.2624969482422 74.625 70.625 67.8000030517578 65.3000030517578 62.75 63.2312507629395 64.1687469482422 65.7562484741211 68.5749969482422 71.9499969482422 75.2437515258789 77.9437484741211 80.4749984741211 82.6624984741211 82.2687454223633 81.71875 82.0062484741211 81.6999969482422 82.6999969482422 84.1187515258789 81.8312530517578 81.6062469482422 79.5 76.0749969482422 73.375 72.8874969482422 71.78125 70.5374984741211 69.0749969482422 67.2562484741211 63.7874984741211 60.7125015258789 57.2625007629395 
147.131256103516 142.84375 136.725006103516 129.362503051758 124.875 121.856246948242 117.699996948242 114.400001525879 111.806251525879 109.306251525879 106.287498474121 104.212501525879 103.925003051758 100.724998474121 96.5749969482422 92.1750030517578 88.7312469482422 83.3562469482422 77.7125015258789 74.25 71.4375 69.375 67.25 67.625 68.5062484741211 70.4000015258789 73.2624969482422 76.4312515258789 79.6875 81.1624984741211 84.1687469482422 86.6500015258789 86.4250030517578 87.59375 88.3937530517578 87.78125 89.5562515258789 92.2624969482422 92 91.7375030517578 89.53125 85.3125 81.7750015258789 80.1125030517578 78.0562515258789 77.15625 75.4437484741211 73.3187484741211 70.0999984741211 66.8125 63.5875015258789 
149.550003051758 143.425003051758 136.756256103516 130.65625 127.256248474121 122.90625 118.881248474121 115.443748474121 113.025001525879 109.974998474121 107.275001525879 105.03125 102.943748474121 101.34375 98.7125015258789 96.2750015258789 92.4437484741211 87.4250030517578 82.8687515258789 79.9625015258789 77.4375 73.9499969482422 71.9625015258789 72.0999984741211 74.1999969482422 75.0124969482422 77.40625 81.3812484741211 84.46875 86.0125045776367 88.625 90.1062469482422 90.7750015258789 92.1812515258789 93.2437515258789 93.2750015258789 95.4000015258789 97.6312484741211 98.1374969482422 98.6125030517578 97.84375 93.59375 90.21875 87.6687469482422 86.3125 86.53125 84.5749969482422 82.1687469482422 77.7375030517578 73.5875015258789 70.5250015258789 
146.350006103516 141.743743896484 135.318756103516 130.387496948242 127.224998474121 123.574996948242 120.418746948242 116.443748474121 113.762496948242 110.287498474121 110.356246948242 107.056251525879 105.349998474121 105.525001525879 103.243751525879 101.762496948242 98.9250030517578 95.46875 91.1187515258789 88.09375 84.6687545776367 80.9187469482422 77.5500030517578 77.7750015258789 79.5 79.9375 82.3187484741211 85.9187469482422 89.0062484741211 91.6624984741211 93.4625015258789 95.1500015258789 95.4437484741211 97.03125 99.0062484741211 99.3062515258789 100.806251525879 101.743751525879 102.731246948242 104.724998474121 104.800003051758 101.568748474121 99.0749969482422 96.46875 96.34375 97.9812469482422 97.3062515258789 92.1374969482422 87.5749969482422 83.09375 79.4312515258789 
141.25 138.387496948242 134.331253051758 130.350006103516 127.087501525879 123.918746948242 121.5 118.118751525879 114.662498474121 112.331253051758 110.71875 110.400001525879 108.831253051758 107.212501525879 106.993751525879 106.3125 105.931251525879 103.362503051758 100.150001525879 97.09375 93.1437530517578 88.3000030517578 84.2125015258789 83.5 84.0437469482422 84.3375015258789 86.6437530517578 90.1062469482422 92.8562469482422 95.3562469482422 97.7750015258789 99.78125 100.543746948242 101.856246948242 104.006248474121 106.243751525879 106.456253051758 106.96875 108.59375 109.743751525879 110.068748474121 109.393753051758 108.581253051758 106.724998474121 107.137496948242 107.912498474121 106.293746948242 101.631248474121 96.6312484741211 91.46875 87.8625030517578 
137.206253051758 135.125 132.456253051758 130.356246948242 128.068756103516 124.581253051758 122.8125 119.900001525879 115.625 113.525001525879 113.143753051758 113.949996948242 112.806251525879 111.681251525879 112.081253051758 112.8125 112.912498474121 110.449996948242 109.424995422363 106.25 102.331253051758 96.7125015258789 90.8937530517578 89.1624984741211 88.1624984741211 88.9000015258789 91.5812530517578 94.2687530517578 96.8687515258789 98.9625015258789 101.306251525879 102.893753051758 104.237503051758 106.099998474121 107.768753051758 108.875 110.262496948242 112.699996948242 113.637496948242 115.393753051758 114.474998474121 113.581253051758 114.75 113.300003051758 114.09375 114.431251525879 113.175003051758 109.143753051758 105.118751525879 99.7437515258789 95.21875 
132.206253051758 130.043746948242 128.618743896484 127.224998474121 125.543746948242 123.368751525879 120.768753051758 119.512496948242 116.349998474121 114.09375 114.599998474121 115.587501525879 116.59375 116.974998474121 117.625 118.918746948242 119.143745422363 118.224998474121 117.6875 116.34375 110.862503051758 104.637496948242 97.46875 94.4187469482422 93.1999969482422 93.0437469482422 94.78125 97.4312515258789 99.9562530517578 101.631248474121 104.006248474121 105.993751525879 106.768753051758 108.737503051758 110.425003051758 110.762496948242 113.837501525879 115.462501525879 116.368751525879 117.574996948242 118.362495422363 117.418746948242 117.287498474121 116.962501525879 117.668746948242 117.150001525879 115.78125 115.056251525879 111.331253051758 105.75 101.849998474121 
127.15625 125.699996948242 124.40625 122.949996948242 122.887496948242 121.40625 120.131248474121 118.981246948242 117.081253051758 114.34375 116.568748474121 121.875 123.431251525879 123.75 124.849998474121 125.224998474121 125.912498474121 124.300003051758 123.1875 121.59375 117.4375 109.612503051758 102.543746948242 98.6062469482422 96.8187484741211 96.46875 97.4437484741211 99.3249969482422 101.631248474121 103.712501525879 105.78125 108.03125 109.712501525879 111.787498474121 113.518753051758 114.6875 116.824996948242 119.0625 119.09375 119.40625 119.887496948242 118.856246948242 119.71875 120.387496948242 122.262496948242 120.65625 120.84375 120.981246948242 115.574996948242 111.456253051758 106.425003051758 
122.125 121.6875 121.025001525879 119.618751525879 120.150001525879 120.106246948242 119.981254577637 120.181251525879 119.743751525879 117.793746948242 127.349998474121 132.100006103516 131.868743896484 131.168746948242 131.574996948242 132.050003051758 130.399993896484 128.881256103516 126.137496948242 123 119.574996948242 112.556251525879 106.1875 101.875 99.3562469482422 98.21875 99.5875015258789 101.525001525879 103.59375 105.724998474121 106.193748474121 108.15625 110.300003051758 113.962501525879 116.387496948242 115.762496948242 117.681251525879 119.493751525879 121.481246948242 122.400001525879 121.081253051758 122.425003051758 121.137496948242 120.981246948242 122.518753051758 122.268753051758 124.025001525879 125.231246948242 118.212501525879 114.418746948242 110.287498474121 
119.925003051758 119.074996948242 118.431251525879 118.037498474121 117.599998474121 117.862495422363 119.231254577637 121.099998474121 123.606246948242 130.09375 141.443756103516 140.762496948242 137.237503051758 136.943756103516 136.462493896484 135.887496948242 134.09375 131.3125 126.931251525879 123.168746948242 118.900001525879 112.6875 107.3125 103.21875 100.462501525879 98.6374969482422 99.4375 101.599998474121 103.78125 106.15625 107.800003051758 108.837501525879 110.637496948242 111.887496948242 114.087501525879 114.512496948242 116.349998474121 117.862503051758 119.993751525879 119.25 118.6875 120.125 118.868751525879 118.568748474121 119.662498474121 119.381248474121 117.456253051758 119.599998474121 116.568748474121 115.106246948242 109.693748474121 
116.268753051758 115.243751525879 115.243751525879 114.981246948242 115.206253051758 116.474998474121 117.287498474121 120.675003051758 125.131248474121 132.850006103516 139.300003051758 140.899993896484 140.662506103516 140.699996948242 141.037506103516 139.21875 137.162506103516 133.087493896484 128.918746948242 123.431251525879 117.806251525879 112.043754577637 106.206253051758 102.3125 100.018753051758 98.46875 98.8687515258789 101.306251525879 102.699996948242 105.731246948242 105.712501525879 107.6875 110.474998474121 111.474998474121 113.018753051758 113.993751525879 114.65625 116.78125 118.09375 115.324996948242 115.293746948242 117.268753051758 116.137496948242 114.71875 114.887496948242 113.587501525879 113.912498474121 115.443748474121 114.662498474121 114.175003051758 110.375 
112.962501525879 112.425003051758 112.618751525879 112.668746948242 112.53125 113.631248474121 116.25 119.931243896484 124.318748474121 130.256256103516 135.012496948242 138.581253051758 141.899993896484 142.262496948242 142.681243896484 141.637496948242 139.456253051758 136.606246948242 130.668746948242 123.143753051758 117.387496948242 109.90625 104.03125 99.9562530517578 98.7125015258789 97.78125 98.9812469482422 100.412498474121 102.09375 104.050003051758 105.881248474121 109.293746948242 111.650001525879 113.099998474121 114.275001525879 114.46875 114.5625 115.306251525879 116.59375 113.5625 113.193748474121 113.706253051758 112.481246948242 110.606246948242 110.518753051758 110.875 111.612503051758 111.581253051758 113.612503051758 112.337501525879 111.456253051758 
109.893745422363 109.4375 109.693748474121 109.53125 109.949996948242 110.78125 113.262496948242 116.637504577637 121.25 126.050003051758 131.09375 135.550003051758 139.725006103516 141.768753051758 141.824996948242 141.949996948242 140.543746948242 137.850006103516 131.981246948242 122.65625 113.368751525879 106.775001525879 99.3000030517578 95.5562515258789 96.5625 96.125 96.5 97.8375015258789 100.893753051758 104.262496948242 104.3125 108.449996948242 110.087501525879 114.956253051758 116.662498474121 113.918746948242 113.337501525879 113.631248474121 113.143753051758 110.625 109.90625 108.631248474121 106.1875 106.012504577637 106.268753051758 107.78125 106.84375 106.881248474121 111.856246948242 110.006248474121 108.306251525879 
106.25 105.868751525879 106.881248474121 106.793754577637 106.949996948242 107.737503051758 109.8125 113.006248474121 116.78125 121.875 127.400001525879 131.600006103516 135.368743896484 138.618743896484 141.231246948242 142.056243896484 141.943756103516 140 134.393753051758 121.775001525879 109.731254577637 100.237503051758 95.0062484741211 94.5500030517578 94.2687530517578 94.2125015258789 94.4250030517578 95.6374969482422 98.1624984741211 101.231246948242 102.231246948242 104.650001525879 107.525001525879 111.1875 116.693748474121 116.400001525879 111.987503051758 111.481246948242 109.9375 107.9375 106.262496948242 105.237503051758 103.40625 102.049995422363 102.743751525879 102.618751525879 103.675003051758 103.862503051758 108.03125 107.256248474121 105.462501525879 
102.662498474121 102.293746948242 103.137496948242 102.46875 101.993751525879 103.456253051758 104.481246948242 107.050003051758 111.59375 117.131248474121 122.581253051758 127.768753051758 133.181243896484 135.637496948242 139.324996948242 140.662506103516 141.012496948242 140.181243896484 137.175003051758 123.287498474121 108.931251525879 98.0562515258789 92.0124969482422 91.4625015258789 92.3375015258789 92.7874984741211 93.3125 93.9749984741211 95.5250015258789 98.7249984741211 100.099998474121 102.118751525879 104.09375 107.449996948242 114.631248474121 119.650001525879 112.849998474121 109.462501525879 109.237503051758 105.606246948242 103.625 102.087501525879 100.387496948242 99.8312454223633 100.306251525879 99.0499954223633 99.3125 100.21875 101.400001525879 104.212501525879 102.706253051758 
98.3125 98.8625030517578 100.881248474121 98.7625045776367 98.9312515258789 99.2937469482422 99.3812484741211 101.481246948242 106.050003051758 111.96875 117.943748474121 123.887496948242 130.09375 134.331253051758 137.668746948242 138.375 138.149993896484 136.168746948242 131.824996948242 121.793754577637 107.025001525879 97.90625 91.0625 89.3125 90.3125 91.3125 91.4375 92.4375 94.8874969482422 97.6374969482422 98.1437530517578 100.387496948242 102.237503051758 103.956253051758 108.175003051758 113.9375 110.724998474121 107.46875 106.106246948242 104.375 102.787498474121 101.118751525879 99.0437469482422 97.3000030517578 96.8812484741211 96.1937484741211 96.90625 97.7437515258789 96.8125 100.537498474121 100.193748474121 
