ncols        51
nrows        45
xllcorner    -63.500000000000
yllcorner    -7.500000000000
cellsize     0.166666666667
NODATA_value -99
183.006256103516 178.25 176.175003051758 178.806243896484 181.568756103516 189.231246948242 196.15625 203 210.643753051758 217.212493896484 223.287506103516 224.393753051758 225.287506103516 222.106246948242 217.149993896484 210.962493896484 205.037506103516 195.631256103516 186.725006103516 179.581253051758 175.356246948242 171.543746948242 168.443756103516 162.768753051758 157.893753051758 153.412506103516 147.550003051758 141.456253051758 135 128.612503051758 122.831253051758 117.993751525879 113.300003051758 109.418746948242 105.300003051758 102.525001525879 100.074996948242 97.0062484741211 92.78125 88.4625015258789 83.3812484741211 78.4312515258789 72.5999984741211 67.1999969482422 63.3937492370605 59.4812507629395 56.2062492370605 59.0250015258789 62.8562507629395 65.9000015258789 71.625 
185.1875 177.806243896484 176.756256103516 178.881256103516 183.15625 191.524993896484 199.137496948242 209.15625 218.756256103516 226.731246948242 233.993743896484 234.618743896484 233.862503051758 231.881256103516 225.487503051758 220.300003051758 212.787506103516 202.043746948242 190.731246948242 181.668746948242 176.756256103516 172.743743896484 169.75 166.212493896484 160.850006103516 156.4375 151.168746948242 144.987503051758 139.012496948242 132.9375 127.581253051758 123.050003051758 116.9375 113.112503051758 108.674995422363 104.912498474121 101.393753051758 97.2874984741211 91.8562469482422 86.5062484741211 80.9000015258789 74.9000015258789 68.7249984741211 62.1812515258789 58.1624984741211 54.0625 51.2062492370605 54.9625015258789 59.5999984741211 63.5875015258789 70.3562469482422 
186.425003051758 179.612503051758 179.131256103516 181.118743896484 186.393753051758 195.725006103516 207.675003051758 219.381256103516 231.606246948242 241.081253051758 247.4375 246.856246948242 245.518753051758 242.337493896484 234.800003051758 227.53125 220.481246948242 211.512496948242 201.1875 193.34375 189.600006103516 186.456253051758 184.143753051758 181.043746948242 176.324996948242 171.300003051758 165.118743896484 158.5625 151.225006103516 143.731246948242 138.3125 132.418746948242 126.53125 120.425003051758 114.6875 109.506248474121 104.856246948242 100.631248474121 93.8625030517578 87.0500030517578 79.7624969482422 72.5999984741211 65.7437515258789 59.125 55.3250007629395 51.8687515258789 49.7687492370605 55.0999984741211 60.3187484741211 65 72.8687515258789 
183.425003051758 176.699996948242 179.362503051758 182.081253051758 188.574996948242 199.756256103516 213.087493896484 228.65625 244.425003051758 256.4375 262.024993896484 259.368743896484 256.34375 251.850006103516 243.600006103516 235.675003051758 228.806243896484 220.981246948242 213.625 208.962493896484 206.793746948242 204.34375 201.462493896484 197.587493896484 193 188.149993896484 181.024993896484 171.756256103516 164.100006103516 156.543746948242 149.693756103516 143.381256103516 134.768753051758 126.849998474121 119.231246948242 114.618751525879 109.818748474121 104.287498474121 96.1500015258789 87.3125 77.5875015258789 70.1500015258789 62.21875 55.15625 52.2374992370605 50.09375 48.6500015258789 55.4812507629395 62.0499992370605 67.7062530517578 76.21875 
185.193756103516 176.181243896484 174.262496948242 179.737503051758 189.537506103516 202.887496948242 218.087493896484 236.625 256.543762207031 272.581237792969 274.78125 267.987487792969 263.712493896484 259.918762207031 251.550003051758 244.09375 236.800003051758 232.199996948242 227.237503051758 223.018753051758 223.868743896484 222.274993896484 220.15625 217.168746948242 210.362503051758 204.5 193.662506103516 185.068756103516 177.356246948242 167.368743896484 159.356246948242 152.03125 142.443756103516 133.25 124.387496948242 119.193748474121 114.087501525879 108.118751525879 98.8499984741211 87.1125030517578 75.78125 66.8937530517578 58.5125007629395 51.1624984741211 49.3187484741211 47.9124984741211 47.5999984741211 55.46875 63.7750015258789 71.2624969482422 80.2249984741211 
184.043746948242 176.706253051758 176.768753051758 178.574996948242 191.368743896484 209.206253051758 226.606246948242 244.581253051758 263.737487792969 281.087493896484 281.456237792969 274.256256103516 270.756256103516 267.056243896484 259.131256103516 251.743743896484 246.28125 244.506256103516 243.6875 241.118743896484 241.449996948242 241.181243896484 239.193756103516 233.618743896484 227.787506103516 220.206253051758 208.756256103516 198.287506103516 189.09375 177.268753051758 166.393753051758 159.318756103516 148.350006103516 138.5 128.443756103516 123.849998474121 119.143753051758 113.462501525879 103.606246948242 90.65625 76.1687469482422 66.2312469482422 56.8499984741211 48.9562492370605 48.21875 47.25 47.2999992370605 56.8375015258789 67.2125015258789 75.8874969482422 85.4250030517578 
184.512496948242 180.331253051758 182.837493896484 186.862503051758 197.5 212.53125 229.693756103516 246.350006103516 259.381256103516 268.350006103516 275.637512207031 274.137512207031 273.737487792969 271.662506103516 266.618743896484 261.518737792969 257.325012207031 258.068756103516 258.506256103516 261.46875 262.037506103516 261.237487792969 259.125 252.168746948242 245.050003051758 237.787506103516 224.193756103516 211.331253051758 198.425003051758 185.193756103516 173.71875 164.137496948242 153.106246948242 142.649993896484 132.518753051758 127.450004577637 122.662498474121 117.487503051758 108.362503051758 93.4875030517578 76.875 65.5124969482422 55.1375007629395 46.3875007629395 46.15625 46.2999992370605 47.4562492370605 58.5437507629395 70.40625 81.0562515258789 92.3312530517578 
187.274993896484 183.987503051758 190.0625 199.587493896484 211.887496948242 224.231246948242 234.28125 241.268753051758 245.143753051758 252.949996948242 266.612487792969 271.875 274.549987792969 274.850006103516 272.799987792969 271.024993896484 268.693756103516 271.8125 276.09375 280.299987792969 284.068756103516 284.225006103516 280.225006103516 272.149993896484 265.350006103516 253.399993896484 237.162506103516 221.399993896484 207.668746948242 191.375 177.887496948242 168.137496948242 156.800003051758 145.356246948242 134.668746948242 129.15625 125.03125 119 107.318748474121 91.8499984741211 75.21875 63.2749977111816 52.15625 42.7874984741211 43 44.5250015258789 46.9000015258789 59.9187507629395 73.3812484741211 85.875 97.1437530517578 
191.556243896484 191.256256103516 200.618743896484 212.143753051758 224.762496948242 235.868743896484 244.293746948242 248.46875 243.387496948242 244.625 260.381256103516 268.512512207031 273.850006103516 276.131256103516 279.049987792969 281.28125 283.106262207031 289.462493896484 299.200012207031 304.787506103516 305.056243896484 305.325012207031 299.65625 293.28125 282.868743896484 268.137512207031 247.912506103516 230.475006103516 214.512496948242 194.087493896484 179.5 169.456253051758 156.800003051758 144.462493896484 133.081253051758 128.149993896484 123.712501525879 117.337501525879 105.212501525879 90.8000030517578 74.8812484741211 62.1312484741211 50.5187492370605 40.5999984741211 41.1062507629395 43.15625 46.7312507629395 61.0437507629395 75.34375 88.5374984741211 101.974998474121 
196.887496948242 198.137496948242 209.456253051758 223.112503051758 237.606246948242 249.9375 257.306243896484 260.068756103516 257.756256103516 259.918762207031 267.887512207031 270.543762207031 275.543762207031 278.168762207031 284.674987792969 291.956237792969 298.712493896484 309.575012207031 321.393737792969 332.149993896484 332.762512207031 330.512512207031 322.206237792969 312.762512207031 298.262512207031 282.387512207031 261.399993896484 240.09375 220.78125 196.65625 180.024993896484 168.268753051758 155.600006103516 143.587493896484 132.225006103516 127.275001525879 122.918746948242 115.768753051758 103.962501525879 90.0749969482422 75.1062469482422 61.90625 49.1187477111816 38.2937507629395 39.4375 42.2874984741211 46.4312515258789 62.2125015258789 77.5999984741211 91.7874984741211 103.818748474121 
202.868743896484 206.350006103516 218.725006103516 233.837493896484 249.574996948242 264.912506103516 273.768737792969 275.237487792969 272.806243896484 273.293762207031 278.506256103516 278.762512207031 279.856262207031 281.631256103516 290.28125 300.65625 312.268737792969 327.037506103516 343.081237792969 359.375 367.84375 362.793762207031 348.912506103516 328.90625 314.475006103516 300.262512207031 277.21875 253.993743896484 230.350006103516 203.362503051758 184.306243896484 169.925003051758 157.112503051758 144.368743896484 131.925003051758 125.900001525879 120.581253051758 113.706253051758 103.306251525879 90.0687484741211 75.3874969482422 61.7374992370605 48.3250007629395 36.9187507629395 37.9749984741211 41.625 46.09375 62.1062507629395 78.4187469482422 92.1875 103.650001525879 
208.84375 213.787506103516 227.043746948242 244.068756103516 260.774993896484 276.162506103516 286.612487792969 287.506256103516 284.25 283.237487792969 285.087493896484 286.356262207031 285.1875 287.28125 296.806243896484 308.081237792969 321.53125 337.924987792969 358.212493896484 381.487487792969 396.200012207031 392.0625 373.96875 347.831237792969 327.71875 310.462493896484 284.862487792969 260.5625 238.412506103516 210.631256103516 187.956253051758 170.131256103516 155.793746948242 142.350006103516 130.350006103516 124.212501525879 118.40625 111.943748474121 101.775001525879 89.6312484741211 76.1812515258789 62.3250007629395 48.6187515258789 37.03125 37.3624992370605 39.2937507629395 43.2000007629395 58.9812507629395 74.21875 88.3125 100.78125 
214.518753051758 221.606246948242 235.868743896484 252.024993896484 267.825012207031 281.700012207031 290.493743896484 293.46875 290.649993896484 289.649993896484 289.774993896484 292.700012207031 293.337493896484 291.262512207031 299.337493896484 311.299987792969 325.950012207031 346.84375 369.9375 394.987487792969 414.75 412.356262207031 392.287506103516 366.837493896484 340.625 318.418762207031 294.362487792969 268.53125 245.28125 216.875 191.943756103516 171.225006103516 154.518753051758 140.09375 127.974998474121 121.6875 115.987503051758 109.506248474121 100.699996948242 88.8312530517578 76.6812515258789 63.1937484741211 48.7249984741211 35.4625015258789 35.4874992370605 38.4124984741211 42.2562484741211 55.7750015258789 68.7437515258789 82.4187469482422 97.7249984741211 
219.725006103516 226.956253051758 241.462493896484 257.28125 272.862487792969 283.600006103516 291.78125 296.662506103516 296.049987792969 293.918762207031 292.962493896484 293.674987792969 295.481262207031 295.274993896484 297.9375 309.600006103516 325.725006103516 347.0625 370.587493896484 394.075012207031 410.568756103516 411.59375 399.274993896484 376.475006103516 353.4375 331.96875 307.112487792969 279.831237792969 253.262496948242 222.456253051758 195.818756103516 172.606246948242 153.90625 138.09375 126.275001525879 120.375 114.59375 109.300003051758 100.106246948242 89.6937484741211 77.0437469482422 61.7749977111816 46.9500007629395 35.4375 35.9187507629395 38.4562492370605 42.9749984741211 56.0562515258789 67.8125 79.1937484741211 94.3937530517578 
222.431243896484 230.212493896484 244.600006103516 259.987487792969 274.606262207031 284.049987792969 292.493743896484 297.862487792969 297.868743896484 296.537506103516 295.5 296.381256103516 296.887512207031 296.018737792969 294.056243896484 303.606262207031 320.78125 342.893737792969 366.743743896484 389.287506103516 403.393737792969 407.34375 401.643737792969 384.5 367.006256103516 347.887512207031 319.912506103516 289.993743896484 261 227.268753051758 197.881256103516 172.493743896484 153.631256103516 137.46875 124.5 118.34375 114.043746948242 110.056251525879 101.262496948242 88.7624969482422 74.0562515258789 60.5062522888184 47.8624992370605 37.2874984741211 36.7687492370605 38.4562492370605 41.8187484741211 54.28125 66.4749984741211 76.7375030517578 89.3874969482422 
223.681243896484 231.850006103516 246.6875 261.512512207031 275.693756103516 285.118743896484 291.868743896484 297.112487792969 300 301.712493896484 300.706237792969 301.356262207031 301.518768310547 298.21875 293.78125 295.318756103516 316.118743896484 341.950012207031 365.362487792969 386.856262207031 401.981262207031 408.924987792969 406.637481689453 392.800018310547 378.350006103516 363.837493896484 336.162506103516 303.412506103516 268.768737792969 231.212493896484 199.581253051758 173.231246948242 153.212493896484 137.5 123.137496948242 118.418746948242 115.493751525879 108.84375 98.9124984741211 85.9749984741211 72.71875 60.8312492370605 48.9249992370605 37.8812484741211 37.6937484741211 39.1437492370605 42.1624984741211 53.0750007629395 63.8062515258789 73.9312515258789 85.4000015258789 
224.149993896484 233.90625 247.743759155273 262.1875 276.600006103516 285.368743896484 292.9375 298.049987792969 303.037506103516 306.037506103516 307.587493896484 309.299987792969 308.993743896484 306.256256103516 302.875 305.043762207031 317.268737792969 340.393737792969 365.731262207031 388.625 404.174987792969 412.65625 412.762512207031 398.806243896484 387.049987792969 378.231262207031 354.431243896484 315.462493896484 273.318756103516 233.681243896484 201.443756103516 176.712493896484 155.487503051758 138.65625 128.443756103516 125.724998474121 119.53125 113.193748474121 102.631248474121 87.6062469482422 73.8499984741211 62.15625 49.375 39.2000007629395 38.71875 39.6749992370605 42.0562515258789 52.5875015258789 63.4187507629395 72.7750015258789 83.9500045776367 
222 231.912506103516 246.199996948242 260.84375 274.393737792969 285.3125 294.1875 300.4375 308.34375 314.125 318.024993896484 320.587493896484 318.924987792969 318.243743896484 318.450012207031 321.037506103516 329.1875 341.174987792969 368.443756103516 392.049987792969 410.40625 416.462493896484 416.212493896484 404.737487792969 395.243743896484 386.575012207031 369.112487792969 323.693756103516 274.268737792969 229.856246948242 196.568756103516 172.324996948242 157.612503051758 147.824996948242 139.012496948242 129.9375 124.25 117.337501525879 103.300003051758 89.96875 74.8562469482422 61.9625015258789 49.0999984741211 38.4937515258789 38.2249984741211 39.46875 42.1500015258789 52.7874984741211 64.1500015258789 73.3812484741211 86.5625 
218.824996948242 229.84375 243.856246948242 258.524993896484 272.868743896484 284.40625 293.881256103516 302.899993896484 314.981262207031 325.743743896484 331.837493896484 334.274993896484 333.28125 333.600006103516 333.03125 336.4375 343.5 350.956237792969 369.862487792969 393.481262207031 416.737487792969 430.193756103516 419.043762207031 407.993743896484 398.674987792969 387.431243896484 362.487487792969 320.206237792969 273.306243896484 227.050003051758 191.118743896484 172.337493896484 165.96875 156.225006103516 144.96875 137.943756103516 130.149993896484 121.118751525879 107.4375 92.1750030517578 76.0999984741211 63.1124992370605 48.9625015258789 37.5 37.5999984741211 39.4625015258789 42.4375 53.6687507629395 64.9250030517578 73.8249969482422 89.9937515258789 
214.768753051758 226.387496948242 239.862503051758 254.637496948242 269.181243896484 282.700012207031 294.625 305.856262207031 322.625 338.443756103516 350.024993896484 354.431243896484 354.53125 352.537506103516 351.987487792969 352.368743896484 352.756256103516 364.149993896484 379.325012207031 399.212493896484 414.8125 420.825012207031 422.118743896484 410.068756103516 395.962493896484 376.756256103516 346.381256103516 312.456237792969 269.662506103516 225.96875 194.25 180.75 172.300003051758 164.46875 154.981246948242 146.018753051758 137.4375 127.831253051758 112.006248474121 94.6937484741211 77.5374984741211 63.3312492370605 48.71875 36.8624992370605 37.2625007629395 39.65625 42.8125 54.2312507629395 65.84375 75.7937469482422 92.0250015258789 
207.981246948242 220.356246948242 234.375 248.699996948242 262.575012207031 280.018737792969 297.850006103516 314.993743896484 336.049987792969 354.65625 369.78125 377.799987792969 381.306243896484 378.893737792969 377.331237792969 373.918762207031 371.881256103516 376.293731689453 389.924987792969 401.831237792969 414.825012207031 422.5625 422.625 410.243743896484 395.743743896484 375.956237792969 344.475006103516 306.549987792969 268.71875 237.331253051758 210.737503051758 193.931243896484 183 173.96875 164.737503051758 156.425003051758 146.074996948242 134.75 117.193748474121 98.7437515258789 80.1812515258789 64.8125 49.7750015258789 37.1437492370605 37.4187507629395 39.5750007629395 42.9562492370605 54.8624992370605 66.25 78.0749969482422 93.7624969482422 
202.212493896484 212.625 226.449996948242 240.53125 255.462493896484 276.806243896484 300.537506103516 323.3125 349.774993896484 373.037506103516 392.174987792969 405.637512207031 413.193756103516 412.299987792969 408.043762207031 402.262512207031 400.212493896484 399.556243896484 404.549987792969 412.193756103516 414.418762207031 416.78125 417.293762207031 403.587493896484 386.793762207031 367.5 341.318756103516 307.875 276.299987792969 248.693756103516 222.15625 203.868743896484 192.412506103516 184.850006103516 177.175003051758 167.662506103516 156.293746948242 143.274993896484 123.143753051758 103.168746948242 83.2937469482422 66.7687530517578 50.9874992370605 37.8624992370605 38.0437507629395 39.8312492370605 43.1124992370605 55.1687507629395 67.7562484741211 80.53125 96.09375 
196.650009155273 207.643753051758 220.537506103516 234.15625 249.556243896484 274 300.893737792969 330.46875 361.924987792969 388.850006103516 414.024993896484 432.5625 451.181243896484 453.943756103516 441.975006103516 430.674987792969 424.581237792969 420.431243896484 418.924987792969 419.731262207031 417.393737792969 414.431243896484 410.03125 394.987487792969 380.1875 362.837493896484 337.212493896484 309.456237792969 280.231262207031 254.475006103516 231.28125 212.887496948242 203.324996948242 196.425003051758 188.537506103516 178.693756103516 166.462493896484 150.824996948242 128.793746948242 107.231246948242 86.6312484741211 68.9625015258789 52.2874984741211 38.46875 38.3562507629395 40.375 43.625 55.9562492370605 68.9312515258789 82.4749984741211 98.8375015258789 
190.581253051758 200.71875 214.612503051758 228.518753051758 245.524993896484 272.518737792969 301.693756103516 333.612487792969 365.206237792969 394.987487792969 423.487487792969 452.0625 478.84375 481.131256103516 464.462493896484 450.556243896484 441.587493896484 434.21875 427.71875 422.0625 416.606262207031 410.712493896484 402.325012207031 387.09375 372.412506103516 355.206237792969 335.956237792969 307.6875 282.46875 258.912506103516 238.824996948242 221.4375 211.743743896484 204.199996948242 196.693740844727 187.356246948242 174.337493896484 156.256256103516 133.443756103516 110.918746948242 89.5562515258789 71.3375015258789 54.1687507629395 39.9312515258789 40.4874992370605 42.4562492370605 45.5812492370605 57.5562515258789 71.7562484741211 84.4499969482422 101.387496948242 
187.237503051758 195.199996948242 209.862503051758 225.362503051758 244.543746948242 271.375 300.518737792969 332.193756103516 365.018737792969 396.21875 427.40625 452.831237792969 476.825012207031 484.831237792969 474.225006103516 462.09375 452.700012207031 441.456237792969 432.350006103516 423.543762207031 414.362487792969 403.6875 395.125 378.649993896484 362.543762207031 349.53125 330.418762207031 307.125 282.950012207031 263.331237792969 243.762496948242 226.993743896484 217.337493896484 209.606246948242 201.037506103516 189.675003051758 176.324996948242 158.418746948242 136.037506103516 113.875 92.21875 73.6125030517578 56.40625 42.0374984741211 42.3250007629395 44.5187492370605 46.9437484741211 60.3875007629395 74.2750015258789 87.6687469482422 105.074996948242 
186.875 193.837493896484 206.393753051758 223.481246948242 241.893753051758 268.162506103516 296.456237792969 327.262512207031 359.356262207031 391.018737792969 421.53125 446.649993896484 466.762512207031 477.893737792969 473.756256103516 466.34375 459.412506103516 447.25 436.168762207031 425.793762207031 413.46875 400.524993896484 387.65625 368.106262207031 354.15625 343.28125 327.075012207031 306.681243896484 284.993743896484 266.700012207031 247.587493896484 230.762496948242 221.21875 211.868743896484 202.6875 189.949996948242 175.5 158.818756103516 137.831253051758 115.900001525879 94.5999984741211 75.8874969482422 57.9812507629395 43.78125 44.2562484741211 45.8250007629395 49.8250007629395 63.6375007629395 77.6187515258789 92.1312484741211 109.606246948242 
188.074996948242 191.9375 204.40625 219.8125 236.40625 260.65625 289.100006103516 317.399993896484 345.424987792969 375.625 406.65625 430.524993896484 449.568756103516 462.606262207031 462.15625 456.4375 452.081237792969 442.5625 433.006256103516 421.850006103516 408.799987792969 395.106262207031 380.537506103516 361.5625 350.368743896484 339.424987792969 323.075012207031 303.725006103516 284.274993896484 265.34375 247.831253051758 231.199996948242 221.668746948242 211.899993896484 200.681243896484 186.78125 171.587509155273 154.543746948242 134.90625 114.018745422363 93.5124969482422 75.75 59.0687484741211 45.4874992370605 45.7874984741211 48.4124984741211 52.5437507629395 66.5187530517578 81.7062530517578 95.6937484741211 113.568748474121 
189.3125 190.243759155273 201.768753051758 215.356246948242 230.800003051758 252.800003051758 278.743743896484 305.787506103516 333.106262207031 361.556243896484 388.743743896484 411.649993896484 430.356262207031 444.137512207031 447.118743896484 444.712493896484 441.5 435.581237792969 427.549987792969 418.53125 407.143737792969 393.4375 382.987487792969 366.231262207031 352.231262207031 338.606262207031 320.46875 301.487518310547 281.549987792969 263.081237792969 244.862503051758 228.693756103516 218.78125 207.899993896484 197.268753051758 182.537506103516 166.581253051758 150.25 130.518753051758 111.487503051758 92.4375 76.0749969482422 59.6624984741211 47 48.0750007629395 50.78125 54.8875007629395 70.2937469482422 85.9250030517578 100.137496948242 117.349998474121 
190.106246948242 188.262496948242 197.306243896484 209.375 223.15625 243.256256103516 266.793762207031 291.831237792969 319.181243896484 345.6875 371.550018310547 392.443756103516 411.743743896484 425.887512207031 430.306243896484 432.725006103516 433.825012207031 428.037506103516 421.950012207031 415.174987792969 406.037506103516 394.587493896484 386.106262207031 371.024993896484 355.112487792969 339.087493896484 320.462493896484 299.299987792969 278.96875 259.462493896484 241.512496948242 224.806243896484 213.46875 202.649993896484 192.387496948242 177.106246948242 160.981246948242 144.149993896484 125.275001525879 106.53125 89.21875 74.3312530517578 60.3375015258789 50.0875015258789 51.4437484741211 53.6937484741211 57.78125 73.9749984741211 90.0500030517578 104.506248474121 120.393753051758 
189.768753051758 185.568756103516 191.3125 198.043746948242 208.90625 227.568756103516 249.112503051758 272.287506103516 297.462493896484 321.168762207031 345.475006103516 366.78125 386.787506103516 403.831237792969 410.856262207031 415.9375 417.075012207031 415.712493896484 410.893737792969 406.112487792969 399.043762207031 393.131256103516 386.712493896484 369.993743896484 353.399993896484 337.40625 317.512512207031 295.049987792969 273.393737792969 255.368743896484 237.806243896484 221.306243896484 208.899993896484 197.706253051758 186.118743896484 169.362503051758 152.131256103516 135.918746948242 117.162498474121 99.4312515258789 83.6437530517578 73.6937484741211 63.4874992370605 55.6875 55.7312507629395 58.46875 62.5562515258789 77.9312515258789 92.7874984741211 106.03125 122.262504577637 
187.943756103516 182.037506103516 184.574996948242 188.056243896484 194.75 212.543746948242 232.306259155273 252.912506103516 274.681243896484 297.831237792969 321.100006103516 342.53125 364.174987792969 380.543762207031 390.40625 398.34375 404.368743896484 403.40625 399.075012207031 399.431243896484 395.762512207031 391.981262207031 387.006256103516 369.831237792969 351.137512207031 334.8125 312.875 290.09375 267.587493896484 249.774993896484 233.4375 218.006256103516 204.262496948242 192.693756103516 179.131256103516 161.462493896484 144.03125 128.1875 110.15625 91.4875030517578 78.0999984741211 72.5812530517578 66.5562515258789 61.0562515258789 61.0625 64.9124984741211 69.1062469482422 82.6687469482422 95.3937530517578 106.512496948242 124 
184.837493896484 178.199996948242 178.28125 180.225006103516 185.206253051758 199.068740844727 216.237503051758 233.8125 253.631256103516 274.568756103516 296.5625 318.700012207031 340.1875 359.368743896484 373.043762207031 383.918762207031 392.15625 392.84375 392.475006103516 394.987487792969 393.181243896484 389.912506103516 384.993743896484 367.049987792969 349.174987792969 330.824981689453 307.25 283.649993896484 260.418762207031 244.21875 229.012496948242 213.731246948242 199.537506103516 186.125 172.78125 154.800003051758 137.056243896484 120.331245422363 103.231246948242 87.6125030517578 76.9875030517578 74.375 71.5625 69.5437469482422 70.4749984741211 75.6437530517578 79.3125 90.0374984741211 98.75 107.1875 124.28125 
178.199996948242 172.75 172.256240844727 173.649993896484 176.962509155273 186.737503051758 199.231246948242 212.693756103516 229.8125 248.818756103516 271.299987792969 292.90625 316.34375 340.125 354.575012207031 367.625 376.856262207031 382.387512207031 385.424987792969 388.887512207031 387.5625 383.243743896484 376.6875 359.193756103516 341.912506103516 323.462493896484 299.693756103516 275.443756103516 253.362503051758 237.993743896484 223.862503051758 209.537506103516 194.743743896484 180.393753051758 167.118743896484 150.149993896484 133.5625 117.143753051758 102.893753051758 92.4124984741211 84.0124969482422 82.4375 81.7562484741211 82.0999984741211 86.8874969482422 94.8499984741211 97.28125 101 104.46875 108.4375 124.087501525879 
170.612503051758 166.618743896484 165.949996948242 167.024993896484 168.59375 174.743743896484 181.96875 191.475006103516 206.493743896484 223.34375 243.612503051758 267.856231689453 293.924987792969 318.149993896484 334.475006103516 349.5 362.600006103516 370.200012207031 375.6875 380.84375 378.768737792969 374.15625 367.331237792969 349.78125 332.712493896484 314.162506103516 291.131256103516 266.618743896484 244.862503051758 230.543746948242 217.793746948242 205.34375 190.300003051758 175.4375 161.862503051758 146.112503051758 129.762496948242 113.831253051758 104.400001525879 97.8375015258789 91.8187484741211 91.6500015258789 93.3125 95.7312469482422 102.237503051758 110.137496948242 110.731246948242 109.324996948242 108.043746948242 108.318748474121 121.856246948242 
163.931243896484 161.0625 160.168746948242 159.987503051758 160.581253051758 163.268753051758 166.393753051758 172.125 183.637496948242 199.162506103516 218.75 244.506240844727 271.918762207031 299.03125 317.787506103516 332.506256103516 347.793762207031 357.043762207031 363.993743896484 369.768737792969 368.362487792969 363.424987792969 355.8125 337.618743896484 319.837493896484 302.962493896484 279.668762207031 256.799987792969 235.412506103516 222.537506103516 211.868743896484 200.46875 185.162490844727 170.699996948242 156.068756103516 140.631256103516 125.400001525879 113.068748474121 107.0625 102.793746948242 99.7750015258789 100.506248474121 103.099998474121 106.400001525879 112.050003051758 116.1875 116.631248474121 114 109.756248474121 107.693748474121 119.256248474121 
158.056243896484 155.600006103516 154.693756103516 154 154.03125 155.931243896484 158.03125 160.831253051758 168.993743896484 180.675003051758 198.762496948242 222.981246948242 250.418746948242 277.725006103516 296.543762207031 314.987487792969 330.024993896484 340.293762207031 348.975006103516 356.662506103516 354.543762207031 346.993743896484 338.34375 321.868743896484 305.556243896484 289.649993896484 268.71875 248.137496948242 228.918746948242 216.081253051758 206.887496948242 196.162506103516 182.118743896484 168.149993896484 153.543746948242 140.149993896484 129.8125 119.625 114.518753051758 111.737503051758 110.068748474121 110.731246948242 112.78125 115.9375 120.074996948242 122.375 122.881248474121 121.112503051758 117.425003051758 115 122.46875 
152.350006103516 150.612503051758 149.887496948242 149.212493896484 148.731246948242 150.206253051758 151.231246948242 152.556243896484 157.206253051758 163.112503051758 180.306243896484 207.512496948242 232.412506103516 254.96875 274.731262207031 293.962493896484 310.512512207031 320.418762207031 329.131256103516 335.950012207031 332.893737792969 325.362487792969 317.181243896484 302.46875 288.043762207031 275.056243896484 255.631256103516 238.293746948242 220.774993896484 209.912506103516 201.043746948242 192.524993896484 179.024993896484 166.006256103516 152.493743896484 142.606246948242 134.931243896484 127.643753051758 124.056251525879 121.03125 119.375 119.681251525879 121.300003051758 124.212501525879 127.5625 128.5 129.262496948242 128.431243896484 125.675003051758 122.837501525879 125.637496948242 
148.1875 146.59375 145.606246948242 145.006256103516 144.293746948242 145.587493896484 146.693756103516 147.631256103516 150.78125 153.712493896484 174.331253051758 199.856246948242 218.125 235.762496948242 254.543746948242 273.543762207031 290.393737792969 299.037506103516 305.862487792969 309.268737792969 307.125 301.443756103516 294.681243896484 281.387512207031 269.831237792969 259.137512207031 242.600006103516 227.893753051758 213.449996948242 204.550003051758 194.643753051758 186.71875 175.212493896484 163.53125 151.893753051758 145.512496948242 140.768753051758 135.643753051758 133.912506103516 131.993743896484 129.162506103516 129.487503051758 129.5625 130.931243896484 133.493743896484 134.5625 135.149993896484 135.387496948242 132.399993896484 129.693756103516 129.243743896484 
143.324996948242 142.0625 141.918746948242 141.6875 141.21875 142.78125 144.699996948242 146.862503051758 153.162506103516 165.1875 186.975006103516 200.762496948242 213.574996948242 228.300003051758 243.4375 258.75 272.912506103516 280.337493896484 285.03125 288.424987792969 285.350006103516 279.8125 274.693756103516 264.568756103516 253.96875 245.53125 232.75 221.118743896484 210.131256103516 202.118743896484 194.175003051758 186.881240844727 177.449996948242 167.974990844727 160.762496948242 156.199996948242 151.481246948242 148.231246948242 146.125 142.0625 138.71875 138.850006103516 137.362503051758 138.143753051758 140.125 140.512496948242 139.100006103516 139.524993896484 137.481246948242 135.693756103516 134.931243896484 
138.199996948242 137.524993896484 137.899993896484 138.087509155273 138.925003051758 141.475006103516 143.925003051758 148.03125 156.09375 167.606246948242 182.274993896484 196.206253051758 208.449996948242 221.4375 233.462493896484 244.881256103516 256.443756103516 262.200012207031 266.056243896484 268.96875 264.799987792969 259.53125 253.943756103516 245.581253051758 238.600006103516 231.712509155273 222.5 214.787506103516 206.956253051758 199.893753051758 192.824996948242 189.212493896484 184.081253051758 177.487503051758 172.949996948242 168.71875 164.162506103516 160.462493896484 158.356246948242 152.862503051758 148.743743896484 147.84375 145.725006103516 144.449996948242 145.28125 145.168746948242 144.637496948242 145.131256103516 144.012496948242 142.206253051758 141.181243896484 
133.350006103516 133 134.03125 135.262496948242 136.506256103516 139.043746948242 142.462493896484 148.043746948242 155.443756103516 164.887496948242 176.018753051758 188.900009155273 202.431243896484 213.862503051758 223.574996948242 232.018753051758 240.512496948242 246.012496948242 249.125 250.762496948242 246.225006103516 240.393753051758 234.625 228.625 225.1875 219.443756103516 213.306243896484 208.481246948242 203.4375 197.881256103516 194.118743896484 193.868743896484 190.5625 187.818756103516 185.8125 182.987503051758 178.75 174.3125 170.681243896484 164.081253051758 158.587493896484 156.03125 152.293746948242 150.912506103516 151.206253051758 151.737503051758 150.618743896484 149.868743896484 149.824996948242 148.899993896484 147.662506103516 
129.9375 130.037506103516 131.274993896484 132.550003051758 134.262496948242 137.050003051758 141.287506103516 146.712493896484 154.737503051758 162.993743896484 173.4375 185.600006103516 198.431243896484 209.925003051758 219.043746948242 228.53125 236.787506103516 241.831253051758 244.987503051758 244.112503051758 237.168746948242 232.331253051758 226.512496948242 221.337493896484 218.524993896484 214.618743896484 209.524993896484 205.8125 203.787506103516 201.881256103516 196.831253051758 199.043746948242 198.5625 200.662506103516 201.831253051758 198 194.024993896484 189.1875 183.268753051758 175.393753051758 168.5 162.75 158.1875 157.78125 158.524993896484 158.881256103516 156.90625 155.337493896484 155.649993896484 153.987503051758 152.581253051758 
127.043746948242 127.175003051758 128.543746948242 129.787506103516 131.081253051758 134.681243896484 139.212493896484 144.712493896484 152.631256103516 160.856246948242 170.587493896484 182.212493896484 194.875 205.787506103516 215.862503051758 225.762496948242 234.125 240.043746948242 242.768753051758 238.806243896484 230.493743896484 223.493743896484 218.375 216.362503051758 214.143753051758 211.162506103516 206.962493896484 204.412506103516 203.762496948242 202.818756103516 201.743743896484 200.90625 203.337493896484 210.106246948242 216.681243896484 218.506256103516 211.649993896484 205.175003051758 196.649993896484 187.074996948242 179.1875 173.0625 168.543746948242 166.40625 166.768753051758 165.537506103516 163.418746948242 161.9375 161.693756103516 160.024993896484 158.431243896484 
124.525001525879 124.993751525879 126.137496948242 126.912498474121 128.675003051758 131.981246948242 136.087493896484 141.600006103516 149.068756103516 157.831253051758 167.662506103516 179.274993896484 190.112503051758 201.96875 212.53125 222.631256103516 231.518753051758 236.962493896484 241.412506103516 236.862503051758 226.90625 218.243743896484 213.100006103516 211.112503051758 210.412506103516 208.318756103516 205.225006103516 204.574996948242 204.012496948242 204.71875 204.125 204.074996948242 206.418746948242 216.306243896484 229.587493896484 238.987503051758 231.956253051758 221.318756103516 210.425003051758 199.856246948242 191.256256103516 184.693756103516 179.262496948242 176.899993896484 175.912506103516 173.537506103516 171.649993896484 169.112503051758 167.125 166.474990844727 165.037490844727 
124.275001525879 124.762496948242 125.881248474121 126.206253051758 127.681251525879 130.850006103516 134.068756103516 139.09375 146.256256103516 155.087493896484 164.743743896484 175.975006103516 187.087493896484 198.6875 209.431243896484 219.668746948242 228.331253051758 232.987503051758 236.824996948242 234.625 226.4375 219.725006103516 213.512496948242 210.9375 210.8125 208.75 206.25 205.3125 205.612503051758 207.25 207.231246948242 206.737503051758 211.131256103516 220.21875 232.850006103516 245.0625 242.3125 230.556243896484 219.506256103516 210.53125 201.5 195.256256103516 190.256256103516 185.418746948242 184.475006103516 182.46875 179.462493896484 176.556243896484 172.725006103516 171.899993896484 171.212493896484 
