ncols        51
nrows        45
xllcorner    -63.500000000000
yllcorner    -7.500000000000
cellsize     0.166666666667
NODATA_value -99
175.787506103516 174.356246948242 174.106246948242 176.9375 177.162506103516 175.149993896484 168.65625 160.537506103516 154.518753051758 149.149993896484 145.987503051758 144.212493896484 142.46875 138.987503051758 136.681243896484 133.487503051758 131.762496948242 128.149993896484 125.775001525879 122.381248474121 119.349998474121 114.462501525879 110.574996948242 106.362503051758 101.75 98.9124984741211 97.2312469482422 95.5749969482422 92.3375015258789 87.5625 81.8312530517578 77.1937484741211 74.4124984741211 70.4250030517578 67.5187530517578 67.8000030517578 69.3874969482422 71.0124969482422 73.1500015258789 75.6875 78.40625 80.7937469482422 82.2375030517578 83.8625030517578 85.84375 86.5 88.5187530517578 88.6624984741211 89.3249969482422 88.4937515258789 88.0875015258789 
167.081253051758 165.262496948242 168.318756103516 174.381256103516 180.850006103516 175 166.612503051758 161.53125 155.393753051758 149.40625 145.300003051758 142.28125 139.543746948242 134.868743896484 132.03125 129.8125 126.800003051758 124.181251525879 121.775001525879 119.068748474121 115.125 111.84375 107.681251525879 103.8125 98.2624969482422 94.75 93.5250015258789 92.1624984741211 88.3187484741211 82.8874969482422 76.9000015258789 72.3125 69.0187530517578 66.4000015258789 64.0812530517578 65 67.1875 69.7062530517578 72.0625 74.8062515258789 77.90625 80.5687484741211 82.8937530517578 83.8874969482422 85.6812515258789 86.5062484741211 88.2062530517578 88.0999984741211 88.4187469482422 87.125 86.5250015258789 
153.662506103516 154.125 157.206253051758 163.393753051758 168.71875 166.256240844727 160.262496948242 155.28125 150.574996948242 145.512496948242 141.456253051758 138.0625 135.037506103516 130.118743896484 126.612503051758 124.743751525879 121.5625 118.90625 116.224998474121 113.543746948242 109.293746948242 105.025001525879 101.043746948242 96.9937515258789 91.53125 87.1624984741211 87.1374969482422 85.4312515258789 82.2937469482422 76.875 70.8562469482422 66.375 64.5687484741211 62.5 60.9249992370605 62.3812484741211 65.2437515258789 68.6750030517578 71.9000015258789 75.5124969482422 79.3687515258789 81.7437515258789 84.6187515258789 86.1624984741211 87.1187515258789 87.8125 88.96875 88.75 87.5250015258789 85.7937469482422 85.1125030517578 
137.912506103516 139.15625 146.149993896484 149.774993896484 153.3125 152.493743896484 150.100006103516 148.9375 145.912506103516 142.1875 137.637496948242 133.912506103516 128.949996948242 124.875 121.53125 119.231246948242 116.71875 113.893753051758 111.974998474121 109.59375 104.675003051758 98.6375045776367 93.21875 88.7874984741211 82.9562530517578 78.8062515258789 78.25 76.09375 74.125 69.7312469482422 64.8562469482422 60.28125 58.5625 57.1937484741211 56.0499992370605 59.5562515258789 63.7937507629395 67.9312515258789 72.1937484741211 75.9749984741211 79.7999954223633 82.3125 85.0374984741211 87.2375030517578 88.5437469482422 88.5625 88.8187484741211 88.8687515258789 86.9749984741211 84 81.9499969482422 
136.96875 134.087493896484 132.78125 135.131256103516 140.425003051758 141.399993896484 140.418746948242 140.75 140.037506103516 137.149993896484 132.9375 127.712501525879 123.6875 120.90625 117.887504577637 115.287498474121 112.393753051758 109.137504577637 106.631248474121 103.224998474121 98.7437515258789 91.0562515258789 85.5999984741211 80.7562484741211 74.8874969482422 70.5250015258789 68.9375 68.0374984741211 66.4437484741211 62.2062492370605 58.1624984741211 53.875 52.5562515258789 52.2562484741211 52.4437484741211 56.2937507629395 61.2374992370605 66.7750015258789 71.8812484741211 76.3874969482422 80.6187515258789 82.84375 84.9812469482422 87.7375030517578 88.8625030517578 88.8375015258789 88.1687469482422 87.1062469482422 85.0500030517578 82.1750030517578 79.03125 
135.818756103516 132.15625 128.362503051758 123.925003051758 128.956253051758 134.4375 135.418746948242 134.793746948242 134.0625 132.762496948242 128.512496948242 123.506248474121 120.068748474121 117.806251525879 114.412498474121 112.493751525879 109.675003051758 105.287498474121 101.756248474121 98.2125015258789 91.8249969482422 84.6125030517578 78.4812469482422 72.8937530517578 67.875 63.25 61.75 61.3250007629395 59.8312492370605 56.125 52.7374992370605 50.6500015258789 50.3624992370605 50.84375 51.7874984741211 56.9812507629395 62.6812515258789 69.4874954223633 75.4937515258789 80.2125015258789 82.3874969482422 84.3249969482422 86.2437515258789 89.1937484741211 91.6624984741211 90.9312515258789 88.6624984741211 86.1312484741211 84.8187484741211 82.0250015258789 79.2624969482422 
136.662506103516 133.287506103516 129.03125 124.349998474121 124.612503051758 125.481246948242 127.587501525879 128.393753051758 126.693748474121 124.181251525879 121.743751525879 118.574996948242 116.375 114.09375 111.443748474121 109.599998474121 107.106246948242 102.912498474121 97.9437484741211 92.6500015258789 85.2624969482422 77.9124984741211 70.7312469482422 65.1999969482422 60.7000007629395 56.65625 55.4625015258789 55.0562515258789 53.5187492370605 50.4437484741211 48.0499992370605 46.25 47.3937492370605 49.3125 51.5875015258789 56.7312507629395 63.125 71.3249969482422 78.9812469482422 82.1999969482422 83.9250030517578 84.6437530517578 86.2062530517578 89.3125 92.1312484741211 91.34375 88.3125 84.3125 82.6750030517578 82.1500015258789 80.5250015258789 
138.081253051758 134.425003051758 130.193756103516 127.887496948242 127.693748474121 128.293746948242 125.900001525879 120.800003051758 116.668746948242 115.137496948242 115.012496948242 113.606246948242 112.40625 110.4375 108.96875 106.106246948242 103.568748474121 99.3375015258789 93.9250030517578 86.4312515258789 79.0250015258789 71.2249984741211 63.9749984741211 58.2562484741211 53.6875 49.8937492370605 48.7000007629395 48.1124992370605 47.3624992370605 45.21875 43.6375007629395 42.5875015258789 44.6187515258789 47.7125015258789 50.40625 55.7125015258789 62.1687507629395 69.625 75.3625030517578 78.8874969482422 80.5124969482422 80.8312530517578 82.2125015258789 84.2750015258789 86.5812530517578 86.1125030517578 84.0875015258789 81.1687469482422 79.6187515258789 79.5875015258789 78.4812469482422 
140.668746948242 137.743743896484 134.606246948242 132.137496948242 131.337493896484 130.225006103516 127.599998474121 122.418746948242 116.200004577637 111.443748474121 111.15625 110.224998474121 110.59375 108.59375 106.25 102.949996948242 99.6187515258789 95.0187530517578 89.9749984741211 82.2437515258789 73.7125015258789 66.2937469482422 58.15625 53.3562507629395 48.53125 44.5125007629395 43.7437515258789 43.8375015258789 43.9625015258789 42.7937507629395 42.5687522888184 41.5750007629395 43.3375015258789 45.75 48.7687492370605 54.59375 60.9312515258789 67.0187530517578 70.9625015258789 73.8312530517578 75.2125015258789 74.9937515258789 76.0374984741211 77.6999969482422 78.1750030517578 78.1187515258789 77.5687484741211 74.8249969482422 73.8687515258789 75.1062469482422 77 
141.75 139.399993896484 136.837493896484 134.543746948242 134.387496948242 133.199996948242 130.287506103516 124.581253051758 119.137496948242 114.856246948242 112.143753051758 109.65625 109.074996948242 107.912498474121 103.668746948242 99.9812469482422 94.9937515258789 89.875 84.65625 78.1812515258789 69.7624969482422 61.1937484741211 52.9874992370605 47.9249992370605 42.9124984741211 39.25 39.0625 39.5499992370605 40.1812515258789 40.5187492370605 40.4249992370605 40.1500015258789 42.0625 44.9375 48.0250015258789 53.0625 58.8312492370605 63.8875007629395 66.1999969482422 68.2375030517578 69.1875 69.125 67.8000030517578 68.5125045776367 69.2437515258789 70.1187515258789 69.3249969482422 66.8625030517578 65.4250030517578 65.6187515258789 66.5999984741211 
144.774993896484 142.34375 139.931243896484 137.449996948242 136.668746948242 136.46875 133.675003051758 126.287498474121 120.043746948242 115.868751525879 113.212501525879 111.125 108.5625 105.831253051758 100.256248474121 95.0999984741211 89.0187530517578 83.8125 78.6312484741211 73.03125 66 57.4812507629395 48.9874992370605 42.125 38 35.6312522888184 35.9562492370605 36.3562507629395 36.8375015258789 37.8875007629395 38.7374992370605 39.1749992370605 41.3499984741211 43.8687515258789 46.7437515258789 50.9937515258789 55.7125015258789 59.7249984741211 61.9749984741211 62.5374984741211 62.1687507629395 61.25 60.9749984741211 59.9000015258789 59.6749992370605 62.0625 60.1812515258789 57.1124992370605 55.2374992370605 53.9625015258789 50.6124992370605 
146.043746948242 143.612503051758 141.324996948242 139.931243896484 138.893753051758 138.212493896484 136.225006103516 129.175003051758 121.868751525879 116.481246948242 113.587501525879 111.081253051758 105.962501525879 101.068748474121 96.5 90.6812515258789 84.9499969482422 78.96875 73.9312515258789 69.6812515258789 63.6875 55.1187515258789 46.2625007629395 39.4187507629395 35.1812515258789 32.6812515258789 33.2937507629395 34.28125 34.9812507629395 36.5374984741211 37.6937484741211 38.5250015258789 40.5562515258789 43.2249984741211 46.3562507629395 50.0562515258789 53.8312492370605 57.1749992370605 57.2625007629395 56.2687492370605 54.9437484741211 53.3249969482422 52.8374977111816 51.4625015258789 49.5562515258789 48.7249984741211 48.2000007629395 46.8312492370605 45.8937492370605 43.84375 38.6749992370605 
146.193756103516 143.699996948242 140.993743896484 138.4375 136.581253051758 135.362503051758 132.28125 126.193748474121 120.900001525879 116.324996948242 112.393753051758 109.099998474121 103.768753051758 95.8187484741211 89.8687515258789 85.1374969482422 79.6312484741211 74.1999969482422 69.5187530517578 65.1937484741211 59.6687507629395 51.8875007629395 43.3187484741211 37.2874984741211 32.4187507629395 29.9125003814697 31.3374996185303 32.9937515258789 34.3125 35.9562492370605 36.9187507629395 37.7562484741211 39.8250007629395 41.71875 44.34375 48.2125015258789 52.7437515258789 56.3062515258789 56.71875 53.25 49.4000015258789 48.3250007629395 46.9249992370605 41.8312492370605 39.3312492370605 41.09375 41.4437484741211 39.8062515258789 37.5250015258789 36.3312492370605 31.9312496185303 
145.118743896484 142.131256103516 138.337493896484 135.262496948242 133.268753051758 130.425003051758 126.724998474121 122.493751525879 117.856246948242 114.231246948242 109.518753051758 103.574996948242 97.6812515258789 90.2312469482422 82.7062530517578 78.6125030517578 73.6687469482422 68.3187484741211 63.3687515258789 59.28125 53.7874984741211 46.4187507629395 39.2874984741211 35.15625 31.3062496185303 28.7749996185303 30.3062496185303 32.0374984741211 33.3875007629395 35.2312507629395 36.9749984741211 37.6187515258789 39.0499992370605 40.5687484741211 43.0562515258789 47.7062492370605 53.3499984741211 59.0062484741211 60.2437515258789 57.6375007629395 49.6124992370605 44.2874984741211 42.75 41.0562515258789 39.5374984741211 39.3875007629395 40.375 39.1937484741211 36.6624984741211 35.0875015258789 30.9562492370605 
142.706253051758 138.712493896484 134.493743896484 131.287506103516 129.068756103516 124.237503051758 121.431251525879 117.074996948242 112.625 109.800003051758 104.400001525879 97.8937454223633 91.1374969482422 83.8562469482422 76 70.8687515258789 66.8000030517578 62.5499992370605 57.7374992370605 54.0125007629395 49.03125 42.9312515258789 37.0875015258789 34.7062492370605 32.7874984741211 31.0874996185303 32.5625 33.71875 34.6437492370605 36.4562492370605 37.0812492370605 37.5125007629395 39.0437507629395 40.0999984741211 41.25 46.9124984741211 55.7000007629395 65.9499969482422 71.3312530517578 68.8375015258789 62.3687515258789 54.5812492370605 50.40625 46.2750015258789 43.0625 41.84375 41.1812515258789 40.8187484741211 39.7687492370605 36.4812507629395 32.46875 
138.793746948242 134.28125 130.637496948242 127.043746948242 123.34375 119.893753051758 116.25 111.768753051758 108.162498474121 105.40625 99.9625015258789 92.4250030517578 85.0500030517578 77.96875 70.6500015258789 64.0875015258789 60.1624984741211 57.0625 52.8875007629395 49.6812515258789 44.8499984741211 40.0125007629395 35.7249984741211 35.1937484741211 34.6124992370605 33.4000015258789 34.71875 36.0562477111816 37.0750007629395 38.3125 39.6000022888184 39.3499984741211 39.78125 40.9312515258789 41.1437492370605 48.9562492370605 61.0687484741211 72.9250030517578 83.1125030517578 84.4437484741211 81.3625030517578 69.5062484741211 58.7750015258789 50.4375 46.8375015258789 44.4625015258789 43.9312515258789 42.7000007629395 40.8312492370605 38.5999984741211 36.2374992370605 
133.09375 129.193756103516 126.199996948242 122.768753051758 118.793746948242 115.574996948242 111.8125 107.962501525879 104.318748474121 100.737503051758 95.9812469482422 88.09375 79.7624969482422 72.3187484741211 66.5062484741211 60.7437515258789 54.84375 51.6062507629395 48.8125 45.7937507629395 41.2562484741211 37.15625 34.2687492370605 35.7437515258789 36.71875 35.5875015258789 37.0499992370605 38.5562515258789 39.8125 41.375 43.3499984741211 44.8187484741211 44.75 45.1812515258789 49.125 56.4937515258789 67.8375015258789 85.4749984741211 103.53125 101 92.6062469482422 77.84375 63.2874984741211 54.5437507629395 50.1187515258789 47.6937484741211 46.28125 45.90625 45.5187492370605 42.6375007629395 41.1937522888184 
127.40625 124.050003051758 120.125 116.800003051758 113.912498474121 110.824996948242 106.6875 102.387496948242 99.4375 95.4187469482422 90.7062530517578 83.2750015258789 75.28125 68.1999969482422 62.5999984741211 57.5625 52.2874984741211 46.9812507629395 45.21875 42.3499984741211 38.6500015258789 34.8125 32.6812515258789 35.5125007629395 37.9874992370605 37.9937515258789 40.3125 42.15625 43.1812515258789 44.0187492370605 45.3937492370605 46.7125015258789 51.7062492370605 56.8250007629395 59.0374984741211 62.9375 76.5812530517578 93.0500030517578 103.775001525879 102.949996948242 91.2562484741211 77.2562484741211 64.9499969482422 58.5625 54.3562507629395 52.0125007629395 51.2374992370605 49.6625022888184 49.1062507629395 45.78125 45.2750015258789 
121.5 117.856246948242 113.90625 111.206253051758 108.168746948242 105.324996948242 101.300003051758 98.0812530517578 94.9000015258789 91.0875015258789 86.3687515258789 78.90625 71.1062469482422 64.5749969482422 58.8875007629395 54.7374992370605 50.3187484741211 44.9749984741211 41.6812515258789 39.15625 36.6437492370605 35.1062507629395 30.7374992370605 34.0062522888184 37.8624992370605 40.6687507629395 44.2000007629395 46.1749992370605 48.4375 48.6124992370605 48.9375 53.8312492370605 63.71875 69.7249984741211 73.8499984741211 78.4250030517578 86.28125 94.375 98.6437530517578 95.3499984741211 85.9124984741211 74.9187469482422 65.8249969482422 61.0999984741211 58.40625 57.0999984741211 56.1937484741211 54.9874992370605 53.15625 47.09375 48.625 
114.881248474121 112.381248474121 108.425003051758 105.418746948242 102.6875 100.65625 97.5374984741211 93.7624969482422 91.7249984741211 88.34375 84.0374984741211 77.4499969482422 70.2687530517578 63.4124984741211 57.2687492370605 52.3312492370605 46.9437484741211 44.1062507629395 40.5999984741211 38.8062477111816 35.1500015258789 31.8999996185303 30.7875003814697 34.5125007629395 38.59375 41.71875 46.2125015258789 50.65625 52.3937492370605 53.2312507629395 55.3812484741211 65.15625 74.8312530517578 87.1624984741211 97.2687530517578 98.7062530517578 98.4625015258789 98.53125 96.4749984741211 90.9625015258789 81.9749984741211 71.4187469482422 67.6875 66.6687469482422 64.5250015258789 63.6375007629395 62.7249984741211 60.5374984741211 56.8812484741211 51.2125015258789 52.4749984741211 
107.412498474121 106.0625 103.456253051758 100.849998474121 98.2375030517578 95.7125015258789 93.4312515258789 90.6437530517578 89.5124969482422 87.2874984741211 83.3499984741211 77.9437484741211 71.1374969482422 63.7999992370605 58.0999984741211 52.0374984741211 46.75 42.8250007629395 40.7374992370605 37.8125 35.8937492370605 34.0250015258789 32.8312492370605 37.1437492370605 42.5187492370605 46.7312507629395 51.2312507629395 54.8687515258789 57.875 62.375 67.4187469482422 76.875 87.8312530517578 102.237503051758 118.425003051758 115.618751525879 106.78125 101.381248474121 96.1062469482422 90.5999984741211 84.6500015258789 77.7437515258789 74.0187530517578 72.6312484741211 71.1687469482422 70.59375 69.1999969482422 66.4625015258789 60.1687507629395 57.9749984741211 57.2687492370605 
101.581253051758 99.1624984741211 96.8562469482422 94.7249984741211 93.2687530517578 91.96875 89.8874969482422 88.3187484741211 87.6937484741211 86.1437530517578 83.1187515258789 78.7249984741211 73.5625 67.1875 60.9562492370605 54.1500015258789 48.71875 44.4562492370605 42.0125007629395 39.1062507629395 36.4000015258789 34.9000015258789 34.3062515258789 39.0875015258789 44.5125007629395 49.8187484741211 56.4812507629395 61.09375 66.5749969482422 72.3874969482422 78.3249969482422 86.40625 96.5749969482422 109.050003051758 117.081253051758 115.900001525879 107.893753051758 102.512496948242 96.8499984741211 92.6937484741211 89.21875 85.34375 83.6999969482422 82.5250015258789 80.6687469482422 80.0812530517578 77.8812484741211 73.2125015258789 66.8874969482422 65.7062530517578 62.7374992370605 
96.5687484741211 95.2937545776367 92.3687515258789 90.5 88.9875030517578 87.96875 86.9875030517578 86.0562515258789 86.6125030517578 85.1750030517578 83.9499969482422 80.8062515258789 77.7312469482422 72.2624969482422 64.3312530517578 57.0374984741211 50.7562484741211 46.5999984741211 43.0999984741211 40.1312484741211 37.8812484741211 36.6124992370605 36.1124992370605 40.7750015258789 47.0812492370605 53.0062484741211 59.9375 67.2937469482422 73.5625 79.3250045776367 86.4437484741211 95.1187515258789 102.981246948242 110.568748474121 114.012496948242 109.949996948242 105.381248474121 101.037498474121 97.4124984741211 96.3562469482422 96.2624969482422 94.0187530517578 93.0374984741211 92.2249984741211 90.3937530517578 90.3687515258789 87.8062515258789 82.28125 76.46875 73.625 71.0562515258789 
93.4875030517578 91 88.7249984741211 86.3249969482422 84.1999969482422 84.4625015258789 84.2312469482422 83.5687484741211 84.25 83.5625 82.4749984741211 81.6937484741211 81.0625 75.8062515258789 67.125 59.3187484741211 53.0187492370605 48.71875 45.1187515258789 41.7625007629395 39.7374992370605 38.2750015258789 38.3499984741211 43.7000007629395 50.1500015258789 56.0250015258789 63.0999984741211 70.7375030517578 79.1062469482422 85.6812515258789 92.6187515258789 101.150001525879 107.081253051758 112.25 114.699996948242 109.756248474121 107.050003051758 105.699996948242 103.506248474121 104.518753051758 104.837501525879 103.21875 103.231246948242 102.918746948242 103.599998474121 102.637496948242 99.8812484741211 90.6624984741211 87.4499969482422 81.5187530517578 79.5875015258789 
91.6999969482422 88.4625015258789 85.3937530517578 82.5562515258789 82.5374984741211 82.4250030517578 82.0124969482422 81.6687469482422 82.0124969482422 82.0250015258789 81.5625 80.3625030517578 79.0999984741211 75.4124984741211 68.2312469482422 60.8937492370605 54.9375 50.3375015258789 46.53125 43.4562492370605 41.8062515258789 40.3875007629395 41.0437507629395 47.0812492370605 53.1749992370605 60.2437515258789 67.6624984741211 75.8625030517578 84.5187530517578 91.7687530517578 98.3624954223633 105.84375 112.412498474121 116.693748474121 117.925003051758 114.900001525879 114.831253051758 114.731246948242 112.962501525879 113.506248474121 113.931251525879 113.625 113.931251525879 116.362503051758 118.625 118.856246948242 107.78125 104.275001525879 98.0500030517578 90.2624969482422 89.6374969482422 
91.8499984741211 89.4749984741211 84.9250030517578 82.5 80.7312469482422 80.3499984741211 80.3312530517578 79.9625015258789 80.0999984741211 80.4000015258789 79.2937469482422 78.4625015258789 77.125 74 68.1750030517578 61.8812484741211 56.1312484741211 51.9874992370605 48.1062507629395 44.9562492370605 43.5562515258789 42.3687515258789 43.4249992370605 50.1437492370605 57.0499992370605 63.9937515258789 72.7437515258789 82.2624969482422 90.8187484741211 98.1437454223633 104.693748474121 112.487503051758 117.050003051758 120.974998474121 123.96875 125.287498474121 125.21875 125.900001525879 126.018753051758 125.59375 126.818748474121 125.650001525879 125.5625 128.850006103516 135.193756103516 126.737503051758 124.212501525879 118.824996948242 111.231246948242 105.612503051758 102.03125 
93.6125030517578 90.1125030517578 86.1500015258789 83.6687469482422 81.1750030517578 80.6750030517578 80.0437469482422 78.9812469482422 78.2624969482422 78.4312515258789 78.2249984741211 77.7624969482422 76.4000015258789 74.1374969482422 69.0625 63.4000015258789 58.59375 54.0812492370605 50.2625007629395 47.0625 45.9249992370605 44.8250007629395 45.7125015258789 53.7000007629395 60.9437484741211 68.6750030517578 78.0500030517578 87.2312469482422 96.375 103.443748474121 109.856246948242 116.368751525879 123.787498474121 129.181243896484 132.631256103516 136.106246948242 138.75 140.024993896484 140.368743896484 140.612503051758 140.412506103516 139.449996948242 139.512496948242 139.75 140.625 143.087493896484 140.96875 131.331253051758 124.756248474121 116.550003051758 110.412498474121 
95.3062515258789 91.7562484741211 88.3187484741211 84.7375030517578 82.4187469482422 81.0812530517578 80.1312484741211 78.84375 77.6187515258789 77.7375030517578 77.2687530517578 76.9312515258789 76.0875015258789 74.9562530517578 70.15625 65.0187530517578 60.3499984741211 56.0812492370605 52.3125 49.4749984741211 48.28125 47.4437484741211 48.3875007629395 56.5437507629395 65.21875 73.2874984741211 82.9124984741211 92.6750030517578 102.199996948242 109.818748474121 115.224998474121 121.831253051758 130.925003051758 137.556243896484 143.40625 147.912506103516 153.987503051758 157.962493896484 158.393753051758 158.256256103516 158.024993896484 156.600006103516 152.387496948242 152.731246948242 154.837493896484 156.743743896484 153.143753051758 145.762496948242 136.962493896484 126.875 119.806251525879 
97.7312469482422 93.8062515258789 89.5437469482422 85.7249984741211 82.9312515258789 80.96875 79.4375 78.2249984741211 77.3000030517578 76.8499984741211 76.1999969482422 75.875 76.2750015258789 75.0999984741211 70.75 67.0999984741211 63.6062507629395 58.1375007629395 54.2562484741211 51.5625 50.7374992370605 50.2625007629395 51.4874992370605 60.1812515258789 68.7562484741211 77.9124984741211 87.9875030517578 98.8125 109.881248474121 116.056251525879 120.756248474121 127.15625 136.449996948242 145.768753051758 155.6875 161.512496948242 170.550003051758 177.899993896484 179.675003051758 179.1875 174.300003051758 168.793746948242 166.34375 167.087493896484 170.818756103516 168.96875 165.337493896484 158.887496948242 149.324996948242 139.487503051758 127.574996948242 
102.525001525879 98.2249984741211 92.5999984741211 88.15625 84.7562484741211 82.625 80.7874984741211 79.1187515258789 77.9875030517578 77.03125 76.1374969482422 76.5875015258789 76.8937530517578 76.2375030517578 73.3249969482422 69.6062469482422 65.8937530517578 61.5250015258789 57.2374992370605 54.4000015258789 53.8312492370605 53.7062492370605 54.4937515258789 62.8812522888184 72.5625 82.8125 92.7937469482422 103.181251525879 113.162498474121 120.731246948242 127.699996948242 135.300003051758 145.399993896484 156.350006103516 168.606246948242 177.699996948242 189.556243896484 201.9375 201.493743896484 205.399993896484 204.056243896484 196.324996948242 189.899993896484 189.381240844727 188.162506103516 186.693756103516 184.137496948242 177.268753051758 165.787506103516 155.181243896484 141.074996948242 
105.862503051758 101.506248474121 96.625 91.0500030517578 87.5250015258789 85.2687530517578 82.21875 79.9250030517578 78.8937530517578 78.0875015258789 77.0062484741211 77.2750015258789 79.0062484741211 78.2937469482422 75.4749984741211 72.2062530517578 69.6999969482422 65.5500030517578 61.1875 58.6812477111816 57.8562507629395 57.8562507629395 58.7374992370605 67.0124969482422 76.5999984741211 87.1312484741211 97.2750015258789 107.456253051758 117.59375 124.362503051758 133.368743896484 142.668746948242 154.074996948242 169.231246948242 183.675003051758 193.212493896484 207.862503051758 224.425003051758 229.862503051758 234.6875 233.875 224.262496948242 215.75 212.268753051758 208.03125 206.9375 203.125 195.318756103516 184.368743896484 172.912506103516 158.568756103516 
110.162498474121 104.387496948242 99.0125045776367 94.1374969482422 91.2750015258789 87.78125 84.5250015258789 81.875 80.8625030517578 79.5749969482422 78.6812515258789 78.8250045776367 79.2062530517578 79.7562484741211 78.3937530517578 76.9937515258789 74.4000015258789 70.5 66.9250030517578 64.8187484741211 64.0187530517578 62.5625 63.2874984741211 71.2062530517578 81.9625015258789 91.0812530517578 100.668746948242 112 122.143753051758 130.206253051758 140.03125 149.0625 162.981246948242 179.5625 195.456253051758 207.387496948242 223.793746948242 240.125 248.25 255.6875 259.393737792969 249.887496948242 242.03125 236.300003051758 233.449996948242 234.831253051758 229.831253051758 221.0625 206.649993896484 192.606246948242 177.931243896484 
113.231246948242 108.493751525879 102.875 98.5500030517578 95.59375 92.3562469482422 89.5374984741211 86.2062530517578 84.59375 82.4875030517578 83.1750030517578 82.2249984741211 82.6624984741211 84.5124969482422 83.6875 83.4312515258789 81.9250030517578 79.3187484741211 75.875 73.6374969482422 71.8562469482422 69.9124984741211 69.1500015258789 76.4749984741211 86.0124969482422 93.9875030517578 103.537498474121 114.412498474121 124.793746948242 135.893753051758 146.0625 157.081253051758 171.5 189.425003051758 208.112503051758 221.537506103516 237.418746948242 251.356246948242 261.206237792969 273.125 279.649993896484 273.5625 268.825012207031 263.493743896484 263.881256103516 268.875 267.131256103516 250.600006103516 235.512496948242 220.287506103516 202.962493896484 
115.206253051758 111.724998474121 107.574996948242 103.599998474121 100.237503051758 97.1187515258789 94.6374969482422 91.4812469482422 88.7437515258789 86.9124984741211 85.8312530517578 86.8562469482422 87.1374969482422 87.3499984741211 88.4749984741211 89.2874984741211 90.2062530517578 88.3625030517578 85.8562469482422 83.5500030517578 81.0625 77.8937530517578 76.0875015258789 81.7062530517578 89.0124969482422 95.9625015258789 105.3125 116 126.099998474121 138.362503051758 151.118743896484 164.212493896484 180.631256103516 199.050003051758 218.987503051758 237.543746948242 251.425003051758 265.087493896484 277.1875 287.46875 295.174987792969 296.725006103516 297.362487792969 294.799987792969 296.493743896484 299.024993896484 294.424987792969 279.043762207031 262.612487792969 245.143753051758 227.15625 
117.881248474121 114.993751525879 111.65625 108.84375 105.949996948242 102.275001525879 100.09375 97.0124969482422 93.09375 90.9562530517578 90.3874969482422 92.0124969482422 92.3312530517578 92.7249984741211 94.65625 97.0062484741211 98.6875 96.9937515258789 96.3499984741211 93.90625 91.1750030517578 86.9937515258789 83.2437515258789 86.9499969482422 91.6312484741211 98.0749969482422 107.675003051758 117.34375 127.362503051758 140.425003051758 154.59375 168.537506103516 186.84375 206.981246948242 226.631256103516 243.306243896484 260.274993896484 279.174987792969 290.049987792969 302.46875 307.274993896484 308.950012207031 315.743743896484 314.90625 317.662506103516 318.799987792969 315.068756103516 301.299987792969 287.368743896484 269.100006103516 248.043746948242 
119.768753051758 116.787498474121 114.443748474121 112.125 109.625 106.856246948242 103.787498474121 101.881248474121 98.6374969482422 96.1624984741211 96.1812515258789 97.6062469482422 99.2375030517578 100.443748474121 102.481246948242 105.199996948242 106.881248474121 106.537498474121 106.356246948242 105.537498474121 101.275001525879 96.3249969482422 90.9562530517578 92.21875 95.3812484741211 99.7312469482422 107.587501525879 116.59375 126.150001525879 139.662506103516 155.106246948242 170.837493896484 188.550003051758 208.981246948242 228.512496948242 243.1875 263.600006103516 280.293762207031 291.268737792969 302.4375 312.049987792969 314.162506103516 317.90625 320.612487792969 323.4375 322.356262207031 318.568756103516 314.03125 300.96875 282.306243896484 263.212493896484 
121.449996948242 119.118751525879 116.856246948242 114.4375 113.324996948242 110.981246948242 108.824996948242 106.875 104.481246948242 101.412498474121 102.849998474121 107.662498474121 109.300003051758 109.993751525879 112.175003051758 113.887496948242 115.775001525879 114.75 114.03125 112.943748474121 109.743751525879 103.074996948242 97.4124984741211 96.4875030517578 97.7375030517578 100.650001525879 106.831253051758 114.181251525879 123 137.899993896484 154.037506103516 171.056243896484 190.518753051758 211.193756103516 230.800003051758 246.918746948242 264.84375 282.587493896484 291.612487792969 300.712493896484 309.743743896484 312.106262207031 318.893737792969 324.725006103516 330.981262207031 327.40625 328.143737792969 325.943756103516 308.5 293.84375 272.350006103516 
122.887496948242 121.550003051758 119.818748474121 117.375 116.800003051758 115.637496948242 114.34375 113.418746948242 112.181251525879 109.568748474121 117.668746948242 121.693748474121 121.212501525879 120.431251525879 121.699996948242 123.206253051758 122.681251525879 121.643745422363 119.362503051758 116.71875 114.006248474121 107.849998474121 102.449996948242 99.9312515258789 99.1624984741211 100.081253051758 105.837501525879 112.462501525879 120.443748474121 136.037506103516 150.618743896484 167.668746948242 187.587493896484 210.774993896484 231.425003051758 243.356246948242 260.100006103516 276.28125 290.018737792969 300.768737792969 305.581237792969 314.387512207031 316.037506103516 320 325.556243896484 325.875 331.037506103516 331.662506103516 310.112487792969 296.53125 278 
126.568748474121 124.643753051758 122.800003051758 121.237503051758 119.618751525879 118.650001525879 118.737503051758 119.356246948242 120.775001525879 126.03125 135.899993896484 134.581253051758 130.662506103516 129.918746948242 129.881256103516 129.881256103516 128.6875 126.25 122.193748474121 118.775001525879 115.012496948242 109.381248474121 104.625 101.6875 100.025001525879 99.6187515258789 103.912498474121 109.943748474121 117.143753051758 131.668746948242 146.568756103516 161.024993896484 178.762496948242 195.881256103516 214.356246948242 227.5625 243.3125 258.100006103516 271.762512207031 278.487487792969 285.03125 293.700012207031 295.356262207031 298.756256103516 302.774993896484 302.887512207031 298.212493896484 300.9375 290.149993896484 282.768737792969 261.956237792969 
128.556243896484 126.237503051758 124.993751525879 123.431251525879 122.400001525879 122.418746948242 121.900001525879 124.056251525879 127.349998474121 133.850006103516 139.006256103516 139.662506103516 138.556243896484 137.824996948242 137.987503051758 136.1875 134.137496948242 130.15625 126.075004577637 120.71875 115.425003051758 110.006248474121 104.525001525879 101.25 99.53125 98.8187484741211 101.868751525879 107.3125 112.737503051758 126.243751525879 137.231246948242 151.081253051758 168.168746948242 183.050003051758 198.543746948242 212.09375 224.850006103516 240.175003051758 251.668746948242 253.90625 261.46875 270.899993896484 272.65625 273.174987792969 274.512512207031 271.799987792969 272.5625 273.212493896484 267.950012207031 262.868743896484 246.899993896484 
131.068756103516 129.112503051758 128 126.737503051758 125.181251525879 124.993751525879 126.400001525879 128.862503051758 132.037506103516 136.743743896484 140.125 142.543746948242 144.712493896484 143.856246948242 143.512496948242 141.78125 138.925003051758 135.774993896484 129.637496948242 121.956253051758 116.287498474121 108.943748474121 103.199996948242 99.2750015258789 98.1750030517578 97.6125030517578 100.693748474121 104.293746948242 109.0625 119.587501525879 130.96875 144.887496948242 159.53125 173.3125 186.625 198.21875 209.393753051758 221.300003051758 232.431243896484 234.34375 241.03125 246.693756103516 248.106246948242 247.4375 247.84375 248.737503051758 250.050003051758 246.856246948242 247.637496948242 240.737503051758 231.868743896484 
135.618743896484 133.675003051758 132.574996948242 130.975006103516 130.050003051758 129.393753051758 130.668746948242 132.818756103516 136.193756103516 139.625 143.21875 146.131256103516 148.649993896484 148.850006103516 147.262496948242 145.756256103516 142.78125 139.03125 132.243743896484 122.168746948242 112.8125 106.262496948242 98.8249969482422 95.15625 96.1875 95.96875 97.5500030517578 100.268753051758 105.53125 115.425003051758 122.474998474121 134.8125 146.375 163.068756103516 175.587493896484 181.524993896484 190.449996948242 200.412506103516 207.387496948242 210.068756103516 215.481246948242 217.112503051758 215.71875 218.568756103516 219.643753051758 222.931243896484 220.6875 217.818756103516 224.381256103516 216.675003051758 207.09375 
139.518753051758 137.618759155273 137.481246948242 135.893753051758 134.543746948242 133.774993896484 134.493743896484 136.456253051758 138.818756103516 142.550003051758 146.556243896484 148.78125 150.350006103516 151.175003051758 151.412490844727 149.662506103516 147.03125 143.231246948242 135.887496948242 121.837501525879 109.574996948242 100.037498474121 94.8000030517578 94.3375015258789 94.09375 94.1374969482422 94.9124984741211 96.8249969482422 100.543746948242 107.787498474121 113.443748474121 121.206253051758 132.0625 144.65625 160.243743896484 168.643753051758 170.90625 178.350006103516 182.774993896484 186.024993896484 189.143753051758 190.993743896484 190.962493896484 191.318756103516 193.168746948242 193.225006103516 194.987503051758 192.581253051758 197.081253051758 191.931243896484 183.068756103516 
143.15625 141.243743896484 140.899993896484 138.487503051758 136.274993896484 136.318756103516 135.65625 136.912506103516 140.1875 144.46875 148.324996948242 151.28125 154.1875 153.456253051758 154.043746948242 151.90625 148.818756103516 145.368743896484 139.9375 123.90625 109.137496948242 98.1187515258789 92 91.4375 92.3187484741211 92.78125 93.3812484741211 94.1187515258789 96.0500030517578 101.362503051758 105.193748474121 110.224998474121 117.856246948242 127.737503051758 142.862503051758 156.756256103516 155.09375 157.425003051758 163.193756103516 163.512496948242 165.725006103516 166.574996948242 166.71875 168.393753051758 169.818756103516 167.987503051758 168.324996948242 167.337493896484 166.381256103516 167.556243896484 160.162506103516 
144.787506103516 144.331253051758 145.912506103516 141.393753051758 140.137496948242 138.6875 136.71875 137.4375 140.774993896484 145.53125 149.956253051758 153.331253051758 156.5625 157.106246948242 156.381256103516 152.637496948242 148.050003051758 142.818756103516 135.493743896484 122.912498474121 107.506248474121 98.1124954223633 91.0812530517578 89.3125 90.3125 91.3125 91.4375 92.4375 95.0749969482422 99.09375 101.081253051758 105.193748474121 110.912498474121 116.900001525879 126.162498474121 138.606246948242 140.399993896484 141.756256103516 144.862503051758 147.25 149.4375 149.806243896484 149.243743896484 148.8125 148.668746948242 147.806243896484 148.774993896484 148.050003051758 144.193756103516 146.981246948242 142.356246948242 
