ncols        51
nrows        45
xllcorner    -63.500000000000
yllcorner    -7.500000000000
cellsize     0.166666666667
NODATA_value -99
43.8187484741211 37.3187484741211 35.2625007629395 34.5125007629395 33.5437507629395 34.0812492370605 34.0187492370605 33.7937507629395 35.2937507629395 37.0374984741211 39.53125 44.1749992370605 49.125 53.6937484741211 60.2062492370605 66.4499969482422 73.0812530517578 77.6374969482422 82.4874954223633 86.3812484741211 90.0875015258789 92.0687484741211 94.2062530517578 93.8625030517578 92.625 92.4250030517578 90.6500015258789 88.46875 85.0374984741211 81.3000030517578 76.8125 73.2437515258789 70.7125015258789 66.9187469482422 63.8562507629395 62.0062484741211 61.0187492370605 59.9937515258789 59.4187507629395 59.1437492370605 59.1500015258789 59.8375015258789 59.9812507629395 60.5562515258789 63.0499992370605 64.8562469482422 68.0625 72.1812515258789 77.1187515258789 80.6812515258789 84.0687484741211 
41.3375015258789 34.9625015258789 33.2437515258789 32.6375007629395 32.3562507629395 31.96875 31.4249992370605 31.6625003814697 33.0374984741211 34.5499992370605 36.7437515258789 41.0250015258789 45.6624984741211 49.8125 56.09375 62.7437515258789 68.9375 75.6624984741211 82.2750015258789 88.28125 92.7687530517578 97.4124984741211 100.418746948242 100.256248474121 97.6999969482422 96.3000030517578 93.0749969482422 89.0999984741211 83.2249984741211 78.0999984741211 72.8499984741211 68.8000030517578 65.2750015258789 62.25 59.1812515258789 57.2000007629395 55.9812507629395 55.0125007629395 54.2937507629395 53.9312515258789 54.0062484741211 54.78125 55.5187492370605 55.7000007629395 58.1749992370605 60.3187484741211 63.5187492370605 68.09375 73.4437484741211 77.3562469482422 81.5124969482422 
40.0875015258789 34.9874992370605 33.2437515258789 32.4749984741211 31.7124996185303 31.59375 31.1187496185303 31.0499992370605 32.3062515258789 33.6687507629395 35.5125007629395 39.4124984741211 43.6749992370605 47.46875 53.3312492370605 59.9749984741211 65.9625015258789 73.1374969482422 80.1125030517578 86.7249984741211 91.8874969482422 96.6500015258789 100.618751525879 99.7750015258789 96.65625 93.625 90.4749984741211 84.8687515258789 78.4937515258789 72.8062515258789 67.0124969482422 62.5374984741211 59.8562507629395 56.7750015258789 53.8062515258789 51.6687507629395 50.3687515258789 49.4937477111816 49.0999984741211 49.0625 49.3062515258789 49.9000015258789 50.9749984741211 51.5687484741211 53.8375015258789 56.2000007629395 59.3250007629395 64.3249969482422 69.0062484741211 73.15625 78.34375 
38.3187484741211 34.21875 33.4625015258789 32.0812492370605 30.8187503814697 30.6812496185303 30.5437507629395 30.8937492370605 32.1062507629395 33.3562507629395 34.7125015258789 38.2062492370605 41.5 45.2437515258789 50.9937515258789 57.2562484741211 63.4437484741211 70.8000030517578 78.7062530517578 86.125 91.7437515258789 95.9562530517578 99.2312469482422 97.53125 93.1875 89.7249984741211 84.9124984741211 77.7249984741211 71.5374984741211 66.2750015258789 61.0562515258789 56.0374984741211 52.8812484741211 49.9249992370605 46.8062515258789 45.84375 44.96875 44.03125 43.9937515258789 43.7625007629395 43.75 44.3937492370605 45.4000015258789 46.4812507629395 49.1875 51.5250015258789 54.4249992370605 59.9812507629395 64.6687469482422 68.4124984741211 73.4124984741211 
40.28125 35.5062484741211 32.7687492370605 31.0874996185303 30.21875 30.2124996185303 30.1124992370605 30.5062503814697 31.8312492370605 32.8875007629395 33.96875 36.6625022888184 39.8937492370605 43.7625007629395 49.5437507629395 55.5374984741211 61.4624977111816 68.8687515258789 76.8187484741211 83.8874969482422 90.6750030517578 94.1374969482422 97.9562530517578 95.1999969482422 89.9812545776367 85.4312515258789 78.46875 71.6437530517578 64.9937515258789 59.3062515258789 54.3812484741211 49.1062507629395 45.8312492370605 43.2562484741211 40.7625007629395 39.53125 38.6624984741211 38.1687507629395 38.3562507629395 38.3187484741211 38.34375 38.8687515258789 39.625 41.0125007629395 43.8687515258789 46.5 49.1875 54.3812484741211 59.3125 63.6687507629395 68.6687469482422 
41.7374992370605 36.9187507629395 33.65625 30.5125007629395 29.8999996185303 30.9500007629395 31.2625007629395 31.3875007629395 32.6124992370605 33.9437484741211 34.8499984741211 37.3624992370605 40.4937515258789 44.3062515258789 49.7437515258789 55.9312515258789 61.8125 68.9749984741211 76.7750015258789 84.2999954223633 89.71875 93.71875 96.7249984741211 91.7687530517578 86.0812530517578 79.9937515258789 72.5999984741211 65.9625015258789 59.0625 53.2687492370605 48.3062515258789 44.4000015258789 41.2374992370605 38.53125 35.9375 35.21875 34.4437484741211 34.2687492370605 34.71875 34.75 33.8875007629395 34.3937492370605 35.1062507629395 36.6062507629395 40.1124992370605 42.5875015258789 44.7312507629395 49.5374984741211 55.3875007629395 60.2874984741211 65.9375 
43.7625007629395 39.1500015258789 35.8250007629395 32.6875 31.0687503814697 31.1312503814697 31.7312507629395 32.2249984741211 33.1624984741211 34.0687484741211 35.3062515258789 38.0562515258789 41.3312492370605 44.8875007629395 50.4437484741211 56.53125 62.5687484741211 70.3874969482422 77.8499984741211 84.6062469482422 89.2375030517578 93.0250015258789 94.4375 88.0749969482422 81.5812530517578 74.90625 67.4499969482422 60.5687484741211 53.3624992370605 47.5437507629395 42.8937492370605 38.6500015258789 36.0187492370605 33.7687492370605 31.5562496185303 30.5187492370605 29.9500007629395 30.1687507629395 31.2124996185303 30.6437492370605 29.7875003814697 29.9125003814697 30.5437507629395 32.0812492370605 35.6124992370605 38.1437492370605 40.1124992370605 44.5437507629395 50.5 57.2625007629395 64.0812530517578 
46.0125007629395 41.4249992370605 38.1687507629395 35.7437515258789 34.09375 34.15625 33.6624984741211 32.625 32.8125 33.8812484741211 35.7437515258789 38.7750015258789 42.1749992370605 45.6500015258789 51.59375 57.1187515258789 63.125 71.3125 79.0562515258789 84.3249969482422 88.9124984741211 91.9375 92.8312530517578 84.78125 76.78125 69.2624969482422 61.4500007629395 54.1812515258789 47.6187515258789 42.1437492370605 37.6687507629395 33.5562515258789 31.09375 29.2062492370605 26.9624996185303 25.9812507629395 25.3937492370605 25.3062496185303 25.6312503814697 25.3812503814697 24.7250003814697 24.7999992370605 25.3875007629395 26.4937496185303 29.59375 32.0999984741211 34.4874992370605 39.5375022888184 45.6124992370605 52.75 59.7750015258789 
48.5499992370605 44.2374992370605 41.3562507629395 38.9562492370605 37.25 36.9249992370605 36.4375 35.4124984741211 35.125 35.4124984741211 37.3312492370605 40.53125 44.4874992370605 47.9375 53.8312492370605 59.5374984741211 65.53125 73.3562469482422 81.21875 85.9250030517578 88.3937530517578 90.9875030517578 89.6437454223633 81.9749984741211 72.6312484741211 64.0187454223633 56.3937492370605 49.8062515258789 43.9124984741211 38.6312484741211 34.6437492370605 30.0375003814697 27.2312488555908 24.9187488555908 23.0125007629395 22.46875 22.0750007629395 21.6812496185303 21.6187496185303 21.3999996185303 20.8999996185303 20.8687496185303 21.3250007629395 22.2437496185303 24.53125 26.9562492370605 29.6937503814697 34.4500007629395 40.4187507629395 47.8624992370605 56.4874992370605 
50.59375 46.5750007629395 44 41.7562484741211 40.375 40.1187515258789 39.6124992370605 38.4625015258789 38.59375 39.25 40.6062507629395 43.3187484741211 46.9500007629395 50.8562507629395 56.2750015258789 62.3687515258789 67.7437515258789 74.9625015258789 82.1875 87.6437530517578 89.2687530517578 89.3562469482422 86.65625 77.6875 67.2125015258789 58.4874992370605 51.46875 45.2562484741211 39.7125015258789 35.2125015258789 30.7687492370605 26.4375 23.75 21.7937507629395 20.03125 19.4187507629395 19.0874996185303 18.6312503814697 18.2625007629395 18 17.59375 17.6312503814697 17.4500007629395 18.0375003814697 20.125 22.6000003814697 24.9812507629395 29.2875003814697 34.3499984741211 40.3687515258789 47.1312484741211 
53.5499992370605 49.5562515258789 47.125 44.90625 43.4562492370605 43.6500015258789 43.2687492370605 41.6124992370605 41.6500015258789 42.5187492370605 44.1500015258789 47.1812515258789 50.1187515258789 53.3687515258789 58.40625 64.0187530517578 68.8874969482422 75.5250015258789 82.1875 87.9250030517578 90.2249984741211 89.3249969482422 85.0999984741211 72.1312484741211 62.3562507629395 55.0562515258789 48.3312492370605 41.7000007629395 35.8250007629395 31.46875 27.4249992370605 23.4500007629395 20.9937496185303 19.0062503814697 17.3937492370605 16.7250003814697 16.3125 15.8125 15.6374998092651 15.1437501907349 14.6000003814697 14.4312496185303 14.4875001907349 14.59375 16.1875 18.7999992370605 20.5125007629395 23.8875007629395 27.875 32.0750007629395 34.5812492370605 
56.6375007629395 52.6500015258789 50.3062515258789 48.4874992370605 47.0437507629395 47.28125 47.3875007629395 45.9562492370605 45.7625007629395 46.3499984741211 48.1312484741211 51.5062484741211 53.7249984741211 56.2437515258789 61.7000007629395 66.6312484741211 71.4187469482422 76.7375030517578 82.8375015258789 89.4250030517578 91.78125 89.4375 83.4000015258789 69.5500030517578 59.0062484741211 51.0125007629395 44.3375015258789 38.2062492370605 32.4749984741211 28.4437503814697 24.6375007629395 21.03125 18.8187503814697 17.1749992370605 15.8937501907349 15.25 14.75 14.28125 13.6999998092651 13.0124998092651 12.3499994277954 12.0187501907349 12.0187501907349 11.9812498092651 12.9437503814697 14.2749996185303 15.96875 19.0187492370605 22.4500007629395 25.2000007629395 25.5375003814697 
59.4937477111816 55.4812507629395 52.9874992370605 50.8499984741211 49.1624984741211 49.4249992370605 49.3187484741211 48.3125 48.9749984741211 50 51.5374984741211 55.0687484741211 57.6937484741211 58.8250007629395 63.0499992370605 68.1687545776367 72.5500030517578 77.5999984741211 83.3375015258789 88.9625015258789 90.5124969482422 87.7874984741211 80.7937469482422 67.5812530517578 55.3687515258789 46.9812507629395 41.09375 35.5125007629395 30.2250003814697 26.1875 22.2875003814697 18.90625 16.9937496185303 15.3187503814697 14.1437501907349 13.78125 13.6499996185303 13.3937501907349 13 11.8249998092651 10.7250003814697 10.5249996185303 10.28125 9.39375019073486 9.96249961853027 11.7250003814697 13.3999996185303 15.7312498092651 17.8250007629395 20.2312507629395 20.4375 
61.6187515258789 57.4625015258789 54.6187515258789 52.3125 50.7062492370605 50.5187492370605 50.3125 50.1124992370605 51.09375 52.6624984741211 53.9249992370605 56.5062484741211 59.1375007629395 60.6812515258789 63.2687492370605 68.28125 72.4437484741211 76.6374969482422 81.0625 85.90625 85.8312530517578 81.90625 75.9124984741211 65.34375 54.2125015258789 45.1937484741211 38.9437522888184 33.1749992370605 27.8625011444092 24.0249996185303 20.6812496185303 17.375 15.4187498092651 13.8687496185303 12.8374996185303 12.84375 13.1000003814697 13.40625 13.2062501907349 12.3125 10.375 9.30624961853027 9.04374980926514 8.89999961853027 9.6875 10.9312496185303 12.7624998092651 15.1062498092651 16.9125003814697 18.90625 19.1812496185303 
61.6624984741211 57.2750015258789 54.4500007629395 52.3125 50.8312492370605 50.0187492370605 50.3125 50.1687507629395 51.40625 53.4812507629395 54.5437507629395 56.9249992370605 59.1312484741211 60.6812515258789 62.34375 65.8562469482422 70.0625 74.4437484741211 77.9250030517578 82.1500015258789 81.5 78.2937545776367 73.46875 64.8499984741211 55.8562507629395 47.0187492370605 39.8499984741211 33.0374984741211 27.1937503814697 23.3374996185303 19.4500007629395 16.2374992370605 14.5375003814697 12.9812498092651 11.71875 12.0749998092651 13.1625003814697 14.4499998092651 15.0062503814697 13.9812498092651 12.3374996185303 10.8812494277954 10.2124996185303 9.69999980926514 10.2124996185303 11.2375001907349 12.5625 15.1937503814697 17.6875 18.9187507629395 19.2124996185303 
60.7937507629395 56.40625 54.0437507629395 51.9500007629395 50.125 49.9812507629395 50.0374984741211 49.96875 51.7312507629395 54.0625 55.2249984741211 57.0812492370605 58.8687515258789 60.3875007629395 61.9562492370605 63.4625015258789 67.0562515258789 71.7937469482422 75.0812530517578 79.1062469482422 77.4812469482422 75.3625030517578 72.4625015258789 65.8937530517578 57.71875 48.4375 40.3375015258789 33.3812484741211 27.4500007629395 23.1062507629395 19.5874996185303 16.0750007629395 14.0500001907349 12.6125001907349 11.1750001907349 12.1125001907349 13.9312496185303 15.4624996185303 16.7749996185303 16.3374996185303 15.21875 13.1999998092651 11.4499998092651 10.2312498092651 10.75 11.5500001907349 12.9437503814697 15.3500003814697 17.5562496185303 19.2687492370605 20.5062503814697 
58.9124984741211 55.0250015258789 53.0999984741211 51.2687492370605 49.4625015258789 49.5687484741211 49.6624984741211 49.9312515258789 51.8062515258789 53.8125 55.3875007629395 57.0687484741211 58.125 59.1937484741211 61.5437507629395 63.3187484741211 64.25 67.9625015258789 72.2312469482422 75.6624984741211 73.6062469482422 71.9625015258789 70.96875 66.8249969482422 59.7999992370605 49.46875 40.96875 33.8624992370605 27.8937492370605 23.6062507629395 20.3250007629395 17.3875007629395 15.0625 13.3312501907349 12.8249998092651 13.4812498092651 14.9812498092651 17.5625 20.1687507629395 18.7625007629395 16.5750007629395 14.1937503814697 11.8937501907349 10.71875 11.1374998092651 11.9812498092651 13.1812496185303 15.9437503814697 18.8999996185303 20.53125 22.3937492370605 
56.0125007629395 52.4562492370605 50.1749992370605 48.3812484741211 47.0374984741211 47.125 46.96875 46.9625015258789 48.8687515258789 50.3624992370605 51.6624984741211 53.1687507629395 54.0562515258789 54.9874992370605 57.125 59.3187484741211 60.5812492370605 61.2312507629395 66.2312469482422 69.1875 68.5 67.28125 67.59375 65.0687484741211 59.4749984741211 50.0187492370605 42.21875 35.1312484741211 28.8125 24.09375 20.4937496185303 17.53125 16.8687496185303 16.3125 15.0249996185303 14.65625 16.5 18.6687507629395 19.8312492370605 18.8250007629395 16.1062507629395 13.8249998092651 11.8874998092651 11.1374998092651 11.6312503814697 12.5249996185303 13.9375 16.5249996185303 19.6124992370605 21.2437496185303 23.78125 
52.875 49.2937507629395 47.0062484741211 45.46875 44.0062484741211 44.0750007629395 43.8812484741211 44.21875 45.7312507629395 47.0187492370605 47.9812507629395 49.0812492370605 49.6687507629395 50.5999984741211 52.3375015258789 55.0625 57.03125 57.3562507629395 59.7750015258789 62.6875 64.125 67.3187484741211 63.2750015258789 60.9375 56.8937492370605 50.84375 43.9812507629395 36.6749992370605 30.9375 25.6187496185303 21.4125003814697 19.625 20.2687492370605 19.5562496185303 18.375 17.875 18.1812496185303 18.53125 18.53125 17.2312507629395 15.0374994277954 13.2312498092651 11.7749996185303 11.2562503814697 12.0375003814697 13.1875 14.6437501907349 17.5687503814697 20.3999996185303 21.1187496185303 24.6812496185303 
49.6312484741211 46.625 44.3499984741211 42.6749992370605 41.3250007629395 41.6375007629395 41.71875 41.7249984741211 43.5062522888184 44.7437515258789 45.6812515258789 47.0625 47.84375 48.3687515258789 49.6749992370605 51.4562492370605 52.0999984741211 55.1437492370605 57.0812492370605 60.9937515258789 60.6062507629395 60.7125015258789 62.8375015258789 60.34375 55.8812484741211 49.7687492370605 43.9437484741211 38.5875015258789 32.2687492370605 27.2000007629395 23.5874996185303 23.28125 23.3999996185303 24.0249996185303 23.7999992370605 22.1375007629395 20.4125003814697 19.0187492370605 17.8812503814697 16.2749996185303 14.2562503814697 12.4187498092651 11.8312501907349 11.8937501907349 12.8062496185303 14.09375 15.6312503814697 18.5499992370605 21.0187492370605 22.1937503814697 25.8500003814697 
46.9312477111816 44.5562515258789 42.8687515258789 41.4187507629395 40.1437492370605 40.2312507629395 40.6375007629395 40.9625015258789 42.9812507629395 44.5999984741211 45.5750007629395 47.40625 48.2249984741211 48.2062492370605 49.8687515258789 50.6375007629395 51.3624992370605 53.0875015258789 56.8125 59.0125007629395 61.1875 63.5062484741211 65.0187530517578 62.5374984741211 58.9562492370605 53.4437484741211 47.0687484741211 40.6687507629395 34.9437484741211 31.53125 28.6937503814697 27.6687507629395 27.6875 28.40625 29.1937503814697 26.1749992370605 22.3312492370605 19.71875 17.8812503814697 16.21875 14.65625 13.34375 12.6437501907349 12.5374994277954 13.5249996185303 14.8312501907349 16.2625007629395 19.3875007629395 21.3374996185303 24.3374996185303 27.4624996185303 
45.0187492370605 42.3187484741211 40.8687515258789 39.6500015258789 38.9312515258789 39.4625015258789 39.9187507629395 40.75 42.84375 44.65625 45.9249992370605 48.1187515258789 49.8499984741211 50.4625015258789 51.9562492370605 52.2625007629395 53.0625 54.7062492370605 58.25 60.6687507629395 61.3624992370605 63.8375015258789 65.8312530517578 63.375 59.46875 54.8687515258789 50.3312492370605 44.2687492370605 39.5687484741211 36.375 33.4187507629395 31.4375 30.8187503814697 30.6625003814697 29.1875 26.5187492370605 22.8312492370605 20.1437492370605 18.1375007629395 16.6062507629395 15.3562498092651 14.4437503814697 13.9812498092651 13.7875003814697 14.6625003814697 15.9250001907349 17.2374992370605 20.3187503814697 22.7999992370605 26.6437492370605 29.375 
43.4812507629395 41.4375 39.7562484741211 38.7000007629395 37.9874992370605 38.625 39.5250015258789 40.6187515258789 43.1687507629395 44.875 46.9812507629395 49.7312507629395 52.7062492370605 53.9937515258789 54.4500007629395 54.6312484741211 54.84375 56.9375 59.4124984741211 61.8562507629395 63.1375007629395 65.6750030517578 67.3187484741211 63.9812507629395 60.78125 56.5812492370605 52.09375 47.9187507629395 43.3125 39.7937507629395 37.1375007629395 35.0812492370605 33.3499984741211 31.5375003814697 28.7687492370605 25.4312496185303 22.4874992370605 19.9874992370605 18.2687492370605 17.21875 16.4500007629395 15.6875 15.1999998092651 14.9750003814697 15.8062496185303 17.125 18.4125003814697 21.8187503814697 25.1437492370605 29.0062503814697 32.5187492370605 
43.2062492370605 40.9312515258789 39.5187492370605 38.1749992370605 37.1375007629395 38.2999992370605 39.4874992370605 40.6812515258789 43.1875 45.2000007629395 47.2750015258789 51.15625 55.4749984741211 56.7625007629395 56.7562484741211 56.6812515258789 57.0687484741211 59.21875 61.7999992370605 63.8687515258789 65.4937515258789 67.5124969482422 69.8249969482422 66.8874969482422 63.3375015258789 58.8187484741211 54.4437484741211 50.4500007629395 47.1375007629395 43.96875 41.09375 38.8562507629395 35.9437484741211 32.9375 29.5 25.59375 22.7562503814697 20.5687503814697 19.0625 18.3312492370605 17.5625 16.9375 16.6687507629395 16.5625 17.8875007629395 19.1062507629395 20.4750003814697 23.5249996185303 28.1187496185303 31.40625 35.6937484741211 
43.5687484741211 41.2437515258789 39.4500007629395 37.8375015258789 37.6875 38.65625 39.7437515258789 41.0062484741211 43.3250007629395 45.6312484741211 47.9749984741211 51.2312507629395 54.6937484741211 56.6812515258789 57.7125015258789 58.0750007629395 58.9375 60.9000015258789 63.2937507629395 65.9249954223633 68.0749969482422 70.0812530517578 73.1812515258789 70.5374984741211 65.90625 62.4000015258789 58.125 54.3562507629395 51.0562515258789 48.1937484741211 45.1187515258789 42.3312492370605 39.1187515258789 35.2062492370605 30.90625 26.9937496185303 24.25 21.8937492370605 20.3562507629395 19.4750003814697 18.6749992370605 18.3374996185303 18.2124996185303 18.6187496185303 20.2937507629395 21.8250007629395 21.7250003814697 26.59375 30.9187507629395 34.0812492370605 39.4187507629395 
44.6624984741211 42.9562492370605 40.46875 39.0187492370605 38.0687484741211 38.8875007629395 40.1500015258789 41.34375 43.5187492370605 45.9437484741211 47.78125 50.9187507629395 53.8562507629395 55.78125 57.6437492370605 58.8937492370605 59.9812507629395 62.4812507629395 64.9375 67.5500030517578 70.0437469482422 72.3249969482422 75.8499984741211 73.6750030517578 69.5875015258789 65.6500015258789 62.3375015258789 59.2312507629395 55.5687484741211 52.5562515258789 49.2937507629395 46.4187507629395 41.8687515258789 37.2687492370605 32.8875007629395 29.5062503814697 26.2437496185303 23.5750007629395 22.2625007629395 21.1000003814697 20.3500003814697 19.9437503814697 19.8500003814697 20.4812507629395 22.8937492370605 22.9249992370605 24.5625 29.625 34.3125 38.9625015258789 43.78125 
45.3250007629395 43.1062507629395 41.1124992370605 39.9000015258789 38.8624992370605 39.7625007629395 40.7562484741211 41.7062492370605 43.3937492370605 45.7000007629395 48.0062484741211 51.0875015258789 53.65625 55.875 58.1687507629395 59.875 61.9249992370605 64.1687469482422 66.8249969482422 69.5062484741211 72.4124984741211 74.8125 77.9250030517578 77.5687484741211 73.8625030517578 70.6875 67.3062515258789 63.3624992370605 59.5687484741211 55.9187507629395 52.0687484741211 48.1312484741211 44.0750007629395 39.375 34.5999984741211 31.4249992370605 28.4375 25.5874996185303 24.21875 23.0874996185303 22.0625 21.7624988555908 21.7749996185303 21.9750003814697 23.3187503814697 25.1000003814697 26.7875003814697 31.3937492370605 36.7437515258789 40.9000015258789 45.1812515258789 
45.7249984741211 43.4624977111816 42.0062484741211 40.5875015258789 39.9124984741211 40.5499992370605 41.5374984741211 42.4312515258789 43.84375 46.125 48.21875 51.1062507629395 53.7062492370605 56.4500007629395 58.8062515258789 60.9124984741211 63.0437507629395 65.6374969482422 68.46875 71.7874984741211 74.6062469482422 77.4000015258789 80.5625 80.4187469482422 78.65625 75.8375015258789 72.0437545776367 67.8687515258789 63.7437515258789 59.7750015258789 54.7874984741211 50.2937507629395 46.21875 41.3250007629395 36.6687507629395 33.40625 30.8187503814697 28.1749992370605 26.7000007629395 25.4437503814697 24.34375 24.0500011444092 23.4812507629395 23.75 25.1062507629395 26.5625 27.8999996185303 33.2625007629395 38.3187484741211 42.1687507629395 46.6187515258789 
46.3875007629395 43.9625015258789 42.3624992370605 41.15625 40.53125 40.9812507629395 41.75 42.78125 44.3812484741211 46.3250007629395 48.2750015258789 50.9375 54.1375007629395 56.6187515258789 59.0812492370605 62.3937492370605 65.6999969482422 67.0687484741211 69.8562469482422 73.4499969482422 76.7937469482422 80.1812515258789 83.7874984741211 84.3312530517578 82.4937515258789 80.875 76.9000015258789 72.9124984741211 69.125 63.6187515258789 57.6437492370605 52.4312515258789 47.9124984741211 43.2999992370605 39.2062492370605 35.8562507629395 33.5 31.1124992370605 29.7000007629395 28.25 26.3624992370605 25.4812507629395 25.2437496185303 25.6000003814697 27.0062503814697 27.6000003814697 28.7562503814697 34.375 39.3937492370605 43.5250015258789 46.8125 
47.8687515258789 45.2937507629395 43.2249984741211 41.8875007629395 41.125 41.6875 42.5 43.4874992370605 45.0812492370605 46.8499984741211 48.71875 51.9375 55.1437492370605 58 61.3937492370605 64.34375 67.1374969482422 69.6312484741211 71.9000015258789 75.3312530517578 79.2624969482422 83.4875030517578 86.625 86.6374969482422 86.0999984741211 85.4562530517578 81.0749969482422 76.4875030517578 71.8625030517578 66.7437515258789 61.4437484741211 56.25 51.3499984741211 46.6749992370605 42.6624984741211 39.5374984741211 37.1937484741211 35.1875 33 31.8999996185303 30.2062492370605 28.8875007629395 27.9812507629395 28.0249996185303 28.5 28.9750003814697 30.0812492370605 35.1312484741211 39.375 43.1937484741211 46.65625 
48.5625 46.03125 44.46875 42.7437515258789 42.0875015258789 42.78125 43.2000007629395 44.0499992370605 45.8312492370605 47.8062515258789 49.6937484741211 52.9187507629395 57.2625007629395 60.1687507629395 63.4000015258789 66.4312515258789 70.1062469482422 72.8062515258789 75.0437469482422 79.0124969482422 82.9375 87.6624984741211 91.2937469482422 90.84375 89.84375 89.3249969482422 84.8249969482422 79.9812469482422 75.34375 69.3375015258789 64.6624984741211 59.8125 54.78125 50.8624992370605 46.8250007629395 43.1624984741211 40.8312492370605 39.0499992370605 37.3812484741211 35.9625015258789 33.9625015258789 32.21875 30.8999996185303 30.375 30.1937503814697 30.5625 31.2437496185303 35.40625 39.1749992370605 42.5687484741211 46.8812484741211 
49.8499984741211 46.7562484741211 45.09375 43.8250007629395 43.5875015258789 43.8687515258789 44.3499984741211 45.2062492370605 47.1875 49.0437507629395 51.21875 54.5 58.0187492370605 61.9500007629395 66.0875015258789 70.5187530517578 73.9312515258789 76.9000015258789 80.1999969482422 84.8874969482422 89.21875 92.3125 96.0437469482422 94.9437484741211 95.2125015258789 92.96875 87.8625030517578 83.9000015258789 79.15625 73.3812484741211 68.6062469482422 63.1500015258789 58.4937515258789 54.4937515258789 50.3624992370605 46.7312507629395 44.2374992370605 41.9375 40.3375015258789 38.9562492370605 37.2374992370605 35.3250007629395 33.9375 32.9437484741211 32.7999992370605 33.3312492370605 33.5999984741211 36.9124984741211 39.4437484741211 41.9812507629395 47.03125 
51.6937484741211 49.0625 47.2312507629395 46.1312484741211 45.7749977111816 46.2125015258789 46.9749984741211 47.5250015258789 49.4312515258789 51.1312484741211 54.6875 57.59375 61.4625015258789 66.6875 71.09375 76.25 80.4749984741211 84.8812484741211 88.5812530517578 93.34375 96.59375 99.1999969482422 100.956253051758 99.84375 99.4749984741211 96.7125015258789 91.7625045776367 87.5999984741211 83.09375 78.5875015258789 73.3562469482422 68.2437515258789 63.1875 59.1062507629395 55.2999992370605 51.5062484741211 48.4625015258789 45.3375015258789 43.7062492370605 42.6687507629395 41 39.21875 37.9375 36.6937484741211 36.9562492370605 37.9625015258789 38.5374984741211 39.8937492370605 41.5062484741211 43.2874984741211 48 
53.15625 51.1687507629395 49.8812484741211 48.8499984741211 48.2000007629395 48.6749992370605 49.6187515258789 50.3187484741211 51.9000015258789 54.1687507629395 57 61.5562515258789 65.6999969482422 69.96875 75.7312469482422 81.4499969482422 87.6875 92.9375 97.8062515258789 102.675003051758 105.193748474121 106.331253051758 106.9375 104.53125 102.599998474121 99.6999969482422 94.9812469482422 90.9625015258789 86.4375 82.1750030517578 77.8312530517578 73.1687469482422 68.3000030517578 63.8687515258789 60.0375022888184 57 52.9874992370605 49.4124984741211 47.7750015258789 46.1124992370605 44.2937507629395 43.25 42.3562507629395 41.1749992370605 41.5562515258789 42.2125015258789 42.2249984741211 42.7562484741211 43.1812515258789 43.8312492370605 48.3312492370605 
55.25 53.5374984741211 52.5499992370605 51.9375 51.4187507629395 51.6312484741211 52.7249984741211 53.4812507629395 54.6937484741211 57.0750007629395 60.5812492370605 65.9437484741211 70.5374984741211 75.3187484741211 81.5812530517578 88.3937530517578 95.0812530517578 100.375 107.306251525879 112.087501525879 114.381248474121 114.349998474121 112.556251525879 108.868751525879 105.081253051758 102.837501525879 98.8187484741211 94.3375015258789 90.0250015258789 85.8000030517578 81.7874984741211 77.1374969482422 72.6374969482422 68.4437484741211 64.2687530517578 60.40625 56.8562507629395 54.0062484741211 51.7937507629395 50.1624984741211 47.5374984741211 46.1687507629395 45.8312492370605 44.5999984741211 45.0437507629395 45.4625015258789 45.40625 45.2125015258789 45.0562515258789 44.8187484741211 48.3687515258789 
58.7374992370605 56.8937492370605 56.25 55.8062515258789 55.4124984741211 55.9562492370605 56.4625015258789 57.7562484741211 59.2937507629395 61.4500007629395 65.3562469482422 70.7937469482422 76.6687469482422 82.4375 88.8000030517578 95.9437484741211 102.5625 108.849998474121 115.862503051758 122.087501525879 122.068748474121 120.599998474121 116.662498474121 111.662498474121 107.987503051758 105.09375 100.775001525879 97.0437469482422 93.3312530517578 89.1875 85.6624984741211 81.7312469482422 76.9000015258789 72.9312515258789 68.84375 64.6437530517578 62.0875015258789 58.8812484741211 56.5499992370605 54.5687484741211 52.5625 50.9749984741211 49.9000015258789 48.9000015258789 49.2312507629395 49.15625 48.90625 49.8187484741211 49.5187492370605 48.7937507629395 51.6312484741211 
62.3125 60.7062492370605 60.03125 59.4312515258789 59.6937484741211 60.3187484741211 61.2249984741211 62.34375 64.3375015258789 65.9625015258789 70.7750015258789 78.9124984741211 85.2874984741211 91.0562515258789 97.6687469482422 103.981246948242 110.775001525879 115.887504577637 121.693748474121 126.868751525879 127.300003051758 123.1875 118.693748474121 113 109.162498474121 106.481246948242 102.193748474121 98.5124969482422 95.4124984741211 92.1500015258789 88.84375 85.59375 81.5749969482422 77.7937469482422 73.8812484741211 70.2375030517578 67.25 64.4187469482422 61.5875015258789 59.0875015258789 56.8312492370605 54.96875 54.1437492370605 53.3687515258789 54.0875015258789 53.40625 53.6812515258789 54.8875007629395 53.6812515258789 53.3125 54.4375 
65.84375 64.65625 64.2375030517578 63.5437507629395 64.0437469482422 65.21875 66.5062484741211 68.1750030517578 70.8000030517578 72.7249984741211 82.2562484741211 90.3062515258789 95.5875015258789 100.612503051758 106.556251525879 112.731246948242 117.162498474121 121.65625 125.025001525879 127.625 127.768753051758 123.487503051758 119.0625 113.324996948242 109.118751525879 106.074996948242 103.118751525879 100.393753051758 97.8249969482422 95.1750030517578 90.9875030517578 88 84.6125030517578 82.2125015258789 78.9625015258789 74.2562484741211 71.3375015258789 68.4437484741211 66.6312484741211 64.3625030517578 61.09375 60.1687507629395 58.1312484741211 56.8250007629395 57.28125 57.0875015258789 57.9749984741211 59.6124992370605 57.4500007629395 56.96875 57.5125007629395 
71.2249984741211 69.75 69.34375 69.2125015258789 69.1999969482422 70.53125 72.6500015258789 75.3312530517578 79.7125015258789 87.1125030517578 98.3874969482422 102.768753051758 105.25 110.150001525879 114.912498474121 119.643753051758 123.243751525879 125.568748474121 126.175003051758 126.943748474121 125.106246948242 120.724998474121 116.6875 111.59375 107.606246948242 104.356246948242 101.90625 100.550003051758 99.1062469482422 97.3249969482422 94.75 91.5374984741211 88.375 84.6999969482422 81.84375 78.1500015258789 75.4562530517578 72.6999969482422 71.1312484741211 67.9812469482422 65.1437530517578 64.3812484741211 62.2937507629395 60.9187507629395 61.2374992370605 61 60.0625 62.2000007629395 61.7937507629395 62.3312492370605 61.75 
75.6875 74.125 74.125 74.1062469482422 74.5187530517578 76.5062484741211 78.34375 82.1312484741211 87.84375 96.2937469482422 104.287498474121 109.75 114.018753051758 118.574996948242 123.387496948242 126.349998474121 128.931243896484 128.868743896484 128.506256103516 126.331253051758 122.112503051758 117.349998474121 112.150001525879 107.637496948242 104.587501525879 102.099998474121 100.337501525879 100.375 99.2374954223633 98.7687530517578 95.3375015258789 93.6125030517578 91.9312515258789 88.59375 85.7687530517578 82.7437515258789 79.5374984741211 77.4562530517578 75.5187530517578 71.1687469482422 68.7312469482422 68.3937530517578 66.3687515258789 64.4124984741211 64.2750015258789 63.5187492370605 63.8187484741211 65.65625 66.375 67.40625 67.4499969482422 
80.2937469482422 79.0187530517578 79.1937484741211 79.4187469482422 79.6374969482422 81.5250015258789 84.7062530517578 88.8312530517578 94.5374984741211 101.731246948242 108.34375 114.75 121.237503051758 125.268753051758 129.418746948242 132.28125 133.84375 133.875 130.59375 125.25 120.03125 112.793746948242 107.037498474121 102.625 101.043746948242 99.6374969482422 99.59375 99.6374969482422 99.7312469482422 98.9812545776367 97.875 98.0437469482422 96.5875015258789 94.125 91.4875030517578 88.0687484741211 84.6937484741211 81.9187469482422 80.09375 75.5 72.9312515258789 71.8062515258789 69.7312469482422 67.4749984741211 67.2562484741211 67.4749984741211 68.0749969482422 69.0562515258789 71.4562530517578 71.9625015258789 73.6187515258789 
85.2687530517578 84.0812530517578 84.2687530517578 84.2312469482422 84.8062515258789 86.4000015258789 89.4437484741211 93.3499984741211 99.125 105.318748474121 111.956253051758 118.612503051758 125.268753051758 130.087493896484 133 135.9375 137.237503051758 136.350006103516 132.106246948242 124.0625 115.012496948242 108.5 101.049995422363 97.0999984741211 97.9375 97.2375030517578 96.8312530517578 97.3125 99.3312530517578 100.662498474121 98.5625 100.168746948242 98.6937484741211 99.8375015258789 98.1374969482422 92.6624984741211 89.1062469482422 86.3625030517578 83.5187530517578 79.3687515258789 76.6875 74.4812469482422 71.6812515258789 70.5875015258789 70.5875015258789 71.5687484741211 71.0687484741211 72.0062484741211 76.4437484741211 76.4187469482422 77.21875 
89.6750030517578 88.5749969482422 89.3187484741211 89.2687530517578 89.5187530517578 90.9749984741211 93.6125030517578 97.34375 102.293746948242 108.581253051758 115.449996948242 121.431251525879 127.168746948242 132.431243896484 136.787490844727 139.368759155273 140.868743896484 139.706253051758 134.693756103516 122.518753051758 110.543746948242 101.043746948242 95.8500061035156 95.2937545776367 94.9375 94.7437515258789 94.5812530517578 95.3874969482422 97.3499984741211 99.125 98.6937484741211 99.4749984741211 99.8562469482422 100.681251525879 103.03125 100.018753051758 93.4749984741211 90.4875030517578 87.03125 83.3812484741211 80.1937484741211 78.2312469482422 75.8375015258789 73.9625015258789 74.2750015258789 74.1125030517578 74.9499969482422 75.9562530517578 79.9937515258789 80.5625 81 
93.7375030517578 92.6687469482422 93.2562484741211 92.59375 92.1687469482422 94.0749969482422 95.6687469482422 98.8000030517578 104.243751525879 110.818748474121 117.431251525879 123.849998474121 130.612503051758 134.443756103516 138.956253051758 141.0625 142 140.987503051758 137.6875 123.512496948242 109.099998474121 98.1624984741211 92.0999984741211 91.5562515258789 92.4375 92.8687515258789 93.3499984741211 93.9250030517578 95.3499984741211 97.8874969482422 98.4875030517578 99.6062469482422 99.7874984741211 101.087501525879 105.762496948242 108.012496948242 99.5749969482422 94.4124984741211 92.2624969482422 87.3937530517578 84.0562515258789 81.7874984741211 79.5 78.28125 78.4499969482422 77.3937530517578 77.6062469482422 79.0812530517578 80.90625 84.1875 84.5437469482422 
95.6937484741211 95.59375 97.4187545776367 95.25 95.3499984741211 96.0812530517578 96.5812530517578 99.1062469482422 104.324996948242 111 117.756248474121 124.349998474121 131.199996948242 136.0625 139.493743896484 140.243743896484 139.931243896484 137.443756103516 132.524993896484 122 107.125 97.9375 91.0625 89.3125 90.3125 91.3125 91.4375 92.4375 94.8499984741211 97.1812515258789 97.2437515258789 98.8874969482422 99.5250015258789 99.9000015258789 102.518753051758 106.1875 101.400001525879 96.7062530517578 93.90625 90.8625030517578 88.0999984741211 85.7687530517578 83.25 81.0875015258789 80.5875015258789 79.9437484741211 80.5749969482422 81.9187469482422 81.8562469482422 85.8562469482422 86.8625030517578 
