ncols        51
nrows        45
xllcorner    -63.500000000000
yllcorner    -7.500000000000
cellsize     0.166666666667
NODATA_value -99
340.318756103516 345.9375 337.587493896484 336.899993896484 331.787506103516 320.862487792969 303.700012207031 286.518737792969 269.862487792969 258.4375 252.256256103516 247.956253051758 243.862503051758 236.5 231.043746948242 225.4375 222.487503051758 216.175003051758 212.756256103516 209.1875 209.15625 208.418746948242 208.712493896484 208.962493896484 211.581253051758 214.481246948242 219.693756103516 228.512496948242 236.293746948242 239.756256103516 246.856246948242 251.256256103516 256.181243896484 263.09375 269.25 274.831237792969 279.081237792969 283.818756103516 289.625 294 298.618743896484 302.774993896484 305.28125 308.737487792969 308.59375 310.649993896484 311.212493896484 311.162506103516 311.0625 313.618743896484 313.875 
356.475006103516 365.881256103516 369.71875 373.993743896484 375.418762207031 363.912506103516 346.143737792969 330.325012207031 316.831237792969 304.950012207031 296.850006103516 289.543762207031 282.537506103516 273.8125 265.700012207031 258.28125 252.706253051758 247.28125 241.918746948242 237.331253051758 236.737503051758 236.387496948242 237.118743896484 236.96875 237.431243896484 238.731246948242 241.675003051758 248.462493896484 253.462493896484 256.625 261.53125 267.556243896484 270.5 277.799987792969 281.331237792969 287.043762207031 292.443756103516 296.75 302.193756103516 305.981262207031 311.206237792969 314.90625 317.043762207031 319.75 320.299987792969 322.037506103516 321.71875 320.756256103516 321.450012207031 323.424987792969 322.706237792969 
361.924987792969 374.668762207031 384.568756103516 393.837493896484 398.256256103516 390.225006103516 380.787506103516 372.006256103516 361.293762207031 351.887512207031 340.674987792969 330.09375 321.537506103516 311.831237792969 302.012512207031 294.293762207031 287.012512207031 281.912506103516 275.9375 270.950012207031 270.59375 270.818756103516 269.84375 268.799987792969 267.90625 265.793762207031 266.837493896484 270.8125 272.393737792969 273.799987792969 278.543731689453 283.387512207031 286.799987792969 290.700012207031 296.393737792969 299.456237792969 304.700012207031 310.5625 315.350006103516 320.274993896484 325.037506103516 327.681243896484 329.081237792969 330.200012207031 331.856262207031 332.15625 331.962493896484 329.912506103516 329.524993896484 330.612487792969 330.149993896484 
361.65625 378.487487792969 396.825012207031 409.8125 419.043762207031 414.975006103516 412.143737792969 410.762512207031 406.75 399.787506103516 387.424987792969 372.487487792969 359.787506103516 348.287506103516 338.106262207031 329.049987792969 322.918762207031 318.831237792969 313.774993896484 308.481262207031 309.006256103516 307.618743896484 304.049987792969 301.006256103516 297.987487792969 293.6875 292.231262207031 290.9375 289.756256103516 291.024993896484 293.037506103516 298.612487792969 300.918762207031 303.825012207031 308.049987792969 312.90625 318.399993896484 324.243743896484 330.581237792969 334.90625 337.712493896484 340.524993896484 341.65625 341.293762207031 342.481262207031 341.475006103516 341.137512207031 339.162506103516 335.456237792969 335.743743896484 335.862487792969 
371.524993896484 386.537506103516 402.818756103516 421.5625 435.506256103516 436.512512207031 436.725006103516 441.443756103516 445.137481689453 444.537506103516 430.399993896484 410.1875 395.556243896484 385.587493896484 373.381256103516 364.975006103516 358.037506103516 356.25 350.643737792969 344.65625 345.256256103516 342.106262207031 338.875 334.34375 328.475006103516 322.056243896484 315.731262207031 311.09375 309.768737792969 307.600006103516 309.918762207031 312.28125 316.337493896484 319.856262207031 323.5625 328.731262207031 333.787506103516 338.856262207031 345.899993896484 349.325012207031 352.987487792969 353.537506103516 353.350006103516 353.3125 352.512512207031 350.837493896484 349.818756103516 345.837493896484 341.337493896484 339.862487792969 341.368743896484 
380.174987792969 396.5625 415.762512207031 430.131256103516 438.899993896484 441.731262207031 443.325012207031 447.643737792969 453.956237792969 458.09375 441.443756103516 422.15625 411.225006103516 401.512512207031 392.556243896484 385.993743896484 381.575012207031 381.887512207031 380.549987792969 376.237487792969 374.837493896484 371.8125 367.75 360.181243896484 352.024993896484 344.8125 336.993743896484 329.393737792969 324.225006103516 323.362487792969 324.399993896484 327.443756103516 330.674987792969 338.487487792969 345.424987792969 350.131256103516 357.243743896484 362.674987792969 369.25 373.487487792969 373.918762207031 373.787506103516 372.53125 370.856262207031 368.287506103516 364.237487792969 361.1875 356.631256103516 351.893737792969 347.399993896484 344.006256103516 
385.712493896484 401.331268310547 418.643737792969 429.212493896484 434.106262207031 435.174987792969 436.068756103516 435.793762207031 434.418762207031 432.59375 429.3125 420.75 415.375 410.293762207031 405.524993896484 401.78125 400.0625 401.787506103516 403.056243896484 405.568756103516 402.5 399.837493896484 394.212493896484 385.09375 375.53125 365.325012207031 356.15625 346.40625 337.443756103516 335 338.975006103516 341.868743896484 346.8125 354.268737792969 363.581237792969 370.818756103516 377.493743896484 383.875 393.549987792969 395.206237792969 391.075012207031 390.306243896484 388.037506103516 385.600006103516 384.662506103516 377.149993896484 371.356262207031 365.943756103516 356.512512207031 352.943756103516 350.875 
385.606262207031 399.787506103516 413.087493896484 423.331237792969 430.006256103516 430.006256103516 424.606262207031 414.643737792969 403.3125 402.4375 410.887512207031 413.712493896484 416.40625 417.149993896484 416.006256103516 415.743743896484 414.412506103516 417.337493896484 422.506256103516 428.518737792969 427.53125 424.8125 419.5625 408.34375 399.15625 385.506256103516 372.90625 361.168762207031 349.299987792969 346.5625 348.762512207031 355.206237792969 360.793762207031 369.825012207031 380.518737792969 388.137512207031 395.6875 402.274993896484 410.012512207031 409.931243896484 405.700012207031 403.8125 400.762512207031 397.237487792969 394.487487792969 386.556243896484 375.368743896484 365.462493896484 359.912506103516 353.90625 350.831237792969 
385.84375 398.475006103516 411.475006103516 421.4375 426.774993896484 425.6875 418.899993896484 405.774993896484 385.424987792969 379.643737792969 395.549987792969 405.1875 413.174987792969 415.274993896484 419.100006103516 423.674987792969 426.024993896484 429.606262207031 437.21875 443.5 439.018737792969 438.350006103516 433.424987792969 428.674987792969 418.962493896484 403.0625 386.412506103516 371.700012207031 360.799987792969 356.837493896484 359.556243896484 366.1875 373.162506103516 382.625 393.193756103516 402.762512207031 413.25 420.268737792969 426.806243896484 425.600006103516 420.837493896484 417.431243896484 413.799987792969 408.8125 402.387512207031 393.537506103516 381.931243896484 369.393737792969 359.868743896484 351.825012207031 347.818756103516 
386.087493896484 397.331237792969 408.65625 417.868743896484 424.200012207031 423.837493896484 419.162506103516 408.831237792969 394.274993896484 389.837493896484 398.181243896484 403.087493896484 410.350006103516 414.506256103516 421.768737792969 430.806243896484 438.256256103516 442.106262207031 448.149993896484 453.693756103516 449.318756103516 449.28125 449.018737792969 448.662506103516 436.174987792969 418.975006103516 401.237487792969 384.487487792969 370.818756103516 365.34375 366.693756103516 375.331237792969 384.893737792969 396.84375 408.287506103516 417.924987792969 428.274993896484 437.149993896484 443.40625 443.112487792969 438.712493896484 434.631256103516 426.78125 415.450012207031 408.924987792969 402.049987792969 390.443756103516 376.25 362.143737792969 352.131256103516 345.393737792969 
385.674987792969 396.362487792969 405.831237792969 414.943756103516 422.75 424.987487792969 422.90625 414.956237792969 405.975006103516 403.387512207031 406.106262207031 408.899993896484 412.268737792969 417.456237792969 427.618743896484 438.887512207031 448.862487792969 452.84375 456.231262207031 460.618743896484 459.34375 460.118743896484 464.674987792969 462.318756103516 455.568756103516 433.856262207031 414.293762207031 399.100006103516 383.46875 375.59375 377.674987792969 384.831237792969 394.78125 407.731262207031 420.993743896484 430.53125 440.75 450.381256103516 456.581237792969 458.200012207031 453.787506103516 446.431243896484 434.712493896484 420.600006103516 412.337493896484 404.825012207031 390.8125 372.712493896484 359.162506103516 353.149993896484 343.112487792969 
383.912506103516 394.712493896484 404.0625 414.268737792969 421.318756103516 426.206237792969 427.662506103516 423.174987792969 416.78125 413.34375 413.78125 416.024993896484 419 424.799987792969 438.21875 449.53125 456.100006103516 457.762512207031 460.118743896484 462.424987792969 458.018737792969 460.737487792969 470.006256103516 476.681243896484 467.762512207031 438.962493896484 418.762512207031 404.5 393.712493896484 390.425018310547 388.818756103516 393.0625 401.943756103516 413.893737792969 426.149993896484 438.600006103516 450.918762207031 461.450012207031 466.356262207031 469.118743896484 465.5 454.706237792969 436.887512207031 414.3125 400.537506103516 388.118743896484 371.774993896484 359.606262207031 353.012512207031 350.868743896484 340.46875 
381.725006103516 392.03125 402.081237792969 411.162506103516 419.537506103516 426.118743896484 428.506256103516 427.637512207031 422.481262207031 420.78125 422.587493896484 426.043762207031 431.993743896484 436.268737792969 448.118743896484 458.15625 463.075012207031 464.450012207031 466.768737792969 465.587493896484 455.768737792969 457.59375 466.075012207031 469.762512207031 453.237487792969 429.493743896484 419.981231689453 411.40625 404.462493896484 403.118743896484 402.068756103516 402.1875 408.318756103516 419.012512207031 430.693756103516 442.337493896484 455.875 467.90625 474.59375 479.1875 477.631256103516 462.825012207031 433.387512207031 405.3125 386.943756103516 378.693756103516 366.831237792969 355.368743896484 350.174987792969 350.787506103516 350.174987792969 
377.706237792969 388.6875 398.512512207031 407.712493896484 417.331237792969 422.3125 427.25 430.674987792969 429.662506103516 428.606262207031 429.756256103516 435.912506103516 442.987487792969 451.387512207031 457.068756103516 466.268737792969 470.174987792969 469.793762207031 470.375 470.043762207031 463.381256103516 460.725006103516 461.3125 457.46875 443.412506103516 428.03125 422.21875 416.924987792969 412.356262207031 412.212493896484 413.331237792969 412.912506103516 414.799987792969 421.325012207031 431.5625 445.09375 461.075012207031 473.512512207031 479.350006103516 482.443756103516 479.5 456.25 428.34375 404.200012207031 387.899993896484 377.737518310547 368.475006103516 362.981262207031 358.049987792969 360.762512207031 365.643737792969 
373.8125 383.668762207031 394.037506103516 405.612487792969 416.299987792969 421.837493896484 429.018737792969 435.043762207031 435.024993896484 435.043762207031 437.818756103516 444.862487792969 452.850006103516 461.012512207031 463.018737792969 469.862487792969 472.506256103516 473.53125 472.75 471.768737792969 466.293762207031 460.96875 456.725006103516 451.8125 443.450012207031 435.375 431.15625 427.28125 424.962493896484 425.681243896484 423.125 420.481262207031 422.056243896484 422.162506103516 427.693756103516 444.387512207031 463.606262207031 477.493743896484 479.881256103516 476.712493896484 465.5 447.806243896484 429.462493896484 407.206237792969 393.575012207031 384.325012207031 377.887512207031 373.350006103516 372.424987792969 371.981262207031 374.831237792969 
367.137512207031 377.962493896484 389.6875 402.106262207031 414.056243896484 422.962493896484 430.181243896484 436.387512207031 440.200012207031 442.956237792969 445.274993896484 454.306243896484 463.481262207031 471.075012207031 472.700012207031 474.024993896484 474.674987792969 475.600006103516 474.368743896484 474.006256103516 466.875 459.087493896484 452.875 448.756256103516 443.53125 440.143737792969 438.818756103516 438.168762207031 439.450012207031 439.950012207031 438.443756103516 433.881256103516 430.868743896484 429.956237792969 432.600006103516 457.231262207031 474.356262207031 478.837493896484 476.137512207031 471.331237792969 460.893737792969 445.78125 428.462493896484 408.475006103516 396.337493896484 388.350006103516 380.993743896484 376.662506103516 375.856262207031 375.262512207031 376.331237792969 
361.0625 373.4375 384.725006103516 398.524993896484 412.512512207031 422.206237792969 432.28125 439.993743896484 444.706237792969 448.987487792969 451.912506103516 462.90625 473.818756103516 480.243743896484 482.993743896484 480.956237792969 475.618743896484 473.549987792969 474.09375 473.024993896484 465.231262207031 457.206237792969 451.087493896484 448.399993896484 446.668762207031 443.631256103516 444.943756103516 447.975006103516 450.299987792969 453.5 453.243743896484 448.993743896484 446.881256103516 451.087493896484 470.399993896484 490.274993896484 494.318756103516 487.918762207031 477.799987792969 468.774993896484 461.787506103516 446.649993896484 426.862487792969 407.487487792969 398.25 390.962493896484 383.5 381.28125 382.075012207031 378.768737792969 379.143737792969 
353.418762207031 367.662506103516 381.90625 398.118743896484 413.756256103516 424.512512207031 434.868743896484 444.737487792969 450.799987792969 455.318756103516 459.668762207031 472.399993896484 481.299987792969 488.662506103516 489.5 484.706237792969 478.318756103516 466.581237792969 471.018737792969 469.899993896484 464.643737792969 456.462493896484 449.09375 447.350006103516 447.09375 449.112487792969 450 456.018737792969 462.287506103516 465.793762207031 463.700012207031 452.193756103516 452.737487792969 464.850006103516 492.637512207031 524.78125 511.831237792969 492.325012207031 475.625 465.993743896484 454.78125 440.831237792969 424.75 407.931243896484 398.924987792969 393.368743896484 387.225006103516 385.943756103516 387.293762207031 382.34375 383.331237792969 
345.018737792969 361.306243896484 376.981262207031 395.075012207031 413.793762207031 427.518737792969 439.787506103516 450.899993896484 456.818756103516 461.706237792969 466.293762207031 475.081237792969 486.524993896484 495.237487792969 492.237487792969 484.806243896484 475.793762207031 463.137512207031 460.0625 460.387512207031 458.918762207031 454.28125 441.512512207031 442.231262207031 445.600006103516 451.03125 455.600006103516 460.787506103516 469.143737792969 475.087493896484 474.71875 457.787506103516 450.462493896484 451.0625 469.131256103516 495.668762207031 491.993743896484 481.012512207031 470.756256103516 459.46875 449.112518310547 435.912506103516 423.149993896484 410.024993896484 401.462493896484 396.006256103516 391.618743896484 391.299987792969 391.893737792969 381.850006103516 387.59375 
333.118743896484 352.524993896484 370.012512207031 390.09375 411.443756103516 428.537506103516 443.293762207031 456.168762207031 462.649993896484 466.543762207031 470.118743896484 477.40625 489.443756103516 500.149993896484 492.043762207031 477.049987792969 462.475006103516 457.112487792969 451.825012207031 450.712493896484 445.768737792969 438.575012207031 433.768737792969 435.162506103516 440.243743896484 446.481262207031 453.3125 461.924987792969 468.431243896484 470.387512207031 465.731262207031 452.737487792969 435.393737792969 419.65625 413.75 433.731262207031 456.512512207031 463.631256103516 461.612487792969 454.887512207031 444.549987792969 433.256256103516 423.84375 413.862487792969 406.637512207031 401.681243896484 397.53125 396.274993896484 393.893737792969 382.818756103516 391.4375 
318.649993896484 341.993743896484 363.09375 384.931243896484 407.568756103516 427.131256103516 445.143737792969 459.8125 467.5625 469.237487792969 467.793762207031 471.831237792969 477.612487792969 485.818756103516 479.649993896484 464.774993896484 451.631256103516 443.299987792969 440.649993896484 437.75 434.631256103516 431.325012207031 427.40625 431.493743896484 437.78125 444.862487792969 451.5625 457.662506103516 462.912506103516 463.625 456.268737792969 442.412506103516 422.274993896484 396.78125 372.043762207031 397.756256103516 434.59375 453.237518310547 457.350006103516 452.875 444.375 435.46875 424.674987792969 415.643737792969 410.725006103516 406.34375 403.049987792969 401.700012207031 393.8125 388.793762207031 395.09375 
305.274993896484 329.8125 353.993743896484 377.787506103516 402.637512207031 424.912506103516 445.481262207031 463.46875 472.274993896484 470.03125 461.256256103516 457.006256103516 454.787506103516 456.643737792969 454.75 449.03125 443.9375 437.787506103516 433.90625 429.881256103516 423.018737792969 417.506256103516 417.28125 420.643737792969 427.512512207031 437.881256103516 450.212493896484 456.806243896484 461.524993896484 460.350006103516 450.987487792969 437.068756103516 421.424987792969 405.8125 398.100006103516 413.081237792969 440.600006103516 458.662506103516 462.787506103516 456.587493896484 446.643737792969 437.90625 428.350006103516 420.006256103516 416.168762207031 412.700012207031 409.924987792969 407.543762207031 398.193756103516 399.306243896484 399.237487792969 
295.575012207031 322.087493896484 346.524993896484 372.131256103516 397.8125 419.862487792969 440.837493896484 463.96875 477.712493896484 469.375 453.768737792969 438.962493896484 428.168762207031 427.868743896484 432.325012207031 433.475006103516 431.912506103516 427.9375 423.856262207031 419.53125 412.112487792969 404.243743896484 400.625 403.831237792969 414.231231689453 428.15625 442.362487792969 451.875 456.725006103516 454.012512207031 446.5625 439.068756103516 434.75 430.212493896484 435.331237792969 447.068756103516 463.40625 474.043762207031 472.9375 463.681243896484 451.34375 441.756256103516 432.625 423.46875 420.331237792969 418.962493896484 417.625 413.856262207031 408.431243896484 408.887512207031 405.881256103516 
287.125 311.293762207031 336.75 363.943756103516 390.950012207031 411.850006103516 433.881256103516 456.299987792969 467.84375 457.174987792969 438.818756103516 423.356262207031 406.518737792969 407.143737792969 415.818756103516 421.049987792969 423.299987792969 421.25 415.700012207031 410.137512207031 401.137512207031 391.418762207031 385.46875 388.006256103516 396.174987792969 409.931243896484 425.462493896484 439.09375 447.943756103516 450.462493896484 449.793762207031 447.40625 449.931243896484 454.556243896484 465.274993896484 478.193756103516 489.556243896484 490.799987792969 482.450012207031 470.237487792969 456.78125 444.818756103516 434.368743896484 423.418762207031 422.637512207031 422.850006103516 423.193756103516 417.662506103516 421.399993896484 416.03125 413.118743896484 
284.024993896484 304.049987792969 327.5 355.674987792969 385.212493896484 405.356231689453 423.018737792969 439.8125 446.28125 440.850006103516 429.693756103516 415.09375 404.712493896484 402.418762207031 407.125 413.84375 416.850006103516 415.899993896484 411.587493896484 403.225006103516 390.65625 378.581237792969 369.125 367.537506103516 377.049987792969 395.649993896484 411.443756103516 429.387512207031 441.625 451.118743896484 454.475006103516 456.299987792969 464.918762207031 474.581237792969 485.931243896484 491.875 499.28125 499.368743896484 488.493743896484 477.075012207031 462.9375 448.912506103516 434.5 425.337493896484 419.543762207031 420.712493896484 420.84375 430.225006103516 434.424987792969 427.131256103516 421.549987792969 
285.96875 303.850006103516 324.1875 351.787506103516 378.575012207031 395.893737792969 410.606262207031 423.537506103516 427.543762207031 425.006256103516 418.693756103516 410.681243896484 403.881256103516 400.168762207031 403.893737792969 410.662506103516 413.137512207031 413.318756103516 410.1875 399.231262207031 386.200012207031 368.899993896484 353.200012207031 346.25 359.0625 382.53125 404.399993896484 422.368743896484 438.212493896484 451.6875 460.068756103516 467.46875 480.712493896484 490.568756103516 499.575012207031 502.318756103516 505.993743896484 505.431243896484 495.350006103516 482.625 468.774993896484 452.193756103516 432.856262207031 421.206237792969 416.768737792969 418.268737792969 435.21875 446.699981689453 447.868743896484 444.15625 436.90625 
296.456237792969 309.587493896484 328.34375 350.137512207031 371.600006103516 385.962493896484 397.174987792969 406.956237792969 410.575012207031 411.731262207031 410.393737792969 405.631256103516 401.03125 398.743743896484 403.5625 409.493743896484 414.975006103516 413.993743896484 409.693756103516 401.393737792969 385.487487792969 366.549987792969 344.743743896484 334.737487792969 352.90625 376.193756103516 398.950012207031 416.549987792969 433.168762207031 448.1875 460.21875 473.456237792969 491.987487792969 501.168762207031 508.825012207031 511.337493896484 514.71875 513.643737792969 504.212493896484 492.65625 476.762512207031 457.581237792969 435.306243896484 419.962493896484 424.987487792969 437.600006103516 454.431243896484 462.568756103516 465.868743896484 458.131256103516 453.518737792969 
309.21875 319.581237792969 334.393737792969 351.143737792969 365.9375 376.618743896484 387.518737792969 395.337493896484 399.081237792969 401.756256103516 401.700012207031 398.918762207031 396.793762207031 396.243743896484 402.131256103516 408.725006103516 415.706237792969 418.493743896484 415.71875 408.75 394.225006103516 375.543762207031 361.325012207031 354.1875 364.087493896484 381.912506103516 400.412506103516 417.181243896484 431.924987792969 444.706237792969 456.518737792969 468.943756103516 489.09375 501.53125 512.28125 516.462524414062 518.09375 519.787475585938 512.543762207031 504.068756103516 493.118743896484 470.9375 442.456237792969 425.087493896484 442.006256103516 457.399993896484 473.162506103516 480.21875 482.600006103516 474.706237792969 468.200012207031 
321.243743896484 329.674987792969 340.381256103516 351.149993896484 363.399993896484 370.987487792969 377.493743896484 384.012512207031 388.631256103516 391.600006103516 394.1875 393.306243896484 392.293762207031 393.662506103516 402.081237792969 411.575012207031 421.918762207031 426.399993896484 426.737487792969 422.331237792969 409.418762207031 393.399993896484 382.674987792969 375.368743896484 381.075012207031 391.625 405.049987792969 418.850006103516 431.318756103516 442.75 451.4375 461.600006103516 482.524993896484 499.612487792969 514.15625 519.71875 521.462524414062 524.131225585938 518.356262207031 510.09375 505.28125 482.475006103516 453.674987792969 446.337493896484 466.912506103516 482.268737792969 494.737487792969 502.587493896484 501.618743896484 495.362487792969 481.956237792969 
334.368743896484 340.212493896484 346.475006103516 352.862487792969 360.568756103516 364.268737792969 369.212493896484 374.256256103516 378.799987792969 381.868743896484 385.21875 387.450012207031 389.868743896484 393.200012207031 402.350006103516 412.668762207031 423.418762207031 435.262512207031 439.162506103516 432.518737792969 419.924987792969 406.818756103516 396.825012207031 390.850006103516 392.225006103516 399.337493896484 408.96875 418.231262207031 426.887512207031 436.5625 445.606262207031 454.493743896484 474.975006103516 496.537506103516 514.174987792969 520.212524414062 523.5 528.518737792969 518.974975585938 511.643737792969 509.068756103516 500.375 484.962493896484 485.9375 495.8125 515.875 530.581237792969 535.362487792969 531.018737792969 521.893737792969 506.362487792969 
344.862487792969 347.90625 350.25 353.856262207031 358.131256103516 358.725006103516 362.71875 365.918762207031 369.618743896484 372.987487792969 377.106262207031 380.325012207031 384.962493896484 389.181243896484 399.387512207031 411.28125 425.575012207031 439.243743896484 449.143737792969 442.78125 430.256256103516 416.681243896484 408.418762207031 401.875 400.181243896484 406.068756103516 410.78125 415.25 421.793762207031 430.693756103516 440.049987792969 451.049987792969 472.162506103516 494.6875 514.318725585938 520.200012207031 525.299987792969 532.53125 522.293762207031 506.506256103516 508.8125 516.099975585938 517.012512207031 521.75 532.200012207031 559.71875 573.256225585938 575.4375 566.650024414062 551.112487792969 531.1875 
352.606262207031 353.34375 352.362487792969 352.418762207031 353.993743896484 353 355.5 356.53125 359.475006103516 362.856262207031 367.143737792969 371.456237792969 376.456237792969 383.768737792969 395.5625 408.693756103516 419.825012207031 433.024993896484 443.206237792969 443.431243896484 432.243743896484 422.418762207031 413.387512207031 406.3125 406.506256103516 408.600006103516 409.09375 412.256256103516 414.71875 424.762512207031 435.674987792969 447.731262207031 468.274993896484 491.518737792969 512.525024414062 520.456237792969 529.668762207031 536.943725585938 524.793762207031 516.575012207031 526.924987792969 543.243774414062 553.3125 569.025024414062 585.006225585938 616.306274414062 630.856262207031 624.881225585938 605.375 581.393737792969 556.53125 
357.818756103516 357.899993896484 354.743743896484 352.462493896484 350.59375 349.325012207031 348.612487792969 347.431243896484 348.043762207031 351.46875 358.418762207031 362.568756103516 369.34375 379.943756103516 390.674987792969 401.362487792969 410.043762207031 422.787506103516 431.118743896484 433.706237792969 427.375 418.993743896484 410.049987792969 405.09375 403.543762207031 403.487487792969 402.325012207031 403.350006103516 406.412506103516 417.181243896484 429.706237792969 443.549987792969 466.056243896484 490.125 510.799987792969 524.118774414062 535.799987792969 543.831237792969 538.3125 546.049987792969 560.712524414062 579.568725585938 598.256225585938 620.268737792969 652.737487792969 695.762512207031 705.162475585938 679.543762207031 649.012512207031 618.474975585938 585.700012207031 
362.168762207031 361.231262207031 358.012512207031 354.037506103516 350.168762207031 345.881256103516 342.125 338.924987792969 337.662506103516 339.59375 345.606262207031 353.631256103516 362.306243896484 371.293762207031 380.356262207031 390.71875 400.262512207031 411.293762207031 417.700012207031 421.137512207031 417.84375 410.756256103516 404.231262207031 397.962493896484 395.65625 393.518737792969 392.65625 392.225006103516 396.581237792969 408.5625 422.049987792969 439.493743896484 464.174987792969 488.737487792969 512.924987792969 528.543762207031 541.587524414062 551.575012207031 559.587524414062 574.143737792969 590.681274414062 612.900024414062 640.862487792969 669.606262207031 708.993774414062 750.787475585938 754.337524414062 722.193725585938 686.993774414062 652.612487792969 616.237487792969 
366.131256103516 365.331237792969 361.1875 355.149993896484 347.737487792969 342.056243896484 335.4375 330.950012207031 326.524993896484 325.881256103516 332.40625 343.350006103516 355.012512207031 364.693756103516 374.075012207031 381.193756103516 389.212493896484 398.818756103516 405.0625 408.462493896484 406.606262207031 399.887512207031 393.475006103516 386.831237792969 384.399993896484 382.412506103516 380.306243896484 380.731262207031 383.412506103516 398.4375 416.15625 435.90625 461.193756103516 487.762512207031 512.112487792969 528.293762207031 543.681274414062 563.462524414062 579.09375 596.862487792969 617.243774414062 639.381225585938 669.212524414062 701.5625 736.012512207031 760.868774414062 763.375 742.650024414062 711.706237792969 677.806274414062 641.25 
368.90625 367.018737792969 361.681243896484 355.043762207031 347.40625 339.674987792969 332.34375 324.212493896484 316.493743896484 314.487487792969 320.174987792969 332.375 346.975006103516 358.668762207031 366.137512207031 372.21875 377.068756103516 384.975006103516 391.806243896484 396.068756103516 393.131256103516 386.043762207031 378.643737792969 372.78125 369.25 366.350006103516 364.600006103516 365.731262207031 369.181243896484 386.03125 406.96875 428.506256103516 453.3125 481.674987792969 506.899993896484 524.25 545.393737792969 567.075012207031 582.268737792969 602.987487792969 626.443725585938 648.40625 673.993774414062 706.856262207031 733.706237792969 749.856262207031 753.806274414062 741.068725585938 716.837524414062 690.037475585938 651.756225585938 
369.893737792969 368.325012207031 363.03125 355.756256103516 348.556243896484 340.450012207031 331.081237792969 321.262512207031 309.956237792969 301.912506103516 309.993743896484 328.631256103516 343.5 352.631256103516 359.049987792969 362.075012207031 364.024993896484 370.318756103516 376.96875 378.662506103516 375.818756103516 368.931243896484 362.018737792969 354.637512207031 350.137512207031 347.3125 346.581237792969 349.375 353.493743896484 373.287506103516 396.143737792969 419.712493896484 447.225006103516 476.581237792969 502.143737792969 523.206237792969 546.325012207031 569.974975585938 587.125 604.587524414062 625.662475585938 647.275024414062 672.90625 703.168762207031 727.4375 739.987487792969 745.587524414062 736.974975585938 719.424987792969 695.96875 661.381225585938 
372.725006103516 371.59375 365.387512207031 358.4375 352.268737792969 344.131256103516 334.387512207031 323.012512207031 312.40625 301.049987792969 316.912506103516 335.46875 344.3125 350.0625 352.118743896484 352.774993896484 351 355.1875 359.162506103516 358.962493896484 353.950012207031 347.762512207031 342.981262207031 335.399993896484 330.881256103516 328.662506103516 328.768737792969 333.09375 339.09375 360.543762207031 384.268737792969 409.200012207031 437.706237792969 468.3125 494.012481689453 518.787475585938 543.287475585938 565.15625 585.299987792969 604.956237792969 621.837524414062 644.018737792969 665.237487792969 685.862487792969 707.743774414062 722.137512207031 731.275024414062 729.768737792969 716.087524414062 694.887512207031 666.981262207031 
380.731262207031 378.856262207031 373.162506103516 366.556243896484 360.350006103516 351.168762207031 343.306243896484 334.28125 329.075012207031 333.131256103516 349.831237792969 351.993743896484 350.8125 350.924987792969 350.399993896484 348.206237792969 344.21875 344.71875 344.456237792969 341.168762207031 333.881256103516 327.575012207031 322.893737792969 317.331237792969 314.206237792969 313.6875 315.950012207031 320.631256103516 327.950012207031 348.537506103516 372.193756103516 394.649993896484 420.6875 449.793762207031 479.28125 501.700012207031 523.950012207031 547.462524414062 564.125 579.825012207031 595.387512207031 615.799987792969 632.599975585938 650.856262207031 665.418762207031 676.818725585938 683.762512207031 680.0625 672.231262207031 662.075012207031 635.174987792969 
390.475006103516 388.049987792969 382.356262207031 375.118743896484 369.65625 363.206237792969 355.037506103516 350.487487792969 347.924987792969 349.962493896484 355.556243896484 357.912506103516 356.149993896484 352.643737792969 350.274993896484 345.356262207031 339.237487792969 335.799987792969 330.731262207031 324.981262207031 315.75 308.587493896484 302.381256103516 297.993743896484 297.462493896484 298.65625 302.0625 308.681243896484 316.8125 335.481262207031 355.875 379.681243896484 407.399993896484 433.693756103516 460.793762207031 483.475006103516 503.125 524.168762207031 541.287475585938 552.275024414062 564.331237792969 581.400024414062 595.481262207031 609.049987792969 619.581237792969 630.03125 638.181274414062 637.96875 631.418762207031 622.481262207031 602.224975585938 
400.231262207031 398.556243896484 392.931243896484 386.956237792969 380.5 373.931243896484 367.46875 365.262512207031 362.831237792969 362.762512207031 362.575012207031 362.8125 360.506256103516 355.318756103516 351.337493896484 345.493743896484 336.993743896484 329.662506103516 320.6875 310.168762207031 298.28125 289.21875 283.043762207031 279.787506103516 282.068756103516 284.912506103516 289.53125 297.200012207031 307 324.774993896484 344.674987792969 368.850006103516 393.568756103516 418.3125 442.981262207031 464.018737792969 482.618743896484 502.443756103516 516.4375 523.556274414062 534.224975585938 544.056274414062 553.125 566.381225585938 577.337463378906 588.174987792969 594.59375 592 589.568725585938 584.231262207031 568.912475585938 
415.037506103516 414.075012207031 410.181243896484 406.243743896484 401.3125 395.881256103516 391.068756103516 388.481262207031 385.875 383.5625 381.450012207031 380.325012207031 376.712493896484 369.774993896484 363.068756103516 354.024993896484 343.825012207031 332.456237792969 320.356262207031 304.456237792969 287.193756103516 274.837493896484 268.875 268.5 273.699981689453 277.618743896484 283.231262207031 291.212493896484 302.087493896484 319.162506103516 334.162506103516 356.575012207031 379.081237792969 403.293762207031 427.475006103516 443.556243896484 459.28125 476.356262207031 487.462493896484 492.649993896484 498.725006103516 500.637512207031 506.024993896484 521.818725585938 532.8125 544.15625 549.037475585938 546.818725585938 546.325012207031 540.599975585938 527.575012207031 
431.537506103516 432.337493896484 430.462493896484 425.862487792969 422.662506103516 419.625 416.287506103516 411.662506103516 407.893737792969 404.881256103516 402.756256103516 399.737487792969 394.512512207031 386.431243896484 376.837493896484 365.625 351.149993896484 340.075012207031 325.037506103516 301.15625 277.087493896484 258.96875 255.53125 260.681243896484 267.700012207031 273.46875 279.700012207031 286.149993896484 296.774993896484 311.475006103516 326.21875 341.212493896484 361.049987792969 384.75 408.837493896484 428.512512207031 438.831237792969 450.78125 458.162506103516 461.46875 467.09375 468.368743896484 470.868743896484 480.443756103516 492.96875 500.087493896484 504.84375 503.837493896484 504.362518310547 500.068756103516 490.649993896484 
448.40625 450.725006103516 449.981262207031 446.1875 445.5 442.15625 438.475006103516 435.375 430.84375 427.081237792969 424.762512207031 420.537506103516 412.850006103516 402.318756103516 390.337493896484 375.625 359.737487792969 346.8125 332.537506103516 304.200012207031 276.537506103516 254.243743896484 251.90625 257.037506103516 264.231262207031 270.662506103516 276.618743896484 283.918762207031 293.318756103516 305.956237792969 316.524993896484 328.556243896484 345.950012207031 367.21875 390.256256103516 413.293762207031 421.524993896484 427.587493896484 431.087493896484 434.549987792969 438.631256103516 440.893737792969 441.799987792969 448.737487792969 456.356262207031 460.987487792969 466.174987792969 463.837493896484 460.856262207031 460.725006103516 454.899993896484 
464.600006103516 468.424987792969 467.706237792969 466.25 465.625 462.256256103516 458.462493896484 455.487487792969 451.543762207031 447.475006103516 442.443756103516 438.337493896484 430.912506103516 419.40625 405.918762207031 387.087493896484 368.350006103516 350.931243896484 333.03125 307.5 283.443756103516 267.168762207031 259.268737792969 261.443756103516 267.674987792969 272.625 278.049987792969 285.512512207031 294.34375 306.100006103516 315.1875 324.331237792969 338.181243896484 354.768737792969 374.356262207031 395.450012207031 404.75 407.762512207031 409.618743896484 413.431243896484 415.78125 417.387512207031 420.193756103516 421.625 428.106262207031 431 432.8125 431.649993896484 427 425.274993896484 424.643737792969 
