ncols        51
nrows        45
xllcorner    -63.500000000000
yllcorner    -7.500000000000
cellsize     0.166666666667
NODATA_value -99
146 142.087493896484 140.268753051758 141.1875 141.137496948242 140.675003051758 138.28125 135.981246948242 133.743743896484 132.818756103516 133.59375 133.3125 132.324996948242 129.581253051758 127.150001525879 124.699996948242 122.174995422363 118.537498474121 115.787498474121 113.012496948242 110.837501525879 108.268753051758 106.175003051758 104.481246948242 103.256248474121 102.431251525879 101.8125 101.53125 101.849998474121 102.631248474121 103.837501525879 105.293746948242 107.431251525879 110.09375 112.931251525879 113.918746948242 114.5 114.675003051758 113.40625 111.631248474121 109.862503051758 108.212501525879 105.65625 102.431251525879 99.9124984741211 96.5999984741211 93.5 91.1312484741211 89.0562515258789 86.5124969482422 86.0062484741211 
142.681243896484 138.90625 139.331253051758 142.512496948242 145.856246948242 144.743743896484 142.824996948242 142.043746948242 141.712493896484 141.118743896484 140.693756103516 138.90625 136.556259155273 133.53125 130.318756103516 127.543746948242 123.78125 120.287498474121 117.331253051758 114.800003051758 112.21875 110.03125 108.112503051758 106.743751525879 105.5625 104.212501525879 104.112495422363 104.056251525879 104.143753051758 104.775001525879 107.068748474121 109.931251525879 113.125 117.081253051758 120.206253051758 120.743751525879 121.550003051758 121.487503051758 120.099998474121 117.962501525879 116.043746948242 114.393753051758 111.793746948242 108.306251525879 105.643753051758 101.981246948242 98.5124969482422 96.03125 93.3062515258789 90.28125 89.3937530517578 
137.675003051758 134.993743896484 135.893753051758 139.993743896484 144.168746948242 145.118743896484 146.112503051758 148.193756103516 149.824996948242 149.787506103516 148.225006103516 144.806243896484 141.03125 136.712493896484 132.768753051758 129.175003051758 125.631248474121 122.262496948242 119.25 116.787498474121 114.393745422363 112.949996948242 111.262496948242 109.768753051758 108.46875 107.5 107.175003051758 107.0625 106.331253051758 107.618751525879 110.568748474121 113.300003051758 116.587501525879 120.90625 124.537498474121 125.231246948242 125.6875 126.137496948242 125.1875 123.21875 121.425003051758 119.724998474121 117.262496948242 114.40625 111.46875 106.775001525879 103.056251525879 100.849998474121 97.4562530517578 93.875 92.4562530517578 
131.537506103516 129.100006103516 131.693756103516 134.737503051758 139.387496948242 142.481246948242 146.881256103516 152.237503051758 157.225006103516 158.537506103516 155.268753051758 149.643753051758 144.03125 138.84375 135.043746948242 130.850006103516 126.949996948242 124.137496948242 121.59375 119.53125 117.637496948242 115.762496948242 113.675003051758 112.487503051758 111.143753051758 109.90625 109.412498474121 108.837501525879 108.21875 109.650001525879 112.762496948242 116.224998474121 118.849998474121 122.449996948242 125.550003051758 127.693748474121 128.987503051758 129.712493896484 129.431243896484 128.037506103516 125.643753051758 124.293746948242 122.199996948242 119.987503051758 116.275001525879 112.125 107.150001525879 104.375 100.956253051758 96.9562530517578 95.15625 
131.381256103516 126.224998474121 125.53125 128.1875 133.731246948242 139.137496948242 145.53125 153.212493896484 162.356246948242 167.293746948242 161.193756103516 152.100006103516 145.59375 140.649993896484 136.34375 131.837493896484 128.181243896484 124.943748474121 122.400001525879 120.512496948242 119.518753051758 117.662498474121 115.71875 114.8125 113.493751525879 112.243751525879 110.949996948242 110.643753051758 110.537498474121 111.356246948242 114.324996948242 117.574996948242 120.6875 124.143753051758 127.800003051758 129.699996948242 131.399993896484 133.043746948242 132.837493896484 131.737503051758 129.581253051758 127.724998474121 126.362503051758 124.487503051758 121.543746948242 116.318748474121 110.150001525879 106.887496948242 103 99.8562469482422 97.0749969482422 
131.106246948242 126.293746948242 122.9375 121.637496948242 128.018753051758 135.643753051758 142.543746948242 150.306243896484 159.675003051758 167.162506103516 159.393753051758 150.368743896484 145.149993896484 140.600006103516 136.59375 133.287506103516 129.568756103516 126.512496948242 124.4375 122.568748474121 121.793746948242 120.537498474121 119.125 117.40625 116.03125 114.574996948242 112.849998474121 111.606246948242 111.637496948242 112.137496948242 114.756248474121 118.599998474121 121.199996948242 124.693748474121 128.350006103516 130.824996948242 132.981246948242 135.731246948242 137.168746948242 135.462493896484 131.53125 130.018753051758 128.481246948242 127.5625 127.381248474121 120.53125 112.237503051758 107.631248474121 104.962501525879 101.875 99.8812484741211 
133.762496948242 128.881256103516 125.175003051758 122.84375 126.668746948242 131.918746948242 137.168746948242 141.837493896484 145.962493896484 147.762496948242 147.106246948242 144.337493896484 142.074996948242 139.606246948242 136.568756103516 134.100006103516 131.231246948242 128.050003051758 125.65625 124.387496948242 124.28125 123.625 122.293746948242 120.662498474121 119.15625 117.368751525879 115.518753051758 113.487503051758 112.131248474121 112.974998474121 115.300003051758 118.293746948242 120.618751525879 124.212501525879 128.131256103516 130.162506103516 132.618743896484 135.731246948242 139.125 136.024993896484 131.59375 128.943756103516 127.849998474121 127.950004577637 128.8125 122.474998474121 112.775001525879 106.868751525879 104.300003051758 102.193748474121 101.387496948242 
137.537506103516 132.306243896484 129.818756103516 129.256256103516 130.493743896484 133.149993896484 133.662506103516 131.725006103516 127.974998474121 128.287506103516 133.431243896484 136.231246948242 137.912506103516 137.699996948242 136.774993896484 135.006256103516 132.78125 129.856246948242 127.681251525879 126.949996948242 127.418746948242 127.018753051758 125.974998474121 124.40625 122.606246948242 120.018753051758 117.25 114.125 112.018753051758 111.762496948242 114.012496948242 117.074996948242 119.537498474121 123 126.231246948242 127.943748474121 129.137496948242 131.34375 132.300003051758 129.949996948242 125.862503051758 122.825004577637 120.887496948242 120.25 120.518753051758 115.506248474121 108.25 103.618751525879 101.256248474121 100.599998474121 100.831253051758 
141.949996948242 137.993743896484 136.693756103516 135.96875 136.425003051758 136.649993896484 134.887496948242 129.068756103516 119.793746948242 116.800003051758 125.018753051758 131.012496948242 135.149993896484 136.40625 136.800003051758 136.4375 135.137496948242 133.868743896484 133.118743896484 132.293746948242 132.524993896484 132.462493896484 130.356246948242 128.925003051758 125.862503051758 122.025001525879 117.806251525879 115.231246948242 112.831253051758 111.712501525879 113.625 116.125 117.706253051758 120.118751525879 122.3125 123.943748474121 125.012496948242 125.287498474121 124.143753051758 121.587501525879 117.425003051758 113.368751525879 110.862503051758 108.162498474121 105.8125 102.737503051758 98.6312484741211 95.6999969482422 94.7750015258789 95.8499984741211 99.2937469482422 
147.081253051758 143.918746948242 142.668746948242 142.6875 143.431259155273 142.981246948242 140.106246948242 133.606246948242 125.875 122.943748474121 126.293746948242 130.237503051758 134.449996948242 136.612503051758 137.918746948242 138.587493896484 138.168746948242 138.518753051758 138.96875 139.949996948242 139.71875 138.84375 135.787506103516 132.481246948242 127.443748474121 122.762496948242 118.893753051758 115.28125 112.868751525879 111.675003051758 112.162498474121 114.1875 115.318748474121 117.412498474121 119.525001525879 120.381248474121 120.237503051758 119.256248474121 117.256248474121 113.324996948242 108.5625 103.775001525879 99.25 95.2750015258789 92.1999969482422 88.9000015258789 86.5374984741211 86.25 86.6875 88.6125030517578 90.8687515258789 
152.443756103516 149.787506103516 148.493743896484 148.643753051758 149.625 151.293746948242 149 141.612503051758 134.737503051758 131.53125 131.987503051758 133.743743896484 135.731246948242 138.09375 139.756256103516 140.524993896484 141.306243896484 142.899993896484 144.887496948242 147.306243896484 148.693756103516 146.518753051758 141.787506103516 135.074996948242 129.981246948242 125.5 121.587501525879 117.800003051758 114.050003051758 112.518753051758 112.581253051758 113.768753051758 114.525001525879 115.837501525879 116.756248474121 116.412498474121 115.34375 112.793746948242 109.78125 105.09375 99.6062469482422 94.2312469482422 89.53125 84.125 80.0687484741211 77.28125 75.34375 76.0437469482422 76.7750015258789 77.75 78.0250015258789 
156.893753051758 154.274993896484 153.300003051758 154.018753051758 155.53125 157.856246948242 157.137496948242 148.862503051758 142.524993896484 138.493743896484 137.137496948242 137.875 138.643753051758 140.512496948242 142.699996948242 143.425003051758 144.574996948242 146.587493896484 149.199996948242 153.175003051758 156.887496948242 154.212493896484 147.831253051758 139.425003051758 132.0625 125.818748474121 121.087501525879 118.193748474121 115.46875 114.1875 113.099998474121 113.431251525879 113.199996948242 113.856246948242 114.387496948242 113.075004577637 110.881248474121 107.981246948242 103.5625 98.2624969482422 91.4812469482422 85.7437515258789 80.6937484741211 75.7562484741211 70.5562515258789 66.2874984741211 64.9875030517578 65.5687484741211 67.0124969482422 68.1312484741211 66.9437484741211 
160.356246948242 158.175003051758 157.324996948242 157.524993896484 158.737503051758 159.925003051758 157.600006103516 152.381256103516 147.162506103516 144.231246948242 142.537506103516 141.993743896484 142.518753051758 142.53125 144.4375 146.050003051758 146.8125 149.425003051758 152.493743896484 156.081253051758 161.487503051758 159.506256103516 152.34375 143.356246948242 131.356246948242 123.793746948242 122.137496948242 119.518753051758 117.5625 115.818748474121 114.09375 112.824996948242 112.3125 111.806251525879 111.737503051758 110.150001525879 107.375 104.5625 100.081253051758 92.7062530517578 85.5500030517578 80.4000015258789 74.75 66.1999969482422 60.1062507629395 59.6187515258789 59.2374992370605 59.4249992370605 59.7625007629395 60.1624984741211 58.9187507629395 
162.568756103516 160.4375 159.712493896484 159.556243896484 159.6875 159.831253051758 157.65625 154.537506103516 151.143753051758 148.125 146.0625 145.068756103516 144.850006103516 145.09375 145.331253051758 147.09375 147.550003051758 149.600006103516 151.90625 154.675003051758 158.899993896484 157.9375 153.993743896484 146.693756103516 137.024993896484 129.949996948242 126.731246948242 123.206253051758 120.193748474121 116.793746948242 113.793746948242 112.081253051758 110.856246948242 109.987503051758 109.59375 108.0625 105.675003051758 103.46875 99.1187515258789 92.4187469482422 83.6999969482422 75.9312515258789 69.84375 63.8812484741211 58.9375 57.7249984741211 58.3562507629395 58.6937484741211 57.5625 56.4312515258789 54 
163.012496948242 161.274993896484 159.943756103516 159.756256103516 159.631256103516 159.225006103516 158.637496948242 156.631256103516 153.306243896484 150.712509155273 148.850006103516 147.456253051758 146.681243896484 146.65625 146.293746948242 147.637496948242 147.362503051758 147.912506103516 148.731246948242 151.106246948242 155.006256103516 156.46875 156.043746948242 153.231246948242 148.21875 141.949996948242 135.625 129.318756103516 123.762496948242 118.131248474121 113.537498474121 110.606246948242 109.181251525879 109.012496948242 108.65625 106.875 105.768753051758 106.293746948242 105.331253051758 98.875 89.1125030517578 80.1812515258789 73.4937515258789 67.4187469482422 62.1749992370605 59.2750015258789 57.5999984741211 57.4000015258789 56.6062507629395 54.6187515258789 51.7687492370605 
162.006256103516 160.131256103516 159.25 159.206253051758 159.056243896484 159.3125 158.887496948242 157.237503051758 154.818756103516 152.756240844727 150.193756103516 147.725006103516 146.712493896484 146.668746948242 146.818740844727 146.912506103516 144.987503051758 144.556259155273 144.643753051758 146 149.625 153.887496948242 157.899993896484 161 159.28125 153.100006103516 145.212493896484 136.5 128.056243896484 119.5625 113.256248474121 108.606246948242 106.574996948242 106.393753051758 105.4375 103.212501525879 105.212501525879 107.681251525879 110.425003051758 106.449996948242 99.1437530517578 89.0812530517578 79.9000015258789 71.6187515258789 66.4250030517578 62.6624984741211 60.3250007629395 58.59375 56.78125 54.7937507629395 52.7625007629395 
159.21875 157.881256103516 158.162506103516 158.875 158.850006103516 159.34375 159.393753051758 158.324996948242 156.331253051758 153.556243896484 150.587493896484 147.556243896484 145.331253051758 144.350006103516 143.75 142.837493896484 139.456253051758 138.212493896484 138.225006103516 139.712493896484 143.662506103516 149.75 158.056243896484 166.762496948242 169.84375 161.362503051758 152.537506103516 141.106246948242 129.912506103516 119.675003051758 112.587501525879 108.393753051758 103.96875 100.912498474121 98.9812469482422 100.012496948242 103.818748474121 112.849998474121 123.043746948242 118.15625 110.28125 98.4812469482422 86.3000030517578 77.03125 71.4124984741211 67.0625 63.2125015258789 61.1937484741211 59.9187507629395 57.1437492370605 55.4874992370605 
155.568756103516 155.006256103516 156.4375 157.6875 158.40625 159.774993896484 160.362503051758 159.40625 157.300003051758 154.65625 151.568740844727 147.1875 143.574996948242 140.556243896484 138.574996948242 136.1875 132.550003051758 130.412506103516 130.837493896484 131.949996948242 136.21875 142.949996948242 152.425003051758 163.018753051758 168.225006103516 163.375 156.9375 144.375 130.78125 118.099998474121 109.631248474121 104.875 103.068748474121 102.212501525879 97.7687530517578 92.4000015258789 101.818748474121 113.96875 122.037498474121 121.887496948242 115.112503051758 104.243751525879 92.5437469482422 83.25 76.8562469482422 72.0687484741211 67.7562484741211 65.0625 63.5687484741211 60.5687484741211 59.3624992370605 
150.675003051758 151.806243896484 154.324996948242 156.643753051758 158.59375 160.181243896484 161 160.71875 159.399993896484 156.09375 151.487503051758 146.399993896484 140.981246948242 136.131256103516 133.024993896484 130.725006103516 127.025001525879 124.068748474121 124.087501525879 124.550003051758 128.568756103516 137.3125 144.131256103516 154.175003051758 160.131256103516 160.71875 155.106246948242 144.237503051758 132.024993896484 117.462501525879 106.40625 105.275001525879 109.15625 107.931251525879 104.324996948242 101.231246948242 106.768753051758 114.493751525879 120.243751525879 121.168746948242 116.974998474121 110.418746948242 99.03125 89.9562530517578 83.1125030517578 77.1812515258789 73.0187530517578 70.6125030517578 68.4499969482422 63.6124992370605 64.1812515258789 
145.125 148.006256103516 151.387496948242 154.793746948242 158.006256103516 160.899993896484 162.800003051758 163.21875 161.625 158.40625 153.012496948242 146.087493896484 139.162506103516 132.600006103516 128.737503051758 125.949996948242 121.681251525879 120.462501525879 120.3125 121.643753051758 124.125 129.893753051758 139.256256103516 148.1875 153.743743896484 154.34375 150.631256103516 144.375 132.981246948242 120.03125 111.418746948242 113.756248474121 117.237503051758 120.456253051758 121.84375 118.5625 118.050003051758 120.387496948242 122.0625 121.818748474121 119.668746948242 114.568748474121 105.337501525879 96.5437469482422 89.5437469482422 83.5687484741211 78.7125015258789 75.8625030517578 72.5999984741211 68.6812515258789 69.0250015258789 
138.931243896484 143.837493896484 149.393753051758 154.574996948242 159.168746948242 162.612503051758 165.618743896484 166.806259155273 165.568740844727 161.525009155273 155.699996948242 147.806243896484 140.100006103516 132.125 127.756248474121 124.012496948242 120.037498474121 118.28125 119.587501525879 120.631248474121 124.862503051758 130.862503051758 137.337493896484 144.337493896484 150.362503051758 152.962493896484 150.800003051758 143.806243896484 136.287506103516 129.962493896484 125.818748474121 126.53125 129.53125 134.418746948242 139.712493896484 135.375 130.081253051758 128.362503051758 126.925003051758 125.474998474121 123.068748474121 118.106246948242 110.550003051758 103.150001525879 96.2874984741211 90.1125030517578 85.40625 81.9312515258789 77.5250015258789 74.9937515258789 74.5437469482422 
133.206253051758 140.300003051758 147.381256103516 153.931243896484 160.106246948242 164.787506103516 168.462493896484 170.856246948242 170.737503051758 166.1875 159.056243896484 150.381240844727 142.175003051758 135.162506103516 130.056243896484 126.262496948242 123.224998474121 121.693748474121 121.90625 123.043746948242 125.40625 130.09375 136.25 142.056243896484 146.568756103516 149.456253051758 149.931243896484 146.806243896484 143.581253051758 140.34375 138 138.375 140.831253051758 145.212493896484 147.712493896484 144.9375 139.425003051758 135.09375 131.893753051758 129.787506103516 126.912498474121 122.125 116.143753051758 109.268753051758 103.137496948242 97.0875015258789 92.5124969482422 88.75 84.5812530517578 82.34375 80.9875030517578 
129.71875 139.018753051758 147.418746948242 154.943756103516 161.15625 166.3125 170.912506103516 175.006256103516 177.100006103516 171.081253051758 162.71875 152.887496948242 145.193756103516 139.199996948242 133.850006103516 129.637496948242 126.474998474121 125.53125 125.175003051758 125.506248474121 128.018753051758 131.0625 135.262496948242 140.53125 144.481246948242 146 148.34375 149.837493896484 148.875 148.081253051758 148.381256103516 149.881256103516 151.399993896484 154.456253051758 155.699996948242 152.475006103516 147.143753051758 141.206253051758 137.231246948242 136.175003051758 133.818756103516 129.175003051758 123.431251525879 116.543746948242 110.087501525879 104.706253051758 100.331253051758 96.5625 91.9937515258789 89.2125015258789 88.7062530517578 
128.975006103516 139.725006103516 149.725006103516 156.518753051758 162.40625 167.381256103516 171.543746948242 175.949996948242 177.556243896484 172.206253051758 163.537506103516 155.03125 148.03125 142.412506103516 137.737503051758 133.681243896484 130.850006103516 129.612503051758 128.837493896484 128.537506103516 130.768753051758 133.774993896484 136.306243896484 140.449996948242 143.34375 143.600006103516 144.706253051758 148.943756103516 152.443756103516 154.25 156.056243896484 158.106246948242 160.012496948242 162.137496948242 163.368743896484 161.506256103516 157.100006103516 151.09375 147.506256103516 145.449996948242 142.868743896484 138.112503051758 131.881256103516 124.318748474121 119.03125 114.050003051758 109.393753051758 104.643745422363 102 96.3062515258789 95.5812530517578 
132.631256103516 142.831253051758 153.15625 158.487503051758 163.625 167.787506103516 170.987503051758 173.59375 173.993743896484 170.637496948242 164.743743896484 157.637496948242 151.706253051758 146.675003051758 142.143753051758 138.637496948242 135.725006103516 134.3125 133.193756103516 132.706253051758 134.337493896484 135.78125 138.306243896484 141.6875 144.600006103516 146.956253051758 148.693756103516 152.649993896484 156.837493896484 159.5625 161.818756103516 163.443756103516 166.693756103516 168.850006103516 170.693756103516 169.081253051758 166.981246948242 164.143753051758 160.1875 158 154.956253051758 149.324996948242 142.3125 135.137496948242 127.081253051758 121.818748474121 116.568748474121 117.331253051758 114.618751525879 105.787498474121 104.568748474121 
137.96875 146.268753051758 153.212493896484 159.243743896484 163.65625 166.875 169.225006103516 170.887496948242 171.399993896484 169.78125 164.537506103516 159.625 154.637496948242 150.306243896484 146.78125 143.481246948242 141.018753051758 139.1875 137.981246948242 137.131256103516 138.337493896484 139.168746948242 141.037506103516 144.543746948242 148.068756103516 151.40625 154.40625 157.743743896484 161.581253051758 164.649993896484 165.925003051758 168.831253051758 172.981246948242 175.537506103516 178.524993896484 178.137496948242 177.53125 177.03125 174.125 171.831253051758 168.831253051758 162.875 154.96875 147.46875 138.518753051758 129.256240844727 132.068756103516 133.893753051758 129.762496948242 122.556251525879 118.643753051758 
144.431243896484 148.618743896484 153.693756103516 158.231246948242 161.712493896484 164.931243896484 166.912506103516 168.350006103516 168.368743896484 166.65625 164.350006103516 161.074996948242 157.5625 154.324996948242 150.956253051758 148.356246948242 145.443740844727 144.037506103516 142.53125 141.368743896484 142.287506103516 142.637496948242 143.793746948242 148.524993896484 151.818756103516 155.456253051758 158.46875 161.8125 165.800003051758 168.399993896484 170.875 172.793746948242 178.21875 182.537506103516 185.96875 187.556243896484 188.899993896484 190.050003051758 188.831253051758 188.331253051758 186.175003051758 180.512496948242 172.637496948242 164.337493896484 157.268753051758 155.487503051758 157.018753051758 152.550003051758 145.893753051758 136.743743896484 131.193756103516 
150.443756103516 151.862503051758 154.90625 157.981246948242 160.243743896484 162.881256103516 165.162506103516 166.050003051758 165.981246948242 165.350006103516 163.649993896484 161.774993896484 160.149993896484 157.537506103516 154.993759155273 152.725006103516 150.675003051758 148.524993896484 147.199996948242 146.46875 146.449996948242 146.318756103516 147.768753051758 151.731246948242 155.268753051758 159.300003051758 162.949996948242 166.625 169.587493896484 171.931243896484 173.699996948242 176.3125 182.787506103516 188.356246948242 194.274993896484 196.90625 199.3125 203.412490844727 203.412506103516 205.09375 206.5 200.199996948242 190.256256103516 182.824996948242 182.375 184.600006103516 182.518753051758 173.037506103516 162.231246948242 150.962493896484 143.018753051758 
156.149993896484 155.487503051758 156.237503051758 158.03125 159.25 160.774993896484 162.193756103516 163.387496948242 163.831253051758 164.268753051758 163.956253051758 163.243743896484 162.443756103516 160.75 159.087493896484 157.149993896484 155.662506103516 153.59375 151.987503051758 151.09375 150.387496948242 150.131256103516 151.043746948242 154.743743896484 158.331253051758 162.768753051758 166.568756103516 170.1875 174.181259155273 175.856246948242 176.743743896484 179.387496948242 186.862503051758 193.925003051758 201.193756103516 205.800003051758 209.893753051758 214.725006103516 215.40625 218.256256103516 222.162506103516 215.856246948242 205.981246948242 201.21875 204.006256103516 206.600006103516 202.706253051758 190.043746948242 178.15625 166.231246948242 153.90625 
160.131256103516 158.106246948242 157.443756103516 157.074996948242 157.537506103516 158.056243896484 159.543746948242 161.243743896484 162.774993896484 163.337493896484 164.425003051758 164.25 164.800003051758 164.274993896484 162.887496948242 161.862503051758 159.962493896484 158.662506103516 156.725006103516 154.725006103516 154.149993896484 153.668746948242 153.762496948242 156.681243896484 160.53125 165.506256103516 169.149993896484 172.449996948242 175.649993896484 177.774993896484 179.943756103516 183.0625 191.081253051758 199.737503051758 207.712493896484 213.5625 218.868743896484 225.481246948242 224.875 226.631256103516 230.524993896484 229.481246948242 223.762496948242 222.699996948242 223.237503051758 224.143753051758 219.6875 210.3125 197.418746948242 183.71875 169.112503051758 
163.287506103516 159.831253051758 158.293746948242 156.043746948242 155.649993896484 156.931243896484 158.175003051758 159.893753051758 161.46875 162.574996948242 164.743743896484 166.037506103516 168 168.475006103516 167.006256103516 166.306243896484 165.375 163.387496948242 161.193756103516 159.293746948242 157.78125 156.912506103516 156.649993896484 159.125 162.793746948242 167.018753051758 170.574996948242 173.78125 176.75 179.356246948242 182.768753051758 186.699996948242 195.506256103516 205.399993896484 214.475006103516 220.668746948242 227.668746948242 235.606246948242 234.256256103516 230.518753051758 235.600006103516 240.149993896484 241.024993896484 240.875 241.03125 242.90625 238.556243896484 229.762496948242 216.512496948242 200.768753051758 187.018753051758 
165.03125 160.606246948242 157.524993896484 155.512496948242 155.512496948242 155.425003051758 156.412506103516 158.162506103516 160.106246948242 162.024993896484 164.618743896484 167.387496948242 169.793746948242 171.681243896484 171.675003051758 171.25 169.793746948242 166.981246948242 165.550003051758 163.46875 161.431243896484 159.887496948242 159.243743896484 161.106246948242 164.543746948242 168.0625 171.412506103516 174.631256103516 177.462493896484 181.256256103516 185.375 189.649993896484 199.481246948242 210.84375 220.15625 227.949996948242 236.4375 245.168746948242 242.96875 241.65625 248.806243896484 255.862503051758 258.625 261.568756103516 262.40625 266.549987792969 263.21875 253.050003051758 236.612503051758 219.762496948242 205.21875 
166.0625 161.237503051758 157.918746948242 156.043746948242 154.78125 154.25 154.456253051758 155.368743896484 157.356246948242 160.125 165.699996948242 168.800003051758 172.949996948242 176.737503051758 176.78125 175.824996948242 173.706253051758 171.081253051758 169.074996948242 166.887496948242 164.456253051758 162.5 161.118743896484 162.887496948242 165.443756103516 168.25 171.381256103516 174.106246948242 177.112503051758 182.600006103516 187.725006103516 193.274993896484 202.34375 214.493743896484 226.4375 237.100006103516 246.137496948242 253.993743896484 254.90625 260.375 269.243743896484 276.212493896484 281.506256103516 286.012512207031 291.912506103516 300.174987792969 297.375 280.168762207031 262.981262207031 244 227.493743896484 
165.706253051758 161.418746948242 158.537506103516 156.449996948242 153.800003051758 152.925003051758 152.449996948242 152.787506103516 154.15625 157.65625 163.006256103516 169.643753051758 176.893753051758 180.493743896484 181.300003051758 180.037506103516 177.875 175.362503051758 172.268753051758 170.356246948242 167.462493896484 164.925003051758 163.149993896484 163.53125 165.78125 167.96875 170.393753051758 172.975006103516 176.425003051758 182.850006103516 189.793746948242 197.074996948242 207.887496948242 219.399993896484 233.0625 244.699996948242 254.418746948242 263.481262207031 269.100006103516 278.15625 287 295.375 304.575012207031 312.131256103516 320.137512207031 327.962493896484 322.462493896484 304.600006103516 285.59375 267.393737792969 249.743759155273 
165.256256103516 161.78125 158.243743896484 155.993743896484 152.96875 151.556243896484 150.318756103516 150.25 150.59375 154.125 160.824996948242 169.71875 179.493743896484 185.881256103516 185.225006103516 183.800003051758 181.800003051758 178.956253051758 175.893753051758 172.987503051758 170.100006103516 166.84375 164.581253051758 163.993743896484 165.350006103516 166.899993896484 169.456253051758 172.493743896484 175.993743896484 183.131256103516 191 200.037506103516 211.806243896484 225.081253051758 238.337493896484 249.675003051758 260.25 272.931243896484 281.475006103516 291.518737792969 302.0625 310.71875 321.90625 331.262512207031 338.506256103516 341.081237792969 337.181243896484 323.337493896484 306.0625 287.568756103516 270.637512207031 
164.550003051758 161.3125 158.568756103516 155.618743896484 152.71875 151.181243896484 149.0625 147.84375 147.350006103516 149.568756103516 157.112503051758 167.587493896484 179.456253051758 186.800003051758 187.375 186.143753051758 184.0625 181.543746948242 178.543746948242 175.256256103516 172.381256103516 169.356246948242 165.824996948242 164.837493896484 165.243743896484 165.774993896484 167.868743896484 170.762496948242 174.243743896484 182.568756103516 191.225006103516 200.931243896484 213.175003051758 227.5625 240.056243896484 250.375 264.137512207031 275.981262207031 285.481262207031 295.71875 307.443756103516 317.106262207031 325.100006103516 335.743743896484 343.362487792969 344.106262207031 341.337493896484 333.09375 319.881256103516 303.356262207031 285.787506103516 
163.931243896484 161.081253051758 158.512496948242 155.831253051758 153.09375 150.84375 148.137496948242 145.912506103516 144.100006103516 143.618743896484 152.387496948242 167.431243896484 178.518753051758 185.193756103516 187.475006103516 187.550003051758 185.71875 183.443756103516 180.050003051758 176.4375 173.356246948242 169.956253051758 166.899993896484 164.962493896484 164.268753051758 164.3125 165.962493896484 168.71875 172.625 181.568740844727 191.462493896484 201.125 215.09375 229.725006103516 241.168746948242 253.475006103516 266.331237792969 279.318756103516 288.856262207031 298.424987792969 309.59375 317.018737792969 326.556243896484 338.149993896484 345.96875 347.149993896484 348.418762207031 342.643737792969 331.068756103516 317.512512207031 301.181243896484 
163.243743896484 160.887496948242 158.356246948242 156 153.649993896484 151.181243896484 149.149993896484 146.725006103516 144.987503051758 142.693756103516 155.975006103516 171.206253051758 179.756256103516 185.899993896484 188.15625 188.65625 187.037506103516 184.643753051758 181.5 177.425003051758 173.793746948242 169.574996948242 166.256256103516 163.668746948242 162.949996948242 162.649993896484 163.78125 166.418746948242 170.324996948242 180.15625 189.875 200.862503051758 215.287506103516 229.350006103516 242.206253051758 253.206253051758 266.881256103516 278.762512207031 289.975006103516 300.4375 308.356262207031 317.125 324.493743896484 333.931243896484 341.206237792969 344.837493896484 349.3125 348.056243896484 338.043762207031 326.59375 312.149993896484 
161.818756103516 159.59375 157.912506103516 155.975006103516 153.96875 152.087493896484 150.662506103516 150.631256103516 151.693756103516 157.9375 172.118743896484 178.712493896484 182.706253051758 186.875 189.34375 190.087509155273 188.75 185.981246948242 181.893753051758 178.143753051758 173.143753051758 168.4375 165.0625 162.481246948242 161.012496948242 161.137496948242 162.90625 165.875 169.431243896484 178.399993896484 188.681243896484 198.8125 211.206253051758 223.725006103516 237.356246948242 249.381256103516 260.274993896484 271.75 282.125 288.356262207031 296.612487792969 303.96875 309.262512207031 316.899993896484 323.143737792969 326.743743896484 327.3125 327.162506103516 320.875 314.674987792969 301.306243896484 
160.612503051758 158.725006103516 157.71875 156.5 154.725006103516 154.206253051758 153.456253051758 155.243759155273 158.581253051758 165.699996948242 174.625 181.381256103516 185.850006103516 188.881256103516 191.331253051758 191.618743896484 190.643753051758 187.6875 182.850006103516 177.837493896484 172.243743896484 166.875 162.743743896484 160.262496948242 159.731246948242 159.712493896484 161.675003051758 165.068756103516 168.837493896484 177.175003051758 186.0625 196.206253051758 209.012496948242 220.318756103516 233.118743896484 243.137496948242 252.15625 262.237487792969 271.831237792969 275.481262207031 281.34375 287.899993896484 291.756256103516 297.331237792969 301.100006103516 303.768737792969 306.024993896484 306.125 302.924987792969 298.168762207031 287.287506103516 
159.443756103516 158.262496948242 157.53125 156.550003051758 155.9375 155.231246948242 156.175003051758 158.243743896484 162.368743896484 168.6875 175.875 182.037506103516 187.818756103516 191.024993896484 193.643753051758 194.087493896484 192.518753051758 189.425003051758 183.925003051758 177.600006103516 170.743743896484 164.162506103516 159.862503051758 157.875 158.4375 158.412506103516 160.387496948242 163.78125 167.606246948242 175.125 184.71875 195.850006103516 206.78125 217.362503051758 228.162506103516 236.793746948242 245.25 253.28125 260.450012207031 263.618743896484 267.356262207031 271.1875 273.293762207031 277.699981689453 281.368743896484 285.8125 287.65625 284.924987792969 285.443756103516 281.668762207031 273.106262207031 
157.524993896484 157.800003051758 157.137496948242 156.087493896484 155.368743896484 154.806243896484 155.993743896484 158.112503051758 162.78125 168.356246948242 175.162506103516 181.356246948242 187.856246948242 192.012496948242 194.537490844727 195.524993896484 194.956253051758 191.15625 186.087493896484 177.743743896484 168.625 162.081253051758 157.287506103516 155.649993896484 157.3125 157.606246948242 159.09375 162.21875 166.9375 175.487503051758 182.506256103516 192.65625 202.912506103516 214.662506103516 224.631256103516 230.231246948242 236.456253051758 243.287506103516 247.762496948242 249.412506103516 252.106246948242 251.362503051758 252.087493896484 257.712493896484 262.131256103516 267.03125 267.674987792969 265.206237792969 267.3125 263.3125 256.0625 
156.387496948242 156.5 157.09375 155.956253051758 153.956253051758 153.131256103516 154.1875 156.018753051758 160.149993896484 166.318756103516 173.524993896484 180.731246948242 187.918746948242 192.53125 196.081253051758 197.362503051758 196.868743896484 195.149993896484 189.668746948242 178.75 167.175003051758 158.006256103516 154.024993896484 154.899993896484 156.375 157.493743896484 158.96875 161.75 166.431243896484 173.518753051758 180.412506103516 187.399993896484 196.5 206.987503051758 218.5625 226.043746948242 228.268753051758 232.59375 234.75 235.774993896484 236.731246948242 236.168746948242 236.275009155273 239.962493896484 243.9375 246.043746948242 248.587493896484 247.46875 249.431243896484 246.637496948242 240.068756103516 
154.824996948242 155.756256103516 156.662506103516 155.381256103516 152.537506103516 150.84375 150.699996948242 153.012496948242 156.975006103516 163.524993896484 172.056243896484 180.612503051758 187.6875 193.625 197.90625 199.350006103516 199.074996948242 197.1875 193.850006103516 182.225006103516 168.393753051758 156.931243896484 153.081253051758 154.274993896484 155.875 157.887496948242 159.018753051758 162.006256103516 165.862503051758 171.78125 176.693756103516 181.962493896484 189.512496948242 199.293746948242 210.625 221.5 222.143753051758 222.412506103516 223.037506103516 222.46875 222.824996948242 222.118743896484 221.918746948242 225.431243896484 227.412506103516 227.681243896484 229.975006103516 230.425003051758 229.356246948242 229.512496948242 224.556243896484 
153.375 155.550003051758 157.693756103516 155.375 151.350006103516 148.875 146.818756103516 147.9375 152.675003051758 160.537506103516 170.100006103516 180.074996948242 188.925003051758 195.518753051758 200.350006103516 201.375 200.618743896484 197.543746948242 192.487503051758 183.462493896484 170.725006103516 162.174987792969 156.125 155.1875 157.0625 158.625 160.3125 162.75 166.899993896484 172.112503051758 176.012496948242 180.850006103516 187.125 194.300003051758 203.475006103516 213.337493896484 215.375 214.487503051758 213.775009155273 213.899993896484 213.743743896484 212.625 212.818756103516 213.600006103516 214.956253051758 215.481246948242 216.837493896484 217.668746948242 216.050003051758 217.181243896484 213.543746948242 
