ncols        51
nrows        45
xllcorner    -63.500000000000
yllcorner    -7.500000000000
cellsize     0.166666666667
NODATA_value -99
227.206253051758 227.831253051758 228.818756103516 233.6875 235.256256103516 234.512496948242 227.756256103516 218.787490844727 213.024993896484 208.112503051758 205.987503051758 204.643753051758 203.074996948242 198.75 194.018753051758 187.806243896484 183.4375 175.493743896484 169.168746948242 162.03125 158.162506103516 152.28125 147.706253051758 142.8125 137.356246948242 134.100006103516 131.243743896484 128.25 124.40625 125.737503051758 126.587501525879 128.90625 133.6875 136.274993896484 139.556243896484 140.6875 143.074996948242 144.78125 143.024993896484 141.243743896484 139.743743896484 137.387496948242 133.456253051758 130.206253051758 129.587493896484 127.28125 127.318748474121 126.581253051758 126.90625 125.050003051758 123.199996948242 
215.943756103516 215.862503051758 221.362503051758 230.775009155273 241 235.956253051758 227.512496948242 223.524993896484 218.756256103516 214.137496948242 211.862503051758 209.431243896484 207.143753051758 201.524993896484 196.137496948242 191.268753051758 184.868743896484 176.793746948242 168.824996948242 161.318756103516 156.356246948242 152.931243896484 148.356246948242 144.78125 138.84375 135.381256103516 133.431243896484 131.056243896484 126.71875 129.418746948242 132.643753051758 137.587493896484 141.493743896484 146.081253051758 149.850006103516 150.5625 152.3125 154.118743896484 151.837493896484 149.731246948242 148.268753051758 145.987503051758 143.112503051758 138.381256103516 137.181243896484 134.887496948242 134.3125 133.368743896484 133.487503051758 130.987503051758 128.631256103516 
198.162506103516 200.981246948242 207.887496948242 219.268753051758 229.800003051758 230.487503051758 226.256256103516 223.34375 221.118743896484 218.368743896484 216.675003051758 213.768753051758 211.106246948242 204.981246948242 198.037506103516 193.274993896484 186.306243896484 179.0625 171.725006103516 165.331253051758 161.231246948242 157.699996948242 154.631256103516 151.431243896484 145.956253051758 141.387496948242 140.75 136.881256103516 132.481246948242 134.643753051758 137.143753051758 141.712493896484 147.381256103516 151.887496948242 155.78125 155.643753051758 156.956253051758 159 157.706253051758 156.65625 155.962493896484 152.993743896484 151.018753051758 147.081253051758 144.5625 142.024993896484 140.712493896484 139.881256103516 137.887496948242 134.862503051758 132.381256103516 
177.399993896484 181.106246948242 194.606246948242 204.318756103516 214.350006103516 218.356246948242 220.231246948242 223.912506103516 224.787506103516 224.5 222.4375 219.0625 213.106246948242 208.012496948242 200.743743896484 194.675003051758 188.425003051758 182.193756103516 177.59375 173.131256103516 169.693756103516 164.987503051758 160.925003051758 157.831253051758 151.862503051758 147.912506103516 145.4375 139.356246948242 135.537506103516 138.25 141.675003051758 144.618743896484 148.850006103516 153.15625 156.212493896484 159.331253051758 161.993743896484 163.756256103516 163.818756103516 162.306243896484 160.975006103516 158.193756103516 156.068756103516 153.300003051758 151.5 147.987503051758 145.350006103516 145.274993896484 142.493743896484 137.706253051758 132.96875 
175.800003051758 174.28125 177.875 187.231246948242 201.149993896484 208.850006103516 213.800003051758 220.887496948242 225.993743896484 227.543746948242 226.418746948242 220.362503051758 215.75 212.631256103516 205.306243896484 198.237503051758 191.15625 185.699996948242 181.931243896484 177.46875 176.381256103516 170.100006103516 167.1875 163.925003051758 158.050003051758 153.618743896484 148.037506103516 142.956253051758 138.46875 139.84375 143.387496948242 145.118743896484 148.293746948242 153.243743896484 157.8125 159.831253051758 162.356246948242 165.806243896484 167.043746948242 166.518753051758 165.46875 162.231246948242 159.162506103516 157.693756103516 155.84375 152.431243896484 148.524993896484 146.875 144.068756103516 139.606246948242 132.962493896484 
174.543746948242 172.181243896484 172.6875 172.75 186.362503051758 201.375 210.337493896484 216.987503051758 222.506256103516 227.037506103516 225.981246948242 220.0625 216.212493896484 213.9375 206.550003051758 201.381256103516 195.293746948242 190.4375 187.681243896484 185.412506103516 181.706253051758 176.462493896484 172.462493896484 167.1875 162.362503051758 156.756256103516 150.487503051758 145.6875 140.381256103516 140.387496948242 142.756256103516 147.381256103516 149.943756103516 153.475006103516 156.5 160.037506103516 162.462493896484 167.118743896484 169.956253051758 169.518753051758 164.28125 161.331253051758 158.75 158.456253051758 159.581253051758 155.493743896484 149.306243896484 145.3125 143.787506103516 139.475006103516 133.587493896484 
175.96875 174.206253051758 174.287506103516 174.1875 181.212493896484 190.137496948242 201.631256103516 211.487503051758 215.675003051758 218.25 220.387496948242 217.493743896484 215.637496948242 213.306243896484 208.074996948242 203.949996948242 199.662490844727 198.068756103516 195.768753051758 192.862503051758 187.643753051758 182.0625 175.475006103516 169.5 165.15625 160.106246948242 153.768753051758 148.324996948242 141.6875 140.40625 142.356246948242 144.581253051758 147.53125 151.4375 154.606246948242 155.96875 158.587493896484 165.043746948242 171.162506103516 167.550003051758 161.699996948242 157.387496948242 155.262496948242 156.175003051758 158.493743896484 154.956253051758 148.037506103516 141.612503051758 139.493743896484 139.024993896484 135.125 
178.193756103516 176.293746948242 176.612503051758 180.050003051758 186.824996948242 196.53125 202.262496948242 203.243743896484 203.256256103516 207.518753051758 213.850006103516 213.925003051758 213.725006103516 211.9375 210.043746948242 205.324996948242 202.418746948242 203.606246948242 203.40625 198.212493896484 193.381256103516 186.543746948242 179.46875 171.962493896484 166.568756103516 161.243743896484 153.925003051758 147.087493896484 141.5 139.625 140.637496948242 141.774993896484 143.912506103516 147.8125 148.962493896484 149.431243896484 151.137496948242 155.106246948242 157.3125 155.162506103516 150.018753051758 146.106246948242 144.775009155273 144.84375 146.981246948242 144.65625 140.012496948242 135.456253051758 133.425003051758 133.756256103516 130.818756103516 
182.181243896484 181.649993896484 183.65625 187.118743896484 193.350006103516 200.768753051758 206.350006103516 207.40625 203.850006103516 202.137496948242 207.868743896484 208.518753051758 211.012496948242 209.293746948242 208.774993896484 206.574996948242 205.206253051758 206.662506103516 208.024993896484 202.65625 195.1875 189.4375 179.462493896484 173.943756103516 166.712493896484 159.637496948242 152.456253051758 146.868743896484 142.618743896484 139.875 141.112503051758 138.356246948242 137.018753051758 136.681243896484 137.243743896484 139.100006103516 140.693756103516 141.762496948242 141.006256103516 138.600006103516 134.149993896484 130.443756103516 129.487503051758 129.762496948242 129.28125 128.149993896484 126.362503051758 122.162498474121 121.0625 123.331253051758 125.324996948242 
184.268753051758 184.918746948242 187.887496948242 191.737503051758 199.0625 206.543746948242 211.8125 212.112503051758 209.831253051758 208.943756103516 210.131256103516 207.625 208.025009155273 208.118759155273 207.231246948242 208.09375 206.518753051758 207.675003051758 208.793746948242 206.568756103516 199.443756103516 190.456253051758 179.493743896484 172.175003051758 163.087493896484 156.074996948242 149.850006103516 144.675003051758 140.774993896484 139.050003051758 136.462493896484 132.34375 129.425003051758 128.90625 128.381256103516 128.350006103516 129.087493896484 128.59375 125.493751525879 122.46875 118.287498474121 115.737503051758 111.65625 111.112503051758 111.487503051758 112.199996948242 110.375 106.65625 104.662498474121 105.125 105.756248474121 
188.84375 189.850006103516 193.212493896484 197 203.568756103516 212.668746948242 218.237503051758 215.706253051758 211.931243896484 211.050003051758 212.21875 210.581253051758 207.3125 204.868743896484 204.168746948242 205.143753051758 203.887496948242 205.162506103516 206.337493896484 206.381256103516 203.425003051758 194.568756103516 182.181243896484 166.8125 159.543746948242 156.837493896484 151.225006103516 144.199996948242 138.243743896484 135.256256103516 132.137496948242 127.200004577637 123.53125 120.931251525879 119.081253051758 117.556251525879 116.643753051758 114.831253051758 112.481246948242 107.737503051758 102.275001525879 99.0562515258789 97.40625 94.5562515258789 93.6999969482422 96.9625015258789 93.6937484741211 89.0250015258789 86.2562484741211 84.3499984741211 78.40625 
190.537506103516 191.837493896484 195.493743896484 200.90625 207.274993896484 215.318756103516 221.837493896484 219.5625 213.550003051758 210.056243896484 210.612503051758 210.331253051758 204.681243896484 200.149993896484 201.731246948242 201.337493896484 200.743743896484 199.893753051758 201.199996948242 204.962493896484 205.837493896484 197.487503051758 183.824996948242 166.431243896484 156.975006103516 151.681243896484 145.331253051758 138.962493896484 132.199996948242 128.706253051758 124.512496948242 119.349998474121 115.306251525879 113.224998474121 112.275001525879 110.043746948242 107.837501525879 105.487503051758 99.9937515258789 93.4749984741211 87.3687515258789 83.6125030517578 82.0875015258789 79.2249984741211 75.84375 74.1750030517578 72.9812469482422 70.875 69.4312515258789 66.2562484741211 58.0374984741211 
190.649993896484 192.09375 195.256256103516 199.024993896484 203.993743896484 210.618743896484 214.600006103516 213.100006103516 209.931243896484 207.25 205.731246948242 206.418746948242 203.149993896484 194.806243896484 193.212493896484 194.34375 193.550003051758 193.612503051758 195.462493896484 198.681243896484 201.456253051758 196.137496948242 183.25 167.225006103516 152.712493896484 145.431243896484 140.668746948242 135.225006103516 129.199996948242 124.018753051758 117.506248474121 111.393753051758 107.724998474121 104.09375 102.40625 101.375 101.331253051758 99.90625 95.5250015258789 85.5374984741211 76.1374969482422 73.625 71.0374984741211 62.9187507629395 58.7562484741211 60.9500007629395 61.0750007629395 58.4812507629395 54.9437484741211 53.0750007629395 46.4375 
189.287506103516 190.21875 191.862503051758 194.75 199.3125 202.743743896484 204.90625 205.649993896484 202.96875 201.362503051758 198.21875 195.9375 193.800003051758 188.118743896484 182.668746948242 184.318756103516 183.918746948242 183.387496948242 183.693756103516 186.824996948242 189.306243896484 184.768753051758 176.743743896484 166.725006103516 154.587493896484 145.131256103516 138.631256103516 131.787506103516 124.462501525879 118.618751525879 113.324996948242 105.849998474121 100.756248474121 96.6750030517578 95.0374984741211 96.1999969482422 98.6125030517578 101.018753051758 98.03125 89.5999984741211 74.0875015258789 65.5500030517578 63.0750007629395 60.2999992370605 57.6375007629395 56.9249992370605 57.9000015258789 55.9187507629395 52.0374984741211 49.5250015258789 43.5374984741211 
186.668746948242 186.274993896484 187.162506103516 189.649993896484 193.606246948242 193.456253051758 196.375 196.300003051758 193.699996948242 193.324996948242 188.962493896484 186.131256103516 182.931243896484 177.8125 170.706253051758 168.981246948242 169.493743896484 170.568756103516 169.887496948242 172.800003051758 176.243743896484 175.806243896484 172.481246948242 167.418746948242 161.21875 152.9375 143.75 133.081253051758 123.262496948242 116.699996948242 107.668746948242 99.7750015258789 95.5999984741211 91.0374984741211 87.1125030517578 90.9812469482422 99.5062484741211 109.5 112.375 103.368751525879 89.9000015258789 78.2125015258789 72.3062515258789 66.3062515258789 61.125 58.7437515258789 57.1875 56.1749992370605 54.2750015258789 49.3875007629395 43.5 
182.143753051758 181.037506103516 182.512496948242 184.212493896484 185.681243896484 187.100006103516 188.074996948242 187.287506103516 185.993743896484 185.675003051758 181.21875 176.824996948242 172.637496948242 167.987503051758 161.256256103516 155.081253051758 154.837493896484 157.6875 157.518753051758 160.918746948242 164.018753051758 167.943756103516 171.100006103516 171.493743896484 168.024993896484 158.925003051758 147.006256103516 135.818756103516 125.631248474121 116.506248474121 109.056251525879 99.1187515258789 92.6687469482422 88.7624969482422 83.3499984741211 91.4437484741211 105.6875 117.71875 127.012496948242 122.787498474121 113.474998474121 96.6624984741211 82.09375 70.6062469482422 64.8000030517578 60.6624984741211 59.09375 56.8062515258789 53.65625 50.0812492370605 46.28125 
175.306243896484 174.96875 177.149993896484 178.881256103516 179.731246948242 181.112503051758 181.493743896484 181.356246948242 179.868743896484 177.975006103516 174.662506103516 169.78125 163.768753051758 158.199996948242 154.137496948242 149.100006103516 143.050003051758 144.368743896484 146.993743896484 149.8125 153.162506103516 159.331253051758 168.175003051758 174.887496948242 175.068756103516 163.081253051758 150.15625 138.550003051758 128.324996948242 119.46875 113.3125 107.168746948242 99.3375015258789 93.8125 95.5875015258789 102.050003051758 113.943748474121 134.362503051758 154.043746948242 143 125.762496948242 105.550003051758 86.2750015258789 74.5562515258789 67.6125030517578 63.28125 60.4187507629395 59.0625 57.71875 53.2249984741211 50.3937492370605 
168.881256103516 169.268753051758 170.274993896484 172.318756103516 174.925003051758 176.625 176.462509155273 175.574996948242 174.831253051758 171.725006103516 167.887496948242 162.800003051758 156.412506103516 150.65625 146.300003051758 142.46875 137.268753051758 131.96875 136.381256103516 138.300003051758 143.199996948242 148.768753051758 159.03125 168.712493896484 172.1875 162.71875 152.324996948242 141.268753051758 129.956253051758 119.212501525879 111.612503051758 105.443748474121 108.849998474121 112.537498474121 110.324996948242 109.71875 124.881248474121 142.831253051758 151.5625 143.606246948242 122.443748474121 102.96875 86.4875030517578 77.75 71.1312484741211 66.9375 64.8375015258789 61.9000015258789 60.2249984741211 55.25 53.5687484741211 
162.15625 162.125 163.1875 166.337493896484 168.850006103516 171.106246948242 171.293746948242 172.274993896484 170.699996948242 167.431243896484 162.975006103516 156.743743896484 149.5625 143.893753051758 138.65625 136.375 132.887496948242 126.612503051758 125.550003051758 127.3125 135.15625 148.649993896484 147.512496948242 156.175003051758 162.618743896484 162.731246948242 155.800003051758 144.524993896484 136.3125 123.65625 113.474998474121 114.849998474121 127.612503051758 132.149993896484 132.643753051758 132.225006103516 136.850006103516 141.59375 141.574996948242 131.34375 114.150001525879 98.375 85.7375030517578 78.84375 74.1999969482422 71.3249969482422 69.0250015258789 66.4312515258789 63.1749992370605 55.0437507629395 55.7750015258789 
154.25 155.712493896484 156.912506103516 159.756256103516 162.943756103516 166.65625 168.481246948242 168.612503051758 168.806243896484 165.881256103516 161.668746948242 156.324996948242 149.53125 142.449996948242 135.837493896484 131.15625 124.587501525879 124.5 122.21875 125.724998474121 128.493743896484 133.806243896484 144.84375 152.493743896484 157.03125 156.262496948242 152.537506103516 148.65625 138.5625 127.618751525879 121.324996948242 131.8125 142.96875 158.275009155273 168.300003051758 161.3125 152.143753051758 144.6875 136.168746948242 123.756248474121 107.925003051758 92.4499969482422 86.3687515258789 83.8562469482422 79.8187484741211 77.375 74.9562530517578 71.1062469482422 65.6687469482422 58.0374984741211 58.4500007629395 
144.418746948242 147.3125 150.59375 154.350006103516 158.012496948242 160.956253051758 164.149993896484 166.012496948242 167.78125 166.96875 163.25 159.337493896484 152.375 143.40625 137.793746948242 130.481246948242 124.181251525879 121.068748474121 122.831253051758 122.550003051758 129.393753051758 137.949996948242 146.175003051758 153.706253051758 160.850006103516 162.175003051758 157.28125 150.28125 143.387496948242 140.643753051758 139.425003051758 147.3125 159.818756103516 177.84375 197.412506103516 183.337493896484 161.0625 146.09375 133.649993896484 121.856246948242 110.418746948242 99.5187530517578 93.1374969482422 89.8375015258789 86.4000015258789 84.0437469482422 80.7874984741211 76.2375030517578 67.8499984741211 64.1687469482422 62.2874984741211 
136.65625 137.9375 141.737503051758 146.375 152.09375 156.987503051758 160.543746948242 164.618743896484 167.375 167.856246948242 165.743743896484 162.893753051758 158.46875 150.987503051758 144.5 135.737503051758 129.425003051758 125.793746948242 126.943748474121 126.825004577637 129.212493896484 136.418746948242 144.09375 151.225006103516 157.018753051758 160.756256103516 161.881256103516 156.90625 155.081253051758 154.100006103516 153.300003051758 157.118759155273 167.637496948242 182.068756103516 188.293746948242 178.399993896484 159.012496948242 145.100006103516 132.737503051758 123.287498474121 115.362503051758 108.125 104.03125 100.606246948242 96.2687530517578 93.5250015258789 89.0374984741211 82.2062530517578 73.7687530517578 71.15625 66.7624969482422 
129.975006103516 132.762496948242 135.868743896484 141.15625 147.068756103516 152.375 157.75 162.981246948242 168.087493896484 168.743743896484 170.149993896484 168.9375 168.050003051758 161.975006103516 152.03125 142.618743896484 134.581253051758 131.756256103516 130.268753051758 129.918746948242 132.21875 137.943756103516 143.425003051758 148.175003051758 155.331253051758 159.850006103516 161.0625 162.618743896484 161.731246948242 159.875 160.643753051758 164.537490844727 170.949996948242 177.40625 177.106246948242 164.40625 151.762496948242 140.543746948242 131.662506103516 126.787498474121 123.449996948242 118.043746948242 114.443748474121 111.112503051758 106.349998474121 103.743751525879 98.40625 90.5562515258789 82.6500015258789 78.1374969482422 74.09375 
125.831253051758 126.962501525879 131.081253051758 135.662506103516 140.612503051758 147.618743896484 153.8125 159.087493896484 164.206253051758 166.3125 167.712493896484 170.431243896484 173.637496948242 167.368743896484 156.274993896484 146.362503051758 138.943756103516 136.137496948242 134.71875 133.331253051758 135.337493896484 138.837493896484 144.662506103516 149.6875 155.293746948242 158.15625 159.21875 160.912506103516 164.225006103516 163.793746948242 163.899993896484 167.21875 170.456253051758 173.287506103516 172.037506103516 159.375 150.587493896484 144.368743896484 137.987503051758 136.162506103516 133.618743896484 129.231246948242 126.993751525879 124.25 121.462501525879 116.662498474121 110.224998474121 98.1750030517578 93.0374984741211 85.1374969482422 81.5999984741211 
123.449996948242 123.587501525879 126.668746948242 130.699996948242 139.206253051758 145.268753051758 150.631256103516 155.931243896484 160.287506103516 163.637496948242 166.137496948242 166.887496948242 167.550003051758 163.675003051758 156.212493896484 147.96875 141.987503051758 138.743743896484 136.925003051758 136.581253051758 138.65625 141.050003051758 147.368743896484 152.462493896484 154.949996948242 159.706253051758 160.737503051758 162.962493896484 166.087493896484 166.743743896484 166.118743896484 167.506256103516 171.850006103516 173.550003051758 170.9375 162.131256103516 157.899993896484 154.024993896484 148.618743896484 146.493743896484 144.362503051758 141.9375 140.418746948242 141.024993896484 138.837493896484 133.956253051758 117.231246948242 111.212501525879 102.787498474121 92.90625 90.46875 
123.612503051758 125.037498474121 126.212501525879 131.193756103516 136.975006103516 142.231246948242 147.862503051758 152.6875 156.518753051758 160.350006103516 161.3125 161.818756103516 161.137496948242 157.487503051758 153.074996948242 147.743743896484 142.649993896484 140.774993896484 139.131256103516 138.587493896484 140.524993896484 142.443756103516 148.587493896484 153.912506103516 157.018753051758 159.893753051758 163.262496948242 167.243743896484 169.274993896484 169.806243896484 168.899993896484 170.587493896484 172.0625 173.524993896484 173.8125 171.862503051758 168.25 165.918746948242 163.381256103516 160.287506103516 159.46875 156.3125 154.618743896484 156.356246948242 157.875 141.787506103516 133.475006103516 125.118751525879 115.068748474121 107.224998474121 101.456253051758 
125.481246948242 125.112503051758 126.6875 130.943756103516 134.9375 139.956253051758 144.443756103516 148.012496948242 150.199996948242 153.762496948242 156.399993896484 156.818756103516 155.118743896484 152.493743896484 149.699996948242 146.006256103516 143.556243896484 141.1875 140.081253051758 139.731246948242 142.162506103516 143.962493896484 148.793746948242 156.456253051758 159.012496948242 162.487503051758 165.806243896484 167.881256103516 170.068756103516 170.137496948242 169.28125 169.231246948242 174.931243896484 178.65625 179.800003051758 180.818756103516 180.868743896484 179.356246948242 177.399993896484 175.399993896484 173.024993896484 170.431243896484 169.237503051758 167.600006103516 163.012496948242 159.625 151.693756103516 138 128.199996948242 117.012496948242 108.306251525879 
127.15625 126.4375 128.168746948242 130.081253051758 133.649993896484 137.256256103516 141.300003051758 144.53125 145.881256103516 149.399993896484 151.475006103516 151.34375 149.774993896484 148.71875 146.481246948242 144.112503051758 142.175003051758 140.78125 140.118743896484 141.112503051758 143.137496948242 145.5 149.993743896484 156.600006103516 161.556243896484 164.524993896484 166.975006103516 168.962493896484 170.887496948242 171.856246948242 169.637496948242 169.956253051758 178.09375 183.643753051758 188.15625 190.512496948242 194.8125 196.693756103516 195.018753051758 192.837493896484 190.681243896484 187.887496948242 181.831253051758 180.643753051758 178.068756103516 174.606246948242 165.337493896484 153.100006103516 139.9375 126.081253051758 116.025001525879 
129.237503051758 127.681251525879 127.706253051758 128.537506103516 130.65625 133.237503051758 136.412506103516 139.868743896484 141.850006103516 144.393753051758 146.043746948242 145.331253051758 145.46875 143.731246948242 142.181243896484 142.875 143.693756103516 139.868743896484 139.287490844727 140.850006103516 143.725006103516 146.96875 151.824996948242 158.425003051758 161.831253051758 166.018753051758 168.162506103516 170.943756103516 174.337493896484 172.962493896484 170.006256103516 170.274993896484 178.706253051758 187.887496948242 197.706253051758 201.537506103516 209.268753051758 215.106246948242 215.25 212.856246948242 205.46875 198.131256103516 194.543746948242 194.181243896484 194.018753051758 187.056243896484 178.181243896484 166.15625 151.331253051758 137.006256103516 121.862503051758 
131.106246948242 128.618743896484 126.393753051758 125.893753051758 126.65625 129.331253051758 132.524993896484 135.643753051758 137.443756103516 139.1875 140.53125 141.28125 141.300003051758 140.431243896484 140.881256103516 140.5 139.993743896484 138.925003051758 137.681243896484 139.137496948242 142.949996948242 147.46875 151.193756103516 156.262496948242 161.550003051758 167.137496948242 168.262496948242 169.46875 170.668746948242 171.5625 172.106246948242 174.0625 182.806243896484 193.231246948242 205.143753051758 212.425003051758 222.793746948242 233.912506103516 231.324996948242 233.943756103516 230.743743896484 221.068756103516 213.03125 211.149993896484 205.893753051758 199.96875 192.831253051758 180.643753051758 164.15625 149.256256103516 132.0625 
130.375 127.375 125.806251525879 123.381248474121 123.643753051758 126.5625 128.456253051758 131.081253051758 133.25 135.362503051758 136.5625 137.143753051758 139.793746948242 138.887496948242 138.550003051758 138.024993896484 139.050003051758 138.631256103516 137.662506103516 140.212493896484 143.768753051758 148.912506103516 153.175003051758 157.106246948242 161.149993896484 166.493743896484 167.149993896484 167.475006103516 168.493743896484 168.524993896484 172.149993896484 176.487503051758 186.074996948242 200.625 214.162506103516 221.331253051758 234.106246948242 249.137496948242 253.03125 256.487487792969 253.875 242.399993896484 232.25 227.212493896484 219.231246948242 214.243743896484 206.418746948242 193.756256103516 178.268753051758 162.90625 145.556243896484 
130.462493896484 125.337501525879 122.724998474121 120.868751525879 121.668746948242 123.212501525879 125.25 127.699996948242 130.175003051758 131.800003051758 133.5625 134.162506103516 134.649993896484 136 137.337493896484 139.143753051758 139.21875 139.506256103516 140.681243896484 144.506256103516 148.475006103516 150.537506103516 154.699996948242 157.137496948242 162.887496948242 164.756240844727 163.949996948242 165.625 166.300003051758 168.25 173.131256103516 177.268753051758 189.074996948242 204.25 218.456253051758 227.693756103516 241.75 255.793746948242 262.418762207031 268.512512207031 270.743743896484 259.65625 250.418746948242 243.118743896484 237.112503051758 235.09375 226.574996948242 213.418746948242 195.0625 177.631256103516 160.100006103516 
127.40625 123.5 120.231246948242 118.537498474121 118.637496948242 120.050003051758 122.193748474121 123.40625 125.587501525879 126.84375 131.993743896484 131.631256103516 132.981246948242 136.899993896484 138.237503051758 140.8125 141.931243896484 144.756256103516 146.649993896484 150.4375 152.662506103516 154.068756103516 155.050003051758 156.856246948242 160.668746948242 160.956253051758 160.03125 160.768753051758 161.574996948242 167.274993896484 172.425003051758 178.681243896484 189.943756103516 205.212493896484 221.181259155273 231.3125 243.943756103516 254.793746948242 262.862487792969 273.206237792969 278.087493896484 270.674987792969 264.625 257.837493896484 255.356246948242 257.03125 252.03125 232.3125 214.231246948242 196.537506103516 177.425003051758 
123 120.556251525879 118.46875 116.637496948242 115.668746948242 116.675003051758 118.625 119.693748474121 121.087501525879 123.724998474121 127.018753051758 130.5 132.393753051758 134.243743896484 137.675003051758 140.65625 144.600006103516 148.712493896484 152.53125 156.431243896484 157.643753051758 156.96875 156.300003051758 155.487503051758 155.993743896484 155.350006103516 154.225006103516 154.618743896484 155.068756103516 162.068756103516 170.143753051758 178.606246948242 190.918746948242 205.399993896484 221.412506103516 236.006256103516 245.912506103516 255.918746948242 265.831237792969 274.231262207031 280.143737792969 280.168762207031 279.293762207031 275.306243896484 274.21875 273.71875 266.53125 248.974990844727 230.737503051758 211.975006103516 193.231246948242 
119.625 117.800003051758 116.118751525879 115.037498474121 114.099998474121 113.974998474121 115.693748474121 116.449996948242 117.006248474121 119.868751525879 124.5 129.449996948242 132.1875 134.84375 138.537506103516 142.625 146.618743896484 150.725006103516 157.574996948242 161.293746948242 162.375 160.293746948242 156.412506103516 153.193756103516 150.206253051758 149.725006103516 149.225006103516 148.337493896484 148.762496948242 156.606246948242 166.231246948242 175.4375 188.762496948242 203.831253051758 218.46875 230.612503051758 243.137496948242 257.625 266.162506103516 276.34375 279.512512207031 279.643737792969 284.381256103516 282.09375 282.225006103516 280.71875 274.887481689453 259.84375 244.793746948242 226.362503051758 206.056243896484 
116.074996948242 114.125 113.262496948242 112.493751525879 111.724998474121 111.962501525879 112.0625 113.53125 114.462501525879 116.425003051758 121.212501525879 126.137496948242 131.162506103516 135.543746948242 139.181243896484 143.506256103516 147.181243896484 152.743743896484 159.612503051758 165.399993896484 163.675003051758 160.225006103516 153.981246948242 148.5625 145.181259155273 143.15625 141.606246948242 141.149993896484 141.918746948242 149.875 160.324996948242 170.831253051758 182.756256103516 197.268753051758 211.074996948242 221.368743896484 237.012496948242 249.456253051758 257.856262207031 266.575012207031 273.881256103516 274.243743896484 276.018737792969 276.787506103516 277.100006103516 273.975006103516 268.549987792969 262.381256103516 249.175003051758 231.59375 214.356246948242 
112.518753051758 111.15625 110.231246948242 109.193748474121 109.581253051758 109.693748474121 110.131248474121 110.862503051758 112.150001525879 112.8125 118.4375 127.599998474121 133.181243896484 137.418746948242 141.262496948242 144.15625 147.96875 151.949996948242 157.181243896484 161.731246948242 161.106246948242 154.931259155273 148.581253051758 141.943756103516 137.78125 135.4375 133.318756103516 132.268753051758 133.28125 142.387496948242 153 164.324996948242 177.206253051758 191.106246948242 204.324996948242 215.949996948242 229.381256103516 242.71875 249.206253051758 255.862503051758 262.424987792969 262.9375 267.15625 270.475006103516 273.774993896484 268.90625 267.637512207031 264.212493896484 248.5625 235.412506103516 217.706253051758 
108.831253051758 108.34375 107.831253051758 106.699996948242 107.393753051758 108.125 108.837501525879 110.056251525879 111.974998474121 112.675003051758 124.681251525879 133.056243896484 136.756256103516 139.8125 142.59375 145.262496948242 146.068756103516 149.381256103516 151.699996948242 153.231246948242 152.743743896484 147.106246948242 141.399993896484 134.462493896484 129.399993896484 126.106246948242 125.074996948242 124.599998474121 125.743751525879 135.40625 144.256256103516 155.3125 168.181243896484 183.762496948242 197.4375 205.456253051758 217.887496948242 229.887496948242 240.137496948242 247.981246948242 250.84375 256.681243896484 256.600006103516 258.418762207031 261.40625 260.081237792969 262.743743896484 262.299987792969 244.431243896484 233.118743896484 219.087493896484 
106.65625 105.912498474121 105.537498474121 105.412498474121 105.331253051758 106.28125 108.262496948242 110.881248474121 115.125 123.393753051758 136.699996948242 139.237503051758 139.043746948242 141.912506103516 143.543746948242 144.925003051758 145.262496948242 146.25 145.625 145.350006103516 142.84375 137.5625 132.693756103516 126.637496948242 121.831253051758 118.212501525879 117.393753051758 118.131248474121 120.037498474121 129.300003051758 138.849990844727 147.949996948242 159.40625 170.243743896484 182.487503051758 191.5625 202.993743896484 213.643753051758 223.675003051758 228.006256103516 232.212493896484 238.074996948242 238.237503051758 239.856246948242 242.050003051758 241.112503051758 236.481246948242 238.237503051758 229.350006103516 223.356246948242 207.737503051758 
103.012496948242 102.275001525879 102.631248474121 102.762496948242 103.387496948242 105.268753051758 106.806251525879 110.800003051758 116.46875 125.400001525879 133.425003051758 137.331253051758 139.5625 142.03125 144.25 144.193756103516 144.043746948242 142.71875 141.350006103516 138.162506103516 133.318756103516 128.006256103516 122.175003051758 116.931251525879 113.275001525879 110.493751525879 110.112503051758 112.012496948242 113.668746948242 122.706253051758 129.1875 138.274993896484 149.9375 159.524993896484 169.787506103516 179.074996948242 187.768753051758 198.668746948242 206.699996948242 207.243743896484 212.193756103516 218.837493896484 219.350006103516 218.912506103516 219.449996948242 216.793746948242 217.006256103516 217.556243896484 213.493743896484 209.681243896484 197.931243896484 
99.6374969482422 99.4375 100.068748474121 100.612503051758 101.03125 102.8125 106.006248474121 110.256248474121 115.474998474121 122.28125 128.118743896484 133.125 138.03125 140.087493896484 142.175003051758 142.806243896484 142.300003051758 141.456253051758 137.381256103516 131.268753051758 125.712501525879 118.099998474121 112.012496948242 107.025001525879 104.962501525879 103.306251525879 104.443748474121 105.9375 108.381248474121 115.262496948242 122.737503051758 132.4375 142.5625 151.850006103516 160.731246948242 168.243743896484 175.4375 183.368743896484 190.956253051758 191.118743896484 195.237503051758 199.037506103516 199.462493896484 198.356246948242 198.518753051758 199.175003051758 200.231246948242 198.100006103516 199.274993896484 194.337493896484 188.34375 
95.9499969482422 95.8249969482422 96.53125 96.8625030517578 97.7937469482422 99.3125 102.387496948242 106.300003051758 111.668746948242 117.293746948242 123.287498474121 128.96875 134.537506103516 138.09375 139.725006103516 141.381256103516 141.53125 140.375 135.943756103516 127.59375 118.287498474121 111.59375 103.893753051758 99.5812530517578 100.162498474121 99.3000030517578 99.6687469482422 101.112503051758 104.856246948242 112.056251525879 116.21875 125.34375 133.293746948242 145.699996948242 154.3125 157.087493896484 162.5625 169.037506103516 173.293746948242 174.118759155273 177.3125 177.893753051758 176.106246948242 177.868743896484 178.643753051758 181.300003051758 179.524993896484 177.699996948242 183.649993896484 178.068756103516 171.331253051758 
91.6875 91.625 92.9625015258789 93.3625030517578 94.0187530517578 95.5 98.1687469482422 101.912498474121 106.462501525879 112.306251525879 118.693748474121 124.087501525879 129.193756103516 133.850006103516 137.84375 140.106246948242 141.399993896484 140.637496948242 136.074996948242 124.181251525879 112.099998474121 102.474998474121 97.1937484741211 96.5250015258789 96.0062484741211 95.7562484741211 95.9562530517578 97.2312469482422 100.150001525879 105.737503051758 109.5625 115.287498474121 123.21875 132.600006103516 144.524993896484 149.78125 149.59375 154.175003051758 156.4375 157.78125 159.1875 160 159.300003051758 159.056243896484 160.462493896484 160.475006103516 161.962509155273 160.506256103516 164.862503051758 161.287506103516 154.96875 
87.5687484741211 87.5062484741211 88.6500015258789 88.5437469482422 88.6062469482422 90.6750030517578 92.3625030517578 95.5062484741211 100.6875 106.887496948242 113.143753051758 119.40625 126 129.84375 134.800003051758 137.487503051758 139.100006103516 139.074996948242 136.818756103516 123.506248474121 109.199996948242 98.3062515258789 92.25 91.6875 92.5562515258789 92.9749984741211 93.5 94.1750030517578 95.9187469482422 100.481246948242 103.400001525879 107.349998474121 112.925003051758 120.456253051758 132.71875 143.375 139.831253051758 140.074996948242 143.65625 142.581253051758 143.287506103516 143.28125 142.737503051758 143.612503051758 144.675003051758 143.068756103516 143.375 143.068756103516 142.862503051758 144.625 139.368743896484 
83.1187515258789 83.8125 85.9375 84.5562515258789 85.1687469482422 86.2125015258789 87.0437469482422 89.6999969482422 94.8312530517578 101.300003051758 107.993751525879 114.918746948242 122.243751525879 127.837501525879 132.4375 134.5625 135.681243896484 134.537506103516 130.962493896484 121.568748474121 106.950004577637 97.8499984741211 91.0625 89.3125 90.3125 91.3125 91.4375 92.4375 95.0062484741211 98.5812530517578 100.037498474121 103.481246948242 107.806251525879 112.262496948242 119.681251525879 129.712493896484 129.681243896484 129.368743896484 130.856246948242 131.743743896484 132.568756103516 132.193756103516 131.100006103516 130.175003051758 129.9375 129.125 130.012496948242 129.850006103516 127.050003051758 130.168746948242 127.075004577637 
