ncols        51
nrows        45
xllcorner    -63.500000000000
yllcorner    -7.500000000000
cellsize     0.166666666667
NODATA_value -99
215.681243896484 197.137496948242 188.71875 185.774993896484 181.15625 182.956253051758 185.381256103516 186.381256103516 194.15625 204.037506103516 210.362503051758 216.756256103516 222.037506103516 230.306243896484 238.350006103516 243.600006103516 247.918746948242 244.006256103516 241.574996948242 242.606246948242 245.387496948242 241.925003051758 239.637496948242 235.731246948242 234.168746948242 227.956253051758 222.175003051758 216.481246948242 209.143753051758 210.237503051758 203.5 201.731246948242 205.131256103516 204.262496948242 202.868743896484 199.199996948242 191.706253051758 194.462493896484 188.606246948242 184.418746948242 186.881256103516 189.543746948242 186.15625 185.693756103516 187.006256103516 190.981246948242 192.068756103516 190.9375 192.731246948242 199.475006103516 204.706253051758 
210.324996948242 191.149993896484 182.1875 179.006256103516 175.899993896484 178.912506103516 182.087493896484 185.675003051758 195.274993896484 204.625 212.068756103516 217.850006103516 223.625 230.268753051758 234.643753051758 239.206253051758 241.806243896484 238.643753051758 237.274993896484 236.706253051758 232.862503051758 234.018753051758 234.056243896484 235.324996948242 228.5625 224.231246948242 219.431243896484 214.65625 205.96875 203.706253051758 202.893753051758 207.737503051758 209.199996948242 211.387496948242 210.149993896484 202.443756103516 194.649993896484 193.662506103516 187.074996948242 185.15625 189.524993896484 188.59375 186.774993896484 183.012496948242 186.662506103516 191.393753051758 193.081253051758 193.84375 192.962493896484 200.96875 203.675003051758 
199.699996948242 187.662506103516 185.212493896484 182.543746948242 179.731246948242 182.006256103516 186.743743896484 194.199996948242 204.65625 213.581253051758 220.287506103516 223.181243896484 229.743743896484 231.024993896484 232.449996948242 233.850006103516 235.768753051758 232.762496948242 230.34375 232.037506103516 229.574996948242 232.743743896484 235.543746948242 235.768753051758 231.975006103516 224.675003051758 225.337493896484 218.475006103516 210.443756103516 209.487503051758 208.712493896484 205.725006103516 208.081253051758 213.493743896484 205.393753051758 195.899993896484 192.350006103516 193.368743896484 185.737503051758 184.199996948242 187.018753051758 187.53125 184.0625 182.381256103516 187.25 187.71875 187.65625 191.475006103516 188.824996948242 194.893753051758 201.850006103516 
191.193756103516 178.8125 182.356246948242 186.574996948242 185.3125 186.581253051758 190.699996948242 201.25 214.643753051758 224.643753051758 226.59375 227.71875 230.96875 235.293746948242 232.25 228.893753051758 226.9375 225.387496948242 226.506256103516 233.881256103516 234.350006103516 232.481246948242 235.300003051758 238.324996948242 236.787506103516 231.793746948242 227.212493896484 215.262496948242 210.618743896484 215.175003051758 214.256256103516 209.762496948242 205.668746948242 202.856246948242 196.868743896484 197.399993896484 196.524993896484 189.15625 184.162506103516 181.256256103516 186.418746948242 189.625 186.506256103516 183.981246948242 184.9375 182.84375 183.5625 186.125 187.149993896484 190.143753051758 195.600006103516 
202.368743896484 183.600006103516 176.318756103516 182.737503051758 190.168746948242 191.162506103516 197.800003051758 208.375 220.318756103516 228.193756103516 235.149993896484 233.456253051758 234.925003051758 235.887496948242 230.587493896484 225.84375 221.349990844727 221.918746948242 219.556243896484 225.712509155273 230.75 229.893753051758 231.737503051758 241.3125 239.231246948242 233.612503051758 225.175003051758 220.300003051758 213.837493896484 211.962493896484 213.037490844727 211.881256103516 211.149993896484 206.324996948242 199.96875 193.112503051758 191.537506103516 188.362503051758 181.731246948242 180.856246948242 184.28125 182.887496948242 184.449996948242 184.868743896484 182.574996948242 180.068756103516 180.806243896484 180.3125 178.399993896484 182.012496948242 185.40625 
200.643753051758 189.274993896484 184.693756103516 171.943756103516 182.368743896484 197.225006103516 204.1875 212.581253051758 226.181243896484 232.618743896484 236.100006103516 234.90625 235.862503051758 230.181243896484 227.90625 223.012496948242 215.356246948242 212.90625 215.512496948242 224.050003051758 228.5 230.612503051758 235.768753051758 236.287506103516 238.324996948242 235.243743896484 227.018753051758 220.4375 211.943756103516 210.03125 210.506256103516 214.100006103516 210.6875 210.137496948242 202.256256103516 197.59375 187.824996948242 184.850006103516 184.25 186.087493896484 181.706253051758 183.1875 181.875 179.756256103516 181.012496948242 178.768753051758 173.449996948242 173.449996948242 170.481246948242 172.212493896484 174.331253051758 
201.362503051758 192.512496948242 189.574996948242 185.668746948242 183.862503051758 186.675003051758 199.90625 213.274993896484 222.081253051758 230.481246948242 236.28125 230.199996948242 232.71875 228.668746948242 222.212493896484 219.112503051758 214.981246948242 209.125 207.006256103516 220.618743896484 224.637496948242 226.274993896484 229.181243896484 234.287490844727 235.181243896484 236.5 233.225006103516 219.837493896484 208.4375 212.012496948242 210.75 207.425003051758 204.606246948242 207.837493896484 206.787506103516 199.118743896484 188.693756103516 183.081253051758 183.84375 186.550003051758 180.881256103516 177.981246948242 178.5 175.693756103516 176.768753051758 177.412506103516 173.362503051758 164.824996948242 158.768753051758 161.412506103516 165.706253051758 
204.912506103516 194.524993896484 194.074996948242 194.225006103516 195.875 206.418746948242 208.181243896484 203.443756103516 207.274993896484 215.899993896484 223.074996948242 223.756256103516 224.59375 219.9375 217.337493896484 213.9375 208.28125 205.106246948242 205.131256103516 208.918746948242 220.456253051758 226.981246948242 228.318756103516 232.649993896484 237.568756103516 232.668746948242 228.368743896484 213.581253051758 207.856246948242 205.625 210.387496948242 207.425003051758 207 205.643753051758 202.443756103516 192.331253051758 183.506256103516 178.693756103516 174.818756103516 172.168746948242 168.706253051758 168.8125 168.212493896484 164.356246948242 163.431243896484 159.606246948242 155.456253051758 147.074996948242 144.925003051758 146.637496948242 153.868743896484 
206.418746948242 198.34375 196.774993896484 200.3125 204.71875 210.512496948242 214.306243896484 215.743743896484 212.631256103516 208.274993896484 210.481246948242 207.3125 214.868743896484 210.375 208.618743896484 206.262496948242 205.712493896484 208.743743896484 216.262496948242 211.443756103516 213.793746948242 226.3125 228.787506103516 236.337493896484 239.46875 229.050003051758 219.231246948242 215.925003051758 211.481246948242 207.59375 213.34375 205.3125 196.743743896484 192.537506103516 191.881256103516 190.725006103516 186.850006103516 184.012496948242 176.199996948242 168.78125 163.037506103516 160.956253051758 160.793746948242 155.100006103516 150.975006103516 146.225006103516 143.300003051758 134.618743896484 131.962493896484 133.287506103516 138.143753051758 
204.581253051758 199.84375 201.25 205.34375 209.949996948242 218.550003051758 221.65625 223.087493896484 222.243743896484 221.875 215.9375 203.893753051758 206.006256103516 204.050003051758 204.568756103516 206.037506103516 203.237503051758 212.487503051758 221.28125 223.712493896484 224.756256103516 223.625 221.949996948242 229.475006103516 230.46875 229.350006103516 219.462493896484 214.131256103516 206.618743896484 204.268753051758 206.324996948242 198.556259155273 194.675003051758 190.118743896484 186.856246948242 187.443756103516 185.762496948242 183.768753051758 176.300003051758 172.625 169.081253051758 163.418746948242 155.918746948242 146.25 138.71875 138.587493896484 136.637496948242 126 120.800003051758 118.625 118.025001525879 
206.46875 203.737503051758 204.699996948242 210.59375 214.774993896484 223.168746948242 227.431243896484 223.524993896484 217.774993896484 217.068756103516 216.1875 207.862503051758 196.84375 197.050003051758 194.981246948242 196.668746948242 201.168746948242 210.918746948242 219.800003051758 232.324996948242 240.649993896484 236.556243896484 225.59375 214.643753051758 226.0625 237.725006103516 229.149993896484 218.743743896484 203.587493896484 200.912506103516 199.824996948242 197.90625 195.987503051758 190.043746948242 189.618743896484 187.668746948242 186.231246948242 179.631256103516 180.199996948242 173.631256103516 165.168746948242 157.662506103516 153.675003051758 140.03125 129.675003051758 128.818740844727 125.643745422363 119.512496948242 115.125 107.987503051758 104.525001525879 
206.125 202.225006103516 204.28125 211.043746948242 216.881256103516 224.981246948242 230.75 227.056259155273 217.524993896484 209.556243896484 206 204.243743896484 191.199996948242 187.893753051758 193.399993896484 191.862503051758 196.256256103516 205.681243896484 215.574996948242 231.537506103516 248.1875 248.5 245.568756103516 229.506256103516 226.324996948242 218.96875 212.399993896484 208.225006103516 198.568740844727 194.537506103516 188.206253051758 186.362503051758 187.362503051758 186.350006103516 188.975006103516 190.018753051758 185.887496948242 185.231246948242 174.412506103516 167.806243896484 158.112503051758 153.800003051758 142.887496948242 127.625 115.862503051758 108.356254577637 102.612503051758 105.53125 105.006248474121 99.4500045776367 88.78125 
199.106246948242 199.15625 203.731246948242 207.737503051758 211.399993896484 219.243743896484 221.824996948242 216.300003051758 207.78125 204.25 202.306243896484 197.443756103516 193.993743896484 179.28125 178.587493896484 185.543746948242 189.962493896484 200.931243896484 211.418746948242 222.9375 235.268753051758 237.637496948242 240.618743896484 229.393753051758 214.349990844727 207.287506103516 203.643753051758 201.168746948242 193.806243896484 187.837493896484 181.15625 174.037506103516 178.6875 180.050003051758 182.387496948242 185.306243896484 188.456253051758 192.225006103516 188.543746948242 172.731246948242 155.806243896484 147.09375 131.381256103516 120.324996948242 117.900001525879 112.806251525879 102.806251525879 96.6687469482422 94.3812484741211 93.46875 88.1500015258789 
193.881256103516 193.918746948242 198.856246948242 201.850006103516 204.068756103516 208.043746948242 208.96875 205.03125 203.03125 196.237503051758 193.137496948242 191.024993896484 184.5 175.800003051758 164.399993896484 174.381256103516 177.300003051758 189.237503051758 197.050003051758 209.106246948242 218.675003051758 226.0625 230.512496948242 223.943756103516 210.412506103516 200.84375 194.056243896484 186.225006103516 179.393753051758 174.637496948242 175.550003051758 171.587493896484 170.449996948242 172.100006103516 175.800003051758 185.581253051758 196.831253051758 207.324996948242 206.662506103516 187.774993896484 154.962493896484 136.587493896484 132.3125 137.675003051758 140.256256103516 127.818748474121 118.375 113.306251525879 103.90625 103.206253051758 95.5500030517578 
190.393753051758 188.012496948242 190.65625 194.618743896484 194.537506103516 196.131256103516 201.03125 197.206253051758 193.012496948242 186.925003051758 183.431243896484 179.806243896484 176.725006103516 171.962493896484 155.28125 158.981246948242 163.137496948242 172.862503051758 181.350006103516 193.9375 206.987503051758 213.774993896484 219.006256103516 219.225006103516 213.34375 206.556243896484 198.618743896484 187.574996948242 181.90625 178.731246948242 170.59375 168.425003051758 174.112503051758 172.793746948242 168.112503051758 175.524993896484 197.568756103516 219.893753051758 222.412506103516 201.837493896484 177.762496948242 161.21875 163.550003051758 154.925003051758 147.649993896484 140.243743896484 139.699996948242 135.649993896484 131.100006103516 112.512496948242 101.331253051758 
182.362503051758 180.550003051758 183.787506103516 185.131256103516 186.149993896484 190.943756103516 189.306243896484 186.256256103516 183.262496948242 180.943756103516 175.5625 173.212493896484 171.331253051758 167.15625 154.912506103516 138.125 145.75 157.662506103516 164.662506103516 177.487503051758 188.362503051758 200.100006103516 209.4375 220.331253051758 218.75 211.15625 198.856246948242 183.793746948242 178.9375 176.59375 179.024993896484 169.462493896484 165.71875 162.274993896484 160.21875 183.112503051758 202 221.987503051758 232.0625 228.96875 214.537506103516 196.487503051758 182.106246948242 163.912506103516 148.318756103516 140.168746948242 133.643753051758 130.643753051758 128.787506103516 118.993751525879 107.318748474121 
174.71875 173.3125 177.28125 180.368743896484 182.581253051758 182.024993896484 182.918746948242 180.381256103516 177.8125 175.568756103516 171.493743896484 167.53125 163.675003051758 162.4375 160.868743896484 150.074996948242 138.206253051758 141.762496948242 156.081253051758 166.981246948242 176.399993896484 188.975006103516 205.024993896484 221.40625 227.443756103516 206.306243896484 186.90625 174.087493896484 173.59375 176.493743896484 179.637496948242 180.824996948242 175.949996948242 173.949996948242 190.243743896484 203.643753051758 227.856246948242 257.975006103516 275.643737792969 252.537506103516 232.024993896484 207.100006103516 181.881256103516 166.737503051758 151.481246948242 138.71875 135.131256103516 136.431243896484 133.475006103516 118.599998474121 113 
167.337493896484 168.449996948242 170.75 175.712493896484 177.931243896484 175.756256103516 175.412506103516 174.962493896484 172.550003051758 165.787506103516 162.293746948242 162.84375 159.90625 158.706253051758 160.65625 157.824996948242 148.306243896484 133.743743896484 150.118743896484 158.949996948242 167.181243896484 177.675003051758 198.962493896484 212.925003051758 216.550003051758 196.112503051758 176.518753051758 168.449996948242 170.206253051758 169.106246948242 163.40625 162.462493896484 187.9375 199.537506103516 201.175003051758 224.043746948242 254.25 272.674987792969 278.325012207031 259.918762207031 226.181243896484 201.956253051758 178.59375 164.037506103516 149.631256103516 139.699996948242 140.09375 134.887496948242 129.837493896484 115.1875 113.037498474121 
160.4375 161.493743896484 162.443756103516 166.100006103516 170.75 170.993743896484 168.787506103516 170.137496948242 169.1875 163.387496948242 159.512496948242 156 155.050003051758 156.806243896484 153.693756103516 155.431243896484 152.600006103516 143.393753051758 138.587493896484 143.96875 158.59375 180.756256103516 169.918746948242 186.162506103516 192.1875 188.506256103516 176.543746948242 165.899993896484 168.443756103516 169.53125 167.324996948242 169.837493896484 188.800003051758 195.800003051758 203.96875 222.53125 237.481246948242 248.262496948242 254.118743896484 233.268753051758 212.600006103516 188.418746948242 171.181243896484 158.300003051758 147.8125 139.125 140.356246948242 137.350006103516 125.568748474121 107.875 112.318748474121 
149.643753051758 152.975006103516 155.743743896484 158.787506103516 160.737503051758 167.568756103516 166.050003051758 167.831253051758 167.96875 162.981246948242 159.649993896484 163.100006103516 161.818756103516 159.987503051758 152.600006103516 142.762496948242 137.712493896484 151.362503051758 145.15625 143.518753051758 136.443756103516 146.087493896484 162.381256103516 171.443756103516 172.925003051758 164.956253051758 161.25 164.493743896484 161.425003051758 157.056243896484 162.774993896484 179.537506103516 187.556243896484 195.40625 205.868743896484 219.649993896484 226.649993896484 228.193756103516 224.956253051758 211.925003051758 190.037506103516 171.006256103516 162.574996948242 151.581253051758 142.631256103516 138.056243896484 137.862503051758 132.537506103516 120.181251525879 107.625 111.925003051758 
136.28125 147.53125 156.856246948242 157.212493896484 156.881256103516 163.418746948242 164.743743896484 167.300003051758 165.875 162.868743896484 157.737503051758 160.381256103516 160.824996948242 157.068756103516 150.087493896484 143.168746948242 140.475006103516 142.962493896484 148.512496948242 142.006256103516 149.568756103516 158.387496948242 169.631256103516 180.568756103516 181.125 170.71875 157.456253051758 158.71875 161.706253051758 161.25 169.925003051758 179.34375 179.581253051758 188.618743896484 199.143753051758 209.100006103516 216.137496948242 213.381256103516 205.256256103516 192.543746948242 178.050003051758 167.21875 156.231246948242 147.462493896484 140.412506103516 136.037506103516 132.881256103516 127.662498474121 113.40625 109.556251525879 107.643753051758 
133.03125 135.6875 147.056243896484 153.1875 156.800003051758 157.056243896484 159.431243896484 162.03125 162.637496948242 160.25 158.368743896484 155.59375 153.550003051758 156.481246948242 156.068756103516 149.568756103516 151.431243896484 150.6875 153.024993896484 152.800003051758 151.912506103516 159.287506103516 170.050003051758 171.699996948242 167.725006103516 161.34375 162.925003051758 157.668746948242 165.449996948242 170.818740844727 171.787506103516 172.5625 173.9375 179.212493896484 183.837493896484 195.131256103516 201.137496948242 199.731246948242 193.0625 183.337493896484 171.90625 163.493759155273 155.03125 146.506256103516 139.131256103516 134.393753051758 129.09375 119.775001525879 108.162498474121 110.056251525879 103.706253051758 
129.506256103516 138.350006103516 146.881256103516 151.256256103516 154.024993896484 156.412506103516 151 153.28125 156.318756103516 160.96875 161.28125 158.256256103516 159.53125 159.387496948242 162.199996948242 162.149993896484 157.581253051758 153.306243896484 153.212493896484 156.699996948242 164.150009155273 165.293746948242 169.112503051758 169.3125 170.71875 161.9375 156.9375 158.787506103516 160.293746948242 161.024993896484 161.293746948242 163.856246948242 163.78125 164.237503051758 170.768753051758 174.693756103516 182.71875 180.118743896484 179.231246948242 174.793746948242 166.568756103516 156.25 149.475006103516 141.65625 132.03125 129.84375 122.387496948242 115.862503051758 110.849998474121 109.849998474121 102.599998474121 
122.199996948242 134.556243896484 146.875 150.34375 152.800003051758 151.762496948242 154.175003051758 153.3125 151.681243896484 150.818756103516 152.862503051758 159.837493896484 160.762496948242 162.862503051758 161.324996948242 161.268753051758 155.993743896484 157.649993896484 156.774993896484 163.300003051758 164.668746948242 171.193756103516 173.625 178.274993896484 176.918746948242 166.118743896484 163.887496948242 155.662506103516 153.106246948242 151.875 151.868743896484 152.006256103516 149.012496948242 146.831253051758 156.268753051758 156.475006103516 165.34375 169.262496948242 168.768753051758 164.193756103516 158.793746948242 150.081253051758 144.6875 136.606246948242 130.40625 123.631248474121 115.081245422363 107.631248474121 107.306251525879 106.243751525879 98.0812530517578 
118.59375 132.475006103516 146.793746948242 152.006256103516 155.324996948242 151.587493896484 152.168746948242 151.4375 149.8125 152.274993896484 154.331253051758 152.231246948242 158.706253051758 159.21875 157.037506103516 153.800003051758 153.181243896484 156.90625 159.606246948242 163.649993896484 168.418746948242 172.637496948242 182.574996948242 181.925003051758 174.381256103516 172.162506103516 159.850006103516 150.90625 144.3125 141.987503051758 135.193756103516 130.90625 132.925003051758 132.806243896484 135.78125 141.25 151.03125 153.912506103516 155.943756103516 154.506256103516 148.34375 143.4375 139.393753051758 131.356246948242 120.068756103516 115.768753051758 104.793746948242 105.525001525879 103.443748474121 101.193748474121 96.2375030517578 
121.618751525879 135.175003051758 142.137496948242 149.456253051758 152.387496948242 150.168746948242 149.668746948242 148.087493896484 144.893753051758 141.512496948242 149.931259155273 150.90625 149.331253051758 150.756256103516 151.03125 150.637496948242 149.337493896484 153.293746948242 158.112503051758 160.925003051758 170.524993896484 176.506256103516 185.550003051758 184.818756103516 175.487503051758 166.706253051758 156.962509155273 144.71875 133.912506103516 126.706253051758 119.487503051758 113.150001525879 112.693748474121 115.400001525879 122.418746948242 128.850006103516 137.25 143.59375 145.362503051758 144.606246948242 143.512496948242 136.268753051758 131.25 123.537498474121 115.662506103516 104.699996948242 103.231246948242 101.337493896484 100.674995422363 100.018745422363 94.6999969482422 
117.199996948242 125.21875 134.893753051758 142.350006103516 144.699996948242 144.524993896484 145.193756103516 142.887496948242 137.300003051758 141.731246948242 147.081253051758 147.40625 146.237503051758 143.600006103516 142.712493896484 146.125 145.649993896484 146.818756103516 152.956253051758 158.5625 163.28125 170.331253051758 181.387496948242 184.699996948242 171.556243896484 156.84375 146.100006103516 135.612503051758 125.449996948242 113.587501525879 107.65625 97.9124984741211 96.8687515258789 105.21875 110.6875 119.143753051758 123.418746948242 129.631256103516 133.006256103516 134.731246948242 136.768753051758 131.956253051758 125.650001525879 117.681251525879 107.675003051758 101.362503051758 100.65625 95.21875 94.5875015258789 90.5999984741211 85.8187484741211 
113.068748474121 116.0625 124.193748474121 133.256256103516 135.949996948242 136.943756103516 137.837493896484 135.850006103516 134.631256103516 137.125 139.65625 137.550003051758 136.668746948242 135.006256103516 133.725006103516 135.3125 136.856246948242 139.887496948242 141.768753051758 148.850006103516 158.018753051758 163.012496948242 166.556243896484 168.6875 161.006256103516 148.231246948242 137.15625 126.662498474121 116.512496948242 107.84375 99.71875 92.9499969482422 92.4375 95.59375 101.6875 108.668746948242 112.462501525879 118.78125 123.337501525879 128.449996948242 130.287506103516 130.28125 121.637496948242 115.412498474121 102.981254577637 95.9250030517578 92.3625030517578 90.1187515258789 86.1187515258789 79.6312484741211 75.90625 
107.074996948242 109.668746948242 118.056251525879 120.550003051758 125.131248474121 124.568748474121 124.987503051758 126.856246948242 126.199996948242 129.837493896484 131.193756103516 129.037506103516 128.387496948242 128.1875 127.625 128.518753051758 131.693756103516 131.012496948242 134.774993896484 141.100006103516 147.337493896484 151.818756103516 156.725006103516 154.612503051758 148.175003051758 138.149993896484 127.693748474121 117.662498474121 111.0625 102.912498474121 93.9812469482422 88.03125 87.0124969482422 88.84375 93.9437484741211 99.8687515258789 103.856246948242 109.400001525879 113.449996948242 115.449996948242 120.493751525879 117.53125 113.118751525879 107.950004577637 98.2125015258789 87.7937545776367 85.8250045776367 83.5187530517578 76.9937515258789 72.2874984741211 64.4250030517578 
97.3249969482422 102.268753051758 107.756248474121 110.081253051758 111.443748474121 112.912498474121 112.987503051758 117.5 119.512496948242 120.84375 122.387496948242 123.181251525879 122.34375 120.012496948242 119.65625 120.3125 120.65625 122.806251525879 124.349998474121 128.137496948242 134.899993896484 138.274993896484 142.625 137.793746948242 132.9375 125.637496948242 115.706253051758 107.506248474121 101.675003051758 94.3562469482422 87.7874984741211 82.1500015258789 81.0124969482422 83 86.1125030517578 90.1187515258789 96.4562530517578 99.3499984741211 100.150001525879 102.650001525879 108.012496948242 107.056251525879 103.618751525879 98.2375030517578 90.9812545776367 86.7937469482422 83.2312469482422 77.3187484741211 70.71875 67.6062545776367 60.8125 
89.5812530517578 93.2312469482422 93.9562454223633 99 102.056251525879 104.84375 105.512496948242 108.006248474121 110.424995422363 112.662498474121 115.318748474121 114.831253051758 116.987495422363 112.393745422363 110.625 111.737503051758 114.618751525879 112.756248474121 111.675003051758 117.643753051758 124.143753051758 127.0625 128.981246948242 122.4375 116.599998474121 114.037498474121 105.537498474121 96.4875030517578 89.3062515258789 85.1500015258789 80.53125 77.3062515258789 77.0749969482422 79.125 81.2312469482422 82.8499984741211 86.6500015258789 91.3312530517578 90.0062484741211 88.8125 92.0187530517578 94.3812484741211 92.4375 87.5 83.6687469482422 82.125 77.0687484741211 71.1999969482422 66.0187530517578 62.7437515258789 58.09375 
81.9499969482422 81.5124969482422 82.0374984741211 84.6937484741211 89.03125 93.2562484741211 96.8625030517578 99.03125 102.449996948242 103.306251525879 106.550003051758 108.756248474121 108.168746948242 108.168746948242 106.775001525879 106.3125 106.443748474121 104.59375 102.368751525879 107.881248474121 110.737503051758 113.949996948242 114.15625 108.299995422363 105.356246948242 100.46875 93.6500015258789 87.6312484741211 79.6125030517578 76.8249969482422 74.9749984741211 72.5124969482422 71.8687515258789 73.5374984741211 76.0749969482422 76.4187469482422 79.8687515258789 79.3812484741211 78.6374969482422 80.0875015258789 82.4375 82.4812469482422 80.9562530517578 80.0749969482422 77.7062530517578 77.1937484741211 75.7562484741211 69.7624969482422 62.3624992370605 58.1437492370605 53.8499984741211 
73.03125 71.8000030517578 70.9625015258789 72.4625015258789 76.03125 79.59375 83.7562484741211 86.875 88.2562484741211 93.09375 98.6937484741211 98.7562484741211 100.037498474121 102.25 101.412498474121 98.3375015258789 95.5812530517578 97.21875 97.2937469482422 100.768753051758 101.706253051758 101.525001525879 99.6687469482422 96.0437469482422 94.3375015258789 89.3562545776367 84.7249984741211 77.9499969482422 72.8125 69.7624969482422 68.21875 66.1750030517578 64.8312530517578 66.5374984741211 69.8312530517578 71.7312469482422 71.2437515258789 70.6999969482422 70.6187515258789 73.8125 75.6999969482422 76.3562469482422 72.8125 72.84375 71.4187545776367 71.5812530517578 73.6125030517578 66.875 61.7312507629395 55.7125015258789 52.2437515258789 
64.625 63.5750007629395 63.71875 64.7437515258789 65.9375 66.9812469482422 70.1062469482422 71.4749984741211 76.40625 79.8312530517578 85.8062515258789 89.3812484741211 92.7874984741211 93.7874984741211 92.6687469482422 88.84375 87.2874984741211 87.9749984741211 88.2062530517578 90.25 91.7937469482422 89.2624969482422 89.2125015258789 86.4499969482422 82.4749984741211 77.9312515258789 73.84375 69.6999969482422 65.2062530517578 63.4500007629395 62.4437522888184 60.5875015258789 59.46875 61.6500015258789 64.0500030517578 64.5687484741211 62.9749984741211 63.0875015258789 64.9625015258789 66.7562484741211 68.9874954223633 70.5500030517578 70.3375015258789 68.875 68.6812438964844 66.5999984741211 65.0500030517578 60.5812492370605 56.3812484741211 53.4812507629395 49.0437507629395 
57.6312484741211 55.03125 56.3812484741211 56.6062507629395 57.9437484741211 58.75 59.6500015258789 60.7312507629395 62.96875 67 73.8499984741211 80.1999969482422 87.1999969482422 90.1374969482422 86.28125 82.53125 79.9437484741211 79.6187515258789 80.9937515258789 81.0437469482422 81.7687530517578 81.6125030517578 80.0187530517578 76.9874954223633 73.15625 68.6374969482422 65.2687530517578 61.71875 57.8312492370605 54.1937484741211 53.9625015258789 54.7750015258789 54.9124984741211 56.3312492370605 56.9749984741211 57.28125 57.2625007629395 58.6687507629395 59.3875007629395 59.8312492370605 60.9937515258789 61.1812477111816 63.8812484741211 63.6624984741211 62.7312507629395 61.8624992370605 59.9500007629395 56.8812484741211 53.0687484741211 49.4124984741211 45.25 
50.4937515258789 49.28125 50.8687515258789 50.0499992370605 50.7000007629395 50.75 51.4812507629395 51.9500007629395 53.4124984741211 55.7124977111816 61.3312492370605 68.8375015258789 77.9187469482422 79.2937469482422 78.0250015258789 75.21875 73.3687515258789 72.25 71.6687469482422 71.9625015258789 69.4562530517578 70.9124984741211 68.6500015258789 65.5 61.2687492370605 59.6812515258789 56.9375 54.0374984741211 50.7062492370605 48.2625007629395 48.2249984741211 49.6687507629395 49.6937484741211 51.1500015258789 51.9749984741211 51.4312515258789 52.1500015258789 52.9375 54.8812484741211 55.4874992370605 55.0625 55.9375 55.7687492370605 56.2312507629395 56.0187492370605 54.7750015258789 52.6687507629395 51.28125 48.6875 44.4000015258789 40.8937492370605 
43.6312484741211 43.6937484741211 44.5 43.5125007629395 43.9000015258789 44.6437492370605 44.9124984741211 44.8875007629395 45.1312484741211 45.0062484741211 50.3062515258789 58.4749984741211 65.6687469482422 68.0562515258789 68.5562515258789 67.2062530517578 65.3062515258789 63.4562492370605 62.5437507629395 62.7999992370605 60.1875 59.0687484741211 57.5875015258789 55.9437484741211 52.4625015258789 50.5999984741211 48.6187515258789 45.9562492370605 43.5250015258789 43.15625 43.1312484741211 43.625 43.65625 45.0625 45.9562492370605 45.15625 45.7062492370605 48.2312507629395 50.5499992370605 50.4000015258789 49.46875 50.1749992370605 49.8562507629395 51.53125 51.4937515258789 48.6875 48.625 46.2000007629395 44.15625 40.9937515258789 37.1375007629395 
36.8499984741211 37.6812515258789 37.4500007629395 37.9500007629395 38.3062515258789 38.7312507629395 38.96875 38.7750015258789 38.96875 38.0625 45.3624992370605 52.2249984741211 56.5187492370605 59.3250007629395 60.6124992370605 59.9375 56.8562507629395 56.8562507629395 55.0187492370605 54.6375007629395 53.0562515258789 51.25 48.8312492370605 47.5875015258789 45.5812492370605 43.7750015258789 41.7750015258789 39.75 37.9874992370605 37.4562492370605 36.2374992370605 37.4937515258789 37.7374992370605 39.2999992370605 39.25 38.4437484741211 40.8125 42.7437515258789 44.7250022888184 45.1312484741211 44.6624984741211 46.46875 45.8812484741211 43.6749992370605 43.7125015258789 42.5374984741211 42.375 42.15625 38.1187515258789 35.6312484741211 34.0437507629395 
31.59375 31.5562496185303 31.1375007629395 32.5 32.9812507629395 33.3187484741211 32.8062515258789 34.4500007629395 36.3624992370605 39.7374992370605 46.28125 48.7687492370605 50.6624984741211 53.4625015258789 54.5125007629395 52.8875007629395 50.8562507629395 50.09375 47.8125 47.2937507629395 45.7249984741211 43.6937484741211 42.5374984741211 41.3562507629395 38.9812507629395 37.5062522888184 36.46875 34.4937515258789 33.4000015258789 33.5499992370605 32.8499984741211 32.4562492370605 32.7125015258789 34.0250015258789 34.65625 34.9187507629395 37.0687484741211 39.4187507629395 40.3187484741211 38.8875007629395 40.1749992370605 42.5374984741211 40.4874992370605 39.2625007629395 38.59375 37.5374984741211 35.84375 34.5687484741211 32.7312507629395 31.8624992370605 30.15625 
27.0062503814697 27.28125 26.7999992370605 28.2625007629395 28.4874992370605 29.46875 29.7999992370605 31.2124996185303 33.46875 36.3250007629395 40.2687492370605 43.1749992370605 44.8125 46.125 47.5 47.7687492370605 45.3875007629395 45.1624984741211 43.2000007629395 41.3312492370605 38.3375015258789 37 35.5875015258789 34.6375007629395 33.0125007629395 31.8062496185303 30.8374996185303 29.7749996185303 28.59375 29.3500003814697 29.7625007629395 29.4125003814697 29.4874992370605 30.3125 32.03125 32.0750007629395 32.8187484741211 34.5812492370605 36.9500007629395 36.4937515258789 37.3375015258789 38.6124992370605 36.9312515258789 35.0187492370605 33.1500015258789 31.7250003814697 31.25 29.7250003814697 28.7937507629395 28.0249996185303 26.3624992370605 
21.8062496185303 22.4562492370605 23.1812496185303 24.0062503814697 24.6375007629395 25.3312492370605 26.3937492370605 28.3250007629395 29.1124992370605 32.4812507629395 35.7125015258789 38.34375 40.0125007629395 39.9312515258789 40.3812484741211 40.9312515258789 40.5125007629395 39.46875 37.4249992370605 35.6312484741211 32.9124984741211 31.5874996185303 29.8812503814697 28.9874992370605 28.8125 27.7000007629395 26.8999996185303 26.4500007629395 25.9437503814697 25.3374996185303 25.6687507629395 27.1812496185303 27.2875003814697 28.0687503814697 28.9312496185303 29.3312492370605 30.1937503814697 31.3562507629395 33.1687507629395 34.1312484741211 33.875 34.0999984741211 33.3125 31.6062507629395 30.0375003814697 28.4187507629395 27.1312503814697 25.3250007629395 25.34375 24.1499996185303 23.0625 
17.3624992370605 18.0375003814697 18.9874992370605 19.7312507629395 20.7937507629395 21.6937503814697 23.1499996185303 24.0375003814697 25.125 27.5750007629395 30.2124996185303 33.0437507629395 34.5250015258789 34.0062484741211 34.5687484741211 35.8875007629395 36.0125007629395 35.5562515258789 33.6687507629395 32.3125 29.7062492370605 27.9812507629395 26.1875 24.6625003814697 24.625 23.875 23.6812496185303 23.4125003814697 23.4812507629395 23.7250003814697 22.5 23.3500003814697 24.2312507629395 26.375 26.9500007629395 26.0437507629395 26.9624996185303 28.6375007629395 30.125 31.0249996185303 30.4375 29.9312496185303 28.46875 27.4187507629395 26.1312503814697 25.1687507629395 23.2937507629395 21.1375007629395 21.46875 20.5125007629395 19.1625003814697 
13.0062503814697 13.8874998092651 14.6374998092651 15.2749996185303 15.6999998092651 17.03125 18.1625003814697 18.9624996185303 20.5750007629395 22.65625 24.7000007629395 26.7250003814697 27.9562492370605 28.6625003814697 29.8374996185303 31.1875 31.5625 31.7749996185303 30.5499992370605 28.3562507629395 25.9249992370605 23.9125003814697 22.8500003814697 22.6375007629395 22.6187496185303 21.3875007629395 21.34375 20.9874992370605 20.4937496185303 20.6124992370605 20.21875 19.5874996185303 19.8374996185303 21.9812507629395 25.1312503814697 25.6062507629395 24.5062503814697 25.6124992370605 26.5687503814697 25.9437503814697 25.65625 25.75 25.3062496185303 23.9500007629395 23.84375 21.8125 19.7000007629395 18.4937496185303 19.3562507629395 17.96875 15.9437503814697 
9.51875019073486 10.1062498092651 10.7124996185303 11.2562503814697 11.9750003814697 13.0375003814697 13.7875003814697 14.7562503814697 16.1499996185303 18 19.6687507629395 21.6187496185303 22.8812503814697 24.46875 25.7000007629395 26.4125003814697 27.9125003814697 28.6749992370605 27.5062503814697 26.0562496185303 23.7374992370605 21.7250003814697 19.9437503814697 19.9874992370605 19.5874996185303 18.8999996185303 18.5249996185303 18.2749996185303 17.90625 18.15625 17.5375003814697 17.1812496185303 17.5249996185303 18.7562503814697 22.2749996185303 24.5625 22.8312492370605 23 23.4562492370605 22.2937507629395 22.0625 22.1499996185303 21.25 20.5499992370605 20.125 18.7937507629395 17.8250007629395 16.0562496185303 15.1937503814697 15.3562498092651 13.5124998092651 
6.59375 6.98750019073486 7.66249990463257 8.1875 9.11874961853027 10.0812501907349 10.6625003814697 11.2250003814697 12.6312503814697 14.1374998092651 15.4875001907349 17 18.8999996185303 20.8937492370605 22.5062503814697 22.8562507629395 23.9375 25.2250003814697 24.84375 23.3687496185303 21.2374992370605 19.8125 17.75 17.4375 17.375 17.125 16.1875 16.125 15.9375 16.0874996185303 15.5812501907349 15.2937498092651 15.6750001907349 17.3500003814697 19.2250003814697 21.7000007629395 20.71875 20.4624996185303 20.2937507629395 20.3250007629395 19.4125003814697 19.2000007629395 19.0812492370605 18.1749992370605 17.4750003814697 16.3374996185303 15.5999994277954 14 12.6125001907349 12.8125 12.125 
