ncols        51
nrows        45
xllcorner    -63.500000000000
yllcorner    -7.500000000000
cellsize     0.166666666667
NODATA_value -99
263.65625 268.59375 268.268737792969 272.600006103516 272.112487792969 266.793762207031 260.181243896484 249.556243896484 242.112503051758 238.625 238.431243896484 238.987503051758 238.550003051758 236.568756103516 235.868743896484 236.025009155273 237.375 236.143753051758 237.524993896484 239.03125 240.524993896484 243.206253051758 245.375 250.550003051758 254.024993896484 260.512512207031 268.293762207031 278.46875 287.412506103516 295.412506103516 303.96875 312.768737792969 318.96875 327.024993896484 334.568756103516 341.137512207031 345.162506103516 349.137512207031 354.581237792969 357.756256103516 360.725006103516 362.731262207031 361.149993896484 361.649993896484 359.712493896484 357.418731689453 353.399993896484 343.981262207031 336.399993896484 330.299987792969 321.825012207031 
272.418762207031 277.256256103516 284.143737792969 290.212493896484 294.981262207031 288.418762207031 279.962493896484 273.306243896484 267.112487792969 262.606262207031 261.068756103516 259.274993896484 257.631256103516 254.96875 251.862503051758 251.649993896484 250.462493896484 251.050003051758 252.737503051758 253.800003051758 255.168746948242 256.96875 260.625 264.600006103516 269.850006103516 275.737487792969 282.924987792969 292.925018310547 299.993743896484 306.943756103516 315.981262207031 326.068756103516 332.568756103516 341.487487792969 347.912506103516 354.024993896484 360.462493896484 364.818756103516 369.34375 371.09375 372.612487792969 374.850006103516 373.356262207031 371.174987792969 367.712493896484 364.662506103516 361.71875 350.6875 341.84375 333.712493896484 325.962493896484 
275.481262207031 282.649993896484 288.71875 297.206237792969 303.90625 300.756256103516 296.34375 293.125 291.549987792969 287.587493896484 283.506256103516 279.418762207031 276.90625 271.575012207031 267.837493896484 266.149993896484 264.087493896484 264.362518310547 264.725006103516 266.231262207031 268.518737792969 271.368743896484 273.837493896484 278.037506103516 284.287506103516 290.456237792969 298.787506103516 305.225006103516 310.262512207031 317.899993896484 326.081237792969 334.575012207031 344.024993896484 352.487487792969 357.899993896484 363.168762207031 371.65625 378.306243896484 381.5 383.424987792969 384.737487792969 384.28125 382.399993896484 380.4375 375.78125 371.237487792969 365.850006103516 354.631256103516 343.956237792969 335.056243896484 327.575012207031 
273.193756103516 281.081237792969 291.237487792969 298.231262207031 305.256256103516 307.774993896484 308.575012207031 309.956237792969 312.943756103516 312.762512207031 307.631256103516 300.325012207031 293.618743896484 288.131256103516 283.125 280.59375 278.575012207031 277.862487792969 277.46875 278.768737792969 282.375 285.381256103516 286.8125 292.318756103516 298.618743896484 303.493743896484 312.318756103516 316.862487792969 321.274993896484 330.15625 337.84375 345.787506103516 352.325012207031 360.243743896484 365.893737792969 374.043762207031 382.018737792969 388.987487792969 394.40625 394.506256103516 395.450012207031 395.912506103516 391.056243896484 386.612487792969 382.331237792969 373.743743896484 367.487487792969 355.799987792969 343.6875 335.787506103516 329.356262207031 
283.943756103516 287.149993896484 289.625 296.862487792969 307.087493896484 312.381256103516 315.375 321.712493896484 330.200012207031 335.612487792969 328.262512207031 315.381256103516 307.90625 302.418762207031 296.71875 293.268737792969 289.96875 289.106262207031 288.15625 288.700012207031 293.475006103516 296.118743896484 298.325012207031 305.731262207031 309.90625 314.950012207031 321.287506103516 328.893737792969 335.131256103516 341.387512207031 348.674987792969 352.856262207031 358.787506103516 367.21875 374.237487792969 382.399993896484 389.518737792969 397.337493896484 403.450012207031 404.075012207031 406.399993896484 402.043762207031 397.668762207031 394.612487792969 387.331237792969 377.018737792969 366 354.493743896484 342.618743896484 334.212493896484 330.6875 
286.5625 291.043762207031 293.893737792969 294.699981689453 303.799987792969 311.262512207031 315.493743896484 322.918731689453 332.274993896484 341.181243896484 331.587493896484 320.024993896484 313.962493896484 309.431243896484 303.5 300.674987792969 295.8125 294.731262207031 295.90625 297.412506103516 300.731262207031 303.368743896484 308.306243896484 313.993743896484 319.268737792969 325.212493896484 330.625 336.993743896484 342.381256103516 347.649993896484 353.825012207031 360.137512207031 363.0625 370.606262207031 379.462493896484 386.537506103516 396.03125 404.056243896484 409.4375 412.425018310547 410.256256103516 405.462493896484 402.006256103516 399.412506103516 392.962493896484 380.268737792969 366.612487792969 354.206237792969 342.649993896484 332.606262207031 327.293762207031 
290.337493896484 294.268737792969 297.112487792969 296.912506103516 297.943756103516 301.506256103516 306.075012207031 312.543762207031 317.625 320.875 320.918762207031 317.881256103516 317.331237792969 313.75 309.40625 307.90625 303.84375 299.975006103516 299.524993896484 302.556243896484 307.487487792969 311.9375 316.862487792969 320.40625 326.443756103516 333.0625 339.0625 342.9375 347.268737792969 352.581237792969 359.162506103516 364.075012207031 368.368743896484 372.806243896484 380.575012207031 387.862487792969 395.3125 404.381256103516 412.643768310547 414.725006103516 408.450012207031 404.587493896484 402.056243896484 399.443756103516 394.53125 379.25 365.125 350.899993896484 338.200012207031 330.212493896484 326 
294.825012207031 296.199981689453 296.90625 298.375 299.631256103516 300.6875 298.393737792969 295.612518310547 293.600006103516 296.84375 306.581237792969 313.337493896484 317.231262207031 317.731262207031 315.9375 313.662506103516 309.706237792969 305.756256103516 302.893737792969 306.46875 313.575012207031 319.668762207031 323.956237792969 327.799987792969 335.274993896484 339.331237792969 344.231262207031 348.049987792969 352.362487792969 358.024993896484 361.487487792969 365.78125 369.731262207031 374.143737792969 380.100006103516 383.706237792969 391.125 398.46875 403.668762207031 403.90625 400.524993896484 398.943756103516 396.231262207031 392.237487792969 384.887512207031 370.612487792969 353.856262207031 340.431243896484 331.481262207031 323.506256103516 320.21875 
297.818756103516 299.231262207031 299.356262207031 299.018737792969 299.725006103516 298.793762207031 297.018737792969 292.40625 284.381256103516 282.831237792969 296.424987792969 307.350006103516 318.450012207031 321.049987792969 318.881256103516 317.475006103516 315.162506103516 312.756256103516 312.087493896484 313.681243896484 315.518737792969 323.868774414062 328.162506103516 334.6875 341.1875 343.125 346.456237792969 350.5625 354.40625 359.131256103516 363.774993896484 364.799987792969 366.375 367.387512207031 372.556243896484 376.5 383.549987792969 387.84375 392.25 391.818756103516 389.34375 386.331237792969 385.381256103516 383.412506103516 372.25 358.350006103516 345.743743896484 332.743743896484 322.049987792969 315.625 315.806243896484 
300.331237792969 299.756256103516 300.381256103516 300.256256103516 299.681243896484 299.318756103516 298.625 294.799987792969 292.524993896484 295.325012207031 304.850006103516 312.100006103516 320.881256103516 324.206237792969 323.962493896484 321.618743896484 319.762512207031 319.131256103516 319 323.306243896484 325.049987792969 329.28125 332.825012207031 340.887512207031 343.65625 343.424987792969 345.862487792969 349.212493896484 353.987487792969 360.600006103516 361.356262207031 359.850006103516 359.743743896484 360.25 363.40625 368.087493896484 371.568756103516 375.25 378.362487792969 380.206237792969 380.212493896484 377.756256103516 375.274993896484 368.625 360.606262207031 352.850006103516 339.6875 326.087493896484 314.875 308.71875 306.381256103516 
302.962493896484 302.881256103516 302.631256103516 301.862487792969 299.587493896484 300.024993896484 300.493743896484 298.75 300.84375 306 315.225006103516 323.850006103516 326.6875 329.237487792969 326.887512207031 323.837493896484 322.712493896484 323.674987792969 325.831237792969 329.712493896484 335.950012207031 338.850006103516 339.03125 336.868743896484 343.243743896484 343.350006103516 342.943756103516 345.03125 347.725006103516 353.356262207031 353.5 351.168762207031 350.9375 350.71875 352.8125 353.65625 356.106262207031 359.649993896484 363.493743896484 365.887512207031 365.731262207031 363.262512207031 363.387512207031 359.643737792969 350.962493896484 342.993743896484 330.856262207031 315.387512207031 307.075012207031 303.081237792969 297.456237792969 
303.643737792969 302.706237792969 302.081237792969 304.337493896484 303.600006103516 302.649993896484 305.100006103516 306.756256103516 311.350006103516 317.649993896484 326.78125 335.200012207031 333.006256103516 331.587493896484 328.512512207031 325.90625 324.118743896484 325.293762207031 328.356262207031 333.262512207031 338.918762207031 341.918762207031 342.825012207031 343.662506103516 341.568756103516 336.162506103516 334.774993896484 334.837493896484 337.225006103516 339.65625 339.818756103516 338.412506103516 336.731262207031 336.662506103516 338.131256103516 339.887512207031 343.575012207031 347.693756103516 348.793762207031 348.806243896484 349.956237792969 348.987487792969 347.962493896484 340.981262207031 333.337493896484 321.462493896484 306.199981689453 299.037506103516 295.96875 295.893737792969 288.712493896484 
305.112487792969 303.712493896484 303.443756103516 304.612487792969 305.524993896484 308.381256103516 309.712493896484 311.1875 315.837493896484 324.700012207031 333.568756103516 340.856262207031 338.706237792969 329.125 325.475006103516 325.0625 322.293762207031 323.475006103516 327.924987792969 331.362487792969 337.106262207031 338.518737792969 336.418762207031 336.200012207031 326.649993896484 319.3125 321.181243896484 321.131256103516 324.543762207031 325.518737792969 325.293762207031 323.34375 321.25 321.024993896484 321.1875 325.100006103516 329.424987792969 333.693756103516 336.293762207031 336.731262207031 332.818756103516 333.981262207031 330.299987792969 324.412506103516 321.856262207031 315.368743896484 303.243743896484 290.40625 285.024993896484 289.037506103516 289.887512207031 
305.34375 303.725006103516 302.512512207031 303.243743896484 306.1875 309.018737792969 310.399993896484 312.918762207031 319.181243896484 326.674987792969 332.293762207031 334.231262207031 332.75 326.4375 319.706237792969 320.299987792969 317.662506103516 316.918762207031 321.693756103516 323.537506103516 327.787506103516 327.268737792969 326.193756103516 320.8125 313.725006103516 308.012512207031 308.131256103516 308.71875 310.46875 311.668762207031 310.899993896484 309.674987792969 305.325012207031 304.700012207031 306.012512207031 311.09375 315.78125 321.987487792969 326.631256103516 325.618743896484 318.193756103516 313.256256103516 315.3125 318.549987792969 320.412506103516 312.362487792969 303.424987792969 296.462493896484 289.981262207031 295.268737792969 299.975006103516 
303.450012207031 302.318756103516 301.96875 303.34375 306.993743896484 309.71875 312.4375 314.950012207031 319.068756103516 323.96875 328.112487792969 328.956237792969 325.837493896484 320.043762207031 312.262512207031 309.137512207031 307.981262207031 310.981262207031 314.756256103516 316.831237792969 318.681243896484 319.912506103516 316.837493896484 311.200012207031 304.674987792969 300.674987792969 299.737487792969 300.643737792969 302.350006103516 301.881256103516 298.649993896484 293.9375 292.462493896484 290.168762207031 289.924987792969 294.21875 304.306243896484 314.700012207031 319.012512207031 315.462493896484 308.956237792969 308.40625 314.893737792969 315.0625 314.699981689453 311.581237792969 308.143768310547 303.725006103516 302.549987792969 301.456237792969 302.193756103516 
299.618743896484 298.575012207031 300.431243896484 303.375 306.606262207031 309.524993896484 312.118743896484 315 320.318756103516 323.368743896484 325.662506103516 324.924987792969 321.53125 314.200012207031 304.518737792969 295.03125 297.78125 304.799987792969 307.375 310.049987792969 311.856262207031 311.149993896484 307.5 302.450012207031 296.056243896484 293.381256103516 291.268737792969 292.774993896484 294.15625 294.162506103516 292.912506103516 287.506256103516 279.600006103516 275.174987792969 272.193756103516 282.950012207031 293.40625 304.831237792969 310.450012207031 312.012512207031 308.575012207031 310.237487792969 312.231262207031 310.287506103516 308.700012207031 306.075012207031 303.625 301.693756103516 301.174987792969 300.587493896484 298.600006103516 
294.306243896484 294.90625 298.356262207031 302.318756103516 305.556243896484 308.606262207031 313.131256103516 316.137512207031 319.143737792969 322.0625 322.887512207031 321.506256103516 316.693756103516 309.493743896484 302.012512207031 295.600006103516 291.068756103516 295.549987792969 300.856262207031 304.831237792969 306.3125 306.487487792969 302.774993896484 294.456237792969 288.450012207031 284.793762207031 283.787506103516 284.9375 287.512512207031 288.700012207031 286.850006103516 281.793762207031 274.575012207031 269.25 271.556243896484 278.368743896484 289.662506103516 302.40625 313.118743896484 313.3125 311.412506103516 311.325012207031 308.006256103516 305.256256103516 302.8125 301.356262207031 300.743743896484 301.706237792969 303.231262207031 299.46875 296.887512207031 
286.950012207031 290.143737792969 293.943756103516 300.412506103516 304.337493896484 308.643737792969 314.043762207031 315.912506103516 318.25 319.318756103516 318.524993896484 316.375 311.393737792969 306.024993896484 299.743743896484 295.087493896484 290.168762207031 285.46875 293.96875 298.862487792969 302.618743896484 302.081237792969 298.625 290.59375 285.549987792969 282.212493896484 278.40625 281.931243896484 285.475006103516 285.53125 279.606262207031 267.568756103516 266.575012207031 265.893737792969 266.387512207031 276.456237792969 287.4375 298.774993896484 307.431243896484 313.237487792969 309.424987792969 307.768737792969 304.512512207031 300.887512207031 299.456237792969 298.28125 298.412506103516 300.256256103516 302.25 297.331237792969 298.6875 
278.412506103516 283.637512207031 289.931243896484 295.950012207031 301.200012207031 307.112487792969 311.975006103516 316.399993896484 318.887512207031 319.03125 316.03125 310.056243896484 305.618743896484 302.631256103516 294.306243896484 289.850006103516 286.237487792969 283.056243896484 284.0625 289.15625 298.481262207031 301.09375 289.53125 286.243743896484 284.293762207031 284.049987792969 283.393737792969 284.537506103516 288.231262207031 286.53125 280.287506103516 269.481262207031 263.600006103516 255.362503051758 254.675003051758 265.049987792969 277.09375 287.806243896484 299.368743896484 304.018737792969 305.943756103516 304.743743896484 300.53125 296.875 296.212493896484 294.756256103516 296.024993896484 298.637512207031 301.956268310547 293.21875 301.393737792969 
269.5625 276.90625 283.399993896484 288.737487792969 296.756256103516 305.8125 313.024993896484 315.962493896484 318.162506103516 318 313.481262207031 308.943756103516 304.081237792969 299.443756103516 289.918762207031 280.125 274.043762207031 277.556243896484 278.131256103516 282.475006103516 287.087493896484 287.575012207031 287.53125 285.375 284.112487792969 283.6875 284.862487792969 288.893737792969 289.662506103516 284.662506103516 275.381256103516 270.46875 260.149993896484 246.681243896484 239.824996948242 249.78125 266.975006103516 282.268737792969 292.762512207031 299.212493896484 300.700012207031 299.756256103516 296.306243896484 292.799987792969 290.15625 288.881256103516 292.212493896484 295.293762207031 298.90625 292.725006103516 303.381256103516 
259.268737792969 269.774993896484 278.493743896484 286.368743896484 292.662506103516 303.412506103516 313.293762207031 317.981262207031 319.368743896484 316.450012207031 310.587493896484 302.412506103516 294.59375 288.649993896484 279.40625 272.143737792969 267.225006103516 267.256256103516 270.206237792969 272.481262207031 279.118743896484 283.587493896484 285.543762207031 286.662506103516 291.037506103516 294.587493896484 295.056243896484 294.612487792969 292.106262207031 289.331237792969 282.287506103516 275.443756103516 261.1875 244.862503051758 231.631256103516 244.800003051758 265.600006103516 281.899993896484 291.693756103516 295.743743896484 295.493743896484 295.418731689453 290.381256103516 287.674987792969 285.649993896484 286.318756103516 288.743743896484 293.399993896484 292.537506103516 295.018737792969 302.912506103516 
251.262496948242 259.174987792969 268.993743896484 281.962493896484 292 301.162506103516 311.581237792969 319.337493896484 321.237487792969 315.543762207031 304.71875 290.549987792969 279.762512207031 273.524993896484 270.149993896484 265.493743896484 264.393737792969 263.774993896484 265.931243896484 267.325012207031 268.581237792969 272.268737792969 277.637512207031 280.575012207031 286.28125 295.837493896484 309.299987792969 308.243743896484 304.262512207031 300.431243896484 291.943756103516 282.28125 270.162506103516 259.25 253.793762207031 259.71875 274.693756103516 287.9375 293.981231689453 295.53125 294.837493896484 293.012481689453 287.84375 283.987518310547 281.375 281.837493896484 285.387512207031 290.90625 291.53125 301.862487792969 304.881256103516 
244.550003051758 257.637512207031 268.899993896484 281.456237792969 292.024993896484 301.493743896484 309.399993896484 319.46875 327.393737792969 315.912506103516 298.3125 279.268737792969 265.706237792969 261.15625 261.475006103516 261.606262207031 260.318756103516 258.768737792969 258.825012207031 258.262512207031 259.918762207031 262.418762207031 264.568756103516 269.03125 279.006256103516 292.162506103516 307.956237792969 311.087493896484 309.200012207031 304.450012207031 298.568756103516 291.762481689453 286.225006103516 280.443756103516 278.787506103516 280.349975585938 288.399993896484 297.012512207031 299.418731689453 296.6875 293.462493896484 289.206237792969 283.762481689453 279.25 277.03125 277.012512207031 280.181243896484 286.293762207031 292.887512207031 306.71875 310.424987792969 
240.387496948242 253.78125 266.993743896484 277.581237792969 287.5 296.831237792969 307.181243896484 315.231262207031 320.381256103516 308.056243896484 290.037506103516 273.612487792969 255.631256103516 254.612503051758 256.818756103516 256.981262207031 255.199996948242 255.306259155273 253.774993896484 253.199996948242 252.831253051758 251.925003051758 252.618743896484 258.825012207031 268.25 276.987487792969 289.493743896484 300.556243896484 305.243743896484 307.649993896484 307.53125 307.75 305.712493896484 301.231262207031 300.1875 300.193756103516 304.512512207031 306.318756103516 303.399993896484 296.912506103516 291.699981689453 285.518737792969 279.212493896484 273.46875 273.043762207031 273.837493896484 275.274993896484 278.018737792969 295.6875 308.581237792969 315.362487792969 
239.393753051758 252.84375 264.606262207031 276.118743896484 286.962493896484 294.549987792969 301.881256103516 307.643737792969 307.181243896484 300.53125 286.331237792969 271.037506103516 261.424987792969 255.46875 254.481246948242 253.831253051758 253.90625 253.350006103516 251.5 248.399993896484 245.706253051758 242.918746948242 242.443756103516 246.206253051758 253.518753051758 266.600006103516 280.993743896484 293.200012207031 303.431243896484 314.15625 320.8125 326.456237792969 326.799987792969 322.362487792969 318.231231689453 313.325012207031 312.975006103516 309.056243896484 303.943756103516 297.59375 290.487487792969 282.618743896484 276.59375 269.274993896484 263.762512207031 264.34375 264.875 280.106262207031 295.049987792969 310.943756103516 319.231262207031 
246.012496948242 257.587493896484 263.950012207031 273.862487792969 282.162506103516 288.75 294.556243896484 298.024993896484 294.362487792969 287.668731689453 279.918762207031 271.931243896484 264.53125 260.162506103516 256.368743896484 256.174987792969 255.074996948242 253.59375 249.943756103516 244.225006103516 241.756256103516 236.1875 232.081253051758 230.84375 241.350006103516 257.487487792969 276.737487792969 290.625 305.893737792969 318.631256103516 332.668762207031 344.950012207031 347.53125 339.337493896484 329.912506103516 322.431243896484 317.743743896484 311.662506103516 304.231262207031 296.881256103516 289.643737792969 280.21875 271.987487792969 262.96875 259.3125 256.231262207031 271.256256103516 285.962493896484 298.149993896484 314.387512207031 320.881256103516 
250.5 257.418762207031 264.037506103516 271.03125 276.068756103516 282.462493896484 286.018737792969 286.793762207031 283.875 282.856262207031 279.793762207031 273.574981689453 268.53125 265.212493896484 261.987487792969 260.5 258.487487792969 255.118743896484 252.024993896484 247.243759155273 241.15625 233.693740844727 226.012496948242 223.618743896484 236.862503051758 251.993743896484 272.200012207031 287.831237792969 305.056243896484 320.268737792969 338.287506103516 354.65625 360.537506103516 349.331237792969 337.199981689453 327.193756103516 320.299987792969 312.887512207031 303.637512207031 295.75 286.78125 278.618743896484 269.993743896484 262.506256103516 263.631256103516 269.868743896484 281.475006103516 292.03125 302.831237792969 309.774993896484 315.03125 
256.556243896484 259.625 263.712493896484 267.962493896484 272.3125 275.924987792969 279.34375 278.293762207031 278.206237792969 278.768737792969 275.618743896484 273.293762207031 270.368743896484 269.443756103516 267 263.84375 262.299987792969 261.362487792969 256.524993896484 252.59375 246.912506103516 238.318756103516 234.912506103516 233.100006103516 241.206253051758 254.425003051758 270.674987792969 286.649993896484 302.762512207031 318.856262207031 334.700012207031 348.918762207031 352.887512207031 345.65625 337.512512207031 327.206268310547 320.737518310547 313.5 304.34375 295.556243896484 287.056243896484 279.299987792969 271.287506103516 266.024993896484 274.112487792969 282.299987792969 291.15625 297.881256103516 304.049987792969 305.21875 311.118743896484 
260.21875 261.274993896484 262.475006103516 265.212493896484 267.056243896484 267.774993896484 269.549987792969 271.837493896484 274.71875 274.762512207031 274.831237792969 273.993743896484 272.100006103516 272.493743896484 272.512512207031 272.512512207031 271.6875 267.625 264.731262207031 259.962493896484 254.856246948242 247.018753051758 244.143753051758 244.350006103516 249.131256103516 259.424987792969 273.587493896484 287.25 301.356262207031 315.381256103516 326.756256103516 337.368743896484 338.043762207031 335.899993896484 331.368743896484 323.987487792969 319.0625 313.256256103516 305.09375 295.037506103516 284.131256103516 277.131256103516 271.524993896484 274.8125 283.668762207031 288.325012207031 295.53125 300.237487792969 302.181243896484 304.318756103516 304.681243896484 
262.318756103516 261.506256103516 261.299987792969 259.681243896484 260.793762207031 262.549987792969 264.725006103516 267.893737792969 270.268737792969 271.112487792969 273.268737792969 273.84375 276.25 278.175018310547 278.668762207031 278.362487792969 277.899993896484 277.606262207031 273.75 267.15625 260.262512207031 255.787506103516 254.550003051758 253.056259155273 255.081253051758 262.668762207031 275.106262207031 285.299987792969 297.112487792969 308.012512207031 317.162506103516 323.506256103516 324.668762207031 325.262512207031 323.912506103516 318.693756103516 316.037506103516 311.881256103516 303.25 296.587493896484 289.618743896484 284.9375 280.068756103516 283.78125 287.09375 293.25 295.799987792969 299.612487792969 300.34375 300.262512207031 297.5 
261.856262207031 258.962493896484 257.274993896484 255.762496948242 256.631256103516 257.668762207031 260.631256103516 262.331237792969 265.03125 268.168762207031 271.712493896484 274.5625 280.037506103516 281.637512207031 283.681243896484 284.568756103516 286.40625 286.600006103516 284.143737792969 278.600006103516 271.325012207031 265.243743896484 262.399993896484 258.3125 257.556243896484 266.65625 274.262481689453 283.549987792969 292.587493896484 299.537506103516 307.03125 312.106262207031 314.931243896484 316.243743896484 315.325012207031 312.524993896484 308.731231689453 306.193756103516 302.274993896484 297.450012207031 292.412506103516 288.450012207031 286.393737792969 286.78125 290.431243896484 293.731262207031 294.806243896484 296.681243896484 296.28125 292.681243896484 290.28125 
259.137512207031 255.018753051758 252.90625 252.893753051758 252.668746948242 251.956253051758 254.612503051758 255.824996948242 258.924987792969 262.4375 267.8125 275.018737792969 280.100006103516 284.506256103516 287.056243896484 289.456237792969 289.443756103516 290.524993896484 288.075012207031 286.5 280.112487792969 273.931243896484 268.84375 264.618743896484 265.731262207031 269.950012207031 274.225006103516 281.849975585938 287.337493896484 293.393768310547 299.9375 304.037506103516 304.643737792969 306.131256103516 306.375 304.21875 302.649993896484 299.212493896484 296.200012207031 292.637512207031 292.868743896484 291.493743896484 289.881256103516 290.6875 294.1875 298.731262207031 299.575012207031 297.943756103516 293.262512207031 287.4375 283.549987792969 
255.837493896484 250.131256103516 248.318756103516 247.15625 247.53125 246.462493896484 246.368743896484 248.199996948242 250.881256103516 256.356262207031 265.825012207031 272.618743896484 281.118743896484 288.450012207031 291.106262207031 292.668762207031 294.28125 295.8125 292.518737792969 289.75 285.918762207031 280.231262207031 274.537506103516 270.568756103516 271.262512207031 271.100006103516 274.675018310547 278.474975585938 282.475006103516 288.212493896484 292.056243896484 294.043762207031 294.081237792969 295.837493896484 296.618743896484 296.306243896484 294.768737792969 292.8125 288.825012207031 291.399993896484 290.962493896484 289.96875 290.431243896484 292.993743896484 297.143737792969 303.78125 304.037506103516 297.056243896484 290 282.056243896484 276.875 
251 246.425003051758 244.768753051758 242.856246948242 241.574996948242 241.587493896484 241.212493896484 240.774993896484 243.293746948242 249.0625 257.53125 269.131256103516 280.693756103516 287.643737792969 291.943756103516 293.262512207031 295.90625 297.3125 295.237487792969 292.643737792969 288.993743896484 284.306243896484 279.418762207031 272.762512207031 273.256256103516 271.768768310547 272.125 273.931243896484 276.850006103516 279.706237792969 282.424987792969 285.143737792969 285.0625 286.193756103516 287.318756103516 286.65625 286.0625 281.96875 283.537506103516 285.875 285.174987792969 286.456237792969 288.700012207031 292.512512207031 297.943756103516 302.850006103516 301.5 292.668762207031 284.506256103516 276.050018310547 270.975006103516 
244.712493896484 242.0625 241.3125 237.931243896484 235.625 234.34375 232.987503051758 232.862503051758 233.774993896484 237.956253051758 249.274993896484 264.924987792969 280.725006103516 292.581237792969 295.90625 297.443756103516 297.975006103516 296.681243896484 297.043762207031 292.912506103516 291.268737792969 285.456237792969 281.09375 272.943756103516 271.318756103516 271.168762207031 270.524993896484 269.4375 271.118743896484 274.15625 275.168731689453 277.306243896484 275.8125 277.212493896484 277.131256103516 275.737487792969 273.381256103516 276.131256103516 277.887512207031 279.112487792969 278.637512207031 280.931243896484 284.462493896484 288.137512207031 291.049987792969 292.6875 291.012512207031 284.831237792969 278.056243896484 269.125 262.28125 
240.96875 239.875 238.418746948242 235.268753051758 232.050003051758 229.15625 227.537506103516 225.65625 223.875 226.181243896484 236.006256103516 254.737503051758 275.46875 289.200012207031 293.756256103516 296 297.443756103516 296.818756103516 296.706237792969 295.543762207031 291.899993896484 287.3125 279.243743896484 272.674987792969 268.962493896484 267.943756103516 267.512512207031 267.006256103516 267.706237792969 268.649993896484 269.149993896484 269.243743896484 267.543731689453 269.125 267.618743896484 263.90625 266.443756103516 269.168762207031 269.649993896484 271.362487792969 273.018737792969 274.668762207031 276.837493896484 280.487487792969 281.46875 281.731262207031 280.918762207031 278 271 264.399993896484 258.412506103516 
237.981246948242 238.162506103516 235.96875 233.274993896484 229.606246948242 226.4375 224.40625 219.675003051758 214.475006103516 212.693756103516 224.59375 249.550003051758 268.5625 280.549987792969 288.318756103516 292.274993896484 292.612487792969 293.081237792969 293.943756103516 290.950012207031 287.993743896484 282.75 275.131256103516 269.524993896484 264.887512207031 263.356262207031 263.825012207031 263.924987792969 263.59375 263.012512207031 263.762481689453 264.075012207031 262.15625 261.006256103516 258.618743896484 257.481262207031 259.981262207031 263.418762207031 265.643737792969 264.793762207031 266.256256103516 267.181243896484 270.043762207031 272.5625 274.21875 272.831237792969 274.075012207031 271.293762207031 266.424987792969 260.931243896484 256.856262207031 
237.550003051758 236.143753051758 233.106246948242 231.118743896484 227.606246948242 224.899993896484 221.618743896484 215.893753051758 211.662506103516 207.824996948242 225.168746948242 249.4375 264.706237792969 275.431243896484 282.5625 287.331237792969 287.293762207031 288.75 286.71875 282.84375 279.725006103516 274.112487792969 269.293762207031 264.09375 259.53125 259.350006103516 257.618743896484 259.375 259.887512207031 259.612487792969 257.787506103516 257.825012207031 257.350006103516 254.949996948242 250.350006103516 252.818756103516 255.118743896484 256.543762207031 260.34375 260.268737792969 259.543762207031 260.8125 261.024993896484 261.706237792969 264.193756103516 264.84375 264.6875 267.024993896484 262.993743896484 258.143737792969 253.731246948242 
235.662506103516 232.131256103516 229.712493896484 228.606246948242 226.912506103516 223.274993896484 220.875 218.024993896484 219.456253051758 227.3125 245.012496948242 257.174987792969 263.943756103516 272.46875 278.662506103516 281.212493896484 281.799987792969 281.78125 277.112487792969 274.587493896484 270.431243896484 264.5625 260.268737792969 257.524993896484 254.756240844727 252.65625 252.262496948242 253.949996948242 254.587493896484 256 255.59375 253.306243896484 252.818756103516 252.337493896484 253.050003051758 252.706253051758 252.681243896484 254.6875 255.512496948242 253.306243896484 253.012496948242 254.493743896484 253.512496948242 254.993743896484 256.700012207031 258.731262207031 258.606262207031 259.756256103516 258.299987792969 256.924987792969 252.550003051758 
232.862503051758 230.056243896484 228.425003051758 227.987503051758 226.868743896484 225.168746948242 222.168746948242 223.762496948242 228.243743896484 236.143753051758 247.087493896484 257.662506103516 263.424987792969 269.818756103516 274.568756103516 276.125 276.387512207031 275.462493896484 269.6875 265.125 259.674987792969 256.325012207031 249.756256103516 247.181243896484 247.837493896484 247.175003051758 247.649993896484 249.699996948242 250.868743896484 252.21875 250.425003051758 253.100006103516 255.356246948242 255.25 256.200012207031 255.087493896484 253.662506103516 254.300003051758 252.9375 248.231246948242 246.40625 247.28125 245.0625 245.65625 248.537506103516 250.987503051758 253.581253051758 255.943756103516 256.899993896484 257.325012207031 253.987503051758 
229.518753051758 228.574996948242 227.675003051758 227.399993896484 225.868743896484 224.375 224.15625 229.056243896484 233.243743896484 238.056243896484 246.768753051758 254.949996948242 261.90625 265.606262207031 269.737487792969 271.125 270.643737792969 268.825012207031 262.693756103516 256.412506103516 249.337493896484 246.037506103516 240.206253051758 237.612503051758 241.15625 242.050003051758 242.581253051758 245.337493896484 247.899993896484 248.425003051758 249.800003051758 256.4375 257.350006103516 259.162506103516 260.875 260.962493896484 259.462493896484 257.149993896484 254.456253051758 245.9375 242.181243896484 240.25 238.056243896484 238.006256103516 242.725006103516 247.024993896484 248.949996948242 252.112503051758 256.412506103516 256.662506103516 255.300003051758 
226.962493896484 226.46875 226.46875 225.25 223.5625 223.412506103516 224.506256103516 227.143753051758 232.5 236.15625 243.981246948242 250.375 257.212493896484 261.231262207031 264.674987792969 266.506256103516 266.475006103516 263.899993896484 258.40625 250.231246948242 241.106246948242 234.387496948242 229.431243896484 229.212493896484 232.837493896484 235.587493896484 237.024993896484 242.056243896484 247.118743896484 251.324996948242 249.512496948242 257.600006103516 261.112487792969 265.662506103516 268.087493896484 264.793762207031 263.787506103516 261.149993896484 255.256256103516 245.987503051758 240.15625 234.4375 231.25 234.612503051758 240.75 245.675003051758 248.337493896484 251.15625 255.649993896484 256.28125 256.806243896484 
224.362503051758 223.412506103516 223.831253051758 220.956253051758 220.4375 221.4375 222.893753051758 225.618743896484 229.100006103516 232.387496948242 238.475006103516 244.587493896484 251.293746948242 254.324996948242 259.03125 261.456237792969 263.125 262.46875 256.006256103516 245.587493896484 231.9375 221.274993896484 218.481246948242 222.693740844727 227.518753051758 231.412506103516 234.381240844727 238.112487792969 244.212493896484 248.481246948242 251.712493896484 256.1875 262.325012207031 268.575012207031 273.162506103516 274.643737792969 268.875 265.693756103516 256.725006103516 247.850006103516 242.574996948242 236.556243896484 231.9375 234.756256103516 240.975006103516 243.925003051758 245.175003051758 251.4375 257.787506103516 257.225006103516 258.237487792969 
222.587493896484 221.574996948242 221.78125 218.125 219.168746948242 218.818756103516 219.512496948242 222.024993896484 225.5625 228.943756103516 234.368743896484 240.193756103516 245.243743896484 249.512496948242 253.743743896484 257.424987792969 259.393737792969 258.075012207031 255.6875 245.149993896484 229.393737792969 215.949996948242 214.3125 218.75 224.0625 228.125 231.125 234.75 240.056243896484 246.34375 249.168746948242 254.5625 260.21875 267.712493896484 279.168762207031 285.899993896484 277.806243896484 269.112487792969 260.350006103516 252.168746948242 245.362503051758 239.137496948242 237.131256103516 237.925003051758 242.53125 244.5 247.899993896484 252.318756103516 254.643753051758 257.850006103516 259.71875 
220.175003051758 219.368743896484 219.21875 216.28125 216.962493896484 216.8125 215.350006103516 218.387496948242 221.675003051758 225.356246948242 228.987503051758 234.393753051758 239.762496948242 244.78125 247.481246948242 250.456253051758 252.475006103516 252.068756103516 250.931243896484 244.056243896484 231.149993896484 220.324996948242 216.681243896484 219 223.3125 227.0625 230.25 233.5625 239.625 244.59375 250.212493896484 253.425003051758 258.056243896484 264.362518310547 275.649993896484 285.318756103516 278.950012207031 269.34375 262.84375 255.287506103516 249.375 245.5 241.762496948242 240.881256103516 244.84375 246.756256103516 248.300003051758 252.71875 253.362503051758 256.743743896484 260.056243896484 
