ncols        51
nrows        45
xllcorner    -63.500000000000
yllcorner    -7.500000000000
cellsize     0.166666666667
NODATA_value -99
358.725006103516 362.143737792969 364.787506103516 374.043762207031 380.212493896484 384.825012207031 384.5625 386.556243896484 387.21875 390.987487792969 391.962493896484 386.899993896484 383.737487792969 381.143737792969 374.981262207031 370.799987792969 365.200012207031 357.993743896484 353.931243896484 353.037506103516 353.887512207031 354.506256103516 358.875 357.181243896484 356.787506103516 358.212493896484 356.006256103516 355.40625 352.524993896484 356.306243896484 356.037506103516 358.556243896484 362.40625 364.424987792969 366.512512207031 370.193756103516 372.237487792969 370.818756103516 368.325012207031 367.575012207031 363.8125 360.84375 354.662506103516 353.256256103516 349.787506103516 344.737487792969 341.3125 334.40625 330.668762207031 330.34375 327.768737792969 
356.006256103516 356.237518310547 362.087493896484 372.231262207031 382.612487792969 388.25 388.081237792969 390.40625 393.362487792969 393.662506103516 394.649993896484 388.875 382.712493896484 376.924987792969 368.674987792969 361.131256103516 353.774993896484 344.768737792969 341.806243896484 340.46875 341.537506103516 343.862487792969 346.168762207031 348.625 349.262512207031 349.762512207031 351.174987792969 351.856262207031 351.612487792969 353.274993896484 353.274993896484 359.506256103516 360.987487792969 365.893737792969 367.537506103516 365.643737792969 369.118743896484 367.981262207031 367.649993896484 361.112487792969 356.918762207031 358.149993896484 352.268737792969 345.712493896484 343.199981689453 337.262512207031 334.012512207031 328.90625 326.587493896484 325.475006103516 323.668762207031 
347.962493896484 350.825012207031 358.818756103516 366.768737792969 373.90625 380.912506103516 385.931243896484 392.131256103516 396.15625 396.575012207031 395.625 387.181243896484 378.09375 367.46875 358.350006103516 351.0625 341.431243896484 331.618743896484 328.381256103516 328 329.850006103516 334.875 338.112487792969 340.09375 341.162506103516 345.143737792969 349.043762207031 349.112487792969 347.643768310547 349.643737792969 350.662506103516 354.924987792969 360.450012207031 362.581237792969 366.15625 363 363.981262207031 363.612487792969 360.899993896484 356.756256103516 355.5 350.787506103516 347.662506103516 341.568756103516 337.018737792969 332.862487792969 328.512512207031 324.493743896484 317.799987792969 317.15625 315.431243896484 
335.293762207031 335.487487792969 349.181243896484 355.625 362.456237792969 368.943756103516 376.28125 386.549987792969 396.331237792969 398.712493896484 394.174987792969 383.25 369.112487792969 356.799987792969 346.5625 337.112487792969 326.106262207031 317.681243896484 314.637512207031 317.331237792969 324.637512207031 328.600006103516 330.643737792969 333.856262207031 335.543762207031 337.793762207031 343.075012207031 341.868743896484 341.068756103516 346.556243896484 349.043762207031 353.1875 356.21875 357.21875 357.331237792969 360.068756103516 362.137512207031 360.912506103516 358.431243896484 355 351.256256103516 350.206237792969 342.612487792969 335.512512207031 333.350006103516 326.325012207031 321.081237792969 317.637512207031 309.774993896484 304.643737792969 303.5625 
343.274993896484 338.96875 334.012512207031 338.875 347.262512207031 353.206237792969 363.09375 376.293762207031 391.756256103516 398.981262207031 389.225006103516 372.174987792969 359.9375 347.912506103516 336.693756103516 325.081237792969 312.731262207031 305.4375 302.868743896484 307.649993896484 315.725006103516 319.399993896484 320.793762207031 328.075012207031 328.787506103516 331.293762207031 331.350006103516 334.850006103516 336.200012207031 340.625 345.84375 348.475006103516 350.09375 354.200012207031 356.0625 355.600006103516 358.712493896484 359.868743896484 358.381256103516 353.943756103516 351.712493896484 346.037506103516 339.137512207031 333.943756103516 328.143737792969 321.318756103516 313.0625 306.75 298.706268310547 296.293762207031 295.9375 
342.950012207031 338.412506103516 331.056243896484 321.518737792969 329.981262207031 341.418762207031 351.387512207031 361.543762207031 377.981262207031 387.287506103516 379.787506103516 361.731262207031 352.681243896484 343.25 330.100006103516 321.975006103516 308.612487792969 300.287506103516 299.09375 305.306243896484 311.268737792969 316.399993896484 320.993743896484 322.549987792969 324.706237792969 327.225006103516 328.056243896484 329.393737792969 332.787506103516 338.0625 343.3125 348.112487792969 349.399993896484 352.450012207031 353.587493896484 355.106262207031 356.418762207031 356.956237792969 359.90625 355.987487792969 350.268737792969 345.450012207031 337.543762207031 331.84375 326.787506103516 316.850006103516 306.262512207031 300.5 293.399993896484 287.568756103516 283.462493896484 
345.006256103516 337.674987792969 329.081237792969 320.106262207031 317.606262207031 322.049987792969 330.237487792969 339.243743896484 342.893737792969 352.306243896484 353.693756103516 345.681243896484 341.443756103516 335.806243896484 326.587493896484 317.825012207031 310.524993896484 305.28125 302.850006103516 308.5625 311.225006103516 313.65625 314.100006103516 318.168762207031 321.825012207031 327.174987792969 326.4375 326.9375 326.731262207031 332.712493896484 339.125 341.737487792969 341.787506103516 344.71875 347.487487792969 351.28125 351.424987792969 352.299987792969 356.012512207031 355.518737792969 348.331237792969 340.75 333.193756103516 329.362487792969 321.9375 315.84375 302.962493896484 289.200012207031 280.399993896484 279.037506103516 274.287506103516 
345.512512207031 336.043762207031 326.637512207031 320.018737792969 316.487487792969 319.993743896484 317.018737792969 307.649993896484 301.168762207031 312.806243896484 327.1875 329.412506103516 332.25 329.149993896484 323.631256103516 318.8125 313.274993896484 311.337493896484 309.225006103516 309.28125 313.71875 313.399993896484 313.206237792969 312.818756103516 318.431243896484 317.787506103516 320.899993896484 320.15625 320.706237792969 326.856262207031 332.875 335.350006103516 337.087493896484 337.212493896484 337.024993896484 339.174987792969 341.606262207031 345.049987792969 345.725006103516 340.706237792969 338.225006103516 331.549987792969 325.887512207031 319.268737792969 310.768737792969 300.506256103516 288.237487792969 277.631256103516 270 263.037506103516 257.506256103516 
344.375 334.612487792969 327.21875 319.168762207031 313.893737792969 314.518737792969 310.768737792969 303.28125 290.450012207031 288.918762207031 303.568756103516 314.424987792969 324.362487792969 323.806243896484 320.793762207031 319.737487792969 317.075012207031 317.899993896484 319.662506103516 313.643737792969 309.956237792969 312.493743896484 307.493743896484 314.018737792969 313.012512207031 310.987487792969 310.587493896484 314.225006103516 319.331237792969 323.168731689453 331.0625 331.8125 327.193756103516 324.481262207031 326.96875 330.556243896484 334.006256103516 338.012512207031 340.8125 334.506256103516 328.068756103516 321.331237792969 319.262512207031 316.762512207031 302.081237792969 291.793762207031 280.643737792969 267.181243896484 255.975006103516 249.425003051758 243.806243896484 
341.862487792969 333.662506103516 326.618743896484 320.399993896484 312.099975585938 312.200012207031 309.681243896484 304.59375 299.668762207031 300.837493896484 307.524993896484 308.868743896484 320.21875 320.537506103516 321.131256103516 318.837493896484 317.28125 318.65625 321.856262207031 321.5625 314.375 308.100006103516 303.787506103516 307.162506103516 303.481262207031 301.612487792969 301.131256103516 305 312.28125 320.200012207031 323.100006103516 322.143737792969 321.200012207031 319.643737792969 318.581237792969 321.5 323.856262207031 328.568756103516 331.737487792969 331.643737792969 329.862487792969 326.681243896484 316.649993896484 307.84375 297.793762207031 291.556243896484 278.225006103516 261.212493896484 248.837493896484 237.987503051758 225.756240844727 
339.087493896484 332.524993896484 324.725006103516 319.337493896484 311.418762207031 312.53125 311.181243896484 304.962493896484 302.75 307.087493896484 314.350006103516 319.106262207031 317 319.6875 318.137512207031 315.693756103516 315.200012207031 318.174987792969 321.143737792969 324.543762207031 327.081237792969 315.40625 304.493743896484 291.018737792969 294.681243896484 297.174987792969 296.993743896484 300.424987792969 303.143737792969 307.325012207031 312.3125 313.899993896484 312.3125 310.475006103516 308.587493896484 308.475006103516 310.912506103516 317.049987792969 323.899993896484 326.518737792969 326.606262207031 321.53125 317.8125 305.075012207031 292.668762207031 282.637512207031 271.856262207031 253.193756103516 241.037506103516 230.112503051758 214.412506103516 
338.393737792969 330.431243896484 323.825012207031 318.693756103516 312.987487792969 310.693756103516 312.200012207031 310.34375 311.424987792969 311.712493896484 317.90625 325.362487792969 317.262512207031 316.65625 317.306243896484 312.518737792969 311.493743896484 314.28125 318.475006103516 326.15625 332.606262207031 326.637512207031 313.549987792969 296.4375 286.793762207031 281.831237792969 280.481262207031 284.587493896484 290.950012207031 294.668762207031 295.450012207031 296.887512207031 295.881256103516 294.443756103516 296.174987792969 300.368743896484 305.556243896484 309.943756103516 314.162506103516 317.725006103516 320.71875 316.162506103516 306.993743896484 285.4375 271.193756103516 256.256256103516 241.831253051758 236.962493896484 230.53125 221.649993896484 202.050003051758 
338.662506103516 328.331237792969 321.25 316.731262207031 310.725006103516 310.962493896484 309.806243896484 307.262512207031 309.743743896484 314.549987792969 319.71875 324.081237792969 320.725006103516 307.706237792969 305.1875 305.837493896484 304.600006103516 307.668762207031 311.475006103516 318.956237792969 329.331237792969 322.674987792969 310.881256103516 293.793762207031 269.850006103516 260.40625 267.512512207031 273.668762207031 281.643737792969 286.431243896484 284.8125 281.568756103516 279.53125 277.493743896484 280.674987792969 288.806243896484 296.587493896484 305.274993896484 312.431243896484 315.3125 315.206237792969 311.243743896484 292.862487792969 275.481262207031 267.424987792969 256.71875 241.399993896484 226.831253051758 216.993743896484 216.193756103516 208.768753051758 
331.712493896484 322.612487792969 317.399993896484 312.631256103516 308.700012207031 307.212493896484 305.21875 304.056243896484 308.799987792969 313.087493896484 312.306243896484 312.625 309.206237792969 302.112487792969 289.25 292.881256103516 291.737487792969 292.981262207031 298.868743896484 306.700012207031 313.606262207031 309.893768310547 301.543731689453 289.243743896484 271.006256103516 259.649993896484 260.643737792969 262.8125 269.0625 270.706237792969 273.174987792969 268.712493896484 266.625 265.25 267.09375 278.975006103516 292.112487792969 304.981262207031 314.081237792969 313.568756103516 301.818756103516 287.943756103516 282.112487792969 279.612487792969 279.65625 265.174987792969 251.137496948242 240.425003051758 229.993743896484 233.21875 230.443756103516 
324.331237792969 317.475006103516 313.475006103516 308.450012207031 303.737487792969 302.850006103516 304 304.756256103516 306.556243896484 306.681243896484 304.418762207031 302.375 295.975006103516 288.087493896484 271.068756103516 272.59375 273.787506103516 278.787506103516 284.231262207031 290.174987792969 297.712493896484 298.168731689453 295.581237792969 293.168762207031 285.449981689453 277.681243896484 272.887512207031 271.731262207031 272.318756103516 270.5625 263.581237792969 257.325012207031 258.681243896484 253.112503051758 249.574996948242 258.681243896484 283.756256103516 304.443756103516 312.631256103516 309.181243896484 297.28125 289.850006103516 291.34375 285.5 279.825012207031 274.018737792969 266.46875 261.637512207031 256.112487792969 250.243743896484 245.087493896484 
316.056243896484 309.075012207031 307.181243896484 303.893737792969 298.768737792969 299.9375 301.875 302.049987792969 301.237487792969 301.443756103516 297.287506103516 292.831237792969 285.618743896484 279.106262207031 265.59375 251.337493896484 256.293762207031 266.956237792969 269.59375 275 283.03125 290.96875 296.043762207031 300.681243896484 296.831237792969 288.850006103516 282.125 276.78125 275 273.443756103516 269.731262207031 261.068756103516 250.087493896484 239.693756103516 234.618743896484 257.556243896484 275.399993896484 294.15625 307.25 312.662506103516 308.28125 299.15625 292.962493896484 279.487487792969 273.337493896484 270.662506103516 263.96875 258.612487792969 258.862487792969 255.268753051758 253.675003051758 
309.631256103516 303.681243896484 300 298.393737792969 296.693756103516 295.774993896484 296.006256103516 295.25 296.068756103516 295.399993896484 292.399993896484 288.981262207031 280.556243896484 272.149993896484 262.043762207031 251.456253051758 239.481246948242 247.956253051758 255.074996948242 261.46875 270.606262207031 279.962493896484 291.9375 304.65625 308.493743896484 292.887512207031 282.918762207031 278.131256103516 275.90625 273.649993896484 271.018737792969 266.5625 257.268737792969 249.125 257.131256103516 267.543762207031 285.143737792969 303.65625 323.3125 322.024993896484 316.181243896484 302.3125 286.537506103516 275.943756103516 271.306243896484 269.75 265.200012207031 265.737487792969 265.5625 257.837493896484 255.537506103516 
301.262512207031 297.581237792969 295.731262207031 293.299987792969 291.825012207031 293.9375 292.581237792969 290.34375 289.25 289.15625 286.362487792969 285.337493896484 274.318756103516 267.674987792969 258.450012207031 249.706253051758 238.793746948242 229.481246948242 244.818756103516 249.393753051758 257.706237792969 268.793762207031 281.737487792969 296.043762207031 303.287506103516 293.081237792969 279.325012207031 277.6875 276.924987792969 270.462493896484 258.75 249.649993896484 261.193756103516 265.649993896484 268.818756103516 290.325012207031 307.350006103516 314.831237792969 324.287506103516 324.087493896484 309.100006103516 295.03125 281.256256103516 272.893737792969 267.556243896484 267.987487792969 265.206237792969 263.493743896484 265.825012207031 254.631256103516 257.662506103516 
292.806243896484 290.037506103516 287.90625 288.399993896484 288.668762207031 288.8125 288.71875 288.0625 286.799987792969 287.78125 283.131256103516 274.075012207031 265.331237792969 259.700012207031 251.449996948242 245.637496948242 239.09375 226.96875 225.987503051758 232.143753051758 241.918746948242 256.975006103516 256.40625 273.106262207031 281.912506103516 285.337493896484 281.356262207031 274.524993896484 274.056243896484 267.387512207031 259.200012207031 257.643737792969 266.931243896484 271.731231689453 278.862487792969 295.262512207031 303.387512207031 306.712493896484 314.975006103516 309.350006103516 296.787506103516 283 275.356262207031 272.024993896484 266.975006103516 263.831237792969 264.606262207031 263.837493896484 262.90625 246.543746948242 258.25 
283.0625 281.487487792969 280.956237792969 279.462493896484 280.931243896484 286.225006103516 287.899993896484 287.049987792969 285.668762207031 283.193756103516 281.09375 276.899993896484 271.956237792969 261.799987792969 251.15625 236.137496948242 223.993743896484 224.506256103516 222 224.693756103516 226.443756103516 235.824996948242 249.350006103516 258.581237792969 263.293762207031 262.524993896484 264.3125 268.15625 263.481262207031 254.793746948242 253.074996948242 265.28125 270.0625 272.556243896484 282.737487792969 294.331237792969 300.71875 303.725006103516 302.90625 298.137512207031 283.118743896484 271.193756103516 270.087493896484 268.850006103516 267.556243896484 265.787506103516 262.643737792969 261.418762207031 258.012512207031 245.087493896484 257.549987792969 
266.637512207031 274.168762207031 277.487487792969 275.993743896484 274.5 282.90625 287.881256103516 288.9375 288.162506103516 283.568756103516 280.081237792969 276.618743896484 268.225006103516 259.212493896484 246.600006103516 236.65625 223.274993896484 218.743743896484 220.975006103516 220.006256103516 231.106246948242 241.087493896484 250.106246948242 258.512512207031 264.987518310547 264.943756103516 259.424987792969 260.21875 261.350006103516 260.668762207031 263.056243896484 269.28125 268.112487792969 270.09375 277.71875 288.256256103516 296.350006103516 300.193756103516 297.068756103516 289.674987792969 282.3125 271.943756103516 266.25 267.143768310547 265.762512207031 264.993743896484 264.537506103516 260.762512207031 250.025009155273 251.149993896484 254.462493896484 
259.125 258.118743896484 265.856262207031 271.825012207031 271.4375 276.649993896484 284.549987792969 289.731262207031 290.137512207031 286.606262207031 281.868743896484 275.375 266.475006103516 256.706237792969 249.231246948242 237.149993896484 235.806243896484 228.981246948242 229.443756103516 226.46875 227.949996948242 236.074996948242 244.706253051758 249.28125 250.931243896484 255.881256103516 261.481262207031 262.193756103516 270.024993896484 271.612487792969 269.268737792969 267.674987792969 271.587493896484 277.331237792969 279.75 284.825012207031 292.856262207031 296.506256103516 293.006256103516 286.53125 281.206237792969 272.518737792969 266.768737792969 265.456237792969 263.606262207031 262.8125 262.049987792969 260.037506103516 251.350006103516 256.931243896484 252.731246948242 
252.131256103516 259.325012207031 265.193756103516 270.6875 270.287506103516 274.506256103516 273.956237792969 281.087493896484 288.856262207031 286.912506103516 280.225006103516 272.956237792969 268.637512207031 259.875 252.46875 243.412506103516 237.625 233.056243896484 230.28125 227.84375 231.274993896484 232.3125 237.918746948242 241.675003051758 248.600006103516 252.493743896484 254.643753051758 262.362487792969 271.068756103516 271.462493896484 267.643768310547 270.037506103516 277.575012207031 282.012512207031 286.462493896484 282.706237792969 285.181243896484 291.3125 293.387512207031 286.96875 279.543731689453 272.443756103516 266.418762207031 264.206237792969 261.706237792969 258.575012207031 256.487487792969 253.524993896484 254.949996948242 260.725006103516 255.356246948242 
242.199996948242 252.662506103516 261.799987792969 264.456237792969 263.125 264.943756103516 274.356262207031 279.274993896484 280.643737792969 278.018737792969 274.893737792969 274.299987792969 269.024993896484 263.600006103516 254.206253051758 245.412506103516 239.293746948242 236.574996948242 234.65625 233.212493896484 231.8125 233.106246948242 234.850006103516 242.6875 246.568756103516 246.568756103516 251.925003051758 260.456237792969 271.243743896484 277.543762207031 281.137512207031 285.212493896484 293.299987792969 296.1875 298.149993896484 289.462493896484 294.725006103516 296.6875 294.581237792969 288.84375 279.956237792969 274.549987792969 269.3125 263.681243896484 259.637512207031 255.087493896484 251.53125 243.212493896484 251.956253051758 258.387512207031 258.112487792969 
238.006256103516 249.899993896484 256.443756103516 262.375 262.9375 266.375 268.306243896484 273.762512207031 274.0625 273.962493896484 270.712493896484 268.037506103516 267.318756103516 261.993743896484 252.574996948242 246.293746948242 243.381256103516 239.774993896484 235.956253051758 234.318756103516 235.449996948242 233.9375 236.84375 242.618743896484 246.168746948242 253.649993896484 259.075012207031 268.700012207031 278.668762207031 289.881256103516 295.112487792969 306.393737792969 313.274993896484 315.09375 309.78125 303.331237792969 304.40625 299.268737792969 295.068756103516 289.237487792969 281.862487792969 274.03125 268.350006103516 259.606262207031 250.21875 245.024993896484 234.618743896484 240.100006103516 243.231246948242 252.574996948242 254.137496948242 
239.625 253.25 252.850006103516 256.787506103516 253.787490844727 256.293762207031 258.0625 262.712493896484 260.418762207031 257.700012207031 262.212493896484 263.225006103516 259.837493896484 256.5 253.556243896484 247.743743896484 245.15625 241.65625 237.637496948242 234.59375 235.612503051758 234.125 236.712493896484 239.899993896484 247.40625 254.625 266.862487792969 276.90625 286.443756103516 298.774993896484 311.049987792969 331.21875 339.71875 332.581237792969 323.681243896484 317.78125 311.431243896484 306.274993896484 294.524993896484 287.118743896484 280.75 270.34375 261.075012207031 255.28125 247.943756103516 235.524993896484 239.21875 238.668746948242 240.675003051758 247.631240844727 244.381256103516 
236.037506103516 240.556243896484 244.274993896484 246.237503051758 244.074996948242 246.762496948242 248 248.256256103516 248.268753051758 253.600006103516 256.243743896484 254.737503051758 254.787506103516 253.806243896484 251.206253051758 248.387496948242 244 238.943756103516 239.78125 235.9375 234.125 233.65625 235.762496948242 243.243743896484 250.756256103516 258.912506103516 270.756256103516 281.012512207031 292.231262207031 301.943756103516 319.168762207031 339.756256103516 355.512512207031 343.737487792969 331.106262207031 322.743743896484 320.15625 311.081237792969 298.899993896484 290.774993896484 282.268737792969 271.143737792969 261.181243896484 251.524993896484 244.1875 240.78125 240.106246948242 236.46875 237.856246948242 233.949996948242 229.181243896484 
233.487503051758 232.856246948242 234.75 233.65625 233.631256103516 237.456253051758 239.643753051758 238.0625 240.412506103516 245.362503051758 247.050003051758 246.25 247.456253051758 247.018753051758 246.993743896484 242.449996948242 241.662506103516 241.699996948242 242.387496948242 239.793746948242 237.487503051758 234.756256103516 238.868743896484 245.0625 253.462493896484 260.075012207031 272.393737792969 282.606262207031 294.787506103516 305.375 319.75 336.162506103516 347.231262207031 341.543762207031 336.518737792969 328.799987792969 322.274993896484 317.637512207031 307.756256103516 295.137512207031 283.65625 274.262512207031 263.612487792969 254.5 243.106246948242 234.443756103516 231.90625 234.243743896484 230.443756103516 222.043746948242 214.962493896484 
227.356246948242 225.318756103516 224.175003051758 223.600006103516 223.4375 222.712493896484 223.137496948242 226.824996948242 233.300003051758 235.237503051758 237.737503051758 239.543746948242 240.618743896484 243.681243896484 246.131256103516 246.431243896484 245.668746948242 243.931243896484 243.068756103516 241.331253051758 239.28125 235.949996948242 237.731246948242 243.643753051758 251.568756103516 256.050018310547 268.53125 281.387512207031 293.162506103516 301.606262207031 313.706237792969 323.643737792969 331.674987792969 332.450012207031 335.356262207031 330.137512207031 326.206237792969 319.59375 309.743743896484 296.975006103516 280.975006103516 268.337493896484 262.631256103516 259.068756103516 250.256256103516 239.743743896484 236.800003051758 236.725006103516 227.581253051758 217.375 205.037506103516 
225.287506103516 221.106246948242 216.806243896484 212.100006103516 210.206253051758 212.412506103516 213.324996948242 218.899993896484 223.306243896484 224.0625 228.043746948242 231.443756103516 234.537506103516 239.399993896484 242.574996948242 244.168746948242 244.137496948242 246.543746948242 244.449996948242 240.112503051758 238.0625 236.618743896484 237.03125 241 245.125 254.418746948242 262.5 270.256256103516 280.987487792969 290.075012207031 301.318756103516 308.524993896484 317.03125 323.618743896484 329.543762207031 324.943756103516 329.243743896484 325.774993896484 315.043762207031 309.637512207031 299.174987792969 284.662506103516 272.712493896484 263.78125 256.125 251.881256103516 246.5625 245.168746948242 236.331253051758 223.75 207.362503051758 
223.368743896484 216.793746948242 209.756256103516 206.03125 204.293746948242 205.15625 208.0625 210.106246948242 214.181243896484 217.131256103516 220.918746948242 223.587493896484 230.524993896484 232.84375 236.899993896484 241.425003051758 244.024993896484 244.287506103516 244.03125 242.431243896484 236.943740844727 233.40625 233.3125 234.40625 238.018753051758 248.512496948242 254.537506103516 259.774993896484 269.5625 277.068756103516 288.618743896484 293.481262207031 302.4375 311.887512207031 318.931243896484 316.4375 322.399993896484 326.59375 323.15625 316.787506103516 313.268737792969 297.90625 284.5625 270.975006103516 265.481262207031 264.612518310547 261.487487792969 255.387496948242 244.443756103516 232.824996948242 215.59375 
216.981246948242 209.199996948242 203.018753051758 200.050003051758 199.5 198.337493896484 202.912506103516 201.662506103516 204.893753051758 207.237503051758 210.806243896484 213.212493896484 219.837493896484 226.318756103516 230.543746948242 236.787506103516 236.943756103516 236.943756103516 237.149993896484 236.643753051758 230.350006103516 227.137496948242 225.756256103516 227.975006103516 234.918746948242 240.725006103516 246.168746948242 249.225006103516 254.350006103516 263.200012207031 269.393737792969 276.5625 285.106262207031 295.568756103516 306.174987792969 307.881256103516 314.125 321.931243896484 319.806243896484 322.787506103516 320.674987792969 308.475006103516 296.706237792969 288.243743896484 281.993743896484 289.4375 289.862487792969 276.25 258.975006103516 244.274993896484 226.387496948242 
212.443756103516 206.487503051758 200.362503051758 198.543746948242 195.493743896484 193.725006103516 195.850006103516 195.362503051758 197.675003051758 201.043746948242 207.537506103516 210.149993896484 215.681243896484 223.006256103516 226.15625 228.693756103516 229.40625 232.21875 229.649993896484 228.706253051758 222.131256103516 220.087493896484 217.112503051758 220.725006103516 225.768753051758 231.243743896484 233.981246948242 237.199996948242 239.350006103516 246.125 253.5 259.456237792969 266.462493896484 281.293762207031 291.274993896484 299.581237792969 303.350006103516 312.375 312.693756103516 321.081237792969 320.662506103516 315.068756103516 307.274993896484 303.53125 307.524993896484 317.087493896484 314.806243896484 296.018737792969 275.174987792969 258.256256103516 238.893753051758 
208.693756103516 202.506256103516 199.46875 196.949996948242 195.25 191.699996948242 190.787506103516 188.78125 189.568756103516 192.118743896484 197.106246948242 203.756256103516 208.100006103516 212.8125 217.774993896484 222.618743896484 224.600006103516 225.662506103516 221.21875 218.043746948242 214.893753051758 213.15625 210.243743896484 210.912506103516 215.168746948242 218.081253051758 219.356246948242 221.074996948242 224.9375 231.012496948242 237.824996948242 243.543746948242 252.268753051758 263.200012207031 275.456237792969 283.443756103516 291.768737792969 296.818756103516 303.887512207031 311.125 313.018737792969 314.700012207031 315.600006103516 315.350006103516 325.706237792969 335.8125 329.756256103516 303.856262207031 284.231262207031 268.137512207031 249.087493896484 
203.181243896484 198.193756103516 196.425003051758 195.537506103516 194.074996948242 189.887496948242 184.706253051758 182.462493896484 179.537506103516 182.024993896484 187.993743896484 195.100006103516 203.225006103516 210.287506103516 214.09375 217.25 218.0625 218.550003051758 214.231246948242 208.381256103516 205.487503051758 202 200.737503051758 200.40625 202.568756103516 204.518753051758 207.856246948242 210.056243896484 212.725006103516 219.300003051758 224.193756103516 229.40625 235.637496948242 247.15625 252.243759155273 262.493743896484 268.712493896484 283.375 291.318756103516 297.600006103516 302.206237792969 303.068756103516 306.887512207031 312.612487792969 322.018737792969 327.975006103516 324.712493896484 308.987487792969 289.443756103516 273.674987792969 257.631256103516 
200.399993896484 197.625 194.262496948242 192.40625 189.818756103516 185.274993896484 179.087493896484 176.743743896484 173.837493896484 172.881256103516 177.137496948242 188.449996948242 199.587493896484 205.300003051758 209.818756103516 211.21875 210.956253051758 208.149993896484 205.893753051758 199.856246948242 197.162506103516 193.96875 191.787506103516 191.568756103516 191.737503051758 191.956253051758 196.893753051758 199.25 199.175003051758 204.793746948242 210.481246948242 215.337493896484 220.675003051758 226.293746948242 232.631256103516 240.387496948242 254.774993896484 262.200012207031 270.431243896484 281.787506103516 285.893737792969 292.243743896484 294.868743896484 301.256256103516 303.649993896484 308.793762207031 308.556243896484 298.206237792969 288.243743896484 273.524993896484 258.118743896484 
198.71875 197.662506103516 194.024993896484 191.6875 189.818756103516 183.512496948242 177.71875 172.206253051758 167.818740844727 161.881256103516 172.21875 191.493743896484 200.524993896484 203.800003051758 205.806243896484 205.75 202.787506103516 198.931243896484 196.28125 189.274993896484 187.550003051758 184.956253051758 181.418746948242 180.443756103516 180.25 181.737503051758 184.34375 185.643753051758 185.762496948242 191.993743896484 198.668746948242 204.556243896484 208.487503051758 210.46875 216.831253051758 226.987503051758 237.71875 247.574996948242 253.712493896484 261.03125 265.649993896484 269.387512207031 279.912506103516 288.71875 291.299987792969 290.9375 299.981262207031 287.056243896484 276.756256103516 267.618743896484 255.706253051758 
198.149993896484 196.899993896484 195.350006103516 192.231246948242 191.28125 185.756256103516 179.912506103516 172.993743896484 168.287506103516 161.943756103516 182.712493896484 201.824996948242 205.21875 205.962493896484 204.581253051758 202.012496948242 197.125 193.518753051758 188.1875 182.90625 178.243743896484 175.65625 172.46875 170.762496948242 169.706253051758 169.925003051758 170.131256103516 174.8125 176.262496948242 180.643753051758 185.581253051758 191.431243896484 196.375 196.693756103516 198.868743896484 208.600006103516 220.987503051758 229.462493896484 239.506256103516 243.818756103516 249.300003051758 254.768753051758 257.71875 262.462493896484 267.987487792969 273.950012207031 278.649993896484 275.893737792969 264.46875 257.012512207031 248.78125 
197.731246948242 196.131256103516 194.231246948242 192.362503051758 188.481246948242 184.350006103516 181.53125 179.712493896484 181.493743896484 191.550003051758 215.768753051758 217.243743896484 210.637496948242 207.918746948242 204.425003051758 200.125 195 189.893753051758 184.399993896484 177.300003051758 170.512496948242 165.368743896484 163.199996948242 162.806243896484 160.324996948242 159.793746948242 162.293746948242 166.256256103516 166.100006103516 171.625 173.912506103516 174.643753051758 180.106246948242 184.368743896484 190.912506103516 198.1875 205.993743896484 216.774993896484 220.493743896484 221.762496948242 229.756256103516 233.743743896484 234.25 240.606246948242 242.756256103516 247.681243896484 247.418746948242 245.599990844727 243.03125 237.90625 229.506256103516 
200.487503051758 197.618743896484 196.625 194.243743896484 191.662506103516 188.043746948242 184.606246948242 188.512496948242 193.943756103516 203.5625 213.15625 216.787506103516 210.975006103516 206.09375 203.875 197.074996948242 190.112503051758 183.84375 176.78125 170.59375 162.300003051758 157.287506103516 152.368743896484 151.606246948242 150.9375 151.362503051758 152.837493896484 155.568756103516 156 160.3125 164.09375 168.256256103516 172.356246948242 177.581253051758 183.418746948242 188.618743896484 194.362503051758 203.293746948242 206.006256103516 203.487503051758 208.118743896484 211.40625 209.849990844727 211.237503051758 216.774993896484 219.03125 221.550003051758 221.512496948242 220.725006103516 215.90625 210.675003051758 
202.324996948242 200.631256103516 199.612503051758 198.149993896484 194.037506103516 189.225006103516 189.068756103516 195.543746948242 198.8125 204.043746948242 209.806243896484 210.143753051758 208.787506103516 203.768753051758 200.193756103516 193.637496948242 185.912506103516 178.118743896484 170.568756103516 163.443740844727 155.0625 148.081237792969 142.274993896484 141.137496948242 142.03125 142.331253051758 143.693756103516 146.337509155273 147.600006103516 150.274993896484 156.84375 162.506256103516 168.662506103516 173.75 176.181243896484 182.637496948242 189.649993896484 195.556243896484 192.631256103516 190.668746948242 189.112503051758 185.462493896484 184.850006103516 189.943756103516 194.800003051758 198.806243896484 199.631256103516 197.774993896484 202.243743896484 200.231246948242 194.762496948242 
205.59375 204.012496948242 204.212493896484 202.725006103516 198.693756103516 197.431243896484 198.037506103516 200.53125 203.806243896484 204.306243896484 207.100006103516 206.868759155273 206.5625 200.731246948242 194.612503051758 189.268753051758 181.449996948242 174.550003051758 167.762496948242 157.543746948242 148.556243896484 140.46875 132.506240844727 132.050003051758 132.8125 133.274993896484 135 139.112503051758 142.862503051758 145.118743896484 147.337493896484 154.449996948242 160.28125 170.5 173.212493896484 174.699996948242 177.818756103516 179.475006103516 179.418746948242 176.024993896484 171.637496948242 163.518753051758 160.875 168.881256103516 176.443756103516 179.024993896484 179.324996948242 178.643753051758 180.46875 178.512496948242 174.981246948242 
208.356246948242 209.074996948242 210.418746948242 204.399993896484 205.056243896484 204.256256103516 202.449996948242 202.731246948242 203.731246948242 203.481246948242 205.100006103516 204.137496948242 201.5625 197.4375 191.662506103516 184.787506103516 175.637496948242 171.668746948242 164.262496948242 150.193756103516 138.96875 129.206253051758 124 126.1875 126.8125 128.037506103516 129.831253051758 133.493743896484 135.981246948242 139.518753051758 142.387496948242 145.28125 152.78125 163.043746948242 171.712493896484 174.206253051758 170.587493896484 171.268753051758 167.793746948242 164.681243896484 159.881256103516 152.59375 147.725006103516 153.268753051758 159.050003051758 161.262496948242 162.012496948242 162.09375 165.618743896484 160.762496948242 158.306243896484 
214.149993896484 214.112503051758 215.918746948242 211.081253051758 211.59375 209.831253051758 205.96875 206.568756103516 206.850006103516 206.212493896484 205.043746948242 203.337493896484 200.71875 195.956253051758 190.956253051758 182.875 174.081253051758 169.143753051758 163.949996948242 149.693756103516 135.024993896484 122.037498474121 117.693748474121 120.1875 122 122.5625 123.849998474121 126.900001525879 129.024993896484 130.962493896484 134.412506103516 136.681243896484 143.90625 155.181243896484 165.693756103516 173.625 170.287506103516 165.212493896484 161.481246948242 155.087493896484 148.53125 144.03125 142.837493896484 145.65625 146.881256103516 147.881256103516 150.118743896484 147.59375 146.456253051758 147.100006103516 143.074996948242 
215.493743896484 219.331253051758 219.431243896484 217.84375 216.75 214.03125 206.9375 206.118743896484 204.168746948242 204.149993896484 202.793746948242 201.449996948242 198.568756103516 193.1875 187.818756103516 180.793746948242 171.081253051758 163.28125 156.956253051758 143.681243896484 131.574996948242 119.412498474121 114.587501525879 115.5 117.875 119.1875 121.0625 122.25 124.46875 126.993751525879 130.175003051758 132.337509155273 138.512496948242 145.631256103516 156.043746948242 165.925003051758 162.606246948242 156.949996948242 152.668746948242 147.868743896484 141.231246948242 138.737503051758 136.237503051758 137.556243896484 138.125 137.018753051758 138.175003051758 136.649993896484 133.949996948242 135.899993896484 132.59375 
