ncols        51
nrows        45
xllcorner    -63.500000000000
yllcorner    -7.500000000000
cellsize     0.166666666667
NODATA_value -99
421.725006103516 412.75 403.981262207031 402.493743896484 397.293762207031 389.90625 377.600006103516 368.231262207031 361.037506103516 357.237487792969 351.549987792969 344.456237792969 339.774993896484 335.975006103516 331.556243896484 329.287506103516 325.524993896484 319.59375 316.287506103516 315.90625 317.631256103516 319.193756103516 324.756256103516 328.4375 334.012512207031 341.475006103516 346.381256103516 353.112487792969 357.375 366.443756103516 371.0625 378.393737792969 385.612487792969 390.674987792969 395.9375 403.462493896484 409.362487792969 411.65625 413.625 417.768737792969 418.443756103516 419.950012207031 417.631256103516 420.618743896484 419.493743896484 416.137512207031 414.84375 410.043762207031 409.225006103516 412.625 413.668762207031 
423.28125 414.518737792969 413.100006103516 416.487487792969 419.443756103516 415.512512207031 405.21875 398.075012207031 394.318756103516 388.399993896484 383.768737792969 376.024993896484 368.506256103516 361.612487792969 353.731262207031 346.731262207031 340.100006103516 332.837493896484 331.537506103516 331.856262207031 334.818756103516 339.143737792969 343.693756103516 349.825012207031 354.350006103516 358.78125 363.762512207031 367.931243896484 371.40625 377.662506103516 382.306243896484 393.381256103516 396.356262207031 402.612487792969 405.65625 406.418731689453 413.443756103516 415.549987792969 419.381256103516 416.25 415.8125 421.768737792969 419.331237792969 415.756256103516 415.450012207031 410.668762207031 409.475006103516 407.78125 409.737487792969 413.375 417.106262207031 
413.212493896484 410.3125 417.106262207031 424.356262207031 430.018737792969 432.174987792969 431.40625 432.118743896484 431.65625 427.46875 422.212493896484 411.081237792969 399.612487792969 386.743743896484 376.068756103516 367.387512207031 356.549987792969 347.3125 345.243743896484 346.443756103516 351.399993896484 360 366.850006103516 372.674987792969 377.606262207031 385.375 390.418762207031 390.649993896484 389.618743896484 395.006256103516 399.743743896484 407.84375 415.325012207031 418.649993896484 423.818756103516 422.668762207031 426.59375 429.100006103516 429.756256103516 428.743743896484 431.168762207031 429.243743896484 429.137512207031 425.174987792969 422.131256103516 419.375 416.768737792969 417.200012207031 414.424987792969 419.618743896484 424.168762207031 
396.862487792969 393.368743896484 412.612487792969 424.768737792969 436.825012207031 443.331237792969 449.924987792969 459.943756103516 468.887512207031 469.037506103516 460.962493896484 445.962493896484 427.418762207031 411.131256103516 396.975006103516 383.806243896484 369.356262207031 360.149993896484 357.418762207031 361.674987792969 374.043762207031 383.174987792969 389.993743896484 397.712493896484 403.53125 409.243743896484 413.375 408.90625 405.53125 413.612487792969 418.868743896484 425.96875 430.912506103516 433.1875 434.674987792969 440.243743896484 445.200012207031 446.299987792969 446.6875 446.075012207031 444.924987792969 446.637512207031 439.818756103516 433.543762207031 433.337493896484 426.6875 422.868743896484 424.737487792969 421.087493896484 421.024993896484 426.931243896484 
405.637512207031 399.068756103516 401.137512207031 416.893737792969 436.65625 446.90625 461.149993896484 479.350006103516 498.649993896484 507.0625 493.681243896484 469.850006103516 452.068756103516 434.5625 417.168762207031 399.387512207031 381.350006103516 372.412506103516 369.649993896484 376.543762207031 391.206237792969 401.262512207031 408.306243896484 421.481262207031 426.043762207031 431.75 426.931243896484 425.331237792969 421.793762207031 427.618743896484 435.306243896484 439.837493896484 443.424987792969 450.206237792969 454.256256103516 455.631256103516 461.762512207031 465.575012207031 466.71875 464.193756103516 464.356262207031 459.1875 452.1875 447.412506103516 442.056243896484 435.299987792969 427.1875 425.600006103516 422.049987792969 426.274993896484 433.768737792969 
408.268737792969 403.899993896484 404.331237792969 403.356262207031 424.299987792969 443.212493896484 459.362487792969 475.587493896484 497.950012207031 510.59375 500.787506103516 475.106262207031 461.118743896484 446.606262207031 426.518737792969 412.96875 393.618743896484 384.924987792969 385.956237792969 396.837493896484 409.524993896484 421.575012207031 432.625 437.174987792969 442.143737792969 446.506256103516 441.487487792969 435.924987792969 434.09375 441.412506103516 449.831237792969 457.856262207031 462.306243896484 469.212493896484 473.543762207031 477.4375 480.931243896484 483.481262207031 489.543762207031 486.325012207031 480.518737792969 475.524993896484 466.200012207031 459.9375 454.787506103516 442.831237792969 430.549987792969 429.112487792969 426.200012207031 424.981262207031 426.799987792969 
414.331237792969 409.125 408.700012207031 408.762512207031 416.168731689453 427 441.950012207031 457.887512207031 464.450012207031 478.518737792969 481.368743896484 469.043762207031 461.475006103516 451.950012207031 437.181243896484 423.0625 411.950012207031 409.368743896484 411.337493896484 424.412506103516 432.899993896484 441.118743896484 445.90625 452.481262207031 457.924987792969 464.731262207031 456.431243896484 448.768737792969 441.475006103516 450.46875 461.368743896484 467.387512207031 471.381256103516 479.681243896484 487.475006103516 494.518737792969 496.018737792969 498.524993896484 504.649993896484 504.768737792969 495.375 485.575012207031 475.75 471.337493896484 461.924987792969 454.418762207031 437.799987792969 423.9375 417.606262207031 422.34375 422.806243896484 
418.737487792969 413.306243896484 412.375 415.625 422.168762207031 432.768768310547 433.674987792969 425.325012207031 418.487487792969 436.537506103516 458.193756103516 460.118743896484 462.4375 456.5 447.350006103516 439.262512207031 431.325012207031 435.287506103516 440.106262207031 447.450012207031 458.681243896484 462.549987792969 465.912506103516 464.668762207031 471.59375 468.237487792969 464.674987792969 454.493743896484 447.643737792969 457.331237792969 468.331237792969 474.737487792969 482.174987792969 487.6875 492.21875 496.893737792969 501.431243896484 507.368743896484 508.193756103516 500.53125 496.65625 487.1875 479.287506103516 469.975006103516 458.043762207031 443.506256103516 426.662506103516 416.318756103516 410.831237792969 406.21875 404.918762207031 
422.34375 418.012512207031 419.456237792969 420.487487792969 424.350006103516 431.212493896484 431.15625 425.387512207031 409.318756103516 408.612487792969 430.399993896484 444.149993896484 456.024993896484 453.556243896484 450.4375 450.575012207031 449.181243896484 457.543731689453 468.100006103516 466.6875 465.731262207031 473.649993896484 469.381256103516 478.299987792969 475.018737792969 469.28125 460.362487792969 456.424987792969 455.78125 461.462493896484 474.21875 477.268737792969 475.5 476.899993896484 485.431243896484 492.581237792969 499.056243896484 506.181243896484 510.03125 500 489.837493896484 479.674987792969 476.524993896484 472.71875 450.831237792969 435.524993896484 419.581237792969 403.850006103516 391.78125 386.725006103516 384.337493896484 
424.418762207031 423.368743896484 425.024993896484 427.956237792969 427.237487792969 433.399993896484 435.181243896484 432.743743896484 427.306243896484 430.09375 440.25 439.924987792969 453.274993896484 451.90625 456.78125 458.481262207031 461.537506103516 470.881256103516 483.337493896484 490.15625 483.537506103516 477.600006103516 473.899993896484 478.012512207031 470.537506103516 464.924987792969 455.84375 452.350006103516 454.893737792969 465.399993896484 469.8125 469.287506103516 472.512512207031 475.506256103516 478.712493896484 485.256256103516 490.575012207031 499.193756103516 503.600006103516 502.731262207031 499.331237792969 493.975006103516 478.274993896484 464.475006103516 448.837493896484 438.956237792969 419.043762207031 396.931243896484 382.056243896484 369.431243896484 355.768737792969 
425.793762207031 428.043762207031 428.424987792969 431.918762207031 431.237487792969 438.893737792969 442.350006103516 438.299987792969 436.350006103516 443.206237792969 453.887512207031 458.237487792969 452.231262207031 454.449981689453 458.806243896484 463.087493896484 470.143737792969 481.943756103516 493.712493896484 505.912506103516 514.03125 499.225006103516 484.681243896484 461.943756103516 465.862487792969 467.037506103516 458.206237792969 453.975006103516 449.668762207031 453.78125 460.131256103516 462.225006103516 464.174987792969 466.443756103516 468.1875 470.318756103516 475.981262207031 487.075012207031 497.212493896484 500.46875 499.825012207031 491.112487792969 484.518737792969 464.168762207031 444.424987792969 428.337493896484 411.674987792969 386.125 370.674987792969 357.075012207031 337.28125 
427.893737792969 428.668762207031 430.368743896484 433.912506103516 435.981262207031 438.725006103516 446.200012207031 448.256256103516 450.59375 451.15625 460.1875 470.806243896484 458.799987792969 458.6875 466.668762207031 467.543762207031 473.756256103516 484.743743896484 497.856262207031 516.237487792969 530.40625 524.331237792969 505.887512207031 476.662506103516 458.899993896484 447.856262207031 437.112487792969 434.081237792969 435.175018310547 437.793762207031 436.96875 437.899993896484 439.768737792969 441.743743896484 448.137512207031 456.262512207031 465.612518310547 473.59375 479.950012207031 485.068756103516 489.193756103516 481.237487792969 466.256256103516 432.506256103516 410.049987792969 386.612487792969 364.46875 359.212493896484 351.931243896484 340.950012207031 314.456268310547 
430.893737792969 428.737487792969 429.587493896484 433.649993896484 435.012512207031 441.15625 444.6875 445.53125 449.443756103516 456.043762207031 463.59375 472.46875 470.537506103516 454.850006103516 458.03125 466.481262207031 471.850006103516 482.600006103516 494.40625 511.918762207031 532.174987792969 524.549987792969 507.700012207031 477.75 436.299987792969 417.731262207031 420.506256103516 420.587493896484 424.03125 427.475006103516 422.231262207031 415.393737792969 414.856262207031 415.006256103516 422.662506103516 436.100006103516 448.75 462.793762207031 473.837493896484 478.325012207031 478.118743896484 471.118743896484 442.21875 414.9375 401.875 384.924987792969 361.5 341.28125 328.368743896484 329.174987792969 320.981262207031 
424.78125 424.174987792969 427.15625 430.512512207031 434.4375 437.943756103516 440.09375 442.6875 449.543762207031 455.03125 453.912506103516 459.399993896484 460.137512207031 455.393737792969 442.643737792969 455.125 459.981262207031 467.125 481.5 498.918762207031 513.21875 509.893737792969 498.03125 475.200012207031 442.25 419.987487792969 412.668762207031 406.5 407.299987792969 405.412506103516 405.481262207031 396.131256103516 394.774993896484 395.168762207031 400.075012207031 418.512481689453 438.625 458.331268310547 472.174987792969 471.556243896484 453.918762207031 432.362487792969 422.8125 418.21875 417.40625 394.950012207031 373.53125 358.918762207031 344.950012207031 351.556243896484 350.212493896484 
418.831237792969 420.700012207031 425 427.706237792969 430.231262207031 434.3125 440.743743896484 446.075012207031 448.918762207031 448.631256103516 445.856262207031 449.100006103516 446.643737792969 441.587493896484 421.725006103516 430.362487792969 438.274993896484 450.725006103516 463.787506103516 477.53125 492.1875 494.825012207031 491.625 483.943756103516 466.993743896484 449.362487792969 432.049987792969 420.174987792969 411.912506103516 404.181243896484 389.53125 376.993743896484 380.174987792969 373.90625 370.306243896484 383.887512207031 420.943756103516 451.181243896484 461.362487792969 454.100006103516 435.018737792969 425.125 428.825012207031 421.5625 412.9375 403.899993896484 392.600006103516 386.899993896484 380.450012207031 373.543731689453 368.71875 
411.643737792969 412.850006103516 419.637512207031 424.375 426.006256103516 432.856262207031 440.274993896484 444.549987792969 443.931243896484 444.1875 439.087493896484 439.768737792969 437.049987792969 434.793762207031 419.84375 402.899993896484 416.243743896484 437.475006103516 445.368743896484 457.625 472.399993896484 486.743743896484 495.493743896484 498.293762207031 486.28125 467.081237792969 446.100006103516 427.362487792969 415.256256103516 407.125 396.556243896484 379.774993896484 364.568756103516 350.887512207031 344.600006103516 377.868743896484 403.375 429.606262207031 444.625 447.825012207031 438.068756103516 427.943756103516 423.068756103516 407.056243896484 398.556243896484 394.631256103516 385.056243896484 378.743743896484 380.793762207031 377.34375 377.962493896484 
407 409.181243896484 413.274993896484 420.162506103516 426.449981689453 430.137512207031 434.931243896484 437.774993896484 439.793762207031 439.049987792969 435.981262207031 439.043762207031 435.237487792969 430.606262207031 420.649993896484 409.075012207031 394.53125 411.725006103516 426.575012207031 439.987487792969 455.981262207031 471.956237792969 491.418762207031 506.518737792969 505.825012207031 473.024993896484 446.587493896484 428.59375 415.618743896484 405.787506103516 396.125 384.899993896484 371.887512207031 361.293762207031 373.756256103516 388.09375 412.393737792969 437.274993896484 459.556243896484 451.28125 438.318756103516 423.231262207031 406.625 396.5 390.899993896484 389.0625 383.068756103516 385.418762207031 386.899993896484 377.518737792969 377.15625 
401.024993896484 406.243743896484 413.149993896484 419.231262207031 426.206237792969 434.75 437.649993896484 438.568756103516 437.387512207031 437.081237792969 433.84375 440.018737792969 431.53125 429.118743896484 420.1875 411.399993896484 398.299987792969 385.756256103516 414.481262207031 424.674987792969 438.15625 455.818756103516 475.65625 492.40625 496.21875 471.325012207031 438.612487792969 425.4375 414.475006103516 397.925018310547 374.600006103516 356.518737792969 373.118743896484 380.53125 385.787506103516 415.668762207031 438.725006103516 447.581237792969 456.112487792969 450.631256103516 425.943756103516 409.668762207031 394.731262207031 386.787506103516 380.5 381.975006103516 379.006256103516 378.268737792969 383.493743896484 369.293762207031 376.712493896484 
394.931243896484 401.399993896484 408.193756103516 418.868743896484 428.912506103516 435.043762207031 440.268737792969 443.918762207031 442.118743896484 442.975006103516 436.268768310547 429.206237792969 423.262512207031 421.59375 413.837493896484 409.643737792969 403.612487792969 386.181243896484 387.299987792969 399.981262207031 414.962493896484 438.231262207031 433.993743896484 454.174987792969 460.068756103516 456.668762207031 439.3125 417.975006103516 407.331237792969 390.068756103516 371.506256103516 363.674987792969 376.706237792969 384.331237792969 395.024993896484 417.268737792969 427.418762207031 430.53125 438.918762207031 427.725006103516 407.8125 390.65625 382.649993896484 380.424987792969 374.793762207031 371.662506103516 374.137512207031 374.931243896484 375.543762207031 354.181243896484 374.075012207031 
386.737487792969 394.837493896484 404.1875 412.318756103516 424.543762207031 438.931243896484 447.331237792969 451.037506103516 448.643737792969 443.668762207031 440.381256103516 440.125 439.5625 429.96875 418.112487792969 398.200012207031 382.381256103516 386.293762207031 384.71875 391.325012207031 391.65625 404.256256103516 423.018768310547 429.924987792969 428.493743896484 418.106262207031 410.306243896484 405.637512207031 388.806243896484 368.46875 358.987487792969 370.012512207031 376.412506103516 380.631256103516 395.293762207031 410.537506103516 418.1875 421.024993896484 418.118743896484 409.681243896484 387.612487792969 372.118743896484 371.731262207031 371.268737792969 371.087493896484 370.306243896484 367.649993896484 367.962493896484 365.1875 348.981262207031 369.712493896484 
368.59375 389.34375 404.712493896484 413.450012207031 421.793762207031 441.15625 454.71875 461.418762207031 459.931243896484 451.53125 445.825012207031 445.399993896484 437.6875 428.618743896484 413.149993896484 401.706237792969 383.618743896484 378.725006103516 385.206237792969 385.293762207031 401.34375 414.368743896484 424.756256103516 429.206237792969 429.512512207031 419.306243896484 399.793762207031 390.418762207031 382.162506103516 372.881256103516 368.387512207031 370.21875 368.174987792969 371.506256103516 382.450012207031 396.25 406.462493896484 410.850006103516 405.462493896484 394.28125 383.456237792969 370.049987792969 363.243743896484 365.537506103516 365.412506103516 366.299987792969 367.668762207031 364.487487792969 351.575012207031 355.387512207031 362.643737792969 
362.368743896484 371.024993896484 393.081268310547 413.493743896484 424.03125 438.518737792969 456.65625 469.881256103516 470.381256103516 463.700012207031 455.75 448.96875 438.693756103516 426.943756103516 419.856262207031 404.831237792969 407.493743896484 398.5625 401.931243896484 398.362487792969 397.206237792969 406.65625 415.981262207031 413.206237792969 405.03125 402.325012207031 399.956237792969 390.168762207031 391.200012207031 384.306243896484 372.243743896484 362.612487792969 367.28125 375.643737792969 379.331237792969 385.856262207031 396.168762207031 400.581237792969 395.34375 386.137512207031 378.649993896484 367.693756103516 360.875 360.162506103516 359.59375 360.649993896484 361.768737792969 361.231262207031 351.337493896484 361.424987792969 357.668762207031 
356.612487792969 377.09375 397.28125 417.962493896484 429.262512207031 442.118743896484 446.40625 462.587493896484 475.21875 471.087493896484 459.631256103516 450.068756103516 445.6875 434.21875 427.174987792969 417.368743896484 412.506256103516 407.393737792969 404.987487792969 402.174987792969 404.087493896484 400.881256103516 404.631256103516 399.825012207031 399.487487792969 394.443756103516 386.506256103516 387.131256103516 389.0625 379.893768310547 365.225006103516 360.443756103516 369.78125 376.1875 382.53125 377.424987792969 380.606262207031 388.643737792969 391.443756103516 382.962493896484 373.193756103516 364.612487792969 357.487487792969 355.625 354.356262207031 352.4375 351.962493896484 350.100006103516 354.40625 364.756256103516 359.006256103516 
346.318756103516 370.731262207031 396.556243896484 414.075012207031 424.818756103516 433.125 452.731262207031 464.493743896484 466.243743896484 460.674987792969 454.568756103516 454.318756103516 446.537506103516 439.09375 428.762512207031 419.65625 414.393737792969 412.693756103516 411.899993896484 410.962493896484 404.393737792969 401.712493896484 398.887512207031 400.137512207031 394.0625 382.268737792969 379.049987792969 380.475006103516 384.981231689453 383.762512207031 378.681243896484 375.456237792969 385.075012207031 389.162506103516 392.049987792969 380.987487792969 388.3125 391.287506103516 389 381.931243896484 370.768737792969 364.78125 359.075012207031 352.987487792969 349.875 346.237487792969 343.868743896484 334.631256103516 348.84375 359.987487792969 361.274993896484 
343.918762207031 369.712493896484 392.587493896484 416.537506103516 431.481262207031 441.8125 448.112487792969 459.774993896484 459.337493896484 457.681243896484 450.856262207031 445.462493896484 443.399993896484 434.587493896484 424.1875 419.537506103516 420.068756103516 416.950012207031 412.956237792969 411.793762207031 409.818756103516 402.424987792969 401.5625 398.612487792969 391.168762207031 390.231262207031 386.325012207031 388.481262207031 391.043762207031 395.956237792969 392.424987792969 397.806243896484 405.443756103516 407.8125 401.125 393.662506103516 396.024993896484 390.28125 385.768737792969 379.012512207031 370.331237792969 361.5625 355.637512207031 345.743743896484 335.706268310547 331.337493896484 319.756256103516 329.243743896484 335.568756103516 350.506256103516 354.331237792969 
350.700012207031 378.725006103516 391.743743896484 413.3125 422.756256103516 430.71875 435.668762207031 445.049987792969 439.893737792969 433.543762207031 439.274993896484 438.399993896484 430.100006103516 423.081237792969 423.350006103516 419.75 421.018737792969 418.256256103516 414.068756103516 410.612487792969 408.674987792969 401.5625 400.293762207031 392.40625 390.59375 388.543762207031 394.200012207031 396.112487792969 397.25 403 408.162506103516 424.149993896484 433.412506103516 424.193756103516 412.912506103516 406.681243896484 400.012512207031 394.8125 380.987487792969 372.71875 365.768737792969 354.043762207031 343.856262207031 338.262512207031 331.1875 317.274993896484 324.924987792969 326.100006103516 330.712493896484 342.162506103516 339.181243896484 
354.912506103516 369.649993896484 386.674987792969 402.012512207031 409.768737792969 417.006256103516 420.337493896484 421.587493896484 419.899993896484 426.78125 428.774993896484 422.024993896484 417.637512207031 412.912506103516 413.40625 414.8125 413.006256103516 407.893737792969 412.381256103516 407.912506103516 401.631256103516 397.056243896484 395.381256103516 394.325012207031 392.043762207031 390.856262207031 395.112487792969 396.568756103516 399.274993896484 401.337493896484 412.918762207031 429.200012207031 447.5 432.618743896484 416.831237792969 407.356262207031 405.28125 395.024993896484 381.112487792969 372.356262207031 363.206237792969 351.481262207031 341.256256103516 331.337493896484 324.487487792969 322.84375 324.674987792969 321.412506103516 324.787506103516 320.9375 315.537506103516 
361.537506103516 368.856262207031 380.287506103516 387.075012207031 394.850006103516 403.006256103516 407.287506103516 404.84375 406.71875 412.575012207031 412.399993896484 405.34375 401.131256103516 395.768737792969 400.03125 398.356262207031 402.399993896484 406.162506103516 410.743743896484 408.8125 402.475006103516 394.6875 396.962493896484 393.412506103516 392.125 388.193756103516 392.4375 393.137512207031 396.481262207031 399.78125 407.71875 418.850006103516 431.331237792969 424.356262207031 418.274993896484 409.399993896484 402.081237792969 397.206237792969 386.681243896484 372.78125 360.399993896484 351.806243896484 341.674987792969 333.306243896484 321.368743896484 312.881256103516 312.1875 316.662506103516 312.606262207031 302.262512207031 293.481262207031 
361.018768310547 366.112487792969 370.012512207031 374.424987792969 378.987487792969 378.581237792969 379.53125 385.625 394.21875 394.637512207031 395.393737792969 391.387512207031 385.512512207031 384.356262207031 391.993743896484 397.899993896484 401.856262207031 402.856262207031 405.087493896484 405.024993896484 399.806243896484 391.831237792969 390.743743896484 386.818756103516 384.618743896484 377.424987792969 381.568756103516 385.506256103516 387.912506103516 388.662506103516 394.1875 397.737487792969 406.53125 407.668762207031 411.46875 405.412506103516 400.9375 393.375 383.268737792969 369.649993896484 352.043762207031 340.037506103516 337.018737792969 336.587493896484 328.356231689453 317.606262207031 316.53125 317.543762207031 306.068756103516 293.162506103516 277.137512207031 
356.193756103516 356.8125 354.331237792969 350.674987792969 351.143737792969 356.149993896484 358.5625 368.368743896484 373.40625 371.806243896484 374.912506103516 373.299987792969 370.393737792969 371.524993896484 378.712493896484 384.931243896484 388.568756103516 396.25 396.59375 392.600006103516 388.231231689453 384.237487792969 381.649993896484 375.212493896484 367.868743896484 368.25 366.206237792969 363.3125 364.799987792969 367.393737792969 372.987487792969 374.331237792969 383.46875 391.350006103516 398.393737792969 392.512512207031 397.3125 393.068756103516 381.862487792969 377.331237792969 366.831237792969 353.100006103516 342.631256103516 335.575012207031 329.100006103516 326.6875 322.618743896484 322.075012207031 311.46875 295.831237792969 274.831237792969 
349.831237792969 345.549987792969 337.84375 334.975006103516 335.049987792969 338.318756103516 344.8125 349.350006103516 353.850006103516 355.825012207031 358.487487792969 355.631256103516 358.59375 355.456237792969 362.212493896484 371.006256103516 377.112487792969 381.125 384.518737792969 385.231262207031 376.225006103516 369.75 367.181243896484 357.143737792969 349.912506103516 352.743743896484 348.081237792969 342.243743896484 342.956237792969 344.674987792969 351.881256103516 351.556243896484 360.993743896484 371.856262207031 379.768737792969 375.799987792969 381.8125 386.106262207031 383.493743896484 377.731262207031 375.643737792969 361.399993896484 349.643737792969 337.15625 333.518737792969 335.475006103516 334.412506103516 328.125 315.337493896484 301.487487792969 280 
335.018737792969 327.8125 320.8125 318.543762207031 320.03125 320.450012207031 330.181243896484 329.90625 333.168762207031 334.337493896484 336.793762207031 333.699981689453 336.325012207031 339.356262207031 344.737487792969 354.143737792969 354.875 358.181243896484 362.237487792969 364.706237792969 355.331237792969 350.200012207031 346.40625 339.174987792969 337.681243896484 334.487487792969 329.543762207031 321.40625 316.762512207031 321.28125 323.21875 326.875 335.674987792969 347.299987792969 358.962493896484 359.487487792969 365.1875 373.09375 371.831237792969 376.8125 376.3125 366.087493896484 356.581237792969 350.6875 346.256256103516 358.568756103516 362.15625 346.893737792969 326.681243896484 309.450012207031 287.668762207031 
313.931243896484 309.087493896484 302.512512207031 302.174987792969 299.862487792969 299.5 305.09375 306.299987792969 309.237487792969 313.350006103516 321.606231689453 319.806243896484 321.59375 326.3125 328.512512207031 330.443756103516 330.350006103516 337.3125 337.15625 338.850006103516 329.549987792969 326.625 320.993743896484 317.512512207031 314.918762207031 312.725006103516 305.143737792969 298.106262207031 290.762512207031 293.806243896484 298.299987792969 301.549987792969 308.450012207031 324.787506103516 335.4375 343.450012207031 346.168762207031 355.231262207031 356.368743896484 367.012512207031 367.9375 364.918762207031 359.587493896484 358.868743896484 366.612487792969 381.125 381.3125 360.193756103516 336.1875 316.793762207031 293.981262207031 
293.737487792969 288.356262207031 286.543762207031 285.381256103516 285.350006103516 282.40625 283.287506103516 282.325012207031 284.049987792969 288.237487792969 295.399993896484 300.75 301.75 303.350006103516 306.725006103516 310.043762207031 310.181243896484 314.162506103516 311.262512207031 309.65625 305.756256103516 303.475006103516 298.46875 292.412506103516 290.424987792969 286.34375 278.068756103516 270.25 266.043762207031 269.274993896484 274.200012207031 278.075012207031 286.887512207031 298.4375 311.399993896484 318.987487792969 326.8125 331.262512207031 339.53125 348.262512207031 351.306243896484 355.8125 359.706237792969 362.362487792969 377.03125 391.637512207031 387.25 358.262512207031 336.299987792969 318.393737792969 296.725006103516 
272.143737792969 268.206237792969 268.299987792969 269.518737792969 269.931243896484 266.200012207031 261.056243896484 259.806243896484 257.09375 262.0625 271.481262207031 278.318756103516 285.65625 291.112487792969 291.637512207031 291.106262207031 288.368743896484 291.112487792969 288.362487792969 283.118743896484 279.731262207031 275.3125 273.012512207031 267.162506103516 263.993743896484 260.193756103516 255.625 249.425003051758 244.71875 249.431243896484 253.056243896484 257.200012207031 263.168762207031 275.131256103516 279.912506103516 290.006256103516 295.587493896484 310.649993896484 319.456237792969 326.668762207031 332.262512207031 335.037506103516 341.387512207031 349.881256103516 362.75 371.856262207031 370.424987792969 353.625 332.225006103516 315.0625 297.462493896484 
253.993743896484 252.831253051758 250.71875 250.481246948242 249.287506103516 245.231246948242 238.893753051758 237.543746948242 235 235.056243896484 241.725006103516 254.981246948242 267.21875 271.768737792969 273.337493896484 270.568756103516 266.587493896484 264.743743896484 264.487487792969 258.962493896484 255.96875 252.056243896484 248.893753051758 244.524993896484 240.168746948242 235.5625 234.368743896484 229.75 223.175003051758 227.4375 232.506256103516 236.699996948242 241.731246948242 247.181243896484 253.418746948242 261.143737792969 276.075012207031 283.568756103516 292.674987792969 305.262512207031 310.168762207031 318.243743896484 322.40625 330.700012207031 334.725006103516 341.825012207031 342.893737792969 332.131256103516 321.706237792969 305.875 289.21875 
237.90625 238.699996948242 236.262496948242 235.393753051758 234.96875 228.850006103516 223.3125 217.943756103516 213.506256103516 207.056243896484 221.068756103516 244.662506103516 254.693756103516 256.975006103516 255.643753051758 251.350006103516 244.387496948242 241.112503051758 240.012496948242 233.287506103516 231.618743896484 228.643753051758 224.050003051758 219.925003051758 216.387496948242 214.568756103516 211.925003051758 207.524993896484 202.512496948242 207.962493896484 214.537506103516 220.28125 223.875 225.412506103516 231.71875 242.443756103516 253.793746948242 264.268737792969 271.143737792969 279.350006103516 284.693756103516 289.237487792969 301.137512207031 311.1875 314.524993896484 314.700012207031 324.975006103516 311.362487792969 300.506256103516 290.862487792969 278.137512207031 
224.300003051758 224.78125 224.743743896484 222.856246948242 223.449996948242 218.550003051758 213.118743896484 206.324996948242 201.637496948242 194.818756103516 220.5 243.412506103516 247.081253051758 247.081253051758 242.037506103516 235.243743896484 226.493743896484 223.4375 219 214.34375 209.287506103516 206.399993896484 202.53125 198.574996948242 195.09375 192.8125 188.756256103516 189.331253051758 186.96875 190.912506103516 196.012496948242 202.012496948242 206.824996948242 206.737503051758 208.712493896484 219.212493896484 232.587493896484 241.899993896484 252.881256103516 257.850006103516 264.018737792969 269.912506103516 273.118743896484 278.1875 283.943756103516 290.168762207031 295.068756103516 292.193756103516 280.168762207031 272.356262207031 263.575012207031 
214.125 214.143753051758 213.53125 212.96875 210.131256103516 206.768753051758 204.800003051758 203.899993896484 206.65625 218.84375 247.300003051758 248.9375 241.137496948242 237.524993896484 231.168746948242 223.662506103516 215.84375 211.100006103516 206.362503051758 199.606246948242 192.274993896484 186.59375 184.056243896484 182.225006103516 177.84375 175.462493896484 175.143753051758 176.181243896484 173.25 178.65625 181.068756103516 181.868743896484 187.487503051758 191.831253051758 198.631256103516 206.59375 215.193756103516 226.90625 231.175003051758 232.881256103516 241.631256103516 245.899993896484 246.46875 253.193756103516 255.362503051758 260.40625 260.049987792969 258.112487792969 255.362503051758 249.993743896484 241.006256103516 
208.262496948242 206.850006103516 207.09375 205.831253051758 204.318740844727 201.431243896484 198.631256103516 203.774993896484 210.162506103516 221.106246948242 231.956253051758 235.925003051758 229.512496948242 223.956253051758 220.25 211.481246948242 202.90625 196.956253051758 190.399993896484 184.612503051758 175.831253051758 170.512496948242 165.137496948242 163.368743896484 161.587493896484 160.850006103516 160.581253051758 161.462493896484 160.256256103516 164.53125 168.518753051758 172.949996948242 177.4375 183.09375 189.40625 195.225006103516 201.643753051758 211.381256103516 214.5625 212.262496948242 217.393753051758 220.981246948242 219.443756103516 221 226.756256103516 229.050003051758 231.625 231.5 230.612503051758 225.506256103516 219.800003051758 
201.40625 201.1875 201.212493896484 200.768753051758 197.587493896484 193.381256103516 193.893753051758 201.193756103516 204.875 210.524993896484 216.725006103516 217.181243896484 215.881256103516 210.75 206.78125 199.706253051758 191.543746948242 184.149993896484 177.106246948242 170.356246948242 161.768753051758 154.537506103516 148.456253051758 146.725006103516 147 146.662506103516 147.162506103516 148.918746948242 149.425003051758 152.193756103516 159 164.987503051758 171.762496948242 177.524993896484 180.550003051758 187.699996948242 195.412506103516 201.96875 199.293746948242 197.543746948242 196.206253051758 192.606246948242 192.131256103516 197.537506103516 202.612503051758 206.75 207.587493896484 205.543746948242 210.087493896484 207.837493896484 201.875 
194.543746948242 194.40625 195.649993896484 195.28125 192.34375 191.899993896484 193.318756103516 196.524993896484 200.300003051758 201.300003051758 204.59375 205.006256103516 205.368743896484 200.225006103516 194.693756103516 189.899993896484 182.668746948242 176.743743896484 170.925003051758 161.431243896484 152.399993896484 144.15625 135.987503051758 135.15625 135.581253051758 135.675003051758 136.9375 140.574996948242 143.899993896484 146.274993896484 148.6875 156.074996948242 162.493743896484 173.399993896484 176.668746948242 178.699996948242 182.356246948242 184.493743896484 184.743743896484 181.543746948242 177.262496948242 169.050003051758 166.4375 174.862503051758 182.681243896484 185.362503051758 185.668746948242 184.862503051758 186.618743896484 184.4375 180.537506103516 
187.418746948242 189.387496948242 191.6875 187.21875 188.84375 189.050003051758 188.362503051758 189.574996948242 191.331253051758 191.893753051758 194.337493896484 194.5 193.206253051758 190.475006103516 186.168746948242 180.793746948242 173.125 170.668746948242 164.731246948242 151.806243896484 140.6875 130.881256103516 125.618751525879 127.662498474121 128.137496948242 129.181243896484 130.774993896484 134.199996948242 136.493743896484 140.168746948242 143.193756103516 146.300003051758 154.268753051758 165.112503051758 174.34375 177.34375 174.09375 175.193756103516 171.962493896484 169.074996948242 164.375 157.043746948242 152.143753051758 157.962493896484 163.956253051758 166.231246948242 166.987503051758 166.962493896484 170.462493896484 165.318756103516 162.537506103516 
183.4375 184.699996948242 187.324996948242 184.125 185.637496948242 185.175003051758 182.862503051758 184.506256103516 185.837493896484 186.375 186.518753051758 186.518753051758 185.762496948242 183.09375 180.362503051758 174.71875 168.256256103516 165.318756103516 162.024993896484 149.4375 135.050003051758 122.137496948242 117.887496948242 120.362503051758 122.175003051758 122.6875 123.96875 126.987503051758 129.100006103516 131.175003051758 134.756256103516 137.193756103516 144.787506103516 156.46875 167.456253051758 175.899993896484 172.899993896484 168.137496948242 164.649993896484 158.412506103516 151.956253051758 147.487503051758 146.381256103516 149.356246948242 150.631256103516 151.6875 153.975006103516 151.256256103516 149.975006103516 150.487503051758 146.175003051758 
176.056243896484 180.3125 181.331253051758 180.96875 180.987503051758 179.787506103516 174.981246948242 175.456253051758 175.199996948242 176.662506103516 177.125 178.199996948242 178.081253051758 175.793746948242 173.59375 169.881256103516 163.4375 158.149993896484 154.081253051758 142.8125 131.168746948242 119.224998474121 114.5625 115.5 117.875 119.1875 121.0625 122.25 124.474998474121 127.074996948242 130.362503051758 132.643753051758 139.050003051758 146.4375 157.199996948242 167.475006103516 164.4375 159.03125 154.943756103516 150.337493896484 143.831253051758 141.418746948242 138.96875 140.381256103516 141 139.881256103516 141.068756103516 139.412506103516 136.518753051758 138.381256103516 134.831253051758 
