ncols        51
nrows        45
xllcorner    -63.500000000000
yllcorner    -7.500000000000
cellsize     0.166666666667
NODATA_value -99
240.212493896484 240.912506103516 238.175003051758 239.34375 237.318756103516 239.962493896484 240.356246948242 236.693756103516 231.675003051758 230.768753051758 235.081253051758 235.056243896484 233.362503051758 223.587493896484 214.0625 204.731246948242 196.962493896484 185.337493896484 178.993743896484 174.181243896484 174.087493896484 174.731246948242 177.237503051758 178.600006103516 180.637496948242 182.943756103516 183.337493896484 183.293746948242 184.15625 188.006256103516 193.425003051758 199.581253051758 205.693756103516 212.625 220.581253051758 228.293746948242 234.050003051758 239.056243896484 243.65625 246.012496948242 249.518753051758 250.956253051758 250.143753051758 252.581253051758 250.981246948242 250.606246948242 249.862503051758 247.931243896484 245.456253051758 246.550003051758 248.224990844727 
248.518753051758 249.018753051758 249.793746948242 249.550003051758 250.512496948242 256.868743896484 259.543762207031 263.024993896484 264.918762207031 265.737487792969 267.368743896484 262.868743896484 256.887512207031 247.806243896484 235.875 223.668746948242 213.012496948242 200.524993896484 190.96875 182.918746948242 181.706253051758 182.84375 185.018753051758 186.181243896484 187.175003051758 189.512496948242 189.84375 190.831253051758 192.1875 197.9375 204.243743896484 213.368743896484 221.4375 230.899993896484 239.581253051758 247.481246948242 253.806243896484 258.5625 262.78125 264.924987792969 267.768737792969 268.287506103516 266.362487792969 267.25 264.700012207031 264.068756103516 262.787506103516 258.518737792969 256.668762207031 257.012512207031 256.212493896484 
254.875 255.9375 257.299987792969 259.043762207031 262.668762207031 270.368743896484 279.012512207031 289.318756103516 297.012481689453 299.681243896484 298.787506103516 291.306243896484 281.956237792969 270.006256103516 254.918746948242 240.168746948242 226.868743896484 215.706253051758 206.25 198.925003051758 198.3125 201.318756103516 203.068756103516 203.456253051758 205.34375 205.725006103516 205.662506103516 206.65625 206.681243896484 212.3125 220.75 230.199996948242 239.925003051758 248.850006103516 259.443756103516 266.162506103516 273.162506103516 279.681243896484 282.5 284.3125 286.1875 285.112487792969 282.399993896484 279.856262207031 277.637512207031 276.493743896484 275.200012207031 269.637512207031 266.618743896484 265.6875 264.293762207031 
257.712493896484 259.612487792969 264.037506103516 268.006256103516 276.993743896484 285.524993896484 298.506256103516 314.693756103516 328.362487792969 335.3125 332.46875 319.53125 304.200012207031 288.743743896484 271.918762207031 255.287506103516 240.649993896484 228.649993896484 221.418746948242 218.237503051758 219.706253051758 222.487503051758 223.699996948242 223.618743896484 223.793746948242 223.399993896484 223.774993896484 223.600006103516 222.931243896484 229.793746948242 237.987503051758 249.643753051758 258.9375 269.149993896484 279.149993896484 287.475006103516 294.799987792969 300.993743896484 304.75 306.481262207031 305.737487792969 303.181243896484 299.25 294.337493896484 290.918762207031 287.181243896484 285.84375 280.075012207031 274.5 272.881256103516 271.875 
266.100006103516 265.056243896484 267.387512207031 274.368743896484 286.118743896484 298.693756103516 313.368743896484 335.4375 358.231262207031 372.475006103516 361.875 341.200012207031 324.4375 307.831237792969 287.887512207031 269.887512207031 254.6875 242.737503051758 238.662506103516 238.5625 241.787506103516 243.46875 245.462493896484 244.956253051758 243.5 242.518753051758 240.149993896484 238.587493896484 240.168746948242 248.131256103516 257.643737792969 268.09375 279.556243896484 290.8125 301.212493896484 309.962493896484 318.737487792969 325.875 329.4375 329.024993896484 327.981262207031 322.325012207031 315.381256103516 308.868743896484 302.293762207031 299.21875 296.743743896484 291.181243896484 284.143737792969 280.712493896484 279.293762207031 
271.200012207031 272.193756103516 273.556243896484 278.90625 290.299987792969 306.100006103516 324.399993896484 347.587493896484 373.568756103516 393.799987792969 378.575012207031 356.424987792969 339.943756103516 324.643737792969 306.412506103516 290.931243896484 275.331237792969 265.487487792969 264.274993896484 266.268768310547 267.5 268.59375 269.668762207031 267.5 264.399993896484 263.5 261.443756103516 259.037506103516 259.318756103516 267.131256103516 276.75 287.299987792969 297.581237792969 311.712493896484 323.743743896484 332.768737792969 342.362487792969 350.106262207031 354.668762207031 353.674987792969 348.975006103516 341.181243896484 332.662506103516 324.225006103516 313.262512207031 309.368743896484 308.587493896484 303.381256103516 294.40625 287.21875 279.825012207031 
276.737487792969 278.075012207031 280.787506103516 284.300018310547 294.356262207031 308.793762207031 326.631256103516 345.356262207031 364.825012207031 375.087493896484 373.28125 361.4375 349.193756103516 337.456237792969 324.125 311.78125 301.412506103516 297.84375 298.15625 297.737487792969 294.725006103516 294.112487792969 292.0625 288.606262207031 287.793762207031 285.487518310547 283.262512207031 281.581237792969 279.393737792969 286.049987792969 296.831237792969 307.356262207031 319.143737792969 330.243743896484 342.631256103516 354.518737792969 364.25 373.556243896484 380.262512207031 378.362487792969 369.65625 360.518737792969 351.118743896484 340.768737792969 327.106262207031 321.28125 320.0625 314.087493896484 301.581237792969 291.487487792969 284.362487792969 
281.212493896484 281.125 283.96875 290.524993896484 300.118743896484 311.618743896484 324.081237792969 335.543762207031 344.306243896484 352.799987792969 361.725006103516 361.700012207031 356.700012207031 347.912506103516 339.056243896484 331.712493896484 325.899993896484 328.71875 333.306243896484 329.112487792969 321.387512207031 317.625 313.899993896484 310.868743896484 309.875 307.40625 304.981262207031 302.09375 300.850006103516 306.943756103516 315.325012207031 326.606262207031 338.381256103516 350.712493896484 362.712493896484 373.549987792969 383.943756103516 393.112487792969 397.987487792969 396.600006103516 389.581237792969 380.918762207031 371.043762207031 358.556243896484 345.693756103516 338.787506103516 332.456237792969 319.868743896484 310.274993896484 296.112487792969 285.268737792969 
286.924987792969 287.256256103516 290.100006103516 296.756256103516 304.850006103516 313.018737792969 323.350006103516 330.806243896484 333.34375 340.631256103516 354.231262207031 361.368743896484 361.418731689453 356.9375 351.956237792969 349.825012207031 347.612487792969 350.193756103516 355.4375 349.9375 339.506256103516 334.806243896484 331.456237792969 331.756256103516 330.962493896484 328.299987792969 324.412506103516 321.037506103516 320.137512207031 325.118743896484 333.287506103516 343.8125 355.006256103516 366.331237792969 377.918762207031 389.649993896484 400.362487792969 409.618743896484 415.581237792969 415.424987792969 409.5625 402.012512207031 393.893737792969 382.962493896484 371.981262207031 362.200012207031 352.181243896484 335.493743896484 317.712493896484 299.287506103516 284.549987792969 
292.131256103516 292.9375 296.556243896484 301.975006103516 308.481262207031 315.512512207031 325.612487792969 332.9375 339.587493896484 347.918762207031 360.487487792969 365.262512207031 368.3125 365.206237792969 365.09375 364.881256103516 364.600006103516 365.631256103516 364.737487792969 360.799987792969 352.862487792969 349.706237792969 348.950012207031 352.799987792969 352.475006103516 349.225006103516 345.600006103516 340.487487792969 340.087493896484 344.393737792969 349.825012207031 358.46875 369.706237792969 382.443756103516 394.793762207031 406.043762207031 416.881256103516 424.912506103516 430.975006103516 433.375 431.262512207031 425.818756103516 417.612487792969 406.012512207031 397.881256103516 390.643737792969 377.456237792969 355.518768310547 332.231262207031 308.181243896484 286.556243896484 
295.793762207031 296.793762207031 300.46875 305.4375 310.875 317.950012207031 327.543762207031 337.512512207031 346.75 357.068756103516 369.987487792969 375.674987792969 377.149993896484 374.762512207031 376.931243896484 378.912506103516 378.993743896484 376.418762207031 372.4375 368.899993896484 361.5 359.918731689453 364.256256103516 367.493743896484 372.981262207031 369.575012207031 364.206237792969 360.1875 357.737487792969 360.212493896484 365.487487792969 372.662506103516 383.012512207031 395.674987792969 409.993743896484 422.149993896484 431.018737792969 440.625 446.981262207031 449.306243896484 449.03125 444.28125 437.65625 427.612487792969 419.462493896484 414.5625 398.368743896484 369.412506103516 343.206237792969 319.350006103516 293.306243896484 
299.59375 300.668762207031 303.737487792969 309.087493896484 315.206237792969 322.331237792969 331.912506103516 344.225006103516 354.049987792969 365.081237792969 378.931243896484 388.018737792969 389.293762207031 387.131256103516 389.493743896484 389.575012207031 388.725006103516 383.087493896484 376.068756103516 369.956237792969 362.431243896484 363.774993896484 374.431243896484 384.743743896484 390.368743896484 384.96875 378.100006103516 373.375 371.081237792969 374.137512207031 378.325012207031 383.287506103516 393.524993896484 405.399993896484 419 431.6875 443.518737792969 453.987487792969 461.15625 464.881256103516 466.418762207031 461.037506103516 450.825012207031 437.162506103516 426.518737792969 413.975006103516 396.212493896484 376.118743896484 351.956237792969 328.049987792969 300.850006103516 
299.700012207031 301.9375 306.174987792969 311.549987792969 319.137512207031 327.162506103516 337.856262207031 349.524993896484 359.1875 371.899993896484 385.518737792969 397.268737792969 400.912506103516 398.143737792969 399.225006103516 397.487487792969 395.387512207031 389.856262207031 383.375 375.306243896484 364.268737792969 368.231262207031 382.712493896484 393.381256103516 396.100006103516 392.087493896484 388.618743896484 384.975006103516 382.512512207031 385.149993896484 388.731262207031 392.71875 400.575012207031 412.450012207031 426.056243896484 438.237487792969 450.337493896484 464.068756103516 473.299987792969 478.756256103516 483.256256103516 475.743743896484 459.143737792969 441.149993896484 426.506256103516 414.674987792969 398.631256103516 375.762512207031 354.662506103516 336.037506103516 316.96875 
298.331237792969 301.350006103516 306.331237792969 312.662506103516 321.393737792969 329.837493896484 341.71875 353.756256103516 364.037506103516 375.381256103516 387.362487792969 398.606262207031 404.799987792969 406.987487792969 405.493743896484 404.356262207031 400.700012207031 396.631256103516 390.662506103516 385.78125 380.84375 384.056243896484 393.75 399.068756103516 400.575012207031 398.362487792969 396.962493896484 394.162506103516 392.899993896484 393.212493896484 395.868743896484 398.25 405.068756103516 416.549987792969 429.181243896484 442.481262207031 457.674987792969 473.475006103516 486.018737792969 492.75 493.881256103516 479.087493896484 463.28125 447.737487792969 434.049987792969 419.149993896484 404.193756103516 385.868743896484 363.243743896484 347.712493896484 335.931243896484 
297.78125 300.774993896484 306.706268310547 315.09375 323.28125 333.049987792969 346.037506103516 357.768737792969 368.625 379.462493896484 389.34375 401.037506103516 408.231262207031 411.556243896484 410.568756103516 407.981262207031 405.131256103516 401.25 397.462493896484 395.956268310547 394.537506103516 396.487487792969 403.262512207031 406.34375 406.625 407.0625 406.25 403.137481689453 401.387512207031 401.268737792969 400.268737792969 399.393737792969 405.481262207031 414.262512207031 426.193756103516 438.912506103516 457.46875 477.543762207031 491.6875 497.243743896484 491.681243896484 480.649993896484 468.643737792969 453.381256103516 438.637512207031 423.96875 410.46875 393.137512207031 375.649993896484 358.149993896484 346.618743896484 
295.649993896484 298.90625 305.78125 314.918762207031 324.712493896484 335.100006103516 348.081237792969 359.3125 370.90625 383.043762207031 393.337493896484 405.59375 413.9375 417.0625 415.387512207031 409.537475585938 408.456237792969 407.387512207031 406.075012207031 406.53125 405.456237792969 407.143737792969 412.131256103516 415.668762207031 414.618743896484 413.700012207031 411.950012207031 410.549987792969 410.256256103516 409.143737792969 406.962493896484 401.90625 401.84375 406.631256103516 414.331237792969 428.712493896484 450.431243896484 475.893737792969 495.587493896484 501.743743896484 495.018737792969 482.5 469.475006103516 454.6875 438.3125 424.106262207031 409.756256103516 392.324981689453 376.181243896484 360.493743896484 347.662506103516 
290.643737792969 295.806243896484 303.325012207031 313.274993896484 324.424987792969 335.387512207031 348.399993896484 360.674987792969 372.793762207031 385.774993896484 398.200012207031 412.081237792969 422.331237792969 426.706237792969 423.693756103516 416.824981689453 412.100006103516 410.4375 410.112487792969 412.512512207031 414.25 416.774993896484 420.299987792969 423.299987792969 423.487487792969 419.518737792969 415.71875 416.237487792969 418.206237792969 418.393737792969 413.90625 405.375 399.506256103516 394.712493896484 399.149993896484 413.15625 436.46875 471.018737792969 502.700012207031 502.850006103516 490.418762207031 477.918762207031 463.462493896484 449.206237792969 435.350006103516 422.337493896484 407.368743896484 391.668762207031 378.706237792969 361.28125 347.243743896484 
283.325012207031 290.15625 300.03125 311.868743896484 323.943756103516 335.75 349.518737792969 362.643737792969 375.043762207031 387.868743896484 401.881256103516 419.118743896484 433.200012207031 438.450012207031 435.462493896484 428.225006103516 417.837493896484 409.774993896484 411.75 414.162506103516 420.0625 422.793762207031 423.587493896484 423.96875 424 421.524993896484 416.831237792969 419.793762207031 424.450012207031 425.53125 418.78125 400.612487792969 389.662506103516 380.512512207031 378.71875 387.256256103516 417.068756103516 452.25 481.350006103516 486.856262207031 476.393737792969 465.137512207031 453.5 442.299987792969 430.399993896484 417.143737792969 405.4375 391.03125 377.587493896484 360.481262207031 348.481262207031 
274.975006103516 283.75 294.868743896484 307.006256103516 320.618743896484 334.774993896484 348.450012207031 363.325012207031 377.03125 389.606262207031 405.043762207031 423.431243896484 441.09375 452.606262207031 447.056243896484 434.0625 420.524993896484 408.431243896484 406.537506103516 410.556243896484 419.631256103516 424.575012207031 420.193756103516 420.399993896484 421.53125 422.674987792969 421.887512207031 425.243743896484 431.71875 434.587493896484 427.943756103516 404.662506103516 385.21875 365.5625 355.037506103516 365.075012207031 394.806243896484 427.506256103516 453.012512207031 461.200012207031 457.818756103516 448.450012207031 440.924987792969 433.537506103516 423.818756103516 413.625 403.056243896484 389.549987792969 376.587493896484 356.450012207031 349.206237792969 
266.868743896484 275.837493896484 287.818756103516 300.931243896484 316.487487792969 331.975006103516 347.612487792969 361.96875 375.743743896484 388.743743896484 403.274993896484 422.793762207031 445.162506103516 464.731262207031 454.606262207031 431.962493896484 412.831268310547 402.831237792969 400.168762207031 403.587493896484 408.018737792969 410.393737792969 413.5 414.862487792969 417.399993896484 420.40625 423.693756103516 430.137512207031 434.549987792969 435.212493896484 424.912506103516 405.40625 379.518737792969 351.168762207031 331.09375 345.037506103516 379.950012207031 412.606262207031 434.181243896484 443.399993896484 440.537506103516 432.362487792969 430.587493896484 427.3125 419.962493896484 410.993743896484 400.149993896484 386.40625 372.475006103516 353.756256103516 347.356262207031 
255.400009155273 266.643737792969 279.393737792969 293.212493896484 310.325012207031 325.46875 341.568756103516 357.787506103516 371.5 383.575012207031 394.6875 411.84375 431.537506103516 450.075012207031 442.362487792969 421.987487792969 405.168762207031 393.587493896484 392.387512207031 392.71875 397.84375 402 404.28125 407.90625 412.462493896484 417.975006103516 422.65625 426.924987792969 432.25 433.493743896484 424.693756103516 407.225006103516 380.893737792969 348.34375 318.3125 338.924987792969 378.706237792969 410.212493896484 428.762512207031 436.318756103516 434.84375 430.625 427.306243896484 423.09375 416.612487792969 409.081268310547 399.03125 385.537506103516 368.231262207031 353.418762207031 343.387512207031 
242.931243896484 255.899993896484 269.59375 285.787506103516 302.537506103516 318.631256103516 335.181243896484 351.893737792969 365.706237792969 375.131256103516 381.918762207031 391.193756103516 401.59375 410.100006103516 411.84375 404.450012207031 395.612487792969 388.587493896484 385.875 385.762512207031 385.637512207031 387.350006103516 391.881256103516 395.481262207031 401.368743896484 409.512512207031 417.15625 423.662506103516 431.674987792969 435.28125 431.34375 415.731262207031 394.418762207031 372.487487792969 358.337493896484 371.25 399.28125 421.950012207031 433.149993896484 436.375 435.0625 431.956237792969 427.987487792969 422.831237792969 417.3125 410.1875 400.21875 385.681243896484 367.53125 354.774993896484 340.4375 
233.96875 248.574996948242 261.793762207031 278.100006103516 294.649993896484 312.081268310547 327.393737792969 344.731262207031 359.368743896484 364.643737792969 365.825012207031 367.1875 368.956237792969 374.649993896484 383.012481689453 384.96875 382.4375 379.65625 376.943756103516 374.506256103516 373.537506103516 372.831237792969 374.637512207031 378.393737792969 386.737487792969 397.787506103516 407.125 416.399993896484 427.868743896484 434.774993896484 436.262512207031 430.331237792969 414.012512207031 401.862487792969 402.450012207031 416.056243896484 432.331237792969 443.081237792969 445.012512207031 440.28125 435.862487792969 432.237487792969 427.693756103516 422.662506103516 418.162506103516 412.068756103516 402.243743896484 386.65625 369.600006103516 357.15625 342.318756103516 
226.25 239.46875 252.625 266.987487792969 283.368743896484 300.743743896484 317.487487792969 333.262512207031 346.743743896484 349.918731689453 349.768737792969 348.5 343.424987792969 351.518737792969 363.262512207031 368.981262207031 370.393737792969 370.975006103516 369.125 366.012481689453 362.662506103516 359.6875 358.962493896484 362.575012207031 371.443756103516 380.831237792969 393.299987792969 405.806243896484 417.962493896484 427.46875 432.456237792969 430.912506103516 424.03125 421.8125 430.837493896484 448.368743896484 459.512512207031 458.78125 452.681243896484 444.09375 437.793762207031 432.087493896484 427.537506103516 423.71875 422.168762207031 415.918762207031 404.556243896484 385.024993896484 374.287506103516 360.28125 345.881256103516 
222.418746948242 232.568756103516 244.4375 258.600006103516 275.237487792969 290.34375 306.137512207031 320.5625 330.431243896484 335.40625 336.96875 337.162506103516 337.575012207031 343.043762207031 351.193756103516 358.375 362.987487792969 364.318756103516 362.96875 359.462493896484 354.631256103516 348.181243896484 343.606262207031 345.200012207031 352.725006103516 367.225006103516 379.5625 394.325012207031 407.006256103516 415.975006103516 420.318756103516 420.375 423.118743896484 428.868743896484 440.356262207031 451.825012207031 459.96875 458.862487792969 451.700012207031 443.225006103516 436.606262207031 430.600006103516 426.881256103516 425.825012207031 423.806243896484 418.700012207031 404.831237792969 391.881256103516 379.018737792969 368.962493896484 356.287506103516 
224.337493896484 232.1875 241.368743896484 253.943756103516 268.631256103516 282.725006103516 295.887512207031 308.681243896484 317.681243896484 323.674987792969 327.206237792969 330.462493896484 334.65625 338.956237792969 346.575012207031 352.887512207031 358.03125 359.606262207031 359.581237792969 355.84375 348.493743896484 338.037506103516 328.862487792969 326.362487792969 337.268737792969 353.662506103516 370.0625 383.331237792969 396.287506103516 403.049987792969 406.431243896484 408.299987792969 415.887512207031 426.03125 438.212493896484 446.837493896484 453.03125 454.106262207031 445.725006103516 438.393737792969 432.59375 427.518737792969 423.46875 423.368743896484 425.856262207031 422.28125 416.381256103516 404.731262207031 390.493743896484 384.15625 373.174987792969 
230.581253051758 236.162506103516 243.293746948242 254.193756103516 265.4375 276.418762207031 288.125 297.9375 307.012512207031 315.0625 321.612487792969 327.475006103516 334.325012207031 341.075012207031 348.049987792969 355.293762207031 360.0625 361.34375 359.943756103516 354.924987792969 345.431243896484 333.668762207031 320.418762207031 314.862487792969 329.056243896484 345.618743896484 360.575012207031 373.262512207031 383.787506103516 390.100006103516 394.393737792969 395.881256103516 406.206237792969 421.6875 433.0625 441.200012207031 446.850006103516 447.106262207031 440.71875 433.418762207031 427.337493896484 422.21875 418.450012207031 418.431243896484 426.25 430.625 429.350006103516 420.850006103516 411.981262207031 399.331237792969 391.331237792969 
237.743743896484 240.493743896484 246.418746948242 254.337493896484 262.40625 270.493743896484 280.674987792969 290.649993896484 299.75 309.212493896484 316.856262207031 325 333.612487792969 342.137512207031 350.193756103516 358.174987792969 363.068756103516 365.493743896484 363 358.1875 349.03125 337.09375 327.831237792969 323.806243896484 330.818756103516 343.5 355.381256103516 365.9375 374.350006103516 380.256256103516 384.262512207031 387.743743896484 401.943756103516 415.756256103516 427.799987792969 435.737487792969 439.143737792969 441.331237792969 434.706237792969 426.837493896484 420.856262207031 417.487487792969 414.581237792969 416.9375 429.356262207031 437.643737792969 441.575012207031 436.90625 429.475006103516 416.743743896484 407.518737792969 
243.65625 245.018753051758 248.524993896484 254.037506103516 260.162506103516 266.543762207031 274.981262207031 283.524993896484 293.518737792969 303.918762207031 312.887512207031 322.587493896484 332.46875 343.96875 353.424987792969 363.25 370.387512207031 371.28125 370.46875 365.049987792969 356.537506103516 345.043762207031 338.456237792969 335.181243896484 336.956237792969 343.987487792969 353.125 360.893737792969 368.799987792969 374.006256103516 376.518737792969 381.362487792969 395.100006103516 409.90625 423.837493896484 429.856262207031 434.725006103516 437.318756103516 433.012512207031 423.768737792969 414.331237792969 410.631256103516 412.543762207031 420.637512207031 436.53125 446.962493896484 451.981262207031 452.15625 445.5 436.09375 423.8125 
250.837493896484 249.899993896484 251.868743896484 255.087493896484 260.162506103516 265.725006103516 272.28125 279.631256103516 288.618743896484 299.243743896484 309.225006103516 321.100006103516 333.024993896484 346.40625 357.899993896484 367.512512207031 376.962493896484 381.606262207031 381.981262207031 376.325012207031 366.549987792969 356.737487792969 350.3125 345.037506103516 343.28125 346.331237792969 351.725006103516 356.137512207031 361.387512207031 366 370.987487792969 377.006256103516 389.96875 405.318756103516 418.462493896484 425.762512207031 429.912506103516 434.262512207031 428.818756103516 420.662506103516 417.337493896484 417.887512207031 420.412506103516 430.837493896484 439.700012207031 454.837493896484 465.806243896484 467.143737792969 462.34375 455.231262207031 442.806243896484 
256.081237792969 253.899993896484 253.456253051758 255.518753051758 258.487487792969 263.743743896484 269.462493896484 276.243743896484 284.956237792969 294.831237792969 306.875 320.868743896484 335.53125 348.856231689453 360.731262207031 372.918762207031 384.362487792969 391.012512207031 394.193756103516 388.818756103516 378.087493896484 367.168762207031 359.356262207031 352.09375 347.71875 347.768768310547 349.731262207031 351.887512207031 354.674987792969 359.612487792969 365.549987792969 372.975006103516 387.768737792969 403.549987792969 417.412506103516 422.793731689453 428.081237792969 434.100006103516 429.100006103516 421.087493896484 420.40625 426.25 431.725006103516 438.231262207031 447.287506103516 468.587493896484 482.962493896484 485.862487792969 481 471.381256103516 459.899993896484 
257.806243896484 254.962493896484 253.949996948242 255.131256103516 256.549987792969 260.581237792969 266.012512207031 271.206237792969 279.537506103516 290.450012207031 302.606262207031 318.59375 335.443756103516 351.537506103516 364.587493896484 378.756256103516 388.306243896484 394.375 397.618743896484 395.356262207031 385.524993896484 375.618743896484 366.125 357.706237792969 352.012512207031 348.924987792969 347.856262207031 347.700012207031 348.731262207031 355.237487792969 362.225006103516 370 385.237487792969 400.9375 415.543762207031 421.875 428.168762207031 433.537506103516 429.049987792969 427.012512207031 431.418762207031 438.856262207031 445.424987792969 454.0625 465.693756103516 491.856262207031 508 508.731262207031 499.643737792969 488.381256103516 473.8125 
258.256256103516 255.856246948242 255.03125 255.125 255.125 258.299987792969 261.899993896484 266.600006103516 275.006256103516 285.887512207031 299.75 317.25 337.575012207031 356.6875 370.212493896484 381.756256103516 390.299987792969 396.450012207031 397.59375 396.162506103516 388.65625 379.068756103516 370.231262207031 361.412506103516 355.668762207031 351.887512207031 349.125 348.368743896484 348.206237792969 352.981262207031 359.668762207031 366.231262207031 380.568756103516 397.368743896484 413.1875 422.0625 429.137481689453 433.581237792969 431.59375 436.725006103516 443.162506103516 451.618743896484 461.387512207031 473.518737792969 493.96875 523.625 535.918762207031 527.0625 514.256225585938 501.368743896484 483.549987792969 
259.087493896484 256.287506103516 254.956253051758 254.824996948242 253.943756103516 255.4375 258.09375 262.106262207031 268.412506103516 278.806243896484 293.268737792969 314.856262207031 339.518768310547 360.875 374.350006103516 384.887512207031 392.431243896484 396.793762207031 397.431243896484 396.075012207031 388.443756103516 379.137512207031 371.575012207031 363.018737792969 357.618743896484 353.631256103516 350.1875 347.806243896484 347.231262207031 351.762512207031 357.350006103516 363.181243896484 378.706237792969 395.200012207031 409.899993896484 420.568756103516 428.537506103516 434.71875 437.03125 443.924987792969 451.03125 461.568756103516 476.475006103516 491.875 514.25 539.931274414062 548.28125 537.025024414062 522.943786621094 508.606262207031 491.575012207031 
259.625 257.524993896484 255.824996948242 253.90625 252.887496948242 253.5 254.068756103516 256.15625 260.662506103516 269.693756103516 285.8125 312.450012207031 341.837493896484 366.050018310547 378.274993896484 387.34375 392.700012207031 395.15625 396.381256103516 393.90625 387.693756103516 377.981262207031 370.081237792969 361.268737792969 356.743743896484 352.112487792969 349.043762207031 346.8125 345.71875 349.825012207031 353.631256103516 360.337493896484 375.631256103516 392.768737792969 407.606262207031 417.8125 425.993743896484 437.143737792969 442.84375 448.28125 456.643737792969 466.631256103516 481.549987792969 497.962493896484 517.099975585938 533.612487792969 540.71875 535.681274414062 524.606262207031 512.206237792969 496.543762207031 
260.71875 259.331237792969 257.356262207031 254.693756103516 252.75 253.050003051758 252.387496948242 252.393753051758 254.706253051758 262.237487792969 279.399993896484 307.706237792969 338.793762207031 363.706237792969 375.581237792969 384.012512207031 389.899993896484 391.162506103516 389.412506103516 387.549987792969 380.706237792969 372.556243896484 363.856262207031 356.443756103516 350.825012207031 346.612487792969 344.231262207031 344.137512207031 343.493743896484 346.25 350.075012207031 355.993743896484 371.96875 389.3125 402.931243896484 412.450012207031 424.868743896484 434.299987792969 439.618743896484 447.462493896484 457.668762207031 465.818756103516 477.106262207031 492.856262207031 506.587493896484 517.137512207031 523.631225585938 522.943725585938 516.75 507.049987792969 492.556243896484 
263.081237792969 261.956237792969 259.1875 257.90625 255.425003051758 254.643753051758 252.956253051758 251.21875 250.662506103516 251.493743896484 272.837493896484 307.431243896484 335.912506103516 356.993743896484 369.956268310547 378.318756103516 384.243743896484 384.506256103516 383.356262207031 379.668762207031 371.918762207031 363.143737792969 354.931243896484 347.987487792969 342.40625 339.21875 337.987487792969 338.40625 339.575012207031 341.806243896484 344.881256103516 349.881256103516 366.6875 384.068756103516 398.78125 411.03125 421.375 430.831237792969 436.768737792969 443.556243896484 451.556243896484 459.706237792969 469.956237792969 482.950012207031 493.631256103516 500.40625 508.174987792969 509.53125 504.362487792969 497.53125 486.837493896484 
265.649993896484 264.924987792969 262.568756103516 260.887512207031 259.1875 257.806243896484 256.15625 254.53125 255.331253051758 254 285.075012207031 319.5625 339.168762207031 353.350006103516 364.837493896484 372.662506103516 376.412506103516 376.375 373.168731689453 367.90625 360.299987792969 351.037506103516 343.850006103516 337.399993896484 333.049987792969 330.587493896484 330.1875 332.193756103516 334.456237792969 337.537506103516 338.78125 343.556243896484 359.975006103516 377.9375 392.375 405.475006103516 416.174987792969 426.1875 432.15625 437.71875 443.587493896484 450.950012207031 458.174987792969 467.674987792969 476.71875 484.693756103516 491.712493896484 494.487487792969 491.518737792969 487.325012207031 478.731262207031 
269.912506103516 268.431243896484 265.956237792969 265.493743896484 263.825012207031 263.46875 264.262512207031 266.143737792969 272.799987792969 290.568756103516 324.875 338.056243896484 346.143737792969 354.856262207031 363.087493896484 367.106262207031 369.306243896484 366.649993896484 360.962493896484 354.537506103516 345.237487792969 336.024993896484 330.299987792969 324.299987792969 320.84375 320.506256103516 321.274993896484 324.131256103516 327.756256103516 331.387512207031 335.125 339.6875 354.03125 370.143737792969 386.293762207031 398.125 407.174987792969 417.318756103516 421.71875 423.850006103516 429.0625 434.049987792969 440.350006103516 447.899993896484 455.068756103516 462.731262207031 468.28125 469.793762207031 468.03125 467.5625 460.637512207031 
274.637512207031 272.862487792969 270.912506103516 269.806243896484 268.868743896484 270.143737792969 272.137512207031 277.962493896484 288.381256103516 306.712493896484 327.887512207031 341.181243896484 349.987487792969 356.274993896484 361.056243896484 363.40625 363.143737792969 358.081237792969 349.862487792969 342.181243896484 329.862487792969 320.131256103516 313.731262207031 308.962493896484 308.456237792969 309.143737792969 311.5625 315.543762207031 320.506256103516 325.143737792969 329.118743896484 336.487487792969 351.825012207031 365.674987792969 378.024993896484 388.90625 396.5625 403.962493896484 408.100006103516 408.493743896484 411.674987792969 416.056243896484 420.65625 425.043762207031 431.524993896484 438.537506103516 444.381256103516 447.9375 447.450012207031 448.75 443.962493896484 
279.568756103516 277.206237792969 276.206237792969 274.712493896484 274.418762207031 275.212493896484 279.375 287.3125 297.887512207031 313.212493896484 328.40625 339.6875 350.231262207031 356.137512207031 359.71875 361.068756103516 358.6875 352.287506103516 342.168762207031 329.868743896484 314.75 303.100006103516 296.487487792969 294.21875 296.131256103516 298.5 302.162506103516 307.918762207031 313.375 319.5625 326.375 335.993743896484 348.787506103516 360.931243896484 370.006256103516 378.631256103516 385.606262207031 390.637512207031 393.850006103516 391.743743896484 393.737487792969 395.424987792969 397.325012207031 403.09375 409.15625 415.825012207031 421.274993896484 424.043762207031 426.9375 429.8125 428.206237792969 
284.850006103516 281.799987792969 280.412506103516 278.806243896484 278.575012207031 280.575012207031 284.681243896484 292.793762207031 302.856262207031 315.831237792969 329.53125 341.206237792969 351.018737792969 358.46875 361.456237792969 361.862487792969 359.375 352.587493896484 341.206237792969 323.21875 303.125 287.862487792969 281.862487792969 282.25 286.662506103516 291.456237792969 296.375 302.1875 309.837493896484 317.543762207031 323.243743896484 334.331237792969 345.206237792969 356.106231689453 364.774993896484 369.256256103516 374.193756103516 378.450012207031 378.637512207031 376.174987792969 375.506256103516 373.231262207031 373.018737792969 380.868743896484 387.274993896484 393.487487792969 398.1875 400.950012207031 404.862487792969 408.318756103516 409.78125 
290.206237792969 286.40625 284.450012207031 281.956237792969 281.875 283.75 288.087493896484 295.118743896484 304.693756103516 316.731262207031 331.693756103516 343 352.918762207031 360.231262207031 363.762512207031 364.625 362.075012207031 355.25 342.799987792969 319.568756103516 292.96875 270.581237792969 267.143737792969 272.262512207031 279.274993896484 286.475006103516 292.137512207031 297.524993896484 305.46875 314.5625 322.868743896484 330.8125 340.700012207031 349.206237792969 356.600006103516 363.34375 364.174987792969 365.081237792969 362.412506103516 359.962493896484 358.762512207031 356.443756103516 355.8125 360.337493896484 366.549987792969 371.431243896484 376.325012207031 379.012512207031 382.893737792969 387.231262207031 391.206237792969 
294.943756103516 290.78125 286.512512207031 283.875 283.918762207031 285.137512207031 288.475006103516 295.362487792969 305.700012207031 316.96875 331.512512207031 344.806243896484 354.643737792969 362.575012207031 367.59375 367.606262207031 363.993743896484 356.581237792969 346.318756103516 321.299987792969 290.418762207031 264.112487792969 261.431243896484 266.612487792969 274.068756103516 282.243743896484 288.543762207031 294.53125 301.6875 311.049987792969 319.987487792969 329.199981689453 336.950012207031 342.543762207031 348.3125 355.53125 354.793762207031 352.418762207031 348.731262207031 345.774993896484 343.643737792969 342.256256103516 342.174987792969 344.924987792969 348.649993896484 352.037506103516 356.387512207031 357.462493896484 358.881256103516 364.537506103516 371.84375 
299.65625 294.512512207031 288.268737792969 285.556243896484 284.399993896484 285.21875 287.131256103516 292.912506103516 303.299987792969 316.25 331.15625 345.556243896484 356.418762207031 365.700012207031 370.1875 369.09375 364.793762207031 355.443756103516 342.931243896484 321.068756103516 295.787506103516 277.725006103516 269.075012207031 269.850006103516 275.493743896484 281.549987792969 287.543762207031 292.9375 299.912506103516 308.462493896484 316.899993896484 325.28125 331.856262207031 335.65625 338.912506103516 345.674987792969 344.606262207031 340.787506103516 337.318756103516 335.4375 332.90625 331.956237792969 331.556243896484 331.75 334.625 337.356262207031 339.049987792969 338.962493896484 337.331237792969 342.056243896484 352 
