ncols        51
nrows        45
xllcorner    -63.500000000000
yllcorner    -7.500000000000
cellsize     0.166666666667
NODATA_value -99
319.993743896484 305.987487792969 296.162506103516 293 285.837493896484 280.987487792969 276.181243896484 268.90625 267.625 268.59375 264.75 260.568756103516 255.081253051758 253.487503051758 252.78125 249.293746948242 245.456253051758 236.743743896484 230.1875 227.024993896484 225.556243896484 218.4375 213.100006103516 209.0625 207.612503051758 202.5625 201.074996948242 200.131256103516 197.337493896484 201.012496948242 196.868743896484 197.743743896484 205.518753051758 209.3125 212.331253051758 212.162506103516 207.543746948242 213.574996948242 208.068756103516 204.03125 207.231246948242 210.237503051758 206.506256103516 205.59375 204.175003051758 205.212493896484 202.487503051758 194.024993896484 188 186.893753051758 186.0625 
308.643737792969 294.387512207031 285.075012207031 282.943756103516 279.118743896484 274.993743896484 269.793762207031 264.762512207031 263.674987792969 261.575012207031 257.212493896484 251.28125 245.649993896484 241.568756103516 237.168746948242 233.331253051758 228.225006103516 220.887496948242 215.837493896484 211.618743896484 204.449996948242 201.756256103516 198.668746948242 199.537506103516 194.106246948242 191.225006103516 191.337493896484 192.037490844727 188.737503051758 189.649993896484 191.506256103516 199.074996948242 205.943740844727 213.993743896484 218.487503051758 215.274993896484 211.512496948242 214.487503051758 208.375 206.931243896484 212.418746948242 211.493743896484 209.4375 204.818756103516 206.206253051758 208.237503051758 206.243743896484 199.387496948242 190.324996948242 190.112503051758 187.006256103516 
282.362487792969 276.8125 274.643737792969 270.450012207031 264.737487792969 258.806243896484 255.443756103516 255.168746948242 254.949996948242 252.212493896484 247.324996948242 238.993743896484 235.125 226.537506103516 220.456253051758 214.918746948242 210.387496948242 203.368743896484 197.3125 194.806243896484 188.949996948242 187.8125 186.981246948242 187.481246948242 185.268753051758 180.868743896484 186.475006103516 186.46875 185.043746948242 187.90625 190.462493896484 191.293746948242 199.34375 210.8125 208.800003051758 204.59375 206.193740844727 212.175003051758 205.618743896484 205.262496948242 209.5625 210.206253051758 206.1875 203.818756103516 206.618743896484 204.100006103516 200.443756103516 197.162506103516 186.643753051758 184.918746948242 185.581253051758 
259.606262207031 251.53125 254.925003051758 257.350006103516 251.28125 243.475006103516 238.918746948242 242 245.237503051758 243.975006103516 234.4375 225.699996948242 219.649993896484 215.1875 206.418746948242 198.024993896484 191.25 185.65625 182.462493896484 184.3125 180.699996948242 175.53125 174.681243896484 177.71875 177.987503051758 176.256256103516 178.556243896484 175.431243896484 177.756256103516 186.006256103516 189.181243896484 189.293746948242 191.59375 195.143753051758 195.381256103516 202.112503051758 207.362503051758 205.131256103516 202.21875 201 208.506256103516 212.118743896484 208.337493896484 204.9375 203.431243896484 198.337493896484 195.649993896484 191.53125 185.137496948242 180.78125 179.856246948242 
264.450012207031 246.875 233.300003051758 236.268753051758 239.493743896484 230.993743896484 228.962493896484 231.03125 232.46875 229.375 225.574996948242 215.274993896484 208.59375 202.1875 192.737503051758 184.4375 176.59375 172.731246948242 166.71875 167.268753051758 167.274993896484 163.131256103516 161.693756103516 169.743743896484 170.225006103516 168.793746948242 168.856246948242 172.149993896484 173.800003051758 177.050003051758 182.3125 185.84375 191.40625 193.412506103516 193.675003051758 193.5 198.5 201.28125 197.3125 199.006256103516 205.074996948242 203.606246948242 205.006256103516 204.849990844727 199.899993896484 194.493743896484 192.043746948242 185.149993896484 176.331253051758 173.106246948242 170.256256103516 
252.975006103516 244.15625 234.03125 212.5625 219.331253051758 226.649993896484 223.850006103516 222.506256103516 225.587493896484 221.268753051758 214.743743896484 206.03125 199.84375 188.787506103516 182.4375 174.506256103516 164.59375 157.949996948242 155.068756103516 156.71875 156.8125 155.612503051758 157.149993896484 159.381256103516 163.274993896484 164.137496948242 164.649993896484 166.856246948242 167.100006103516 170.318756103516 175.056243896484 182.675003051758 185.350006103516 190.643753051758 189.15625 191.0625 187.787506103516 190.681243896484 193.800003051758 199.256256103516 197.612503051758 199.756256103516 198.399993896484 195.887496948242 195.175003051758 190.356246948242 181.868743896484 176 166.787506103516 162.28125 158.78125 
245.293746948242 238.71875 230.768753051758 220.481246948242 212.268753051758 205.231246948242 208.837493896484 211.993743896484 210.5 208.59375 204.756256103516 192.90625 189.006256103516 180.225006103516 171 164.831253051758 157.84375 148.21875 141.493743896484 145.956253051758 146.418746948242 145.762496948242 146.550003051758 152.1875 155.725006103516 160.037490844727 164.231246948242 161.643753051758 159.75 167.243743896484 170.556243896484 172.212493896484 174.706253051758 182.425003051758 186.550003051758 185.46875 181.612503051758 181.78125 186.925003051758 193.899993896484 191.78125 189.6875 190.762496948242 187.943756103516 187.350006103516 186 179.212493896484 165.106246948242 153.5 150.506256103516 149.550003051758 
241.606246948242 232.375 227.4375 222.112503051758 217.668746948242 217.768753051758 208.03125 193 187.706253051758 186.875 185.100006103516 179.981246948242 175.5625 167.168746948242 161.212493896484 154.981246948242 147.068756103516 139.1875 133.612503051758 131.318756103516 137.081253051758 140.162506103516 140.625 146.087493896484 152.524993896484 153.081253051758 156.512496948242 152.899993896484 155.1875 157.987503051758 165.899993896484 167.75 171.675003051758 174.824996948242 176.443756103516 172.837493896484 170.162506103516 170.8125 171.725006103516 173.631256103516 174.243743896484 175.737503051758 176.050003051758 172.587493896484 170.300003051758 164.6875 158.381256103516 145.368743896484 138.393753051758 135.25 137.556243896484 
236.962493896484 229.675003051758 223.324996948242 221.725006103516 220.268753051758 215.399993896484 208.118743896484 199.237503051758 187.6875 175.975006103516 170.768753051758 163.425003051758 164.931243896484 157.15625 151.243759155273 145.081253051758 140.25 136.756256103516 136.112503051758 128.606246948242 128.987503051758 136.043746948242 137.5625 145.1875 150.650009155273 147.862503051758 147.287506103516 151.4375 154.487503051758 155.84375 164.206253051758 161.881256103516 158.625 158.649993896484 161.649993896484 165.399993896484 166.981246948242 169.399993896484 166.993743896484 164.65625 163.350006103516 163.106246948242 164.412506103516 159.668746948242 154.393753051758 148.137496948242 143.431243896484 130.899993896484 124.131248474121 121.268753051758 122.112503051758 
229.074996948242 224.681243896484 221.5 220.381256103516 219.050003051758 217.375 209.806243896484 201.268753051758 192.024993896484 183.837493896484 172.050003051758 158.149993896484 155.818756103516 150.318756103516 145.287506103516 140.96875 133.962493896484 134.662506103516 134.987503051758 132.056243896484 132.006256103516 131.287506103516 130.693756103516 138.231246948242 142.368743896484 145.506256103516 144.768753051758 147.274993896484 147.824996948242 150.018753051758 155.0625 152.618743896484 152.574996948242 151.8125 152.1875 156.912490844727 160.018753051758 162.881256103516 161.143753051758 162.774993896484 164.125 161.050003051758 155.675003051758 147.518753051758 139.125 137.787506103516 134.28125 120.443748474121 111.90625 106.456253051758 103.087501525879 
225.712493896484 222.806243896484 218.949996948242 219.574996948242 217.6875 216.149993896484 210.199996948242 197.425003051758 184.506256103516 176.612503051758 169.387496948242 158.699996948242 146.712493896484 143.068756103516 135.756256103516 131.106246948242 128.556243896484 129.71875 130.318756103516 133.5625 137.993743896484 135.918746948242 130.306243896484 127.056251525879 137.381256103516 148.475006103516 148.675003051758 147.743743896484 142.875 144.481246948242 146.837493896484 148.506256103516 149.537506103516 147.337493896484 149.543746948242 151.818756103516 154.743743896484 153.46875 159.018753051758 158.40625 155.462493896484 151.237503051758 149.899993896484 138.487503051758 127.625 125.668754577637 121.275001525879 112.3125 105.006248474121 95.5562515258789 90.2062530517578 
221.118743896484 216.512496948242 213.8125 215.256256103516 215.112503051758 213.768753051758 209.75 197.75 182.206253051758 168.993743896484 160.193756103516 154.193756103516 140.350006103516 133.824996948242 131.975006103516 125.28125 122.837501525879 124.106246948242 125.6875 131.112503051758 140.318756103516 140.862503051758 139.987503051758 134.100006103516 135.956253051758 135.262496948242 136.143753051758 138.731246948242 137.262496948242 137.543746948242 135.806243896484 137.125 139.943756103516 141.1875 145.425003051758 149.699996948242 150.199996948242 153.649993896484 149.543746948242 148.993743896484 145 144.137496948242 136.550003051758 123.962501525879 112.0625 103.962501525879 97.4124984741211 97.6125030517578 94.2562484741211 86.6812515258789 75.6500015258789 
209.793746948242 209.043746948242 208.943756103516 207.618743896484 205.449996948242 204.675003051758 198.625 186.043746948242 172.3125 163.462493896484 156.375 147.543746948242 140.237503051758 125.237503051758 119.46875 118.837501525879 116.6875 119.275001525879 121.493751525879 124.668746948242 131.40625 133.112503051758 135.568756103516 132.568756103516 127.431251525879 126.800003051758 129.112503051758 132.331253051758 132.012496948242 130.706253051758 128.4375 125.637496948242 130.78125 133.456253051758 137.074996948242 142.350006103516 148.181243896484 154.9375 157.175003051758 149.231246948242 139.306243896484 134.737503051758 123.037498474121 114.831253051758 112.081253051758 106.456253051758 96.0500030517578 87.9749984741211 83.3687515258789 80.1624984741211 74.09375 
200.787506103516 199.693756103516 200.056243896484 197.831253051758 194.518753051758 190.881256103516 184.356246948242 174.15625 166.65625 155.824996948242 148.318756103516 141.256256103516 131.362503051758 120.512496948242 107.949996948242 109.643753051758 106.993751525879 110.5625 111.668746948242 115.53125 120.737503051758 125.193748474121 128.46875 128.112503051758 123.875 121.712501525879 121.699996948242 121 120.525001525879 119.668746948242 122.387496948242 121.625 122.337501525879 124.912498474121 129.181243896484 139.168746948242 150.837493896484 162.668746948242 167.856246948242 158.112503051758 135.149993896484 122.34375 121.450004577637 129.03125 131.09375 118.599998474121 108.768753051758 101.456253051758 90.2687530517578 87.0812530517578 79.1750030517578 
194.431243896484 190.756256103516 188.881256103516 187.774993896484 182.581253051758 177.293746948242 174.987503051758 165.4375 156.59375 146.824996948242 139.393753051758 131.337493896484 124.012496948242 115.981246948242 100.381248474121 98.4562530517578 97.0562515258789 99.6875 101.606246948242 106.068748474121 113.287498474121 117.543746948242 121.306251525879 124.618751525879 124.768753051758 124.300003051758 123.449996948242 120.543746948242 120.637496948242 120.868751525879 117.387496948242 117.875 123.243751525879 123.606246948242 121.699996948242 129.675003051758 149.1875 169.925003051758 177.706253051758 167.081253051758 152.306243896484 141.875 147.625 142.868743896484 135.850006103516 128.212493896484 126.543746948242 119.668746948242 112.206253051758 93.4437484741211 82.3874969482422 
183.774993896484 180.625 179.456253051758 176.012496948242 172.09375 170.193756103516 162.618743896484 154.3125 146.918746948242 140.524993896484 131.949996948242 124.931251525879 118.512496948242 111.006248474121 98.6437530517578 84.3499984741211 85.53125 89.8125 91.2562484741211 96.1312484741211 102.25 109.293746948242 115.400001525879 124.543746948242 127.143753051758 126.21875 122.543746948242 116.84375 117.21875 117.918746948242 121.675003051758 117.131248474121 115.84375 114.59375 114.443748474121 133.456253051758 150.4375 169.225006103516 182.756256103516 186.625 180.837493896484 170.043746948242 161.662506103516 148.706253051758 134.362503051758 126.256248474121 119.331253051758 113.550003051758 108.431251525879 97.1500015258789 85.4875030517578 
173.787506103516 171.037506103516 170.65625 168.931243896484 166.243743896484 159.887496948242 154.893753051758 147.399993896484 140.743743896484 134.699996948242 127.362503051758 119.28125 111.631248474121 106.25 100.9375 90.4000015258789 80.0875015258789 79.7937469482422 85.5687484741211 89.5625 94.9812469482422 102.53125 112.34375 124.443748474121 131.34375 122.462501525879 114.162498474121 109.506248474121 112.331253051758 116.40625 120.637496948242 123.543746948242 121.53125 121.287498474121 134.137496948242 146.537506103516 167.59375 194.1875 214.1875 202.8125 192.550003051758 176.4375 158.9375 148.868743896484 135.09375 123.112503051758 118.943748474121 116.849998474121 110.756248474121 95.3625030517578 88.3625030517578 
164.40625 164.125 162.018753051758 161.943756103516 159.137496948242 151.418746948242 145.512496948242 139.9375 133.768753051758 124.6875 118.349998474121 114.018745422363 107.449996948242 102.4375 99.5812530517578 94 85.0562515258789 74.5 81.3562469482422 84.3000030517578 89.1624984741211 95.6687469482422 108.368751525879 118.862503051758 124.09375 115.400001525879 106.8125 104.881248474121 108.918746948242 110.425003051758 108.775001525879 110.162498474121 128.818756103516 138.074996948242 140.787506103516 160.125 185.875 204.106246948242 214.9375 207.262496948242 186.131256103516 170.337493896484 154.206253051758 144.487503051758 131.725006103516 122.487503051758 121.931251525879 114.356246948242 106.724998474121 91.8375015258789 87.6937484741211 
155.71875 155.431243896484 151.96875 150.637496948242 149.96875 144.443756103516 137.074996948242 133.056243896484 128.368743896484 120.431251525879 114.087501525879 107.356246948242 102.637496948242 99.8937530517578 94.1437530517578 91.5625 86.6187515258789 79.0562515258789 74.28125 75.4875030517578 83.7937469482422 96.5374984741211 91.9625015258789 103.199996948242 109.275001525879 109.949996948242 105.787498474121 102.231246948242 106.637496948242 109.668746948242 110.443748474121 114.337501525879 128.506256103516 134.550003051758 141.743743896484 158.0625 172.706253051758 185.012496948242 195.206253051758 184.918746948242 173.71875 157.46875 146.15625 137.618743896484 128.506256103516 120.518753051758 120.849998474121 115.3125 102.368751525879 85.3687515258789 86.5500030517578 
143.512496948242 145.462493896484 143.681259155273 141.668746948242 138.612503051758 138.78125 132.056243896484 128.393753051758 124.768753051758 117.756248474121 112.068748474121 110.4375 105.637496948242 100.731246948242 92.46875 83.2937469482422 77.4499969482422 82.6437530517578 77.0500030517578 74.4562454223633 71.375 77.4375 87.2687530517578 94.3062515258789 97.4937515258789 95.3187484741211 95.71875 100.349998474121 101.106246948242 100.625 106.618751525879 120.087501525879 126.862503051758 133.4375 142.193756103516 155.125 164 169.3125 171.943756103516 167.006256103516 154.193756103516 141.675003051758 137.28125 130.125 122.481246948242 118.25 117.418746948242 110.199996948242 97.15625 84.53125 85.6875 
129.237503051758 138.675003051758 142.643753051758 137.824996948242 132.550003051758 132.5 128.212493896484 125.256248474121 120.71875 115.425003051758 108.787498474121 107.056251525879 103.881248474121 98.15625 90.3687515258789 83.0437469482422 78.5999984741211 77.5999984741211 78.3062515258789 73.1437530517578 77.5999984741211 83.1374969482422 90.2062530517578 98.2249984741211 100.9375 97.4437484741211 92.3687515258789 95.8062515258789 100.34375 102.568748474121 110.787498474121 119.650001525879 121.175003051758 128.474990844727 137.168746948242 147.268753051758 155.912506103516 157.768753051758 156.25 151 143.65625 137.606246948242 130.899993896484 125.474998474121 119.512496948242 115.449996948242 112.15625 105.237503051758 90.9625015258789 85.3937530517578 81.8874969482422 
124.756248474121 126.118751525879 131.818756103516 131.918746948242 129.762496948242 124.675003051758 121.462501525879 118.793746948242 116.006248474121 111.443748474121 107.362503051758 102.449996948242 98.1750030517578 97.1125030517578 93.40625 86.3187484741211 84.3312530517578 81.3812484741211 80.2437515258789 78.2062530517578 78.1687469482422 82.7750015258789 89.3937530517578 92.2874984741211 92.3187484741211 90.9812469482422 94.5062484741211 94.1812515258789 101.75 107.931251525879 111.512496948242 114.900001525879 117.181251525879 121.84375 126.381248474121 137.112503051758 144.6875 147.1875 146.393753051758 143.118743896484 137.949996948242 133.668746948242 128.96875 123.668746948242 117.400001525879 113.056251525879 107.974998474121 97.8812484741211 86.0562515258789 85.1812515258789 78.3874969482422 
120.0625 127.0625 129.731246948242 127.974998474121 124.90625 121.681251525879 112.787498474121 110.212501525879 109.481246948242 110.0625 107.650001525879 102.949996948242 101.137496948242 98.375 96.65625 93.2125015258789 87.4749984741211 82.4625015258789 79.9375 79.71875 83.8000030517578 85.0437469482422 87.8687515258789 89.8687515258789 92.7874984741211 90.1687469482422 90.0062484741211 93.8625030517578 97.7249984741211 101.081253051758 104.3125 108.956245422363 110.1875 111.5 117.162498474121 122.443748474121 131.050003051758 132.262496948242 135.356246948242 135.806243896484 132.931243896484 126.962501525879 123.46875 118.650001525879 110.5 108.324996948242 101.481246948242 93.9000015258789 87.4562530517578 84.3937530517578 77.0062484741211 
111.643753051758 121.462501525879 127.393753051758 124.818748474121 121.543746948242 116.137496948242 113.59375 109.037498474121 105.231246948242 102.25 101.306251525879 103.587501525879 101.887496948242 100.800003051758 96.4000015258789 92.9625015258789 86.7874984741211 84.8812484741211 81.7375030517578 82.875 83.59375 87.2937469482422 89.1062469482422 93.46875 94.9562530517578 91.3562469482422 93.0500030517578 91.3312530517578 92.8937530517578 95.0875015258789 98.1374969482422 101.1875 100.318748474121 99.6687469482422 107.118751525879 109.425003051758 118.193748474121 123.71875 126.793746948242 126.862503051758 125.987503051758 121.231246948242 118.818748474121 113.775001525879 108.456253051758 102.4375 94.71875 86.5062484741211 83.9375 80.8187484741211 72.8125 
106.787498474121 117.462501525879 124.987503051758 123.800003051758 121.293746948242 114.206253051758 110.75 106.712501525879 103.106246948242 102.543746948242 101.706253051758 98.4124984741211 100.699996948242 98.9250030517578 94.2312469482422 88.9749984741211 85.4875030517578 84.6374969482422 83.21875 82.8874969482422 85 87.2062530517578 92.5500030517578 94.1624984741211 92.4124984741211 93.5374984741211 89.84375 87.9312515258789 87.1624984741211 88.6875 87.3499984741211 87.2750015258789 89.5875015258789 90.1875 93.0124969482422 98.6125030517578 107.574996948242 111.9375 116.512496948242 118.700004577637 117 115.206253051758 113.849998474121 108.8125 99.2937545776367 95.2937469482422 85.6187515258789 84.1125030517578 80.1687469482422 76.21875 70.6187515258789 
108.181251525879 118.15625 119.262496948242 119.981246948242 117.3125 111.793746948242 107.9375 103.643753051758 99.1687469482422 94.8249969482422 98.4562530517578 97.5062484741211 95 94.2062530517578 91.1687469482422 87.6437530517578 83.7874984741211 82.9625015258789 82.59375 81.4937515258789 85.7375030517578 88.4499969482422 93.0062484741211 94.5 91.8937530517578 89.5437469482422 87.4250030517578 83.8062515258789 80.5999984741211 79.0250015258789 77.2125015258789 75.5875015258789 76.0562515258789 78.3874969482422 83.8000030517578 89.75 97.3812484741211 103.900001525879 108.018753051758 110.46875 112.518753051758 108.800003051758 106.581253051758 101.75 95.0562515258789 85.6125030517578 83.7437515258789 80.1500015258789 77.3375015258789 74.6062469482422 68.7437515258789 
104.443748474121 109.78125 113.756248474121 115.143753051758 112.462501525879 108.618751525879 105.675003051758 100.881248474121 94.75 95.7562484741211 97.3687515258789 96.2562484741211 94.3062515258789 91.15625 87.5250015258789 86.3687515258789 83.0124969482422 80.59375 80.9187469482422 81.1437530517578 82.5124969482422 85.3062515258789 90.4187469482422 93.90625 89.3312530517578 83.8312530517578 81.1812515258789 78.5625 75.75 71.1500015258789 69.9312515258789 65.7375030517578 65.5500030517578 71.4187469482422 75.53125 82.6374969482422 87.1500015258789 93.3062515258789 98.2937545776367 102.300003051758 106.550003051758 104.599998474121 101.199996948242 96.0875015258789 87.7937469482422 82.2937469482422 81.15625 74.8062515258789 72.1374969482422 67.0500030517578 61.7312507629395 
101.199996948242 102.362503051758 105.643753051758 109.012496948242 107.09375 104.28125 101.581253051758 97.03125 93.9250030517578 93.59375 93.4187469482422 90.96875 89.5250015258789 87.2624969482422 83.53125 81.4312515258789 79.4124984741211 78.0749969482422 76.1187515258789 77.125 80.40625 81.6937484741211 82.6374969482422 85.3499984741211 83.4625015258789 78.9375 76.125 73.5187530517578 70.6812515258789 67.90625 65.1500015258789 62.7687492370605 62.7000007629395 64.8375015258789 69.1062469482422 75.03125 79.0250015258789 85.0124969482422 90.59375 96.9375 100.837501525879 102.512496948242 97.1624984741211 93.375 83.2874984741211 77.3499984741211 74.0124969482422 70.3562469482422 65.2562484741211 58.4812507629395 54.1187515258789 
96.46875 97.5187530517578 101.518753051758 99.9937515258789 100.168746948242 96.3312530517578 93.40625 91.7874984741211 89.1750030517578 89.6999969482422 88.8125 86.5687484741211 85.4875030517578 84.40625 81.2624969482422 78.9000015258789 77.9375 74.4562530517578 73.5812530517578 74.1875 75.6624984741211 76.3312530517578 77.6062469482422 78.0500030517578 76.6624984741211 73.4749984741211 70.9562530517578 68.5437469482422 67.7937469482422 65.2249984741211 61.78125 59.78125 59.1937484741211 60.2374992370605 63.6624984741211 68.6687469482422 72.6187515258789 77.875 82.84375 86.5374984741211 92.5562515258789 91.6750030517578 89.4625015258789 86.40625 78.625 70.1374969482422 68.21875 64.6999969482422 57.8624992370605 52.6812515258789 45.5437507629395 
89.625 93.1687469482422 95.1750030517578 94.0374984741211 92.09375 89.9187469482422 86.8000030517578 87.1999969482422 86.5437469482422 85.46875 84.7249984741211 84.4312515258789 83.1875 80.6999969482422 78.0250015258789 75.8812484741211 73.5250015258789 71.8874969482422 69.8499984741211 69.2562484741211 70.9375 70.9124984741211 71.7687530517578 70.5625 69.71875 67.7125015258789 65.1937484741211 63.6124992370605 63.0999984741211 60.5812492370605 58.2374992370605 56.0562515258789 55.2937507629395 56.3937492370605 58.3937492370605 61.9000015258789 67.28125 70.4124984741211 72.59375 76.1687469482422 81.9000015258789 82.1812515258789 80.3562469482422 76.90625 71.2375030517578 67.8249969482422 64.7874984741211 58.84375 52.4375 48.7874984741211 42.5999984741211 
84.6374969482422 87.3062515258789 85.5437469482422 87.40625 87.3125 86.3062515258789 83.5562515258789 82.46875 82.0999984741211 81.71875 81.78125 80.5812530517578 81.3375015258789 77.25 73.9625015258789 72.5374984741211 72.1374969482422 68.1437530517578 64.7375030517578 65.5562515258789 67.0749969482422 66.6687469482422 66.15625 63.8312492370605 62.1749992370605 62.4249992370605 60.46875 58.125 56.46875 55.4749984741211 53.9562492370605 53.0062484741211 52.7687492370605 53.8812484741211 55.1624984741211 56.875 60.2750015258789 64.4187469482422 64.7312469482422 65.1624984741211 68.78125 71.1437530517578 70.1749954223633 66.8312530517578 63.8812522888184 62.6187515258789 58.5499992370605 53.1062507629395 48.1812515258789 44.7937507629395 40.3250007629395 
79.4937515258789 78.5374984741211 77.0875015258789 77.3937530517578 79.0062484741211 79.5062484741211 79.2624969482422 77.9875030517578 78.4562530517578 77.0749969482422 77.5875015258789 78.2562484741211 77.0437469482422 76.1125030517578 73.3375015258789 71.1750030517578 69.3187484741211 65.4375 61.4124984741211 62.1687507629395 61.6624984741211 61.3937492370605 59.9375 57.7062492370605 57.3812484741211 56.0999984741211 54.7687492370605 53.9375 51.4312515258789 50.90625 50.7937507629395 50.0250015258789 49.40625 50.2625007629395 51.78125 52.4812507629395 55.4500007629395 55.7437515258789 56.1062507629395 58.0812492370605 60.65625 61 60.09375 59.6187515258789 57.8250007629395 57.3875007629395 56.1312522888184 50.9625015258789 44.8062515258789 41.0374984741211 37.03125 
72.8312530517578 71.1374969482422 68.8687515258789 68.6999969482422 70.3249969482422 70.9187469482422 71.8062515258789 71.7937469482422 70.6875 72.3812484741211 74.6624984741211 73.5999984741211 73.5875015258789 74.15625 72.0999984741211 68.4625015258789 64.96875 63.5437507629395 61.0187492370605 60.75 59.2874984741211 57.3312492370605 54.875 53.5687484741211 53.6375007629395 51.9937515258789 51.53125 49.7937507629395 48.6749992370605 47.53125 47.1187515258789 46.2125015258789 45.0250015258789 45.8312492370605 47.8062515258789 49.4187507629395 49.4500007629395 49.4749984741211 49.9249992370605 52.7062492370605 54.5437507629395 55.1437492370605 52.6437492370605 52.71875 51.6124992370605 51.6687507629395 52.9812507629395 47.59375 43.3875007629395 38.625 35.4812507629395 
66.3625030517578 64.9000015258789 64.0187530517578 63.8812484741211 63.8250007629395 62.6500015258789 63.2937507629395 62.34375 64.375 64.9749984741211 67.6937484741211 69.2249984741211 70.6937484741211 70.2750015258789 68.3499984741211 64.4749984741211 62.1375007629395 60.2750015258789 58.0250015258789 57.1187515258789 56.28125 53.1124992370605 51.8187484741211 50.75 49.2437515258789 47.4874992370605 46.9500007629395 46.4375 45.34375 44.5812492370605 44.0812492370605 42.9124984741211 41.7625007629395 42.8499984741211 44.1687507629395 44.6375007629395 43.75 44.0187492370605 45.4874992370605 46.8812484741211 48.625 49.6875 49.4749984741211 48.3937492370605 48.15625 46.6124992370605 45.3937492370605 41.9500007629395 38.7000007629395 36.375 32.875 
61.0750007629395 57.9874992370605 58.7062492370605 58.21875 58.7374992370605 57.78125 56.8624992370605 56.0875015258789 55.9187507629395 57.2312507629395 60.8875007629395 64.6750030517578 68.9749984741211 69.96875 66.1624984741211 62.5875015258789 59.7249984741211 57.3125 56.0250015258789 53.9812507629395 52.8812484741211 51.3125 49.1937484741211 47.75 46.0250015258789 43.9874992370605 43.5187492370605 43.0187492370605 41.9187507629395 39.3875007629395 39.0374984741211 39.4187507629395 39.0625 39.5750007629395 39.625 39.7999992370605 39.7937507629395 40.7874984741211 41.1937484741211 41.3937492370605 42.0750007629395 42.0625 43.7874984741211 43.4874992370605 42.7437515258789 42.03125 40.6124992370605 38.3687515258789 35.625 33 29.9500007629395 
55.0875015258789 53.4749984741211 54.625 53.1624984741211 53.1687507629395 51.9000015258789 51.2312507629395 50.3062515258789 49.875 50.1124992370605 53.3375015258789 58.4312515258789 64.6687469482422 64.4499969482422 62.71875 59.8624992370605 57.6312484741211 54.8062515258789 52.3687515258789 50.7750015258789 47.7062492370605 47.4874992370605 45.1062507629395 43.4375 41.2249984741211 40.8812484741211 40.4312515258789 39.9187507629395 38.7999992370605 36.6749992370605 36.1500015258789 36.7375030517578 36.1624984741211 36.6375007629395 36.6937484741211 36.09375 36.4187507629395 36.7874984741211 37.90625 38.1062507629395 37.5625 37.96875 37.6500015258789 37.7750015258789 37.5062484741211 36.5812492370605 35.0687484741211 34.0687484741211 32.2562484741211 29.3624992370605 26.96875 
49.03125 48.8937492370605 49.3250007629395 47.75 47.6687507629395 47.46875 46.7312507629395 45.6624984741211 44.4312515258789 42.8624992370605 46.4437484741211 52.5062484741211 57.4937515258789 58.2437515258789 58.0062484741211 56.2999992370605 54.0187492370605 50.84375 48.4375 47.0812492370605 44.1062507629395 42.3687515258789 40.65625 39.875 37.96875 37.2562484741211 36.9500007629395 36.1749992370605 35.2312507629395 34.4000015258789 33.6062507629395 33.2250022888184 32.59375 32.9562492370605 32.9812507629395 32.0499992370605 32.0812492370605 33.5125007629395 34.7999992370605 34.375 33.4375 33.6687507629395 33.2125015258789 34.0875015258789 33.9625015258789 32.0250015258789 31.8687496185303 30.28125 28.9187507629395 26.8500003814697 24.4437503814697 
42.8624992370605 43.6187515258789 42.9937515258789 43.1749992370605 43.1437492370605 42.9124984741211 42.4375 41.4562492370605 40.4874992370605 38.40625 44.4874992370605 49.75 52.2937507629395 53.4937515258789 54.0374984741211 52.90625 49.5750007629395 48.15625 45.1749992370605 43.6062507629395 41.5499992370605 39.46875 37.1437492370605 36.5437507629395 35.53125 34.6937484741211 34.0062484741211 33.3250007629395 32.5499992370605 31.3374996185303 29.3687496185303 29.4874992370605 28.9437503814697 29.4624996185303 28.7437496185303 27.6625003814697 28.8812503814697 29.7749996185303 30.7625007629395 30.6625003814697 30.0249996185303 30.9312496185303 30.28125 28.5812492370605 28.5124988555908 27.6749992370605 27.4750003814697 27.375 24.7999992370605 23.2250003814697 22.4375 
38.5499992370605 38.1812515258789 37.2437515258789 38.40625 38.5 38.2000007629395 36.9187507629395 38.0062484741211 39.0812492370605 41.5499992370605 47.1187515258789 48.2999992370605 48.8562507629395 50.3499984741211 50.65625 48.6000022888184 46.1312522888184 44.3312492370605 41.2249984741211 39.7937507629395 37.9437484741211 35.7874984741211 34.5125007629395 33.8875007629395 32.34375 31.5187492370605 31.2999992370605 30.2687492370605 29.7562503814697 29.1499996185303 27.7062492370605 26.5437507629395 26.0187511444092 26.375 26.1749992370605 25.8187503814697 26.8624992370605 28.0187492370605 28.2687511444092 26.9000015258789 27.4500007629395 28.7999992370605 27.1749992370605 26.1499996185303 25.625 24.8687496185303 23.7124996185303 22.9249992370605 21.8187503814697 21.3187503814697 20.4187507629395 
34.7999992370605 34.71875 33.5687484741211 34.8250007629395 34.5187492370605 34.9625015258789 34.625 35.5062484741211 37.09375 39.2625007629395 42.4625015258789 44.4187507629395 45.0437507629395 45.3562507629395 46.0250015258789 45.6687507629395 42.7937507629395 41.7312507629395 39.09375 36.7000007629395 33.71875 32.2937507629395 30.8875007629395 30.2937507629395 29.15625 28.3999996185303 27.8687496185303 27.2875003814697 26.4624996185303 26.4812507629395 26.0625 25.0375003814697 24.3999996185303 24.3374996185303 25.0375003814697 24.4624996185303 24.4375 25.1937484741211 26.5062503814697 25.8125 26.03125 26.6875 25.3374996185303 23.875 22.5625 21.5062503814697 21.2000007629395 20.28125 19.75 19.3500003814697 18.4562492370605 
30.0375003814697 30.3562507629395 30.7124996185303 31.1437492370605 31.3312492370605 31.3875007629395 31.9375 33.4500007629395 33.5062484741211 36.4437484741211 39.1437492370605 41.125 42.0125007629395 41.09375 40.8499984741211 40.7374992370605 39.6937484741211 38.0499992370605 35.5 33.3187484741211 30.625 29.3062496185303 27.6687507629395 27 27.0187492370605 26.1499996185303 25.5625 25.2749996185303 24.84375 23.7000007629395 23.3687515258789 24.0750007629395 23.4624996185303 23.40625 23.4125003814697 23.1125011444092 23.1812496185303 23.4937496185303 24.4312496185303 24.71875 24.1875 24.15625 23.4187507629395 22.09375 20.96875 19.8562488555908 18.9437503814697 17.7937488555908 17.9437503814697 17.2374992370605 16.7062511444092 
26.6437492370605 27.09375 27.7562503814697 28.1062507629395 28.9187507629395 29.2062492370605 30.2624988555908 30.5 30.8937492370605 32.875 35.0062484741211 37.2374992370605 37.8937492370605 36.4124984741211 36.1937484741211 36.7999992370605 36.2374992370605 35.15625 32.75 31 28.3874988555908 26.7124996185303 24.9749984741211 23.625 23.6937503814697 23.0874996185303 22.9624996185303 22.7749996185303 22.8374996185303 22.65625 21.0374984741211 21.3500003814697 21.5500011444092 22.7999992370605 22.6875 21.375 21.5874996185303 22.3999996185303 23.1687507629395 23.4499988555908 22.6812496185303 22.125 20.9125003814697 19.9937496185303 19.0562496185303 18.3374996185303 16.96875 15.4875001907349 15.8874998092651 15.3187503814697 14.5062503814697 
23.0187492370605 23.90625 24.3812503814697 24.6187496185303 24.5 25.5249996185303 26.1812496185303 26.375 27.4624996185303 29.0562496185303 30.5375003814697 31.8687496185303 32.2000007629395 32.0187492370605 32.375 32.9124984741211 32.5250015258789 32.1312484741211 30.3687496185303 27.7999992370605 25.3374996185303 23.3374996185303 22.2999992370605 22.1124992370605 22.1875 21.0125007629395 21.0125007629395 20.71875 20.21875 20.03125 19.3874988555908 18.4562492370605 18.2625007629395 19.7312507629395 22.0249996185303 21.9562492370605 20.5562496185303 21.0249996185303 21.4437503814697 20.5812492370605 20.0562496185303 19.9562511444092 19.4437503814697 18.3125 18.1937503814697 16.625 15.0249996185303 14.2062501907349 15.0124998092651 14.0687494277954 12.65625 
20.21875 20.6812496185303 21.0125007629395 21.1625003814697 21.6124992370605 22.3187503814697 22.4750003814697 22.9187507629395 23.7374992370605 25.15625 26.21875 27.46875 27.7999992370605 28.5750007629395 28.9312496185303 28.7437496185303 29.4562492370605 29.65625 27.9375 26.0625 23.6812496185303 21.6875 19.875 19.9375 19.5625 18.875 18.5 18.25 17.875 17.9874992370605 17.1937503814697 16.6499996185303 16.6749992370605 17.4749984741211 20.3187503814697 21.9937496185303 20.0249996185303 19.7999992370605 19.84375 18.5687503814697 18.1000003814697 18.0124988555908 17.1374988555908 16.4562492370605 16.1062488555908 15.0249996185303 14.2437496185303 12.9375 12.3562498092651 12.6062498092651 11.2312498092651 
17.2875003814697 17.5062503814697 18.1749992370605 18.4249992370605 19.4562492370605 20.125 19.9750003814697 19.8187503814697 20.8062496185303 21.8187503814697 22.4750003814697 23.1499996185303 24.2687492370605 25.46875 26.1625003814697 25.4750003814697 25.6937503814697 26.4249992370605 25.46875 23.5125007629395 21.2749996185303 19.8562507629395 17.75 17.4375 17.375 17.125 16.1875 16.125 15.9375 16 15.4375 15.03125 15.1499996185303 16.5562496185303 18.0437488555908 20.0625 18.8687496185303 18.34375 17.9125003814697 17.6812496185303 16.6437492370605 16.3125 16.1124992370605 15.28125 14.6500005722046 13.6750001907349 13.0874996185303 11.8062496185303 10.75 11.0062503814697 10.5375003814697 
