ncols        51
nrows        45
xllcorner    -63.500000000000
yllcorner    -7.500000000000
cellsize     0.166666666667
NODATA_value -99
215.293746948242 214.793746948242 208.59375 205.512496948242 199.581253051758 196.212493896484 190.793746948242 182.412506103516 173.706253051758 168.25 166.824996948242 163.831253051758 159.925003051758 150.818756103516 143.831253051758 137.324996948242 131.956253051758 124.806251525879 121.318748474121 118.650001525879 117.993751525879 117.675003051758 118.775001525879 120.456253051758 122.912498474121 126.087501525879 131.056243896484 136.631240844727 142.431243896484 145.331253051758 148.5 151.993743896484 154.537506103516 157.443756103516 161.068756103516 165.143753051758 167.831253051758 170.162506103516 173.681243896484 175.824996948242 178.96875 181.5625 182.699996948242 186.425003051758 188.274993896484 191.25 194.15625 197.1875 199.993743896484 205.837493896484 212.118743896484 
223.887496948242 224.425003051758 222.487503051758 219.21875 216.731246948242 216.662506103516 213.068756103516 210.0625 205.756256103516 200.581253051758 196.268753051758 189.362503051758 181.787506103516 172.425003051758 163.112503051758 154.006256103516 146.34375 139.537506103516 135.087493896484 131.337493896484 130.25 130.462493896484 131.550003051758 132.818756103516 134.175003051758 136.956253051758 141.043746948242 146.350006103516 151.287506103516 153.893753051758 155.793746948242 159.693756103516 162.699996948242 166.5625 169.9375 174.175003051758 177.506256103516 179.918746948242 183.393753051758 185.65625 188.550003051758 190.5625 190.975006103516 193.606246948242 195 198.074996948242 200.856246948242 202.524993896484 206.362503051758 212.125 217.100006103516 
227.018753051758 228.212493896484 227.193756103516 226.168746948242 226.46875 228.4375 230.725006103516 234.056243896484 234.550003051758 230.800003051758 224.606246948242 215.268753051758 204.987503051758 193.318756103516 181.456253051758 170.225006103516 160.375 153.65625 148.431243896484 144.375 143.043746948242 143.912506103516 144.03125 144.3125 145.868743896484 146.800003051758 150.293746948242 155.231246948242 158.6875 160.256256103516 162.693756103516 165.800003051758 169.493743896484 172.512496948242 176.887496948242 180.643753051758 184.9375 189.137496948242 192.231246948242 194.887496948242 197.699996948242 199 199.243743896484 199.756256103516 201.649993896484 204.550003051758 207.568756103516 208.431243896484 211.493743896484 216.412506103516 221.331253051758 
226.087493896484 227.993743896484 230.037506103516 231.274993896484 236.649993896484 240.462493896484 247.675003051758 257.056243896484 263.024993896484 263.143737792969 255.75 242.149993896484 227.206253051758 212.787506103516 199.368743896484 186.4375 175.149993896484 166.493743896484 161.399993896484 158.987503051758 158.149993896484 157.90625 156.743743896484 156.15625 155.987503051758 155.931259155273 159.418746948242 163.25 165.793746948242 167.456253051758 168.78125 172.524993896484 175.443756103516 179.024993896484 182.712509155273 188 193.100006103516 197.6875 202.137496948242 205.518753051758 207.256256103516 208.074996948242 207.9375 207.231246948242 208.53125 209.774993896484 212.931243896484 213.743743896484 214.893753051758 219.331253051758 224.981246948242 
229.637496948242 228.881256103516 229.399993896484 233.606246948242 241.725006103516 250.125 260.09375 275.71875 290.006256103516 296.649993896484 283.693756103516 264.100006103516 248.018753051758 232.625 216.581253051758 202.34375 190.168746948242 180 175.643753051758 173.943756103516 173.318756103516 171.268753051758 169.643753051758 168.143753051758 166.262496948242 165.199996948242 166.481246948242 168.949996948242 172.75 174.487503051758 175.981246948242 178.125 182.231246948242 186.287506103516 190.137496948242 196.262496948242 202.956253051758 208.931243896484 213.981246948242 216.743743896484 219.068756103516 218.300003051758 216.53125 215.100006103516 214.387496948242 216.274993896484 218.762496948242 219.818756103516 219.912506103516 223.006256103516 228.643753051758 
229.350006103516 230.131256103516 229.824996948242 232.625 240.381256103516 251.418746948242 264.293762207031 280.725006103516 297.899993896484 309.893737792969 294.112487792969 274.243743896484 259.15625 245.337493896484 230.706253051758 218.399993896484 205.787506103516 196.175003051758 192.725006103516 191.387496948242 188.449996948242 185.162506103516 182.081253051758 178.606246948242 174.787506103516 173.012496948242 174.21875 175.925003051758 178.606246948242 180.581253051758 182.618743896484 185.337493896484 189.449996948242 196.168746948242 201.975006103516 209.21875 217.487503051758 224.800003051758 231.1875 234.175003051758 234.574996948242 232.375 229.506256103516 226.675003051758 222.731246948242 223.850006103516 227.412506103516 228.6875 227.256256103516 227.300003051758 227.8125 
228.887496948242 229.65625 230.431243896484 231.668746948242 238.1875 247.8125 259.975006103516 272.618743896484 285.100006103516 290.087493896484 285.862487792969 275.0625 264.231262207031 253.962493896484 243.231246948242 233.368743896484 224.618743896484 218.493743896484 214.850006103516 210.537506103516 203.706253051758 198.40625 192.40625 187.212493896484 183.925003051758 180.356246948242 181.181243896484 183.149993896484 184.068756103516 185.887496948242 189.412506103516 192.943756103516 199.03125 204.9375 212.137496948242 222.25 231.725006103516 241.1875 249.65625 252.618743896484 250.818740844727 247.643753051758 243.993743896484 239.675003051758 233.59375 233.118743896484 236.162490844727 236.743743896484 232.518753051758 230.09375 230.418746948242 
227.25 226.537506103516 227.375 231.03125 237.03125 244.125 251.824996948242 258.693756103516 263.450012207031 267.950012207031 272.868743896484 272.043762207031 267.681243896484 260.462493896484 253.168746948242 247.012496948242 241.431243896484 238.837493896484 236.912506103516 228.731246948242 217.800003051758 209.574996948242 201.699996948242 195.893753051758 191.59375 187.100006103516 187.556243896484 188.574996948242 190.0625 192.212493896484 195.087493896484 199.975006103516 207.149993896484 215.012496948242 223.199996948242 233.774993896484 244.856246948242 255.318756103516 263.274993896484 267.143737792969 266.924987792969 263.993743896484 259.868743896484 253.862503051758 248.143753051758 246.6875 245.78125 241.262496948242 239.081253051758 233.25 230.199996948242 
227.28125 226.662506103516 227.431243896484 231.100006103516 235.806243896484 240.262496948242 246.287506103516 250.125 250.449996948242 254.356246948242 263.081237792969 268.09375 268.012512207031 264.356262207031 258.987487792969 255.524993896484 251.574996948242 248.34375 246.543746948242 237.237503051758 224.168746948242 214.9375 206.918746948242 202.875 198.350006103516 193.481246948242 193.149993896484 194.024993896484 195.987503051758 198.443756103516 202.3125 207.856246948242 215.612503051758 223.8125 232.731246948242 244.90625 257.206237792969 268.793762207031 278.137512207031 283.462493896484 284.512512207031 282.356262207031 279.350006103516 274.3125 269.637512207031 265.787506103516 261.856262207031 254.043746948242 245.318756103516 235.793746948242 229.206253051758 
226.71875 226.212493896484 227.524993896484 230.143753051758 233.568756103516 237.193756103516 243.037506103516 246.84375 250.425003051758 255.274993896484 263.375 267.012512207031 269.606262207031 267.21875 264.231262207031 260.756256103516 257.006256103516 252.462493896484 246.387496948242 238.237503051758 226.725006103516 218.212493896484 211.512496948242 209.331253051758 204.818756103516 199.462493896484 199.481246948242 199.606246948242 202.175003051758 205.34375 208.793746948242 214.449996948242 223.193756103516 233.199996948242 243.59375 256.5 269.950012207031 281.8125 291.918762207031 299.618743896484 303.84375 303.162506103516 300.018737792969 294.362487792969 291.412506103516 289.037506103516 282.418762207031 270.393737792969 257.149993896484 242.931243896484 230.487503051758 
224.881256103516 224.3125 225.587493896484 227.831253051758 230.393753051758 234.068756103516 239.581253051758 245.399993896484 251.0625 257.518737792969 266.012512207031 270.53125 272.200012207031 270.424987792969 268 264.850006103516 260.356262207031 253.256256103516 245.231246948242 237.5 226.262496948242 218.53125 214.587493896484 211.831253051758 210.5 204.956253051758 204.28125 205.331253051758 207.09375 210.306243896484 214.949996948242 220.962493896484 230.09375 240.96875 253.5 267.96875 281.193756103516 295.0625 306.0625 314.350006103516 320.40625 320.21875 318.137512207031 313.481262207031 310.112487792969 309.131256103516 299.856262207031 282.168762207031 266.350006103516 251.962493896484 235.6875 
224.681243896484 224.09375 224.868743896484 227.318756103516 230.318756103516 234.100006103516 239.668746948242 247.212493896484 253.5 260.71875 269.950012207031 275.825012207031 276.168762207031 273.543762207031 271.024993896484 266.512512207031 261.375 252.431243896484 242.6875 233.5625 222.25 216.143753051758 215.731246948242 217.137496948242 216.043746948242 209.71875 208.637496948242 209.762496948242 212.100006103516 216.606246948242 221.643753051758 227.306243896484 236.856246948242 247.65625 260.174987792969 275.318756103516 290.875 305.75 317.693756103516 327.387512207031 335.112487792969 334.556243896484 329.881256103516 322.556243896484 317.231262207031 310.368743896484 299.712493896484 288.5625 274.21875 259.668762207031 242.068756103516 
221.84375 222.068756103516 223.65625 226.068756103516 230.081253051758 234.587493896484 240.949996948242 248.118743896484 254.556243896484 263.25 272.34375 278.75 279.243743896484 274.962493896484 271.5 265.950012207031 260.243743896484 251.649993896484 242.568756103516 232.4375 218.987503051758 214.256256103516 215.806243896484 217.618743896484 215.287506103516 210.206253051758 211.456253051758 213.637496948242 216.425003051758 221.574996948242 227.225006103516 233.256256103516 241.787506103516 252.912506103516 265.75 280.831237792969 296.762512207031 314.087493896484 327.806243896484 339.0625 349.287506103516 347.287506103516 337.9375 327.368743896484 318.9375 312.46875 302.950012207031 289.537506103516 277.450012207031 266.931243896484 255.524993896484 
217.831253051758 218.612503051758 220.71875 223.787506103516 228.581253051758 233.381256103516 240.662506103516 248.137496948242 255.193756103516 263.137512207031 271.100006103516 275.862487792969 276.662506103516 274.625 269.462493896484 264.556243896484 258.09375 250.787506103516 242.356246948242 234.481246948242 224.5 219.03125 217.568756103516 216.699996948242 214.21875 210.649993896484 213.425003051758 216.487503051758 220.418746948242 225.125 231.181243896484 237.100006103516 245.356246948242 256.518737792969 269 284.956237792969 303.143737792969 322.112487792969 338.512512207031 351.100006103516 359.268737792969 351.90625 343.056243896484 334.168762207031 326.356262207031 317.481262207031 308.6875 298.75 285.443756103516 277.368743896484 271.612487792969 
214.199996948242 215.193756103516 218.074996948242 222.649993896484 227.106246948242 232.912506103516 240.96875 248.225006103516 255.518753051758 262.931243896484 269.149993896484 273.381256103516 273.993743896484 272.018737792969 267.25 261.59375 255.837493896484 249.125 242.556243896484 237.143753051758 229.362503051758 223.212493896484 220.287506103516 218.862503051758 216.512496948242 215.100006103516 218.443756103516 221.524993896484 225.399993896484 230.475006103516 235.074996948242 239.649993896484 247.574996948242 257.106262207031 269.181243896484 284.731262207031 305.081237792969 327.081237792969 345.143737792969 357.543762207031 361.274993896484 356.225006103516 349.556243896484 340.40625 331.799987792969 323.162506103516 315.568756103516 306.581237792969 297.518737792969 288.15625 283.09375 
209.387496948242 210.818756103516 214.481246948242 219.662506103516 225.293746948242 231.5625 239.625 246.493743896484 254.087493896484 262.125 268.268737792969 272.106262207031 272.649993896484 269.862487792969 264.712493896484 257.15625 252.737503051758 248.268753051758 243.712493896484 239.868743896484 232.518753051758 226.431243896484 222.800003051758 222.418746948242 220.225006103516 218.918746948242 221.987503051758 226.081253051758 230.956253051758 236.03125 240.612503051758 243.199996948242 247.443756103516 254.475006103516 263.818756103516 280.237487792969 302.512512207031 328.1875 350.706237792969 364.237487792969 367.606262207031 360.90625 352.787506103516 343.424987792969 333.556243896484 325.331237792969 317.181243896484 308.237487792969 300.424987792969 292.731262207031 287.106262207031 
202.3125 205.387496948242 209.59375 215.337493896484 221.918746948242 228.5625 236.581253051758 244.100006103516 251.84375 260.1875 267.487487792969 271.65625 272.637512207031 270.018737792969 264.024993896484 256 249.518753051758 245.1875 241.737503051758 239.512496948242 234.268753051758 229.106246948242 225.256256103516 225.425003051758 224.831253051758 222.706253051758 224.856246948242 230.074996948242 236.350006103516 242.71875 246.574996948242 247.59375 248.287506103516 249.193756103516 256.299987792969 272.200012207031 295.299987792969 327.112518310547 358.581237792969 368.299987792969 367.693756103516 360.556243896484 350.84375 341.40625 333.40625 326.118743896484 317.512512207031 310 304.787506103516 295.799987792969 289.512512207031 
192.612503051758 197.09375 202.831253051758 209.725006103516 216.737503051758 223.537506103516 231.59375 239.274993896484 247.193756103516 255.475006103516 263.856262207031 270.081237792969 273.362487792969 271.181243896484 265.193756103516 257 247.199996948242 239.350006103516 237.537506103516 235.756256103516 234.512496948242 231.243743896484 227.600006103516 227.306243896484 227.418746948242 226.800003051758 228.53125 235.074996948242 242.918746948242 250.118743896484 252.912506103516 248.131256103516 245.418746948242 243.21875 245.949996948242 257.806243896484 284.868743896484 316.743743896484 345.725006103516 358.462493896484 358.662506103516 352.806243896484 345.706237792969 339.012512207031 332.450012207031 324.818756103516 318.53125 311.59375 305.524993896484 296.28125 291.15625 
182.212493896484 188.193756103516 194.65625 201.53125 209.337493896484 217.206253051758 224.668746948242 232.993743896484 241.71875 249.931243896484 259.293762207031 266.193756103516 271.606262207031 273.225006103516 265.681243896484 254.143753051758 242.693756103516 232.881256103516 229.131256103516 228.71875 231.118743896484 231.25 226.762496948242 227.368743896484 228.875 230.856246948242 234.774993896484 241.568756103516 250.524993896484 259.068756103516 262.21875 254.399993896484 245.993743896484 236.662506103516 233.3125 245.662506103516 272.306243896484 301.993743896484 327.53125 341.1875 345.793762207031 341.799987792969 338.487487792969 335.212493896484 330.237487792969 324.837493896484 319.25 312.481262207031 306.21875 293.868743896484 292 
172.037506103516 178.399993896484 185.300003051758 192.637496948242 201.393753051758 209.675003051758 217.862503051758 225.356246948242 234.074996948242 242.600006103516 251.418746948242 259.049987792969 267.350006103516 273.743743896484 263.581237792969 246.668746948242 232.350006103516 224.21875 220.418746948242 220.231246948242 221.987503051758 222.881256103516 224.412506103516 226.574996948242 229.649993896484 233.318756103516 239.556243896484 248.100006103516 255.887496948242 263.325012207031 264.362487792969 258.824981689453 245.899993896484 230.387496948242 220.225006103516 234.756256103516 264.631256103516 294.006256103516 316.056243896484 329.581237792969 333.825012207031 331.081237792969 332.700012207031 333.09375 329.931243896484 325.381256103516 319.356262207031 311.899993896484 304.299987792969 292.5625 290.762512207031 
159.793746948242 167.668746948242 174.962493896484 182.643753051758 192.199996948242 199.987503051758 208.143753051758 216.518753051758 225.006256103516 232.8125 239.493743896484 246.324996948242 253.837493896484 260.4375 252.050003051758 236.787506103516 224.131256103516 215.956253051758 213.756256103516 212.768753051758 216.306243896484 219.612503051758 222.043746948242 226.362503051758 231.40625 237.225006103516 244.331253051758 251.581253051758 259.887512207031 267.793762207031 269.799987792969 265.418762207031 251.456253051758 232.362503051758 214.818756103516 233.512496948242 266.568756103516 294.8125 314.200012207031 325.931243896484 330.6875 331.043762207031 331.681243896484 331.524993896484 329.125 325.737487792969 320.381256103516 312.787506103516 302.0625 293.174987792969 287.899993896484 
147.143753051758 156.0625 163.875 172.881256103516 182.037506103516 190.143753051758 198.293746948242 206.693756103516 215.050003051758 221.09375 225.225006103516 228.206253051758 231.318756103516 233.181243896484 230.699996948242 223.143753051758 215.300003051758 210.487503051758 208.300003051758 208.006256103516 209.931243896484 213.1875 218.09375 223.274993896484 229.837493896484 237.899993896484 246.787506103516 255.287506103516 265.225006103516 274.756256103516 280.024993896484 276.837493896484 265.506256103516 252.768753051758 245.46875 259.03125 284.012512207031 305.850006103516 319.5625 327.600006103516 332.006256103516 333.306243896484 333.612487792969 332.862487792969 331.337493896484 328.375 323.09375 314.4375 302.662506103516 295.174987792969 285.950012207031 
136.84375 146.725006103516 154.137496948242 163.03125 171.90625 180.587493896484 187.8125 196.34375 205 208.637496948242 209.65625 208.981246948242 208.287506103516 209.581253051758 211.237503051758 209.181243896484 205.143753051758 203.393753051758 202.068756103516 201.300003051758 203.899993896484 206.949996948242 211.381256103516 217.412506103516 226.181243896484 236.643753051758 246.574996948242 256.731262207031 268.787506103516 280.549987792969 289.518737792969 292.831237792969 284.1875 277.462493896484 279.868743896484 293.987487792969 310.75 323.818756103516 330.450012207031 332.106262207031 333.71875 334.625 334.606262207031 334.037506103516 333.512512207031 331.575012207031 326.543762207031 316.756256103516 305.606262207031 298.081237792969 288.118743896484 
127.168746948242 136.112503051758 143.46875 151.237503051758 160.012496948242 168.831253051758 177.131256103516 185.037506103516 193.225006103516 195.912506103516 196.600006103516 195.556243896484 192.21875 195.962493896484 200 200.40625 198.90625 199.518753051758 199.231246948242 198.65625 200.337493896484 202.462493896484 205.831253051758 212.462493896484 222.318756103516 232.568756103516 244.65625 256.962493896484 269.643737792969 282.981262207031 294.068756103516 300.075012207031 297.25 296.75 304.5625 321.043762207031 333.581237792969 337.631256103516 337.893737792969 336.181243896484 335.90625 334.887512207031 334.549987792969 334.768737792969 337.25 335.962493896484 330.293762207031 317.15625 311.006256103516 301.993743896484 292.362487792969 
119.581253051758 126.706253051758 133.356246948242 141 149.96875 157.768753051758 165.850006103516 173.393753051758 179.818756103516 183.806243896484 185.887496948242 186.756256103516 187.675003051758 191 193.53125 195.081253051758 195.681243896484 197.21875 197.75 197.40625 198.556243896484 198.925003051758 200.34375 206.399993896484 216.199996948242 230.318756103516 242.625 256.600006103516 269.825012207031 282.649993896484 293.024993896484 299.706237792969 302.975006103516 307.493743896484 316.512512207031 327.856262207031 337.237487792969 339.987487792969 338.825012207031 336.668762207031 335.637512207031 333.96875 333.899993896484 336.100006103516 338.912506103516 339.418762207031 332.40625 324.606262207031 316.524993896484 310.6875 302.5 
114.787498474121 120.599998474121 125.900001525879 132.78125 140.762496948242 148.34375 155.456253051758 162.556243896484 168.8125 173.699996948242 177.287506103516 180.887496948242 185.024993896484 188.71875 191.362503051758 192.793746948242 194.037506103516 196.243743896484 197.993743896484 198 198 196.274993896484 195.168746948242 199.256256103516 211.824996948242 227.90625 243.175003051758 256.512512207031 270.162506103516 281.293762207031 290.59375 298.112487792969 304.274993896484 311.337493896484 320.243743896484 328.631256103516 335.600006103516 338.96875 336.274993896484 334.450012207031 333.524993896484 332.162506103516 331.443756103516 334.106231689453 341.037506103516 343.449981689453 343.543762207031 336.887512207031 327.612487792969 324.893737792969 318.25 
112.012496948242 116.112503051758 120.6875 127.150001525879 133.84375 140.474990844727 147.5625 153.856246948242 160.649993896484 167.106246948242 172.899993896484 178.78125 185.318756103516 191.28125 194.074996948242 196.46875 197.956253051758 200.462493896484 201.887496948242 201.53125 200.581253051758 198.28125 194.881256103516 197.381256103516 212.475006103516 229.350006103516 244.256256103516 257.71875 270.162506103516 280.612487792969 289.987487792969 296.556243896484 303.90625 314.068756103516 321.59375 329.21875 335.4375 337.768737792969 336.162506103516 333.943756103516 332.40625 330.575012207031 329.59375 331.875 342.481262207031 350.75 354.318756103516 350.706237792969 346.59375 339.112487792969 335.362487792969 
109.162498474121 111.300003051758 115.724998474121 121.268753051758 126.981254577637 132.949996948242 140.056243896484 147.231246948242 154.587493896484 162.331253051758 169.274993896484 177.262496948242 185.699996948242 193.524993896484 197.449996948242 200.743743896484 202.774993896484 206.387496948242 207.65625 207.824996948242 207.381256103516 205.231246948242 204.59375 208.543746948242 219.787506103516 234.84375 248.318756103516 260.956237792969 272.331237792969 282.15625 290.78125 298.143737792969 307.549987792969 315.556243896484 322.75 329.893737792969 334.143737792969 337.631256103516 335.450012207031 332.412506103516 330.587493896484 329.662506103516 328.899993896484 332.631256103516 346.168762207031 356.881256103516 364.137512207031 364.325012207031 362.162506103516 355.331237792969 350.90625 
106.3125 107.162498474121 110.875 115.806251525879 121.118751525879 126.987503051758 133.981246948242 141.15625 149.493743896484 158.256256103516 166.487503051758 176.100006103516 186.100006103516 196.431243896484 201.731246948242 206.5625 210.368743896484 213.53125 216.175003051758 216.356246948242 216.65625 215.131256103516 216.5625 221.675003051758 230.262496948242 242.28125 254.556243896484 265.881256103516 277.40625 286.337493896484 293.237487792969 300.993743896484 309.293762207031 317.337493896484 325.25 330.625 335.725006103516 339.225006103516 338.524993896484 334.049987792969 329.125 327.512512207031 330.174987792969 338.09375 353.837493896484 365.606262207031 373.231262207031 377.893737792969 377.012512207031 373.637512207031 366.987487792969 
110.568748474121 109.699996948242 112.412498474121 116.09375 120.71875 126.337501525879 132.600006103516 139.40625 147.71875 157.081253051758 166.393753051758 177.662506103516 189.225006103516 201.143753051758 208.206253051758 213.543746948242 219.1875 224.5 227.681243896484 227.574996948242 227.28125 227 228.90625 233.493743896484 240.668746948242 250.912506103516 261.356262207031 271.03125 281.212493896484 289.175018310547 297.181243896484 305.21875 313.012512207031 321.75 329.25 335.481262207031 339.806243896484 344.493743896484 342.524993896484 338.568756103516 338.181243896484 339.743743896484 342.693756103516 352.337493896484 362.106262207031 377.4375 389.637512207031 395.081237792969 395.600006103516 393.975006103516 387.25 
115.199996948242 113.012496948242 114.21875 116.962501525879 120.287498474121 125.768753051758 131.681259155273 138.337509155273 146.981246948242 156.487503051758 167.431243896484 180.300003051758 193.84375 206.181243896484 214.100006103516 221.612503051758 228.975006103516 235.368743896484 239.993743896484 239.793746948242 239.0625 238.268753051758 239.606246948242 243.737503051758 250.056243896484 259.1875 267.987487792969 276.793762207031 285.725006103516 293.337493896484 301.262512207031 309.712493896484 319.225006103516 328.706237792969 337.112487792969 341.700012207031 346.71875 352.518768310547 350.618743896484 346.368743896484 347.90625 353.612487792969 358.818756103516 365.09375 374.768737792969 395.09375 409.90625 416.393737792969 416.506256103516 412.387512207031 406.412506103516 
119.40625 116.256248474121 116.668746948242 118.537498474121 120.731246948242 125.550003051758 131.306243896484 137.181259155273 145.96875 156.431243896484 167.862503051758 182.15625 197.306243896484 211.6875 220.981246948242 230.425003051758 237.256256103516 243.199996948242 247.618743896484 249.081253051758 248.90625 248.856246948242 249.262496948242 253.262496948242 259.4375 267.037506103516 274.362487792969 282.181243896484 290.399993896484 298.893737792969 307.100006103516 315.3125 325.549987792969 335.424987792969 344.8125 350.024993896484 355.643737792969 360.706237792969 358.84375 359.237487792969 364.793762207031 371.706237792969 377.725006103516 385.674987792969 397.368743896484 421.774993896484 438 442.34375 438.387512207031 432.412506103516 423.524993896484 
129.706253051758 126.4375 126.112503051758 126.59375 127.287498474121 131.137496948242 135.475006103516 140.649993896484 149.193756103516 159.481246948242 171.743743896484 186.737503051758 203.75 219.956253051758 230.537506103516 239.537506103516 246.768753051758 252.850006103516 255.831253051758 257.612487792969 258.4375 258.106231689453 258.462493896484 261.375 266.743743896484 273.293762207031 279.668762207031 287.59375 295.462493896484 303.612487792969 312.806243896484 321.174987792969 331.587493896484 343.306243896484 354.493743896484 361.818756103516 367.943756103516 372.012512207031 371.71875 377.737487792969 384.768737792969 392.706237792969 401.6875 412.918762207031 432.443756103516 460.399993896484 473.412506103516 468.993743896484 461.181243896484 453.174987792969 440.549987792969 
141.225006103516 137.487503051758 136.0625 135.53125 134.918746948242 137.237503051758 140.506256103516 144.743743896484 151.806243896484 161.556243896484 173.943756103516 191.09375 210.5 228.012496948242 239.631256103516 249.262496948242 256.899993896484 262.006256103516 264.537506103516 266.181243896484 266.331237792969 265.575012207031 266.143737792969 268.143737792969 272.631256103516 278.125 284.293762207031 291.381256103516 299.549987792969 308.924987792969 318.75 328.012512207031 340.537506103516 352.975006103516 364.024993896484 372.924987792969 379.649993896484 384.950012207031 387.887512207031 395 402.25 412.256256103516 426.087493896484 440.524993896484 462.15625 487.037506103516 496.59375 489.462493896484 479.806243896484 469.756256103516 456.875 
152.868743896484 149.306243896484 146.956253051758 144.625 143.143753051758 144.399993896484 145.893753051758 148.550003051758 154.175003051758 162.850006103516 176.0625 196.1875 218.449996948242 237.75 249.568756103516 259.368743896484 266.487487792969 270.387512207031 273.21875 273.881256103516 274.412506103516 272.681243896484 272.306243896484 272.868743896484 276.818756103516 280.806243896484 287.381256103516 294.943756103516 303.162506103516 313.600006103516 323.475006103516 335.106262207031 348.493743896484 362.524993896484 374.53125 382.90625 389.543762207031 399.09375 404.556243896484 409.9375 418.024993896484 427.6875 441.893737792969 457.643737792969 476.693756103516 493.537506103516 501.881256103516 499.8125 492.168762207031 483.143737792969 470.581237792969 
167.118743896484 163.806243896484 160.962493896484 157.881256103516 155.493743896484 156.074996948242 156.324996948242 157.212493896484 161.0625 168.506256103516 182.368743896484 203.981246948242 227.824996948242 247.949996948242 259.806243896484 269.375 276.962493896484 279.893737792969 280.40625 281.181243896484 280.46875 278.987487792969 277.100006103516 277.393737792969 279.200012207031 282.299987792969 288.637512207031 297.268737792969 305.450012207031 315.9375 327.40625 339.887512207031 354.924987792969 370.081237792969 381.631256103516 389.100006103516 399.243743896484 406.818756103516 411.737487792969 419.225006103516 428.993743896484 437.193756103516 448.431243896484 464.018737792969 478.399993896484 489.975006103516 497.84375 499.368743896484 495.675018310547 488.481262207031 475.981262207031 
182.481246948242 179.243743896484 175.618743896484 173.162506103516 170.15625 169.59375 168.637496948242 167.899993896484 169.324996948242 171.9375 188.768753051758 215.449996948242 238.268753051758 256.1875 268.943756103516 278.487487792969 286.024993896484 288.081237792969 288.768737792969 287.806243896484 285.537506103516 282.612487792969 280.143737792969 279.450012207031 279.924987792969 282.600006103516 288.90625 297.03125 306.168762207031 317.399993896484 329.793762207031 342.975006103516 359.875 376.024993896484 389.3125 399.043762207031 406.768737792969 413.912506103516 419.268737792969 425.706237792969 433.368743896484 441.818756103516 452.350006103516 465.71875 477.518737792969 485.700012207031 494.912506103516 497.981262207031 494.712493896484 489.625 479.825012207031 
197.225006103516 194.21875 190.725006103516 187.868743896484 185.206253051758 183.862503051758 182.53125 181.487503051758 183.493743896484 184.231246948242 208.731246948242 236.393753051758 253.524993896484 266.850006103516 278.649993896484 287.743743896484 293.475006103516 295.018737792969 293.850006103516 291.237487792969 288.181243896484 283.90625 281.262512207031 279.693756103516 279.868743896484 282.006256103516 287.987487792969 296.53125 305.918762207031 318.831237792969 330.706237792969 344.887512207031 362.362487792969 380 393.71875 404.081268310547 411.78125 419.125 424.375 429.537506103516 435.112487792969 442.950012207031 450.774993896484 460.956237792969 471.318756103516 480.78125 489.3125 493.424987792969 491.768737792969 488.71875 480.149993896484 
208.356246948242 205 201.756256103516 200.243743896484 197.949996948242 197.743743896484 198.581253051758 200.431243896484 207.206253051758 222.806243896484 251.362503051758 264.0625 272.899993896484 282.299987792969 291.393737792969 297.125 301.181243896484 300.299987792969 296.693756103516 292.637512207031 287.212493896484 281.912506103516 279.5625 277.518737792969 277.75 280.9375 286.887512207031 295.131256103516 304.693756103516 316.875 329.862487792969 342.743743896484 358.287506103516 374.399993896484 390.225006103516 399.799987792969 406.293762207031 414.25 418.143737792969 420.0625 425.106262207031 430.5 437.293762207031 445.381256103516 453.524993896484 462.237487792969 468.84375 471.225006103516 470.325012207031 470.575012207031 463.487487792969 
219.1875 215.856246948242 213.46875 211.912506103516 210.681243896484 212.25 214.568756103516 220.131256103516 230.556243896484 247.75 267.431243896484 280.768737792969 290.487487792969 298.112487792969 304.137512207031 308.081237792969 309.649993896484 306.337493896484 300.143737792969 294.481262207031 285.431243896484 278.649993896484 274.787506103516 273.100006103516 275.28125 278.774993896484 285.193756103516 293.399993896484 303 314.556243896484 326.018737792969 340.174987792969 356.743743896484 370.850006103516 383.174987792969 392.40625 398.143737792969 403.899993896484 407.774993896484 408.15625 411.368743896484 416.018737792969 420.924987792969 425.649993896484 432.643737792969 440.175018310547 446.568756103516 450.556243896484 450.4375 452.068756103516 447.112487792969 
230.399993896484 226.768753051758 225.487503051758 224.037506103516 223.731246948242 225.368743896484 229.975006103516 237.899993896484 249.181243896484 264.84375 280.556243896484 292.700012207031 304.256256103516 311.743743896484 316.575012207031 319.299987792969 318.625 313.737487792969 305.393737792969 295.112487792969 282.568756103516 273.100006103516 268.268737792969 268.143737792969 271.975006103516 276.46875 283.075012207031 291.962493896484 300.96875 312.46875 325.056243896484 340.024993896484 354.049987792969 366.725006103516 376.0625 383.59375 389.243743896484 393.149993896484 396.34375 394.350006103516 396.481262207031 398.293762207031 400.331237792969 406.256256103516 412.424987792969 419.206237792969 424.756256103516 427.568756103516 430.475006103516 433.356262207031 431.537506103516 
242.475006103516 238.081253051758 236.300003051758 234.574996948242 234.15625 236.65625 241.143753051758 249.206253051758 260.049987792969 273.75 288.21875 300.793762207031 311.793762207031 320.700012207031 324.993743896484 326.862487792969 325.987487792969 320.46875 310.606262207031 294.737487792969 277.243743896484 264.118743896484 259.543762207031 261.462493896484 267.306243896484 273.662506103516 280.831237792969 289.106262207031 299.456237792969 311.193756103516 321.387512207031 336.618743896484 348.768737792969 360.568756103516 369.837493896484 373.518737792969 377.456237792969 380.875 381.081237792969 378.756256103516 378.193756103516 376 375.868743896484 383.84375 390.337493896484 396.612487792969 401.3125 404.049987792969 407.899993896484 411.299987792969 412.612487792969 
254.881256103516 249.581253051758 247.018753051758 244.225006103516 243.6875 245.850006103516 250.324996948242 257.318756103516 267.59375 280.3125 295.768737792969 308.068756103516 319.225006103516 328.012512207031 332.887512207031 335.21875 334.243743896484 328.424987792969 317.237487792969 296.112487792969 272.174987792969 252.112503051758 249.712493896484 255.793746948242 263.793762207031 272.143737792969 279.475006103516 286.693756103516 296.631256103516 308.568756103516 319.993743896484 330.956237792969 342.28125 351.924987792969 360.243743896484 366.537506103516 366.631256103516 366.9375 364.306243896484 361.993743896484 360.893737792969 358.65625 358.112487792969 362.756256103516 369.024993896484 373.918762207031 378.837493896484 381.493743896484 385.3125 389.587493896484 393.418762207031 
267.112487792969 261.231262207031 256.34375 253.09375 252.418746948242 253.743743896484 257.137512207031 263.856262207031 274.581237792969 286.40625 301.350006103516 315.399993896484 326.431243896484 335.75 341.956237792969 343.443756103516 341.381256103516 334.793762207031 325.318756103516 302.068756103516 273.693756103516 249.600006103516 247.787506103516 253.743743896484 261.943756103516 270.993743896484 278.481231689453 285.762481689453 294.325012207031 305.450012207031 316.3125 327.462493896484 336.6875 343.706237792969 350.649993896484 357.693756103516 356.512512207031 353.774993896484 350.131256103516 347.293762207031 345.256256103516 343.931243896484 343.962493896484 346.787506103516 350.556243896484 353.981262207031 358.318756103516 359.318756103516 360.681243896484 366.274993896484 373.5 
280.46875 273.600006103516 266.649993896484 263.149993896484 261.237487792969 261.981262207031 263.818756103516 269.337493896484 279.78125 292.756256103516 307.681243896484 322.131256103516 333.350006103516 343.106262207031 348.125 347.837493896484 344.4375 335.756256103516 324.03125 303.524993896484 280.28125 263.856262207031 256.387512207031 258.137512207031 264.65625 271.668731689453 278.737487792969 285.299987792969 293.53125 303.512512207031 313.481262207031 323.443756103516 331.212493896484 336.149993896484 340.418762207031 347.125 345.799987792969 341.768737792969 338.34375 336.5625 334.125 333.237487792969 332.887512207031 333.15625 336.0625 338.806243896484 340.506256103516 340.362487792969 338.637512207031 343.331237792969 353.181243896484 
