ncols        51
nrows        45
xllcorner    -63.500000000000
yllcorner    -7.500000000000
cellsize     0.166666666667
NODATA_value -99
252.768753051758 240.1875 231.118743896484 226.706253051758 220.487503051758 214.893753051758 206.956253051758 200.75 196.587493896484 194.399993896484 191.675003051758 191.09375 192.21875 194.40625 199.743743896484 206.837493896484 212.96875 218.125 225.037506103516 233.043746948242 236.931243896484 239.787506103516 245.881256103516 251.90625 259.637512207031 269.6875 282.524993896484 297.8125 310.337493896484 322.200012207031 329.381256103516 339.162506103516 350.143737792969 359.450012207031 368.681243896484 378.03125 385.5625 389.331237792969 390.600006103516 393.556243896484 393.1875 393.075012207031 389.362487792969 390.568756103516 387.799987792969 382.975006103516 379.725006103516 371.350006103516 366.325012207031 365.162506103516 362.081237792969 
256.962493896484 243.431243896484 237.231246948242 234.112503051758 230.931243896484 226.381256103516 218.793746948242 213.018753051758 209.5625 205.074996948242 201.824996948242 200.3125 199.356246948242 199.324996948242 202.649993896484 206.824996948242 211.443756103516 218.431243896484 229.587493896484 240.59375 245.5 250.087493896484 255.131256103516 263.168762207031 270.393737792969 278.331237792969 291.481262207031 305.012512207031 317.112487792969 325.512512207031 331.524993896484 343.568756103516 351.46875 362.875 371.125 375.825012207031 386.112487792969 391.356262207031 395.443756103516 392.462493896484 391.856262207031 396.212493896484 392.506256103516 387.78125 386.024993896484 380.149993896484 377.162506103516 371.193756103516 368.231262207031 366.743743896484 365.081237792969 
256.725006103516 246.024993896484 241.381256103516 236.637496948242 231.393753051758 228.90625 225.643753051758 223.21875 221.018753051758 217.050003051758 213.181243896484 209.912506103516 206.987503051758 203.862503051758 205.975006103516 209.5625 211.78125 215.625 223.837493896484 233.006256103516 237.831253051758 244 249.550003051758 257.862487792969 266.143768310547 277.362487792969 291.8125 303.762512207031 313.612487792969 321.087493896484 326.806243896484 335.837493896484 347.662506103516 356.643737792969 367.3125 372.243743896484 381.674987792969 389.506256103516 392.943756103516 394.412506103516 398.731262207031 396.975006103516 396.518737792969 392.306243896484 387.737487792969 383.274993896484 378.475006103516 373.512512207031 365.381256103516 364.431243896484 363.381256103516 
252.568756103516 241.037506103516 240.643753051758 234.850006103516 229.412506103516 228.006256103516 227.768753051758 229.3125 231.46875 229.393753051758 224.018753051758 219.024993896484 212.681243896484 208.043746948242 208.756256103516 210.293746948242 210.40625 211.637496948242 216.237503051758 224.225006103516 232.100006103516 237.056243896484 241.443756103516 251.550003051758 261.412506103516 272.125 287.068756103516 297.106262207031 306.518737792969 316 321.887512207031 329.774993896484 339.412506103516 347.649993896484 355.443756103516 367.881256103516 380.225006103516 389.049987792969 394.850006103516 399.318756103516 402.806243896484 405.737487792969 400.375 395.068756103516 392.71875 384.137512207031 377.631256103516 373.024993896484 363.21875 356.962493896484 357.15625 
263.25 248.75 235.237503051758 228.481246948242 224.356246948242 223.887496948242 226.699996948242 231.481246948242 238.212493896484 239.943756103516 232.012496948242 222.987503051758 217.306243896484 212.274993896484 211.59375 210.90625 208.893753051758 207.699996948242 209.231246948242 215.65625 223.337509155273 227.756256103516 231.537506103516 245.293746948242 255.287506103516 266.837493896484 276.875 289.96875 300.399993896484 307.975006103516 315.368743896484 321.043762207031 329.512512207031 341.106262207031 351.1875 361.850006103516 376.943756103516 390.075012207031 399.118743896484 404.668762207031 411.850006103516 410.012512207031 405.737487792969 402.837493896484 395.506256103516 386.40625 375.643737792969 367.356262207031 357.087493896484 353.90625 355.443756103516 
264.856262207031 250.34375 235.212493896484 218.774993896484 215.149993896484 218.231246948242 221.056243896484 224.018753051758 231.975006103516 235.662506103516 229.662506103516 220.331253051758 216.868743896484 213.5625 210.693756103516 211.175003051758 207.3125 203.318756103516 203.581253051758 209.050003051758 215.381256103516 221.387496948242 227.887496948242 237.393753051758 248.225006103516 259.487487792969 269.662506103516 280.356262207031 292.049987792969 300.581237792969 308.318756103516 316.331237792969 324.956237792969 335.96875 345.84375 359.481262207031 373.787506103516 387.40625 403.375 411.71875 416.837493896484 416.875 412.100006103516 409.087493896484 402.100006103516 388.368743896484 374.018737792969 366.243743896484 356.962493896484 349.637512207031 346.806243896484 
267.806243896484 251.274993896484 235.318756103516 219.387496948242 208.625 207.03125 208.512496948242 210.625 211.287506103516 215.793746948242 215.84375 213.018753051758 212.893753051758 212.118743896484 210.75 209.731246948242 208.762496948242 204.918746948242 202.28125 205.612503051758 210.0625 214.912506103516 219.112503051758 230.112503051758 241.668746948242 254.725006103516 263.243743896484 272.762512207031 280.975006103516 290.475006103516 299.700012207031 306.268737792969 314.100006103516 325.274993896484 337.043762207031 353.700012207031 367.600006103516 382.581237792969 401.256256103516 415.487487792969 420.71875 418.306243896484 414.606262207031 414.462493896484 403.918762207031 394.149993896484 376.206237792969 358.375 346.90625 345.081237792969 341.5 
269.412506103516 251.418746948242 234.96875 220.8125 209.375 206.912506103516 200.975006103516 191.518753051758 186.368743896484 192.862503051758 201.456253051758 205.268753051758 209.931243896484 210.931243896484 210.75 211.006256103516 209.899993896484 206.524993896484 202.256256103516 200.318756103516 206.350006103516 210.125 214.53125 222.225006103516 234.800003051758 242.868743896484 253.893753051758 261.893737792969 270.362487792969 280.25 289.568756103516 296.456237792969 306.087493896484 314.881256103516 324.081237792969 339.46875 356.137512207031 374.5 391.149993896484 401.65625 413.681243896484 413.112487792969 412.431243896484 409.212493896484 396.825012207031 381.200012207031 363.418762207031 349.3125 339.25 330.418762207031 325.8125 
268.762512207031 250.84375 236.193756103516 221.368743896484 209.118743896484 204.712493896484 198.125 189.737503051758 180.8125 179.425003051758 188.475006103516 197.725006103516 206.993743896484 209.337493896484 208.256256103516 208.112503051758 206.481246948242 204.600006103516 202.837493896484 197.137496948242 198.487503051758 204.668746948242 206.381256103516 218.893753051758 226.6875 233.625 241.587493896484 252.731246948242 264.71875 272.918762207031 284.174987792969 289.856262207031 293.700012207031 299.637512207031 310.96875 327.5625 345.118743896484 364.068756103516 383.787506103516 393.587493896484 401.668762207031 402 406.837493896484 409.806243896484 389.524993896484 373.818756103516 357.450012207031 339.674987792969 325.087493896484 316.75 311.762512207031 
266.887512207031 250.487503051758 236.481246948242 223.34375 209.375 204.537506103516 198.59375 191.556243896484 187.675003051758 188.175003051758 192.493743896484 195.9375 206.256256103516 208.862503051758 207.368743896484 203.306243896484 199.762496948242 198.125 197.606246948242 195.875 195.762496948242 196.981246948242 199.6875 210 215.818756103516 222.699996948242 230.324996948242 241.28125 254.737503051758 266.493743896484 273.75 278.193756103516 285.068756103516 291.818756103516 299.625 315.293762207031 331.462493896484 350.850006103516 371.34375 388.9375 403.537506103516 409.543762207031 405.524993896484 401.331237792969 387.174987792969 376.762512207031 357.53125 335.15625 319.012512207031 305.1875 291.443756103516 
264.9375 250.131256103516 235.925003051758 223.787506103516 210.418746948242 206.231246948242 200.887496948242 193.012496948242 191.018753051758 193.693756103516 198.581253051758 204.137496948242 205.699996948242 209.306243896484 204.037506103516 197.225006103516 192.087493896484 191.399993896484 191.050003051758 191.956253051758 198.5 197.181243896484 196.287506103516 195.443756103516 206.056243896484 215.90625 223.59375 233.962493896484 243.5 252.268753051758 261.418762207031 268.125 274.237487792969 280.425018310547 287.112487792969 299.375 315.056243896484 335.46875 360.15625 381.362487792969 398.931243896484 403.512512207031 408.568756103516 400.149993896484 383.149993896484 367.96875 352.143737792969 327.549987792969 311.649993896484 297.631256103516 279.125 
265.318756103516 249.774993896484 236.737503051758 225.050003051758 213.425003051758 207.1875 203.931243896484 198.987503051758 199.337493896484 199.762496948242 204.012496948242 209.481246948242 204.949996948242 204.512496948242 200.206253051758 191.8125 186.268753051758 185.731246948242 186.506256103516 190.293746948242 199.493743896484 202.231246948242 200.456253051758 197.337493896484 198.762496948242 202.887496948242 209.193756103516 219.537506103516 231.443756103516 239.725006103516 245.318756103516 251.712493896484 257.756256103516 263.668762207031 272.987487792969 288.424987792969 305.912506103516 323.6875 345.418762207031 367.831237792969 389.068756103516 394.943756103516 393.606262207031 374.106262207031 355.381256103516 334.543731689453 314.612487792969 307.956237792969 299.412506103516 287.943756103516 264.018737792969 
266.5625 249.524993896484 236.431243896484 225.456253051758 213.90625 209.643753051758 204.887496948242 199.806243896484 201.356246948242 205.03125 208.631256103516 209.912506103516 205.912506103516 195.368743896484 189.106246948242 184.412506103516 179.074996948242 179.112503051758 180.024993896484 184.006256103516 195.712493896484 198.237503051758 197.493743896484 194.25 185.600006103516 185.987503051758 197.918746948242 209.34375 222.131256103516 231.168746948242 234.774993896484 237.131256103516 241.75 246.487503051758 256.381256103516 274.412506103516 293.299987792969 314.5625 339.53125 361.46875 379.537506103516 386.637512207031 374.125 360.443756103516 350.5 335.799987792969 315.1875 295.924987792969 282.893737792969 281.90625 273.631256103516 
262.012512207031 246.375 234.987503051758 224.162490844727 214.381256103516 209.212493896484 204.212493896484 200.287506103516 203.606246948242 207.231246948242 206.862503051758 203.574996948242 197.331253051758 188.75 176.181243896484 173.725006103516 168.862503051758 168.21875 170.681243896484 175.168746948242 184.831253051758 189.137496948242 190.518753051758 190.137496948242 185.193756103516 184.112503051758 191.399993896484 199.46875 210.493743896484 216.899993896484 223.706253051758 224.918746948242 229.087493896484 233.862503051758 241.96875 262.475006103516 285.612487792969 310.3125 337.28125 355.612487792969 359.850006103516 355 358.46875 364.662506103516 366.03125 347.075012207031 328.662506103516 314.46875 300.681243896484 304.950012207031 302.668762207031 
256.412506103516 242.762496948242 232.568740844727 221.824996948242 211.793746948242 207.350006103516 204.756256103516 202.331253051758 203.631256103516 204.306243896484 202.71875 197.125 188.15625 178.493743896484 163.818756103516 160.5625 157.543746948242 159.293746948242 161.706253051758 165.28125 175.21875 181.943756103516 186.868743896484 192.712493896484 194.868743896484 196.46875 199.793746948242 205.4375 212.081253051758 215.856246948242 215.0625 214.693756103516 221.431243896484 222.25 225.018753051758 241.975006103516 275.506256103516 306.993743896484 331.100006103516 343.956237792969 346.15625 349.956237792969 364.012512207031 367.65625 362.725006103516 356.181243896484 347.212493896484 341.162506103516 334.125 326.756256103516 321.181243896484 
249.962493896484 236.487503051758 228.237503051758 219.074996948242 209.037506103516 206.324996948242 204.550003051758 201.956253051758 201.356246948242 201.862503051758 198.706253051758 190.981246948242 180.931243896484 171.731246948242 159.462493896484 147.256256103516 146.868743896484 152.024993896484 153 156.387496948242 166.53125 177.712493896484 187.481246948242 197.824996948242 202.581253051758 204.125 206.068756103516 208.600006103516 213.34375 217.40625 219.431243896484 217.225006103516 213.412506103516 209.725006103516 210.681243896484 239.681243896484 265.662506103516 294.21875 321.049987792969 341.03125 350.225006103516 353.25 359.456237792969 354.899993896484 350.487487792969 348.993743896484 342.106262207031 335.887512207031 336.737518310547 332.631256103516 331.512481689453 
244.899993896484 232.381256103516 223 215.34375 207.9375 203.981246948242 201.274993896484 198.274993896484 198.681243896484 198.449996948242 195.868743896484 188.418746948242 177.118743896484 166.425003051758 156.425003051758 146.65625 136.762496948242 140.800003051758 144.431243896484 148.431243896484 159.149993896484 171.100006103516 185.143753051758 200.612503051758 210.5 206.712493896484 206.275009155273 209.050003051758 213.324996948242 216.912506103516 219.9375 221.331253051758 218.993743896484 217.337493896484 230.068756103516 247.824996948242 273.556243896484 301.643737792969 333.950012207031 345.462493896484 351.856262207031 350.100006103516 345.649993896484 345.4375 343.899993896484 344.8125 341.631256103516 343.649993896484 344.53125 335.537506103516 333.443756103516 
237.606246948242 226.768753051758 218.606246948242 210.175003051758 202.762496948242 200.774993896484 196.918746948242 192.90625 192.206253051758 192.618743896484 190.46875 185.0625 172.650009155273 163.512496948242 154.25 145.75 136.537506103516 130.331253051758 138.449996948242 141.268753051758 151.306243896484 164.143753051758 178.612503051758 194.899993896484 206.868743896484 206.712493896484 203.506256103516 208.556243896484 213.925003051758 214.287506103516 209.962493896484 207.381256103516 222.337493896484 231.5625 240.206253051758 268.681243896484 294.631256103516 312.475006103516 334.381256103516 346.743743896484 342.618743896484 338.78125 334.681243896484 335.493743896484 333.612487792969 337.899993896484 337.96875 338.537506103516 344.193756103516 332.137512207031 338.143737792969 
230.181243896484 219.975006103516 211.449996948242 204.893753051758 198.462493896484 194.975006103516 191.818756103516 188.78125 188.262496948242 189.706253051758 186.71875 176.712493896484 166.5 158.612503051758 150.206253051758 143.568756103516 136.96875 128.975006103516 127.643753051758 131.162506103516 141.806243896484 156.706253051758 162.462493896484 179.725006103516 192.243743896484 201.1875 204.881256103516 206.106246948242 211.637496948242 211.837493896484 210.40625 214.162506103516 227.243743896484 236.71875 248.949996948242 273.075012207031 290.774993896484 304.450012207031 324.725006103516 330.831268310547 328.587493896484 322.825012207031 323.450012207031 328.356262207031 327.306243896484 327.918762207031 333.412506103516 336.712493896484 339.768737792969 322.518737792969 341.25 
221.949996948242 212.574996948242 205.09375 196.943756103516 191.168746948242 191.056243896484 188.962493896484 185.706253051758 185.318756103516 184.768753051758 183.78125 177.5 170.231246948242 159.993743896484 150.262496948242 138.318756103516 128.625 127.700004577637 125.3125 126.681251525879 132.40625 143.618743896484 157.743743896484 169.962493896484 179.40625 184.962493896484 192.425003051758 201.256256103516 203.431243896484 201.931243896484 205.606246948242 220.731246948242 229.987503051758 237.412506103516 252.162506103516 271.981262207031 288.112487792969 301.375 311.943756103516 318.431243896484 312.774993896484 307.225006103516 313.268737792969 318.9375 322.799987792969 325.850006103516 327.28125 331.462493896484 332.887512207031 321.612487792969 342.606262207031 
209.125 206.9375 202.081253051758 193.643753051758 185.59375 187.568756103516 187.681243896484 185.6875 185.59375 183.574996948242 181.706253051758 176.643753051758 168.018753051758 159.237503051758 148.318756103516 139.306243896484 128.768753051758 124.78125 124.868751525879 123.956253051758 134.693756103516 145.9375 157.024993896484 169.006256103516 180 186.418746948242 188.8125 195.425003051758 202.081253051758 206.981246948242 214.231246948242 224.631256103516 228.65625 235.306243896484 247.431243896484 265.78125 282.993743896484 296.65625 304.237487792969 307.331237792969 309.475006103516 305.106262207031 305.237487792969 312.793762207031 316.637512207031 321.162506103516 326.331237792969 328.65625 322.131256103516 330.681243896484 340.831237792969 
203.487503051758 194.831253051758 193.274993896484 189.981246948242 182.418746948242 182.306259155273 184.4375 185.131256103516 185.65625 184.162506103516 181.456253051758 175.225006103516 167.168746948242 158.600006103516 150.800003051758 140.356246948242 136.631256103516 131.018753051758 129.84375 127.518753051758 132.368743896484 141.9375 152.318756103516 161.956253051758 169.862503051758 179.774993896484 190.268753051758 197.056243896484 209.118743896484 216.125 219.850006103516 223.925003051758 232.03125 241.681243896484 248.956253051758 262.012512207031 278.668762207031 291.575012207031 298.243743896484 301.712493896484 305.59375 302.725006103516 302.456237792969 307.012512207031 310.381256103516 315.018737792969 320.100006103516 325.875 323.475006103516 339.331237792969 340.8125 
198.274993896484 195.975006103516 192.662490844727 188.556243896484 180.631256103516 179.850006103516 176.662506103516 178.731246948242 183.8125 183.193756103516 179.21875 173.274993896484 168.956253051758 161.693756103516 153.856246948242 144.975006103516 138.443756103516 133.862503051758 130.5625 128.274993896484 133.856246948242 138.75 146.800003051758 156.087493896484 167.725006103516 177.1875 185.300003051758 197.393753051758 210.3125 216.518753051758 219.131256103516 226.606246948242 237.574996948242 245.824996948242 254.637496948242 259.381256103516 270.337493896484 285.056243896484 296.762512207031 299.949981689453 301.168762207031 299.8125 298.962493896484 302.212493896484 304.924987792969 306.90625 310.637512207031 316.149993896484 327.912506103516 345.424987792969 346.5 
191.4375 192.537506103516 191.268753051758 184.475006103516 175.293746948242 173.181243896484 176.774993896484 177.725006103516 178.71875 177.568756103516 175.893753051758 174.925003051758 170.806243896484 166.243743896484 156.956253051758 147.912506103516 140.837493896484 136.962493896484 133.756256103516 131.618743896484 134.012496948242 138.574996948242 143.887496948242 155.993743896484 165.925003051758 172.931243896484 183.518753051758 196.456253051758 211.243743896484 222.237503051758 231.118759155273 240.262496948242 251.5625 258.225006103516 264.568756103516 264.65625 277.918762207031 288.293762207031 295.831237792969 299.674987792969 299.431243896484 300.1875 300.549987792969 300.293762207031 301.40625 301.893737792969 303.962493896484 303.162506103516 324.300018310547 343.15625 351.475006103516 
189.181243896484 192.237503051758 188.643753051758 183.375 174.699996948242 173.800003051758 172.881256103516 174.524993896484 174.8125 175.206253051758 173.518753051758 171.912506103516 171.493743896484 167.637496948242 158.137496948242 150.306243896484 144.850006103516 140.012496948242 135.274993896484 132.612503051758 135.96875 138.456253051758 144.118743896484 155.199996948242 165.274993896484 177.806243896484 188.962493896484 203.243743896484 217.893753051758 233.068756103516 243.637496948242 259.081237792969 269.262512207031 274.743743896484 274.431243896484 276.375 285.443756103516 288.737487792969 294.168762207031 297.893737792969 299.34375 297.862487792969 298.081237792969 294.618743896484 289.737487792969 289.431243896484 283.262512207031 299.3125 313.493743896484 336.1875 347.15625 
190.956253051758 195.943756103516 186.78125 179.75 168.375 167.137496948242 166.487503051758 167.925003051758 166.5625 165.225006103516 168.556243896484 170 168.637496948242 166.662506103516 161.162506103516 153.362503051758 147.800003051758 142.612503051758 137.356246948242 133.46875 136.243743896484 138.212493896484 143.243743896484 152.875 165.875 178.581253051758 195.006256103516 210.175003051758 224.987503051758 241.337509155273 257.931243896484 281.268737792969 292.649993896484 290.081237792969 286.268768310547 288.462493896484 290.418762207031 293.375 291.431243896484 293.568756103516 296.075012207031 292.075012207031 288.712493896484 288.84375 286.424987792969 277.743743896484 288.537506103516 297.375 310.293762207031 329.90625 334.40625 
185.081253051758 183.199996948242 178.537506103516 171.862503051758 162.837493896484 162.143753051758 161.331253051758 160.106246948242 160.25 164.081253051758 166.3125 166.793746948242 168.431243896484 168.65625 163.431243896484 157.431243896484 150.668746948242 144.274993896484 141.631256103516 136.9375 137.331253051758 139.100006103516 143.21875 155.606246948242 168.774993896484 182.412506103516 199.012496948242 214.831253051758 231.412506103516 245.8125 266.518737792969 290.25 307.28125 299.931243896484 292.162506103516 291.631256103516 296.600006103516 295.493743896484 293.162506103516 294.643768310547 295.106262207031 291.075012207031 287.674987792969 284.106262207031 281.725006103516 283.587493896484 289.112487792969 293.700012207031 305.049987792969 309.581237792969 311.524993896484 
179.456253051758 173.65625 169.262496948242 162.506256103516 156.931243896484 157.393753051758 157.362503051758 155.112503051758 156.774993896484 160.387496948242 162.087493896484 163.649993896484 166.800003051758 167.993759155273 164.606246948242 157.53125 153.050003051758 149.587493896484 146.600006103516 142.25 141.568756103516 141.1875 145.837493896484 157.5 171.443756103516 184.15625 201.537506103516 217.768753051758 235.493743896484 250.625 268.981262207031 288.975006103516 301.162506103516 298.162506103516 296.28125 295.787506103516 296.600006103516 299.237487792969 299.225006103516 296.412506103516 294.012512207031 292.524993896484 289.262512207031 287.081237792969 280.118743896484 275.799987792969 278.818756103516 289.90625 293.793762207031 291.46875 289.893737792969 
171.081253051758 164.493743896484 159.5 154.981246948242 151.09375 148.956253051758 147.987503051758 149.356246948242 153.818756103516 155.487503051758 157.84375 161.675003051758 165.318756103516 169.487503051758 168.043746948242 164.21875 159.737503051758 154.962493896484 150.806243896484 146.649993896484 145.362503051758 143.774993896484 146.362503051758 157.731246948242 171.3125 182.543746948242 200.231246948242 218.712493896484 236.412506103516 249.631256103516 265.856262207031 279.950012207031 288.71875 290.493743896484 294.787506103516 295.856262207031 298.4375 298.65625 298.518737792969 295.481262207031 288.34375 283.831237792969 286.387512207031 290.875 287.087493896484 280.693756103516 283.293762207031 290.924987792969 287.5 282.262512207031 273.568756103516 
166.306243896484 159.037506103516 152.962493896484 146.90625 143.043746948242 143.518753051758 143.3125 146.399993896484 149.706253051758 150.768753051758 154.287506103516 159.262496948242 164.387496948242 170.050003051758 169.993759155273 168.018753051758 164.818756103516 162.8125 157.787506103516 151.8125 149.868759155273 148.737503051758 149.850006103516 159.518753051758 170.0625 184.293746948242 198.643753051758 213.050003051758 229.631256103516 242.75 257.493743896484 268.4375 277.3125 283.931243896484 290.53125 291.143737792969 300.131256103516 302.337493896484 300.487487792969 303.818756103516 301.825012207031 295.299987792969 291.03125 289.28125 286.90625 287.856262207031 287.787506103516 293.612487792969 290.537506103516 282.40625 269.012512207031 
161.762496948242 153.806243896484 146.90625 142.65625 139.9375 140 141.618743896484 142.78125 146.125 148.84375 152.462493896484 156.949996948242 164.818756103516 168.831253051758 170.368743896484 171.550003051758 171.118743896484 167.8125 163.975006103516 159.618743896484 154.800003051758 151.662506103516 151.831253051758 158.943756103516 168.53125 183.131256103516 195.743743896484 207.918746948242 223.412506103516 234.506256103516 248.731246948242 256.856262207031 265.862487792969 274.856262207031 282.168762207031 283.606262207031 292.96875 301.112487792969 305.037506103516 306.40625 310.450012207031 302.768737792969 296.681243896484 289.674987792969 289.681243896484 294.475006103516 297.0625 297.318756103516 291.806243896484 285.068756103516 271.387512207031 
154.28125 146.518753051758 141.21875 138.462493896484 137.456253051758 136.631256103516 139.824996948242 139.131256103516 142.181243896484 144.725006103516 148.387496948242 152.712493896484 160.40625 167.631256103516 170.212493896484 173.78125 172.512496948242 169.274993896484 165.881256103516 162.268753051758 156.331253051758 152.824996948242 151.59375 158.768753051758 170.100006103516 180.787506103516 192.612503051758 202.725006103516 213.956253051758 225.443756103516 234.25 243.556243896484 252.018753051758 261.78125 271.987487792969 276.243743896484 284.8125 295.193756103516 299.03125 308.075012207031 312.34375 307.1875 302.28125 300.318756103516 299.612487792969 313.53125 320.306243896484 312.375 299.799987792969 289.649993896484 275.943756103516 
149.193756103516 143.550003051758 138.887496948242 137.418746948242 135.1875 134.293746948242 136.1875 136.412506103516 139.28125 143.068756103516 149.350006103516 154.15625 161.387496948242 169.693756103516 172.431243896484 174.331253051758 174.387496948242 173.606246948242 168.418746948242 164.6875 158.387496948242 155.5625 152.993743896484 160.168746948242 169.131256103516 178.668746948242 187.681259155273 197.21875 205.243743896484 214.149993896484 223.087493896484 230.550003051758 237.481246948242 251.09375 260.65625 270.168762207031 275.793762207031 286.443756103516 290.737518310547 302.862487792969 306.881256103516 306.78125 304.600006103516 306.356262207031 315.924987792969 331.662506103516 335.299987792969 321.725006103516 305.243743896484 292.668762207031 277.799987792969 
144.96875 139.925003051758 137.881256103516 136.34375 135.462493896484 133.649993896484 133.768753051758 133.231246948242 135.5 139.243743896484 144.987503051758 153.050003051758 159.681243896484 166.425003051758 171.506256103516 176.212493896484 178.162506103516 176.431243896484 169.943740844727 164.737503051758 160.899993896484 158.3125 155.618743896484 159.668746948242 167.043746948242 173.637496948242 180.625 188.112503051758 196.800003051758 204.293746948242 211.949996948242 218.456253051758 226.768753051758 236.912506103516 248.412506103516 257.100006103516 266.25 272.450012207031 281.168762207031 290.149993896484 294.399993896484 299.693756103516 304.487487792969 308.393737792969 323.600006103516 339.15625 338.556243896484 317.318756103516 302 290.15625 275.993743896484 
140.018753051758 136.412506103516 135.618743896484 135.581253051758 135.175003051758 133.231246948242 130.637496948242 130.21875 130.1875 134.300003051758 141.231246948242 149.918746948242 159.762496948242 168.837493896484 173.90625 178.225006103516 180.09375 178.262496948242 172.037506103516 164.862503051758 161.21875 157.350006103516 155.800003051758 158.206253051758 163 167.918746948242 175.831253051758 183.006256103516 189.943756103516 197.181243896484 202.368743896484 207.756256103516 213.693756103516 224.356246948242 229.262496948242 239.462493896484 246.087493896484 260.4375 268.412506103516 274.825012207031 279.9375 282.96875 289.049987792969 297.212493896484 310.381256103516 320.700012207031 322.143737792969 310.825012207031 295.256256103516 283.418762207031 272.46875 
139.0625 136.975006103516 135.193756103516 134.574996948242 133.506256103516 131.568756103516 128.481246948242 128.21875 128.3125 129.96875 135.737503051758 147.899993896484 160.481246948242 168.90625 175.40625 179.15625 180.912506103516 176.762496948242 172.493743896484 165.362503051758 162.018753051758 158.456253051758 156.181243896484 158.012496948242 160.537490844727 163.318756103516 171.693756103516 178.112503051758 181.712493896484 187.524993896484 192.875 197.443756103516 202.34375 207.443740844727 213.28125 220.731246948242 234.337493896484 241.512496948242 249.21875 259.731231689453 263.774993896484 270.875 274.737518310547 282.293762207031 287.21875 295 297.737487792969 290.78125 284.056243896484 272.65625 261.524993896484 
139.181243896484 138.1875 136.231246948242 135.34375 134.881256103516 131.887496948242 129.337493896484 126.993751525879 126.025001525879 123.887504577637 134.46875 153.306243896484 164.712493896484 171.574996948242 176.787506103516 180.149993896484 180.293746948242 175.550003051758 171.262496948242 163.4375 161.087493896484 158.118743896484 154.737503051758 155.393753051758 157 160.268753051758 165.824996948242 170.34375 173.274993896484 179.100006103516 184.887496948242 189.981246948242 193.331253051758 194.925003051758 200.556243896484 209.837493896484 219.631256103516 228.600006103516 234.03125 240.493743896484 244.574996948242 248.381256103516 258.543762207031 267.293762207031 270.9375 272.006256103516 281.899993896484 271.625 263.768737792969 257.012512207031 248.274993896484 
139.875 138.724990844727 138.324996948242 136.96875 137.293746948242 135.118743896484 132.756256103516 129.606246948242 128.493743896484 126.15625 145.387496948242 164.743743896484 172.050003051758 177.262496948242 180.256256103516 182.09375 181.018753051758 176.856246948242 170.443756103516 164.306243896484 159.456253051758 156.649993896484 153.506256103516 153.087493896484 153.431259155273 155.0625 157.643753051758 164.493743896484 167.918746948242 171.574996948242 175.350006103516 180.0625 184.15625 183.975006103516 185.550003051758 194.125 205.125 212.475006103516 221.231246948242 224.65625 229.193756103516 233.912506103516 236.393753051758 240.524993896484 245.737503051758 251.387496948242 256.012512207031 254.381256103516 244.850006103516 239.006256103516 232.787506103516 
140.256256103516 139.112503051758 138.668746948242 138.4375 136.837493896484 135.887496948242 135.975006103516 136.956253051758 141.237503051758 152.381256103516 175.493743896484 181.175003051758 180.231246948242 182.481246948242 183.556243896484 183.706253051758 182.412506103516 177.356246948242 171.350006103516 163.987503051758 157.293746948242 152.21875 150.0625 150.481246948242 149.106246948242 149.649993896484 153.643753051758 159.112503051758 160.350006103516 165.050003051758 166.3125 166.162506103516 170.631256103516 173.993743896484 179.5 185.668746948242 192.306243896484 201.693756103516 204.556243896484 205.143753051758 211.981246948242 215.3125 215.449996948242 220.962493896484 222.943756103516 227.475006103516 227.368743896484 226.306243896484 224.587493896484 220.59375 213.806243896484 
142.793746948242 140.993743896484 141.487503051758 141.131256103516 140.762496948242 140.425003051758 140.318756103516 146.018753051758 153.712493896484 165.237503051758 177.206253051758 184.675003051758 184.15625 184.28125 186.28125 183.90625 180.65625 175.037506103516 168.149993896484 162.106246948242 154.056243896484 149.125 144.375 144.15625 144.137496948242 145.206253051758 147.59375 151.237503051758 152.431243896484 155.96875 158.793746948242 161.975006103516 165.012496948242 169.118743896484 173.837493896484 177.931243896484 182.543746948242 190.181243896484 192.100006103516 189.162506103516 192.943756103516 195.643753051758 193.881256103516 194.893753051758 199.987503051758 202.087493896484 204.46875 204.850006103516 204.600006103516 200.643753051758 196.512496948242 
144.393753051758 143.6875 144.368743896484 144.931243896484 143.643753051758 142.600006103516 145.231246948242 153.237503051758 159.699996948242 168.15625 177.375 181.912506103516 185.087493896484 184.90625 185.46875 183.09375 179.024993896484 172.40625 165.568756103516 159.0625 150.943756103516 144.100006103516 138.462493896484 137.65625 138.831253051758 139.506256103516 141.28125 144.293746948242 145.818756103516 147.84375 153.475006103516 158.21875 163.162506103516 167.037506103516 168.375 173.612503051758 179.331253051758 184.074996948242 180.6875 178.243743896484 176.243743896484 172.524993896484 171.699996948242 176.181243896484 180.681243896484 184.375 185.168746948242 183.706253051758 188.168746948242 186.631256103516 182.074996948242 
145.543746948242 144.975006103516 146.5 147 145.762496948242 147.40625 150.668746948242 155.600006103516 162.074996948242 166.681243896484 173.356246948242 177.53125 181.768753051758 181.09375 179.506256103516 178.462493896484 174.581253051758 169.387496948242 163.868743896484 154.793746948242 146.100006103516 138.143753051758 130.362503051758 130.068756103516 131.018753051758 131.706253051758 133.662506103516 137.962493896484 141.800003051758 143.53125 145.09375 151.449996948242 156.243743896484 165.206253051758 166.893753051758 167.443756103516 169.568756103516 170.34375 169.668746948242 165.925003051758 161.262496948242 153.356246948242 150.625 157.90625 164.90625 167.34375 167.649993896484 167.256256103516 169.199996948242 167.643753051758 164.806243896484 
146.149993896484 147.21875 149.512496948242 146.662506103516 148.78125 150.737503051758 152.168746948242 155.34375 159.918746948242 163.78125 169.381256103516 173.037506103516 175.518753051758 176.556243896484 175.543746948242 173.306243896484 168.462493896484 166.606246948242 161.081253051758 148.618759155273 137.71875 128.125 122.96875 125.224998474121 125.96875 127.275001525879 129.1875 132.949996948242 135.46875 138.612503051758 141.012496948242 143.381256103516 150 159.262496948242 166.881256103516 168.481246948242 164.15625 164.087493896484 160.199996948242 156.6875 151.65625 144.456253051758 139.587493896484 144.612503051758 150.024993896484 152.112503051758 152.824996948242 153.112503051758 156.668746948242 152.34375 150.456253051758 
148.943756103516 149.475006103516 151.993743896484 149.975006103516 151.90625 153.125 153 156.350006103516 160.274993896484 163.787506103516 167.03125 170.256256103516 172.84375 173.574996948242 173.512496948242 170.462493896484 166.287506103516 164.03125 161.168746948242 149 134.6875 121.8125 117.5625 120.081253051758 121.900001525879 122.46875 123.775001525879 126.824996948242 128.943756103516 130.637496948242 133.818756103516 135.75 142.350006103516 152.800003051758 162.46875 169.481246948242 165.462493896484 159.875 155.706253051758 149.043746948242 142.300003051758 137.706253051758 136.331253051758 138.78125 139.925003051758 140.868743896484 143.024993896484 140.78125 139.893753051758 140.737503051758 137.324996948242 
148.574996948242 151.71875 152.949996948242 153.125 153.774993896484 154.162506103516 151.550003051758 153.606246948242 155.637496948242 159.393753051758 162.318756103516 165.78125 168.206253051758 168.506256103516 168.331253051758 166.524993896484 161.84375 157.225006103516 153.600006103516 142.706253051758 131.143753051758 119.193748474121 114.5625 115.5 117.875 119.1875 121.0625 122.25 124.449996948242 126.8125 129.831253051758 131.800003051758 137.518753051758 144.100006103516 153.912506103516 163.018753051758 159.193756103516 153.09375 148.456253051758 143.362503051758 136.568756103516 133.90625 131.274993896484 132.337493896484 132.862503051758 131.793746948242 132.925003051758 131.606246948242 129.175003051758 131.231246948242 128.393753051758 
