ncols        51
nrows        45
xllcorner    -63.500000000000
yllcorner    -7.500000000000
cellsize     0.166666666667
NODATA_value -99
245.524993896484 237.631256103516 230.9375 231.293746948242 229.125 226.225006103516 219.318756103516 212.056243896484 204.300003051758 200.268753051758 200.175003051758 200.956253051758 201.918746948242 200.175003051758 199.699996948242 199.149993896484 201.037506103516 199.762496948242 201.25 202.375 204.706253051758 206.056243896484 208.206253051758 208.893753051758 211.662506103516 214.543746948242 218.581253051758 225.943756103516 232.206253051758 234.262496948242 239.837493896484 242.956253051758 247.975006103516 255.231246948242 261.875 268.537506103516 274.100006103516 280.106262207031 286.737487792969 291.918762207031 297.424987792969 302.631256103516 306.287506103516 310.912506103516 311.993743896484 315.299987792969 317.268737792969 319.550018310547 321.975006103516 327.112487792969 329.668762207031 
258.362487792969 250.800003051758 249.96875 251.131256103516 251.125 247.087493896484 239.399993896484 232.78125 227.393753051758 223 221.293746948242 219.743743896484 218.412506103516 215.774993896484 213.850006103516 212.574996948242 212.824996948242 213.025009155273 213.356246948242 213.949996948242 215.28125 216.3125 218.331253051758 219.381256103516 220.96875 223.362503051758 227.012496948242 234.337493896484 239.699996948242 241.681243896484 244.993743896484 249.6875 254.068756103516 263.100006103516 268.668762207031 276.325012207031 283.762512207031 290.075012207031 296.399993896484 300.943756103516 306.90625 311.568756103516 314.71875 318.462493896484 320.262512207031 323.293762207031 324.418762207031 326.231262207031 329.899993896484 334.899993896484 337.056243896484 
266.9375 260.956237792969 261.193756103516 262.231262207031 260.862487792969 257.181243896484 253.537506103516 250.331253051758 246.15625 242.925003051758 238.443756103516 234.512496948242 232.056243896484 228.850006103516 226.324996948242 225.550003051758 225.0625 225.350006103516 224.837493896484 224.768753051758 225.681243896484 226.612503051758 226.756256103516 227.75 229.056243896484 229.506256103516 233.481246948242 240.287506103516 244.643753051758 246.012496948242 249.949996948242 254.337493896484 260.056243896484 266.837493896484 275.431243896484 281.668762207031 290.15625 299.137512207031 305.575012207031 311.918762207031 318.125 321.731262207031 324.09375 326.21875 329.25 331.006256103516 332.481262207031 333.53125 336.481262207031 340.931243896484 343.793762207031 
272.287506103516 268.84375 271.568756103516 271.087493896484 269.043762207031 265.681243896484 264.325012207031 264.049987792969 263.299987792969 260.825012207031 254.9375 248.1875 242.96875 238.699996948242 236.606246948242 235.59375 236.449996948242 237.131256103516 236.899993896484 236.09375 237.043746948242 236.112503051758 233.818756103516 233.887496948242 234.393753051758 234.193756103516 238.149993896484 242.649993896484 246.78125 249.243743896484 251.737503051758 257.71875 263.262512207031 269.993743896484 278.162506103516 287.212493896484 297.206237792969 307.506256103516 316.34375 323.006256103516 328.075012207031 331.956237792969 333.975006103516 334.631256103516 337.368743896484 338.012512207031 339.575012207031 341.075012207031 341.024993896484 344.975006103516 348.868743896484 
284.987487792969 279.5 277.512512207031 277.131256103516 274.575012207031 272.15625 270.6875 272.306243896484 275.193756103516 275.75 268.181243896484 258.262512207031 251.949996948242 248.824996948242 245.943756103516 245.862503051758 246.506256103516 248.149993896484 246.800003051758 244.78125 245.206253051758 242.59375 240.393753051758 240.137496948242 239.456253051758 238.8125 240.912506103516 244.887496948242 250.90625 251.59375 255.21875 259.306243896484 266.975006103516 274.831237792969 283.28125 293.71875 304.543762207031 315.443756103516 325.96875 332.837493896484 339.693756103516 341.549987792969 342.34375 343.399993896484 344.375 344.581237792969 345.6875 345.549987792969 345.018737792969 347.487487792969 353.200012207031 
292.549987792969 287.375 286.40625 282.081237792969 275.306243896484 273.03125 271.356262207031 271.737487792969 275.487487792969 278.293762207031 268.768737792969 259.356262207031 255.287506103516 252.149993896484 250.806243896484 251.268753051758 252.675003051758 253.787506103516 253.243743896484 250.6875 249.912506103516 248.024993896484 245.975006103516 244.78125 243.768753051758 243.875 245.981246948242 248.75 252.65625 254.662506103516 257.381256103516 261.993743896484 268.462493896484 279.168762207031 289.75 300.318756103516 313.675018310547 325.768737792969 337.331237792969 346.706237792969 352.231262207031 354.293762207031 354.768737792969 354.912506103516 354.5 352.693756103516 352.09375 351.625 351.137512207031 350.793762207031 351.643737792969 
297.012512207031 290.706237792969 288.050018310547 280.924987792969 271.481262207031 267.368743896484 264.462493896484 261.293762207031 259.825012207031 258.462493896484 256.543762207031 253.418746948242 252.537506103516 251.96875 252.46875 253.824996948242 255.837493896484 255.6875 254.5 254.40625 252.862503051758 251.96875 249.75 248.75 248.131256103516 247.487503051758 249.606246948242 251.6875 253.487503051758 254.475006103516 259.393737792969 263.768737792969 270.90625 280.387512207031 292.012512207031 305.006256103516 318.512512207031 332.181243896484 348.049987792969 356.956237792969 360.137512207031 362.568756103516 362.943756103516 363.112487792969 364.587493896484 359.78125 356.806243896484 355.762512207031 350.899993896484 351.662506103516 353.981262207031 
296.924987792969 289.325012207031 283.774993896484 276.537506103516 268.193756103516 262.71875 255.262496948242 245.706253051758 237.949996948242 236.75 241.40625 244.806243896484 248.537506103516 251.206253051758 252.887496948242 255.237503051758 256.162506103516 254.931243896484 254.193756103516 254.543746948242 254.53125 254.212493896484 252.975006103516 251.737503051758 252.512496948242 250.837493896484 251.46875 252.912506103516 253.256256103516 254.199996948242 257.768737792969 264.65625 271.600006103516 281.393737792969 293.262512207031 306.706237792969 321.293762207031 335.725006103516 351.200012207031 360.318756103516 365.21875 367.612487792969 368.15625 368.143737792969 368.237487792969 363.325012207031 355.524993896484 350.368743896484 349.4375 347.931243896484 349.318756103516 
295.668762207031 287.1875 281.850006103516 274.837493896484 265.981262207031 259.549987792969 250.918746948242 239.25 226.28125 222.356246948242 231.5 239.03125 246.081253051758 249.418746948242 251.987503051758 254.675003051758 255.574996948242 254.318756103516 254.943740844727 255.375 253.693756103516 254.949996948242 254.34375 257.3125 258.09375 255.381256103516 253.556243896484 252.981246948242 254.043746948242 254.193756103516 258.174987792969 265.03125 272.3125 281.556243896484 292.4375 306.924987792969 323.475006103516 338.081237792969 353.431243896484 362.881256103516 368.78125 371.149993896484 372.512512207031 372.381256103516 369.487487792969 364.018737792969 356.125 348.731262207031 344.181243896484 340.78125 341.237487792969 
294.131256103516 285 279.006256103516 272.056243896484 264.268737792969 258.049987792969 250.318756103516 240.043746948242 230.668746948242 227.737503051758 232.643753051758 237.662506103516 244.5625 249.018753051758 251.262496948242 253.831253051758 255.274993896484 254.056243896484 253.96875 254.181243896484 252.96875 254.918746948242 257.356262207031 263.037506103516 262.350006103516 259.09375 256.637512207031 254.768753051758 253.837493896484 253.043746948242 256.100006103516 264.206237792969 272.700012207031 282.9375 293.631256103516 307.706237792969 323.6875 339.424987792969 355.3125 366.75 374.387512207031 377.568756103516 376.618743896484 372.0625 369.475006103516 366.081237792969 358.518737792969 349.875 341.21875 336.106262207031 333.950012207031 
292.21875 283.125 276.337493896484 269.868743896484 263.393737792969 258.556243896484 252.068756103516 242.9375 237 235.387496948242 237.206253051758 241.037506103516 245.625 250.387496948242 252.193756103516 253.568756103516 254.362503051758 253.143753051758 251.800003051758 251.649993896484 252.431243896484 255.143753051758 260.556243896484 265.131256103516 267.931243896484 262.212493896484 258.668762207031 257.78125 255.512496948242 253.25 256.893737792969 263.887512207031 272.056243896484 282.21875 293.487487792969 307.024993896484 322.418762207031 338.399993896484 354.893737792969 368.931243896484 377.787506103516 379.481262207031 376.493743896484 370.706237792969 366.918762207031 363.181243896484 353.674987792969 341.625 333.612487792969 332.325012207031 327.112487792969 
290.46875 282.0625 275.568756103516 270.100006103516 263.424987792969 260.337493896484 256.043762207031 249.006256103516 244.868743896484 243.125 243.681243896484 245.631256103516 248.050003051758 251.393753051758 254.606246948242 255.706253051758 254.362503051758 252.09375 250.462493896484 249.449996948242 248.612503051758 252.381256103516 260.362487792969 269.899993896484 271.356262207031 261.40625 257.15625 256.387512207031 256.924987792969 257.831237792969 259.100006103516 264.143737792969 271.274993896484 280.393737792969 290.5 305.524993896484 321.8125 337.950012207031 353.956237792969 369.756256103516 380.262512207031 379.993743896484 372.737487792969 360.362487792969 351.881256103516 343.84375 332.306243896484 325.418762207031 323.518737792969 325.637512207031 320.356262207031 
288.5625 280.487487792969 274.837493896484 268.950012207031 263.40625 261.587493896484 258.03125 253.306243896484 250.243743896484 249.931243896484 251.375 252.018753051758 253.806243896484 254.162506103516 256.206237792969 256.668762207031 254.568756103516 252.425003051758 251.087493896484 248.493743896484 244.8125 248.050003051758 255.481246948242 262.987487792969 259.762512207031 252.399993896484 253.993743896484 256.21875 258.831237792969 261.081237792969 262.862487792969 265.206268310547 270.337493896484 278.287506103516 287.674987792969 301.549987792969 318 334.662506103516 352.381256103516 370.293762207031 383.381256103516 380.693756103516 364.537506103516 348.112487792969 335.850006103516 331.524993896484 324.068756103516 317.649993896484 316.787506103516 321.212493896484 325.3125 
285.306243896484 278.399993896484 273.012512207031 267.5625 263.181243896484 260.625 258.862487792969 256.90625 256.637512207031 257.0625 258.181243896484 258.424987792969 258.568756103516 259.3125 257.606262207031 257.71875 255.25 252.462493896484 250.512496948242 248.643753051758 246.762496948242 247.625 250.706253051758 253.681243896484 251.418746948242 248.493743896484 251.731246948242 255.393753051758 259.006256103516 262.081237792969 265.412506103516 267.524993896484 269.737487792969 274.737487792969 282.875 297.449981689453 314.881256103516 331.274993896484 348.46875 365.40625 377.743743896484 369.024993896484 355.018737792969 342.693756103516 332.537506103516 326.681243896484 321.631256103516 320.4375 319.700012207031 325.931243896484 335.25 
282.225006103516 274.912506103516 270.443756103516 267.068756103516 263.8125 261.981262207031 261.9375 261.78125 262.049987792969 263.018737792969 264.887512207031 264.737487792969 264.362487792969 264.075012207031 260.3125 259.3125 256.387512207031 254.637496948242 252.25 250.318756103516 249.225006103516 248.806243896484 249.262496948242 250.975006103516 251.056243896484 251.524993896484 254.931243896484 258.712493896484 263.112487792969 266.881256103516 268.206237792969 269.168762207031 271.125 271.862487792969 276.756256103516 292.924987792969 311.96875 328.65625 341.90625 352.34375 356.581237792969 353.256256103516 348.674987792969 339.575012207031 332.1875 327.450012207031 325.087493896484 324.78125 327.612487792969 330.90625 337.737487792969 
277.075012207031 270.899993896484 267.918762207031 265.674987792969 263.71875 264.393737792969 264.75 265.024993896484 267.5 269.931243896484 271.231262207031 271.46875 270.912506103516 269.549987792969 265.618743896484 261.743743896484 257.943756103516 256.424987792969 254.106246948242 252.774993896484 250.987503051758 249.375 248.818756103516 250.1875 251.131256103516 253.324996948242 257.631256103516 262.518737792969 268.412506103516 272.293762207031 274.649993896484 274.712493896484 273.78125 273.799987792969 276.71875 297.674987792969 314.931243896484 324.693756103516 332.768737792969 339.993743896484 343.162506103516 342.84375 340.637481689453 334.96875 329.299987792969 325.918762207031 323.006256103516 322.868743896484 325.725006103516 328.725006103516 333.149993896484 
272.412506103516 267.731262207031 264.899993896484 264.024993896484 263.774993896484 265.356262207031 267.831237792969 269.293762207031 272.256256103516 275.512512207031 277 277.774993896484 277.487487792969 274.8125 271.600006103516 266.087493896484 259.256256103516 256.399993896484 255.337493896484 253.925003051758 251.931243896484 250.324996948242 249.800003051758 251.21875 253.212493896484 254.675003051758 259.625 265.887512207031 271.681243896484 277.387512207031 280.893737792969 281.5 281.125 284.331237792969 297.731262207031 315.581237792969 324.231262207031 326.481262207031 328.34375 331.137512207031 335.581237792969 335.875 332.78125 328.600006103516 325.712493896484 323.15625 320.40625 322.137512207031 326.393737792969 327.024993896484 330.256256103516 
267.037506103516 263.581237792969 262.75 263.350006103516 264.03125 266.237487792969 268.881256103516 271.681243896484 275.78125 279.506256103516 282.268737792969 284.53125 283.475006103516 281.756256103516 277.774993896484 270.943756103516 263.774993896484 255.881256103516 257.225006103516 256.03125 255.5625 253.987503051758 252.71875 253.737503051758 255.481246948242 258.762512207031 262.65625 269.8125 277.243743896484 283.25 285.875 282.181243896484 283.362487792969 291.350006103516 309.918762207031 335.774993896484 333.774993896484 327.575012207031 324.950012207031 327.193756103516 328.362487792969 328.118743896484 326.337493896484 322.912506103516 320.331237792969 319.512512207031 318.28125 321.337493896484 326.637512207031 326.4375 330.625 
261.087493896484 259.037506103516 259.0625 260.756256103516 263.206237792969 267.212493896484 270.943756103516 274.506256103516 278.850006103516 283.268737792969 286.649993896484 287.193756103516 288.381256103516 288.100006103516 282.256256103516 274.262512207031 265.875 257.700012207031 255.175003051758 255.068756103516 256.762512207031 257.21875 252.737503051758 254.199996948242 256.912506103516 261.075012207031 266.21875 272.043762207031 279.993743896484 287.518737792969 291.456237792969 284.600006103516 280.774993896484 281.381256103516 293.59375 315.575012207031 319.387512207031 318.700012207031 320.375 321.493743896484 323.056243896484 321.84375 320.71875 318.59375 316.462493896484 316.106262207031 316.643737792969 321.15625 326.46875 322.662506103516 331.399993896484 
252.831253051758 253.09375 254.274993896484 257.137512207031 261.106262207031 267.200012207031 272.443756103516 277.087493896484 282.100006103516 286.268737792969 289.475006103516 289.881256103516 292.256256103516 293.887512207031 285.443756103516 273.375 262.131256103516 258.237487792969 254.712493896484 254.018753051758 253.768753051758 252.649993896484 252.53125 253.46875 256.174987792969 259.818756103516 265.431243896484 272.450012207031 278.568756103516 283.693756103516 285.100006103516 280.793762207031 270.537506103516 260.768737792969 257.756256103516 274.931243896484 295.118743896484 305.943756103516 312.918762207031 317.125 318.456237792969 317.274993896484 317.0625 316.037506103516 314.96875 315.262512207031 316.325012207031 320.662506103516 324.200012207031 320.237487792969 331.9375 
244.412506103516 247.725006103516 251.293746948242 255.056243896484 259.581237792969 267.40625 274.950012207031 280.875 286.606262207031 289.287506103516 289.399993896484 288.875 288.65625 289.9375 282.924987792969 271.037506103516 260.71875 255.1875 253.262496948242 251.581253051758 252.018753051758 252.706253051758 252.618743896484 254.699996948242 257.631256103516 261.293762207031 266.337493896484 271.325012207031 276.21875 280.649993896484 280.5625 275.706237792969 263.25 246.90625 231.706253051758 251.850006103516 280.40625 298.256256103516 308.756256103516 314 316.15625 316.012512207031 314.049987792969 313.056243896484 313.518737792969 314.049987792969 315.71875 320.631256103516 320.456237792969 322.350006103516 332.912506103516 
236.975006103516 241.399993896484 247.043746948242 251.899993896484 257.625 267.424987792969 276.90625 285.143737792969 291.375 291.40625 286.887512207031 282.262512207031 278.4375 277.100006103516 273.043762207031 266.700012207031 261.162506103516 256.9375 254.368743896484 251.987503051758 249.800003051758 248.6875 250.268753051758 251.53125 254.475006103516 259.712493896484 267.618743896484 272.462493896484 276.625 280.024993896484 278.818756103516 274.006256103516 263.850006103516 253.100006103516 248.025009155273 261.356262207031 283.806243896484 301.024993896484 311.118743896484 314.774993896484 315.456237792969 314.881256103516 313.287506103516 312.28125 313.262512207031 314.268737792969 316.1875 320.943756103516 320.431243896484 328.1875 334.387512207031 
232.618743896484 238.8125 244.40625 250.118743896484 256.043762207031 265.943756103516 276.0625 287.831237792969 296.981231689453 292.962493896484 284.049987792969 273.774993896484 265.8125 264.206237792969 264.362518310547 262.362487792969 259.024993896484 256.056243896484 253.3125 250.699996948242 247.693756103516 244.600006103516 243.643753051758 244.512496948242 249.306243896484 256.4375 265.149993896484 271.318756103516 275.21875 277.737487792969 277.837493896484 277.0625 273.5 269.037506103516 271.424987792969 282.631256103516 297.875 310.087493896484 316.46875 317.75 316.443756103516 314.875 313.1875 311.21875 312.443756103516 314.78125 317.668762207031 321.90625 325.331237792969 333.25 337.918762207031 
231.206253051758 237.143753051758 243.043746948242 248.987503051758 255.043746948242 264.431243896484 275.606262207031 287.262512207031 294.899993896484 289.056243896484 278.149993896484 268.081237792969 257 256.668762207031 259.631256103516 260.137512207031 259.100006103516 256.943756103516 252.9375 249.143753051758 244.631256103516 239.868743896484 237.050003051758 237.550003051758 241.199996948242 248.375 257.993743896484 266.712493896484 273.068756103516 278.712493896484 282.981262207031 285.331237792969 285.325012207031 285.743743896484 290.774993896484 302.012512207031 313.306243896484 318.693756103516 320.293762207031 319.668762207031 317.737487792969 314.850006103516 312.606262207031 309.606262207031 312.424987792969 315.737487792969 319.725006103516 322.6875 333.399993896484 336.837493896484 341.649993896484 
234.581253051758 238.824996948242 242.550003051758 248.237503051758 255.137496948242 264.1875 272.90625 281.331237792969 285.625 282.731262207031 276.125 267.112487792969 260.743743896484 259.174987792969 259.706237792969 261.137512207031 260.443756103516 258.568756103516 254.868743896484 248.893753051758 241.625 234.824996948242 229.393753051758 227.4375 232.131256103516 242.53125 252.487503051758 264.012512207031 272.581237792969 282.53125 289.318756103516 294.28125 297.362487792969 299.987487792969 304.462493896484 310.331268310547 318.043731689453 321.6875 321.631256103516 321.681243896484 319.487487792969 315.637512207031 311.0625 309.762512207031 308.806243896484 312.575012207031 316.168762207031 330.475006103516 341.637512207031 343.668762207031 346.299987792969 
241.131256103516 244.887496948242 245.637496948242 250.199996948242 254.743743896484 262.149993896484 269.287506103516 275.53125 278.043762207031 276.662506103516 272.943756103516 268.6875 265.268737792969 263.331237792969 263.28125 264.681243896484 263.575012207031 262.024993896484 258.59375 250.53125 242.399993896484 231.762496948242 221.9375 216.699996948242 223.649993896484 237.375 251.306243896484 263.118743896484 274.106262207031 286.5625 296.5625 305.024993896484 310.100006103516 311.75 313.618743896484 316.462493896484 320.725006103516 322.993743896484 323.40625 322.6875 320.887512207031 315.762512207031 308.200012207031 305.46875 305.393737792969 309.231262207031 325.212493896484 341.106262207031 349.975006103516 354.924987792969 356.274993896484 
247.100006103516 247.199996948242 248.681243896484 251.449996948242 254.706253051758 260.737487792969 265.856262207031 270.231262207031 272.287506103516 273.012512207031 272.25 270.412506103516 268.862487792969 268.243743896484 269.018737792969 270 270.799987792969 268.299987792969 263.881256103516 257.137512207031 246.568756103516 234.28125 220.056243896484 212.875 223.512496948242 237.5 252.518753051758 264.5625 276.450012207031 289.756256103516 301.818756103516 313.587493896484 320.431243896484 319.706237792969 318.981262207031 320.731262207031 323.956237792969 325.174987792969 325.931243896484 326.0625 323.024993896484 316.65625 307.674987792969 302.793762207031 309.793762207031 322 338.049987792969 350.918762207031 360.78125 362.068756103516 365.574981689453 
253.324996948242 251.231246948242 252.175003051758 254.293746948242 255.6875 259.8125 264.96875 268.212493896484 270.081237792969 271.493743896484 271.362487792969 271.137512207031 271.625 272.581237792969 274.206237792969 275.731262207031 277.649993896484 277.431243896484 273.737487792969 267.475006103516 257.162506103516 244.350006103516 234.462493896484 229.037506103516 234.606246948242 245.46875 258.299987792969 270.387512207031 281.537506103516 293.212493896484 304.799987792969 315.456237792969 321.668762207031 321.100006103516 320.537506103516 322.399993896484 323.731262207031 325.96875 328.018737792969 330.193756103516 330.649993896484 322.918762207031 310.337493896484 304.649993896484 320.493743896484 335.024993896484 350.450012207031 361.924987792969 370.34375 370.862487792969 372.806243896484 
258.631256103516 255.356246948242 255.762496948242 256.481262207031 258.799987792969 261.362487792969 263.700012207031 266.21875 268.543762207031 269.899993896484 271.393737792969 272.774993896484 274.424987792969 277.09375 280.71875 284.418762207031 288.75 289.512512207031 287.59375 282.65625 272.71875 260.924987792969 252.800003051758 247.181243896484 250.1875 256.618743896484 266.649993896484 277.318756103516 287.381256103516 297.862487792969 306.837493896484 315.256256103516 320.456237792969 321.193756103516 321.475006103516 323.212493896484 323.731262207031 325.799987792969 328.462493896484 330.568756103516 334.924987792969 327.231262207031 315.006256103516 316.912506103516 335.649993896484 350.431243896484 363.600006103516 375.131256103516 380.387512207031 381.668762207031 378.34375 
265.174987792969 261.368743896484 260.518737792969 260.225006103516 261.274993896484 261.649993896484 263.274993896484 265.143737792969 267.631256103516 269.225006103516 271.412506103516 275.149993896484 279.443756103516 283.837493896484 288.674987792969 293.725006103516 299.018737792969 304.856262207031 305.162506103516 298.306243896484 288.056243896484 277.706237792969 269.625 264.712493896484 264.84375 269.162506103516 276.96875 284.931243896484 292.524993896484 300.668762207031 308.399993896484 314.481262207031 318.668762207031 321.78125 323.306243896484 324.03125 324.149993896484 326.3125 325.337493896484 326.700012207031 331.1875 332.043762207031 328.431243896484 335.575012207031 346.649993896484 364.674987792969 379.46875 388.799987792969 391.706237792969 391.168762207031 387.112487792969 
269.506256103516 265.387512207031 263.71875 263.487487792969 263.981262207031 262.674987792969 264.024993896484 264.962493896484 267.100006103516 269.168762207031 272.137512207031 276.774993896484 282.893737792969 288.206237792969 294.700012207031 301.850006103516 310.581237792969 317.862487792969 322.287506103516 315.1875 304.46875 293.256256103516 285.975006103516 280.4375 278.424987792969 281.987487792969 286.649993896484 291.512512207031 297.65625 303.868743896484 310.118743896484 316.018737792969 320.018737792969 323.28125 325.543762207031 324.825012207031 324.637512207031 326.756256103516 323.981262207031 318.618743896484 324.700012207031 334.768737792969 341.068756103516 349.850006103516 361.199981689453 384.168762207031 398.181243896484 405.831237792969 405.931243896484 401.21875 394.918762207031 
271.924987792969 267.912506103516 265.768737792969 264.950012207031 265.231262207031 263.375 264.09375 263.868743896484 265.793762207031 268.168762207031 271.581237792969 277.299987792969 283.943756103516 291.981262207031 300.637512207031 309.774993896484 317.131256103516 324.368743896484 329.049987792969 326.46875 316.231262207031 307.243743896484 299.075012207031 292.899993896484 292.125 293.024993896484 294.768737792969 298.806243896484 301.862487792969 307.362487792969 312.893737792969 317.875 320.837493896484 324.21875 326.806243896484 326.118743896484 327.056243896484 327.825012207031 322.475006103516 320.393737792969 330.0625 344.643737792969 355.774993896484 370.737487792969 385.549987792969 410.799987792969 425.524993896484 427.825012207031 420.862487792969 410.78125 401.981262207031 
274.299987792969 271.362487792969 268.743743896484 267.21875 265.9375 264.71875 263.837493896484 262.725006103516 263.537506103516 266.59375 272.706237792969 278.975006103516 287.71875 299.174987792969 308.1875 316.71875 323.299987792969 330.875 334.5625 333.987487792969 327.243743896484 319.162506103516 310.787506103516 305.831237792969 303.537506103516 302.643737792969 302.78125 304.84375 307.725006103516 311.762512207031 316.21875 320.4375 324.287506103516 327.975006103516 329.987487792969 331.537506103516 332.762512207031 332.643737792969 329.318756103516 334.950012207031 345.112487792969 359.487487792969 374.21875 391.368743896484 416.03125 448.024993896484 459.024993896484 448.5 434.518737792969 420.518737792969 407.431243896484 
276.350006103516 274.118743896484 272.493743896484 270.581237792969 268.693756103516 266.043762207031 263.693756103516 261.850006103516 261.899993896484 264.512512207031 270.700012207031 280.737487792969 291.831237792969 302.975006103516 311.881256103516 321.53125 330.056243896484 336.981262207031 339.649993896484 340.056243896484 335.799987792969 328.662506103516 322.081237792969 315.6875 312.5 309.725006103516 309.524993896484 309.90625 313.037506103516 315.825012207031 318.59375 323.331237792969 328.225006103516 332.018737792969 335.987487792969 337.868743896484 338.668762207031 338.331237792969 341.100006103516 348.556243896484 357.5 371.956237792969 390.337493896484 409.637512207031 437.450012207031 467.587493896484 474.375 459.850006103516 443.137512207031 427.087493896484 412.818756103516 
278.65625 277.850006103516 276.418762207031 273.831237792969 270.037506103516 267.143737792969 263.412506103516 261.368743896484 259.612487792969 260.856262207031 268.256256103516 281.4375 295.818756103516 308.53125 319.143737792969 327.556243896484 336.237487792969 342.756256103516 345.78125 346.5625 343.618743896484 336.768737792969 330.15625 323.049987792969 319.487518310547 316.537506103516 314.693756103516 315.131256103516 316.106262207031 319.037506103516 322.556243896484 326.825012207031 331.631256103516 336.612487792969 340.368743896484 341.53125 342.631256103516 347.075012207031 352.456237792969 359.631256103516 368.65625 381.1875 398.71875 418.168762207031 441.731262207031 460.293762207031 465.693756103516 458.09375 444.100006103516 428.612487792969 415.087493896484 
283.393737792969 282.018737792969 280.03125 277.318756103516 273.768737792969 270.043762207031 266.59375 262.450012207031 258.731262207031 259.674987792969 267.28125 282.15625 299.762512207031 315.118743896484 325.987487792969 335.637512207031 343.549987792969 349.631256103516 353.981262207031 356.087493896484 352.024993896484 344.356262207031 336.450012207031 329.71875 325.043762207031 321.09375 318.856262207031 319.243743896484 319.9375 321.981262207031 325.506256103516 328.862487792969 332.975006103516 339.212493896484 343.462493896484 344.756256103516 348.875 353.737487792969 357.856262207031 365.8125 375.662506103516 386.868743896484 400.512512207031 418.850006103516 436.325012207031 448.012512207031 452.78125 449.318756103516 439.037506103516 427.662506103516 412.918762207031 
287.28125 286.299987792969 284.587493896484 281.637512207031 278.774993896484 275.568756103516 271.34375 266.625 260.606262207031 257.174987792969 267.793762207031 289.0625 307.806243896484 321.90625 333.956237792969 343.087493896484 350.381256103516 356.112487792969 361.193756103516 361.512512207031 357.3125 349.299987792969 341.34375 332.943756103516 327.337493896484 323.306243896484 321.274993896484 322.493743896484 322.856262207031 325.03125 327.5 330.137512207031 335.912506103516 342.84375 347.212493896484 350.381256103516 355.15625 360.618743896484 365.100006103516 370.21875 377.762512207031 387.625 400.106262207031 415.59375 429.993743896484 437.90625 442.118743896484 440.40625 433.662506103516 423.875 411.0625 
291.918762207031 291.5 289.475006103516 287.200012207031 285.625 283.3125 279.737487792969 274.600006103516 270.012512207031 264.612487792969 283.5 305.993743896484 320.399993896484 332.537506103516 342.431243896484 351.356262207031 356.831237792969 361.506256103516 364.850006103516 363.825012207031 357.225006103516 349.387512207031 343.068756103516 334.21875 328.431243896484 324.862487792969 322.862487792969 324.881256103516 326.0625 327.674987792969 328.631256103516 330.475006103516 336.881256103516 344.868743896484 349.293762207031 354.625 359.768737792969 363.581237792969 369.25 374.993743896484 379.21875 388.475006103516 397.325012207031 406.075012207031 417.856262207031 425.625 430.731262207031 432.5625 427.625 418.78125 409.581237792969 
296.412506103516 296.487487792969 295.993743896484 295.137512207031 294.706237792969 292.793762207031 292.024993896484 290.206237792969 292.043762207031 302.375 324.787506103516 334.337493896484 340.993743896484 349.174987792969 357.15625 363.662506103516 367.181243896484 368.662506103516 368.193756103516 364.268737792969 354.71875 346.112487792969 339.356262207031 331.862487792969 327.018737792969 324.637512207031 323.768737792969 325.043762207031 326.693756103516 328.112487792969 329.799987792969 330.206237792969 335.40625 343.043762207031 350.825012207031 354.799987792969 358.774993896484 363.962493896484 367.387512207031 370.59375 374 382.462493896484 388.887512207031 396.512512207031 404.287506103516 410.53125 414.549987792969 415.018737792969 413.481262207031 411.043762207031 401.65625 
301.5625 302.40625 303.193756103516 303.137481689453 304.612487792969 306.350006103516 306.712493896484 310.381256103516 316.75 327.762512207031 342.556243896484 354.049987792969 361.65625 367.59375 374.118743896484 377.856262207031 379.125 376.799987792969 371.549987792969 365.168762207031 352.881256103516 342.649993896484 333.618743896484 326.799987792969 324.200012207031 323.162506103516 322.381256103516 324.5625 326.28125 327.006256103516 327.112487792969 330.081237792969 337.637512207031 343.831237792969 350.568756103516 355.1875 357.768737792969 361.706237792969 365.53125 365.681243896484 366.931243896484 373.737487792969 378.881256103516 384.075012207031 389.931243896484 396.143737792969 401.368743896484 404.131256103516 403.375 401.631256103516 395.706237792969 
306.168762207031 308.706237792969 310.700012207031 312.850006103516 314.768737792969 317.6875 320.887512207031 328.181243896484 336.774993896484 348.231262207031 359.831237792969 371.006256103516 379.668762207031 385.231262207031 390.543762207031 393.481262207031 392.28125 386.049987792969 376.762512207031 365.15625 349.131256103516 336.131256103516 326.575012207031 320.443756103516 320.631256103516 320.981262207031 320.649993896484 323.106262207031 326.012512207031 327.28125 328.53125 333.331237792969 339.431243896484 345.337493896484 351.043762207031 355.037506103516 357.362487792969 360.975006103516 362.78125 360.25 360.706237792969 363.137512207031 365.46875 370.943756103516 377.618743896484 384.612487792969 389.1875 390.543762207031 392.524993896484 393.087493896484 389.731262207031 
311.162506103516 314.90625 318.700012207031 322.899993896484 326.537506103516 331.125 336.543762207031 344.34375 353.737487792969 364.068756103516 374.924987792969 386.268737792969 395.318756103516 400.78125 404.4375 405.112487792969 403.21875 393.318756103516 381.318756103516 364.006256103516 341.375 324.262512207031 314.78125 311.450012207031 314.493743896484 315.625 316.537506103516 319.512512207031 324.149993896484 327.518737792969 327 333.200012207031 339.46875 346.768737792969 353.818756103516 355.231262207031 356.643737792969 359.443756103516 359.818756103516 356.299987792969 354 351.331237792969 351.549987792969 359.387512207031 366.412506103516 374.075012207031 377.774993896484 379.274993896484 382.524993896484 382.568756103516 380.012512207031 
316.837493896484 322.481262207031 328.143737792969 332.149993896484 337.5 344.625 351.981262207031 358.674987792969 367.725006103516 378.162506103516 389.850006103516 400.818756103516 409.993743896484 416.125 418.174987792969 417.912506103516 412.568756103516 404.243743896484 389.825012207031 363.731262207031 332.768737792969 308.556243896484 301.962493896484 304.6875 309.293762207031 312.087493896484 313.912506103516 315.587493896484 320.71875 324.768737792969 327.450012207031 329.806243896484 336.081268310547 345.306243896484 354.412506103516 360.556243896484 358.9375 359.075012207031 357.268737792969 352.768737792969 350.606262207031 347.681243896484 346.043762207031 350.037506103516 358.524993896484 363.456237792969 367.137512207031 369.412506103516 373.331237792969 374.162506103516 373.518737792969 
322.956237792969 330.200012207031 337.006256103516 341.868743896484 349.481262207031 356.862487792969 364.46875 373.037506103516 382.0625 392.456237792969 404.712493896484 415.931243896484 424.243743896484 429.5 430.387512207031 427.668762207031 422.15625 412.856262207031 400.581237792969 369.962493896484 334.518737792969 305.106262207031 299.681243896484 301.931243896484 306.287506103516 309.443756103516 311.15625 314.075012207031 318.581237792969 323.362487792969 325.056243896484 327.725006103516 334.243743896484 343.762512207031 354.4375 365.581237792969 363.674987792969 360.212493896484 355.943756103516 352.043762207031 349.181243896484 347.1875 344.581237792969 347 352.168762207031 355.40625 359.543762207031 360.668762207031 361.787506103516 365.5625 366.993743896484 
329.787506103516 338.25 345.006256103516 351.618743896484 359.243743896484 366.59375 374.112487792969 382.743743896484 392.293762207031 402.475006103516 412.262512207031 423.756256103516 432.743743896484 437.53125 437.6875 431.456237792969 423.768737792969 410.537506103516 395.212493896484 369.337493896484 338.96875 317.225006103516 305.399993896484 304.081237792969 307.125 308.475006103516 309.668762207031 312.931243896484 317.149993896484 322.637512207031 324.6875 326.431243896484 332.168762207031 340.087493896484 350.487487792969 362.381256103516 363.40625 358.96875 354.331237792969 351.712493896484 348.299987792969 346.206237792969 345.475006103516 343.962493896484 348.631256103516 350.712493896484 352.318756103516 353.987487792969 353.200012207031 355.168731689453 359.943756103516 
