ncols        51
nrows        45
xllcorner    -63.500000000000
yllcorner    -7.500000000000
cellsize     0.166666666667
NODATA_value -99
227.893753051758 220.899993896484 215.862503051758 215.40625 211.987503051758 210.581253051758 209.1875 205.96875 208.143753051758 212.231246948242 212.587493896484 213.143753051758 212.675003051758 215.399993896484 219.175003051758 220.612503051758 221.568756103516 217.149993896484 214.375 214.487503051758 214.824996948242 209.543746948242 205.662506103516 201.981246948242 200.59375 195.699996948242 194.193756103516 193.237503051758 190.381256103516 193.456253051758 188.956253051758 189.118743896484 194.962493896484 196.774993896484 198.3125 199.293746948242 196.425003051758 204.068756103516 203.149993896484 203.831253051758 211.84375 220.793746948242 222.762496948242 227.53125 230.868743896484 236.912506103516 239.0625 236.412506103516 236.981246948242 243.393753051758 246.112503051758 
215.975006103516 208.856246948242 204.425003051758 204.943756103516 204.243743896484 203.65625 202.268753051758 201.037506103516 203.75 205.787506103516 206.056243896484 205.34375 204.856246948242 205.59375 206.100006103516 207.0625 206.743743896484 203.800003051758 202.831253051758 202.21875 196.84375 195.443756103516 193.300003051758 193.068756103516 186.425003051758 182.431243896484 181.850006103516 181.887496948242 177.899993896484 176.25 175.28125 179.631256103516 183.243743896484 188.056243896484 190.168746948242 188.443756103516 186.600006103516 191.043746948242 189.543746948242 192.493743896484 202.074996948242 206.418746948242 209.768753051758 210.268753051758 215.881256103516 222.25 224.931243896484 225.418746948242 223.96875 232.71875 235.206253051758 
192.399993896484 190.975006103516 192.081253051758 191.737503051758 190.381256103516 189.256256103516 189.96875 193.043746948242 196.800003051758 198.706253051758 198.875 196.331253051758 197.356246948242 194.256256103516 193.056243896484 192.212493896484 192.043746948242 188.9375 186.512496948242 187.018753051758 182.162506103516 181.506256103516 180.800003051758 179.074996948242 174.5 168.100006103516 171.78125 170.431243896484 167.550003051758 166.875 165.8125 163.581253051758 168.693756103516 176.824996948242 174.149993896484 172.475006103516 176.081253051758 183.712493896484 181.987503051758 185.84375 194.0625 199.306243896484 200.118743896484 202.40625 209.306243896484 210.818756103516 211.693756103516 216.262496948242 213.462509155273 220.493743896484 228.412506103516 
171.774993896484 168.237503051758 173.518753051758 178.34375 177.362503051758 175.662506103516 176.274993896484 182.537506103516 189.318756103516 192.712493896484 189.46875 186.612503051758 185.800003051758 186.181243896484 182.381256103516 178.6875 176.112503051758 173.743743896484 173.449996948242 177.550003051758 174.15625 168.899993896484 167.399993896484 167.131240844727 163.925003051758 159.112503051758 158.975006103516 154.175003051758 154.006256103516 157.46875 156.475006103516 153.418746948242 154.34375 156.637496948242 156.774993896484 165.050003051758 172.574996948242 173.96875 175.5 178.53125 189.381256103516 196.84375 197.506256103516 198.356246948242 200.918746948242 199.837493896484 201.737503051758 205.368743896484 207.25 211.268753051758 217.649993896484 
169.818756103516 159.90625 154.231246948242 159.756256103516 165.600006103516 164.149993896484 167.306243896484 173.475006103516 179.206253051758 181.412506103516 183.012496948242 179 177.6875 176.381256103516 171.768753051758 167.856246948242 163.949996948242 162.75 159.274993896484 161.625 161.0625 156.106246948242 153.393753051758 157.043746948242 153.212493896484 148.012496948242 145.300003051758 145.53125 144.231246948242 143.012496948242 143.293746948242 142.756256103516 146.831253051758 148.75 149.75 153.243743896484 161.212493896484 167.368743896484 168.106246948242 173.618743896484 182.90625 185.193756103516 190.024993896484 193.5 192.649993896484 191.324996948242 193.4375 194.074996948242 193.143753051758 198.137496948242 202.481246948242 
157.443756103516 153 149.824996948242 139.368743896484 147.487503051758 157.368743896484 160.631256103516 164.925003051758 172.212493896484 173.881256103516 173.587493896484 171.03125 170.28125 165.006240844727 163.043746948242 159.331253051758 153.393753051758 149.231246948242 148.399993896484 151.418746948242 150.25 147.393753051758 146.818756103516 144.675003051758 143.649993896484 140.231246948242 137.631256103516 136.6875 133.993743896484 132.5625 132.206253051758 134.612503051758 136.987503051758 141.887496948242 142.212493896484 147.943756103516 149.862503051758 156.475006103516 162.9375 171.431243896484 173.71875 178.787506103516 180.662506103516 181.5 184.318756103516 183.3125 179.125 180.225006103516 178.168746948242 180.987503051758 184.03125 
147.768753051758 144.506256103516 142.862503051758 139.949996948242 138.356246948242 138.918746948242 146.956253051758 154.831253051758 158.912506103516 162.587493896484 164.706253051758 159.693756103516 160.893753051758 157.625 153.0625 150.881256103516 147.524993896484 140.331253051758 135.524993896484 140.9375 139.475006103516 136.5625 134.693756103516 135.443756103516 133.949996948242 133.274993896484 133.506256103516 128.46875 123.981246948242 125.599998474121 123.9375 121.824996948242 124.456253051758 131.512496948242 136.443756103516 140.475006103516 142.512496948242 147.268753051758 155.1875 164.574996948242 166.181243896484 167.106246948242 170.737503051758 170.893753051758 173.418746948242 175.431243896484 172.59375 164.975006103516 159.737503051758 163.25 168.600006103516 
140.975006103516 136.006256103516 136.256256103516 136.618743896484 137.774993896484 143.756256103516 143.399993896484 138.762496948242 140.006256103516 144.412506103516 148.012496948242 148.4375 149.175003051758 146.21875 144.40625 142.050003051758 137.699996948242 131.918746948242 127.96875 126.606246948242 129.756240844727 129.818756103516 127.168746948242 127.474998474121 128.3125 124.368751525879 123.84375 118.012496948242 116.724998474121 114.787498474121 116.318748474121 114.324996948242 118.268753051758 122.425003051758 125.943748474121 128.331253051758 131.493743896484 136.787506103516 140.862503051758 145.53125 148.962493896484 152.518753051758 154.943756103516 154.087493896484 154.581253051758 152.112503051758 149.212493896484 141.818756103516 140.331253051758 142.675003051758 150.850006103516 
135.15625 131.368743896484 130.8125 133.443756103516 136.481246948242 139.418746948242 140.925003051758 140.887496948242 137.962493896484 134.306243896484 135.150009155273 133.681243896484 139.25 136.774993896484 134.737503051758 132.137496948242 130.393753051758 128.75 129.581253051758 123.231246948242 121.050003051758 124.53125 122.59375 124.668746948242 124.53125 117.868751525879 114.306251525879 114.556251525879 113.875 111.431251525879 113.849998474121 109.556251525879 108.643753051758 110.568748474121 114.96875 122.418746948242 128.668746948242 135.268753051758 136.5 137.399993896484 138.893753051758 140.431243896484 143.168746948242 140.6875 138.137496948242 134.699996948242 132.850006103516 125.300003051758 123.243751525879 125.074996948242 130.90625 
127.849998474121 125.775001525879 127.050003051758 129.956253051758 133.087493896484 138.068756103516 139.543746948242 139.956253051758 139.050003051758 138.46875 134.631256103516 128.131256103516 130.618743896484 130.068756103516 128.574996948242 127.393753051758 123.481246948242 125.775001525879 127.556251525879 125.637504577637 122.731246948242 118.737503051758 114.868751525879 116.887496948242 115.706253051758 113.90625 110.275001525879 109.318748474121 106.981246948242 105.856246948242 106.731246948242 103.074996948242 104.431251525879 105.806251525879 108.268753051758 116.112503051758 123.1875 129.881256103516 131.456253051758 135.425003051758 138.993743896484 137.71875 134.243743896484 128.356246948242 122.75 123.381248474121 122.331253051758 113.175003051758 108.806251525879 107.287498474121 107.993751525879 
123.512496948242 122.306251525879 123.212501525879 127.099998474121 129.850006103516 134.943756103516 137.46875 135.068756103516 131.693756103516 131.368743896484 131.118743896484 127.331245422363 121.949996948242 122.825004577637 119.137496948242 117.400001525879 117.375 120.056251525879 122.15625 126.0625 127.0625 121.512496948242 112.981246948242 105.824996948242 109.900001525879 114.275001525879 111.300003051758 107.75 101.599998474121 100.693748474121 100.4375 100.143753051758 102.324996948242 102.699996948242 106.449996948242 112.337501525879 119.0625 122.268753051758 129.506256103516 131.5 131.243743896484 128.568756103516 128.106246948242 119.09375 111.125 110.96875 108.768753051758 103.693748474121 100.09375 94.21875 92.4375 
120.368751525879 118.287498474121 119.756248474121 123.993751525879 127.693748474121 132.637496948242 136.181243896484 134.212493896484 128.993759155273 124.724998474121 123.018753051758 122.331253051758 114.84375 112.824996948242 113.818748474121 110.393753051758 110.5 113.268753051758 116.256248474121 122.224998474121 127.6875 124.518745422363 120.081253051758 110.581253051758 107.59375 103.037498474121 100.8125 100.025001525879 96.5250015258789 95.1999969482422 92.65625 92.6374969482422 96.0187530517578 98.7062530517578 103.84375 111.025001525879 115.724998474121 122.512496948242 122.056251525879 124.137496948242 122.943748474121 122.724998474121 116.481246948242 106.09375 97.03125 91.2375030517578 86.8562469482422 89.4749984741211 89.09375 84.625 76.6624984741211 
113.868751525879 113.943748474121 116.75 119.293754577637 121.637496948242 126.462501525879 128.237503051758 125.362503051758 121.137496948242 119.8125 119.175003051758 115.662498474121 112.862503051758 103.418746948242 101.087501525879 102.893753051758 103.324996948242 107.25 110.824996948242 114.737503051758 118.137496948242 116.375 115.118751525879 108.262496948242 99.9250030517578 95.65625 94.6312484741211 94.4375 91.9000015258789 89.9000015258789 87.4937515258789 85.0625 90 93.6125030517578 98.2062530517578 105.84375 114.387496948242 123.75 128.699996948242 124.943748474121 118.824996948242 115.050003051758 104.893753051758 97.9187469482422 96.6437530517578 93.0250015258789 85.2437515258789 80.1624984741211 78.2562484741211 77.6437530517578 74.3812484741211 
108.512496948242 108.481246948242 111.4375 113.306251525879 114.800003051758 117.40625 118.34375 116.550003051758 116.324996948242 113.349998474121 112.087501525879 109.356246948242 103.950004577637 97.4937515258789 89.5062484741211 93.2437515258789 93.2062530517578 97.90625 100.400001525879 104.887496948242 107.212501525879 108.25 108.037498474121 103.625 96.2687530517578 91.03125 88.4187469482422 85.5437469482422 83.1187515258789 81.8375015258789 83.2437515258789 82.5062484741211 84.375 87.8249969482422 92.78125 103.606246948242 116.425003051758 129.787506103516 137.293746948242 132.268753051758 115.15625 104.25 103.143753051758 109.46875 112.487503051758 103.143753051758 96.03125 91.9000015258789 84.1937484741211 83.7125015258789 78.8187484741211 
103.78125 102.587501525879 104.318748474121 106.787498474121 107.081253051758 108.381248474121 111.581253051758 109.918746948242 108.349998474121 105.71875 104.081253051758 100.15625 96.3499984741211 91.8874969482422 81.53125 82.1062469482422 82.9562530517578 86.7624969482422 89.9250030517578 94.9250030517578 99.3312530517578 100.53125 101.106246948242 100.09375 96.4437484741211 92.6437530517578 89.4000015258789 84.9312515258789 82.9187469482422 82.4937515258789 79.7562484741211 79.9749984741211 84.9187469482422 86.6812515258789 87.03125 95.7687530517578 113.824996948242 133.387496948242 141.637496948242 134.862503051758 124.40625 116.84375 122.59375 119.681251525879 115.46875 110.650001525879 111.106246948242 107.918746948242 104.237503051758 89.5500030517578 81.7125015258789 
96.7125015258789 96.0500030517578 98.1812515258789 99.3187484741211 100.268753051758 103.362495422363 102.981246948242 101.806251525879 100.775001525879 100.106246948242 97.2750015258789 93.7874984741211 90.3812484741211 86.0812530517578 78.4375 68.9187469482422 71.7312469482422 76.7750015258789 79.4499969482422 84.7562484741211 88.5062484741211 92.4625015258789 95.3187484741211 99.3874969482422 97.875 93.84375 88.5562515258789 82.1374969482422 80.3812484741211 80.3499984741211 82.5999984741211 79.4875030517578 79.6937484741211 80.0749969482422 81.3625030517578 97.5687484741211 113.09375 130.21875 141.125 144.193756103516 140.118743896484 134.425003051758 130.71875 122.775001525879 112.96875 108.068748474121 104.15625 101.9375 100.4375 92.9000015258789 84.6374969482422 
89.9812469482422 89.7062530517578 92.2624969482422 94.3375015258789 96.0062484741211 96.2375030517578 97.2249984741211 96.3375015258789 95.5062484741211 94.78125 92.6187515258789 88.1062469482422 83.5187530517578 80.6750030517578 78.5999984741211 72.3062515258789 65.7937469482422 66.9875030517578 73.2437515258789 77.7750015258789 81.1750030517578 85.8562469482422 92.0562515258789 98.7249984741211 100.756248474121 90.90625 82.3937530517578 76.8625030517578 76.90625 79.25 81.9187469482422 83.8562469482422 83.4437484741211 84.4250030517578 94.7437515258789 105.943748474121 124.106254577637 146.46875 160.40625 150.306243896484 142.081253051758 134.268753051758 125.268753051758 121.074996948242 112.324996948242 104.449996948242 103.112503051758 104.393753051758 102.206253051758 90.9312515258789 87.1999969482422 
82.5812530517578 83.6812515258789 85.3375015258789 88.28125 89.8375015258789 89.0999984741211 89.2750015258789 89.4187469482422 88.8499984741211 86.0250015258789 84.4749984741211 82.65625 78.8562469482422 76.28125 76.03125 73.7062530517578 68.4312515258789 61.3312492370605 68.46875 72.0999984741211 75.3375015258789 79.5562515258789 88.5062484741211 94.2312469482422 95.3312530517578 85.9375 77.3312530517578 73.84375 74.7874984741211 75.3687515258789 74.0500030517578 74.9124984741211 88.3312530517578 95.5812530517578 98.53125 114.349998474121 135.53125 151.268753051758 158.800003051758 152.193756103516 136.524993896484 128.524993896484 120.099998474121 115.868751525879 108.131248474121 102.856246948242 104.849998474121 101.387496948242 97.8125 87.0500030517578 85.8937530517578 
75.6687469482422 76.8187484741211 77.7249984741211 79.8937530517578 82.5187530517578 82.84375 81.96875 82.9000015258789 83.2562484741211 81.2937469482422 79.8187484741211 76.3187484741211 73.875 72.9562530517578 70.5062484741211 70.375 68.3000030517578 63.78125 61.375 63.5374984741211 69.9937515258789 79.7687530517578 74.9749984741211 81.8312530517578 84.1374969482422 82.1999969482422 76.9250030517578 72.2437515258789 73.5 75.09375 75.40625 77.9000015258789 87.96875 92.6062469482422 98.25 111.400001525879 123.887504577637 134.712493896484 142.587493896484 135.262496948242 127.625 118.418746948242 112.71875 108.756248474121 104.087501525879 100.118751525879 102.962501525879 101.425003051758 93.1374969482422 80.3812484741211 84.1374969482422 
67.46875 69.6750030517578 71.3375015258789 73.1187515258789 74.3625030517578 77.6062469482422 76.9812545776367 78.0124969482422 79.0625 77.7687530517578 76.84375 76.9937515258789 74.6374969482422 72.2312469482422 67.9187469482422 62.7374992370605 59.8624992370605 65.4812469482422 62.59375 61.7625007629395 59.0250015258789 63.59375 71.0437469482422 74.8874969482422 75.28125 71.6187515258789 69.9124984741211 71.2437515258789 69.9749984741211 69.1937484741211 73.0374984741211 82.0250015258789 86.71875 91.3062515258789 97.6062469482422 107.893753051758 115.71875 121.068748474121 124.106246948242 121.525001525879 113.268753051758 106.03125 104.78125 101.300003051758 97.9124984741211 97.1374969482422 99.1812515258789 96.1812515258789 87.78125 79.1125030517578 82.6937484741211 
59.0499992370605 64.5374984741211 69.0124969482422 69.4874954223633 69.6312484741211 72.6437530517578 73.2874984741211 74.6312484741211 75 74.7312469482422 73.1187515258789 73.3375015258789 72.3000030517578 69.4874954223633 65.53125 61.7374992370605 59.9187507629395 60.8312492370605 63.1312484741211 60.3687515258789 64.1062469482422 68.4749984741211 73.8812484741211 78.5875015258789 78.6437530517578 73.9625015258789 68.1500015258789 68.6437530517578 70.0500030517578 71.0812530517578 76.4437484741211 82.2437515258789 82.9562530517578 87.59375 93.3812484741211 101.300003051758 108.537498474121 111.081253051758 111.137496948242 108.418746948242 104.193748474121 101.625 98.4937515258789 96.3062515258789 94.3375015258789 93.8937530517578 93.9499969482422 91.21875 81.7249984741211 79.59375 78.65625 
55.4124984741211 57.0125007629395 62.1375007629395 65.0062484741211 66.8062515258789 67.0187530517578 68.1187515258789 69.4499969482422 70.6999969482422 70.7249984741211 70.6937484741211 68.9562530517578 67.3687515258789 67.9749984741211 66.96875 63.375 63.5125007629395 63.1937484741211 64.2750015258789 64.3499984741211 64.6125030517578 68.4812469482422 73.7562484741211 74.4875030517578 72.6500015258789 69.7874984741211 70.4625015258789 68.15625 71.6687469482422 75.4250030517578 77.5437469482422 79.4749984741211 80.3499984741211 82.78125 85.2937469482422 93.28125 99.40625 102.074996948242 102.537498474121 101.1875 98.5562515258789 97.2687530517578 95.6187515258789 93.5500030517578 91.5374984741211 91.0124969482422 89.7062530517578 84.2937469482422 76.9187469482422 79.0250015258789 74.9749984741211 
51.84375 55.7937507629395 59.5374984741211 61.59375 62.96875 64.0999984741211 62.0250015258789 63.1937522888184 65.4187469482422 68.4499969482422 69.5 68.1374969482422 68.4875030517578 68.1437530517578 68.5625 67.7125015258789 65.1812515258789 63.5437507629395 63.7312507629395 65.4937515258789 69.40625 70.7375030517578 73.1125030517578 73.28125 73.8499984741211 70.0062484741211 67.8499984741211 68.6624984741211 69.5374984741211 71.3000030517578 73.15625 75.9000015258789 75.7312469482422 75.5124969482422 78.4312515258789 82.3499984741211 88.7562484741211 90.25 93.2437515258789 94.46875 93.4562530517578 90.9375 90.125 88.3937530517578 85.1374969482422 86.3874969482422 83.7312469482422 80.4250030517578 77.8499984741211 78.0250015258789 73.3874969482422 
46.9874992370605 51.8812484741211 56.9249992370605 58.5750007629395 59.8312492370605 59.7687492370605 61.0812492370605 61.2000007629395 61.6312484741211 62.4312515258789 64.3125 67.7562484741211 68.53125 69.6875 68.28125 67.4187469482422 64.5625 65.4499969482422 65.4187469482422 68.5250015258789 69.8937530517578 73.5437469482422 75.3625030517578 77.4875030517578 76.8687515258789 72.1937484741211 71.3312530517578 67.8625030517578 67.0625 67.9562530517578 69.6312484741211 71.1875 69.2874984741211 67.4749984741211 71.2750015258789 72.75 78.7125015258789 82.6374969482422 85.5374984741211 86.4875030517578 86.8625030517578 85.2562484741211 85.2624969482422 83.4812469482422 82.78125 81.4437484741211 78.3312530517578 74.2624969482422 74.7874984741211 74.7375030517578 69.3937530517578 
43.8187484741211 48.7999992370605 54.34375 56.6062507629395 58.2125015258789 57.3875007629395 58.2125015258789 58.6124992370605 59.2125015258789 61.46875 63.5374984741211 63.6624984741211 67.3812484741211 68.3187484741211 66.71875 64.5250015258789 63.6062507629395 65.4187545776367 66.9375 69.0749969482422 71.9000015258789 74.5437469482422 79.6312484741211 79.4937515258789 76.2437515258789 75.3187484741211 70.125 66.4000015258789 63.8875007629395 64.2312469482422 62.7562484741211 62.0250015258789 62.2000007629395 61.0374984741211 61.5187492370605 64.7750015258789 70.3687515258789 73.0812530517578 76.84375 79.1875 79.0250015258789 79.46875 80.2562484741211 78.5749969482422 75.1187515258789 75.6374969482422 71.0875015258789 72.4625015258789 71.5875015258789 70.53125 67.3249969482422 
43.2062492370605 47.6124992370605 50.3187484741211 53.25 54.71875 54.7125015258789 55.3624992370605 55.6375007629395 55.7625007629395 55.7937507629395 60.53125 62.4249992370605 63.28125 65.0687484741211 64.5999984741211 63.6062507629395 62.4187507629395 64.3562469482422 66.8125 68.4749984741211 73.3375015258789 76.78125 81.4937515258789 81.3312530517578 77.3125 73.5374984741211 69.5250015258789 64.4124984741211 60.03125 58.09375 56.1937484741211 54.3125 53.1124992370605 53.0250015258789 55.0625 58.2062492370605 62.5187492370605 66.25 69.5687484741211 72.0500030517578 74.3937530517578 73.6187515258789 73.8562469482422 72.4312515258789 71.2937469482422 67.7874984741211 69.7249984741211 69.1875 69.1062469482422 68.9937515258789 65.4812469482422 
40.2937507629395 42.3250007629395 45.8499984741211 48.7625007629395 50.0499992370605 51.0125007629395 52.3125 52.5812492370605 52.0187492370605 55.2750015258789 59.03125 61.2125015258789 62.8187484741211 63.3624992370605 62.4749984741211 63.1437492370605 62.3125 63.0187492370605 66.0062484741211 68.8187484741211 71.6187515258789 75.5437469482422 81.1937484741211 82.8687515258789 77.0625 70.5749969482422 66.1187515258789 61.7625007629395 57.625 53.3062515258789 51.7625007629395 47.9124984741211 46.09375 48.2625007629395 49.15625 52.75 54.75 57.9187507629395 61.6875 65.0812454223633 68.84375 69.59375 69.4312515258789 68.0999984741211 65.5124969482422 64.7874984741211 67.0999984741211 64.125 64.0250015258789 61.6312484741211 58.4375 
37.6500015258789 37.6124992370605 40.4500007629395 43.8562507629395 45.2687492370605 46.8250007629395 48.4187507629395 49 50.28125 53.0062484741211 55.8687515258789 57.5125007629395 59.7062492370605 61.0875015258789 60.1062507629395 60.0562515258789 60.125 61.5687484741211 62.6187515258789 66.0374984741211 70.8125 73.8375015258789 76.1374969482422 77.2937545776367 73.8874969482422 68.1937484741211 63.5499992370605 59.1687507629395 54.9749984741211 51.90625 49.0875015258789 46.4437484741211 44.4000015258789 43.75 44.5125007629395 47.1124992370605 48.53125 51.3375015258789 55.3062515258789 60.0750007629395 63.6124992370605 67.0875015258789 66.0625 65.9625015258789 61.875 60.4937515258789 60.65625 59.8125 57.4375 53.3312492370605 50.84375 
34.6312484741211 34.15625 36.9625015258789 38.1812515258789 40.2125015258789 41.3562507629395 42.8875007629395 44.9749984741211 46.6124992370605 49.8687515258789 52.4312515258789 54.40625 57.0687484741211 59.4749984741211 58.96875 58.7000007629395 59.5562515258789 59.2562484741211 61.1062507629395 64.15625 67.6374969482422 70.4124984741211 73.3187484741211 72.5625 69.6500015258789 65.1187515258789 60.7062492370605 56.4812507629395 53.9249992370605 50.8687515258789 47.3812484741211 44.875 42.2437477111816 40.6312484741211 40.6375007629395 42.4375 43.6124992370605 45.71875 49.1687507629395 52.1812515258789 56.8937492370605 58.8624992370605 60.1187515258789 60.6500015258789 57.9874992370605 54.2999992370605 55.28125 54.3812484741211 50.40625 47.5750007629395 42.3624992370605 
31.4375 31.5 33.34375 34.4562492370605 35.4249992370605 37.2562484741211 38.7125015258789 41.7625007629395 44.4375 46.9249992370605 49.6687507629395 52.9437484741211 55.625 57.1812515258789 57.125 57.1687507629395 57.0812492370605 58.0562515258789 58.7625007629395 60.625 64.4000015258789 66.65625 69.3375015258789 67.2000045776367 64.9749984741211 61.6375007629395 57.2937507629395 53.8375015258789 51.5062484741211 48.2937507629395 45.4187507629395 42.5812492370605 39.8125 38.2625007629395 37.34375 38.0499992370605 39.8499984741211 40.4375 41.9375 44.5250015258789 48.65625 51.0875015258789 52.4500007629395 52.5374984741211 51.1624984741211 51.1624984741211 51.09375 48.1875 44.5750007629395 43 38.7374992370605 
29.03125 28.5625 28.8374996185303 30.75 32.2062492370605 34.5187492370605 36.2249984741211 38.6062507629395 41.46875 44.3875007629395 47.6312484741211 50.3812484741211 54.4874992370605 55.0125007629395 54.6687507629395 55.3812484741211 56.90625 55.8562507629395 55.2000007629395 58.1187515258789 61.8250007629395 63.8312492370605 65.3062515258789 62.2312507629395 59.4375 58.3812484741211 54.5875015258789 50.5250015258789 47.2874984741211 45.1937484741211 42.78125 40.7437515258789 38.375 36.8125 35.4249992370605 34.8312492370605 35.25 36.2125015258789 36.3812484741211 36.84375 39.3687515258789 42.6624984741211 44.2374992370605 44.1937484741211 44.4187507629395 45.7062492370605 44.7374992370605 42.2000007629395 39.7999992370605 38.4249992370605 35.7374992370605 
26.8187503814697 24.9937496185303 25.1687507629395 26.2625007629395 28.0750007629395 30.8062496185303 33.4812507629395 35.7562484741211 39.03125 41.4375 44.9500007629395 48.8875007629395 51.7374992370605 54.5499992370605 54.7437515258789 55.0687484741211 55.5999984741211 54.5 53.09375 55.8062515258789 57.6624984741211 59.8187484741211 60.3562507629395 57.4874992370605 56.1500015258789 53.7874984741211 50.7312507629395 48.1124992370605 44.2125015258789 42.3812484741211 40.9562492370605 38.9124984741211 36.2937507629395 34.6375007629395 33.4375 32.0812492370605 32.1124992370605 30.7625007629395 30.7374992370605 31.7999992370605 33.4500007629395 35.2625007629395 36.53125 38.0437507629395 38.8375015258789 40.4500007629395 41.4249992370605 39.1749992370605 35.84375 34.1375007629395 31.8687496185303 
25.1437492370605 23.1875 22.8500003814697 23.5 24.9750003814697 27.3249988555908 30.0562496185303 32.5250015258789 34.9312515258789 38.8312492370605 43.2999992370605 46.2125015258789 49.8312492370605 53.7374992370605 54.6500015258789 53.9812507629395 53.2750015258789 53.9937515258789 53.6875 55.3312492370605 56.1437492370605 56.4312515258789 55.7562484741211 53.9812507629395 53.2249984741211 50.7124977111816 48.6875 45.4437484741211 42.9000015258789 40.4625015258789 38.7312507629395 36.53125 33.5999984741211 32.0750007629395 31.3500003814697 30.625 28.9562492370605 27.4937496185303 27.34375 28.6499996185303 29.6124992370605 31.1124992370605 30.9812488555908 32.3875007629395 33.28125 34.96875 37.5187492370605 35.125 33.3312492370605 30.8500003814697 29.34375 
23.6124992370605 21.8500003814697 21.78125 22.1937503814697 22.7999992370605 24.1437511444092 26.3374996185303 27.9750003814697 31.6312503814697 34.8499984741211 39.3875007629395 43.7374992370605 48.3062515258789 51.53125 52.6062507629395 51.8562507629395 52.0875015258789 52.2750015258789 51.9437484741211 52.8062515258789 53.9249992370605 52.7437515258789 52.9937515258789 51.6062507629395 49.4749984741211 47.0374984741211 45.1749992370605 43.2937507629395 40.9437484741211 38.7874984741211 36.9187507629395 34.4749984741211 31.6812496185303 30.5062503814697 29.4562492370605 28.1062507629395 25.96875 24.7625007629395 25.0249996185303 25.3812503814697 26.0562496185303 27.3875007629395 28.1687507629395 28.5125007629395 29.7062492370605 30.1124992370605 30.6625003814697 29.53125 28.3937492370605 27.7437496185303 25.9562492370605 
22.59375 20.375 20.6875 20.7687492370605 21.3500003814697 22.4812507629395 23.7250003814697 25.1187496185303 27.4874992370605 30.7749996185303 35.6437492370605 41.2249984741211 47.6375007629395 51.9437484741211 51.7312507629395 51.3374977111816 51.1875 50.6937484741211 51.03125 50.6375007629395 51.2374992370605 51.3624992370605 50.5750007629395 48.9249992370605 46.7374992370605 44.1749992370605 42.5875015258789 40.9124984741211 38.7125015258789 35.0062484741211 33.3250007629395 32.1937484741211 30.1375007629395 28.7000007629395 26.9375 25.5187492370605 24.0750007629395 23.3187503814697 22.8999996185303 22.4562492370605 22.4249992370605 22.7875003814697 24.2250003814697 24.65625 25.2562503814697 25.9375 26.1375007629395 25.7374992370605 24.8937492370605 23.9812507629395 22.5562496185303 
22.1937503814697 20.5874996185303 21.0687503814697 20.6812496185303 21.0187492370605 21.6749992370605 22.6937503814697 23.6375007629395 25.5 27.8374996185303 32.0250015258789 38.09375 45.5750007629395 48.75 50.0687484741211 50.2249984741211 50.6062507629395 49.5374984741211 48.5499992370605 48.2999992370605 46.6500015258789 47.7562522888184 46.3875007629395 44.53125 41.9437484741211 41.2062492370605 39.8624992370605 38.4437484741211 36.3875007629395 33.1375007629395 31.375 30.53125 28.4500007629395 27.1875 25.625 23.90625 22.8687496185303 21.9437503814697 22 21.5874996185303 20.8687496185303 21.2000007629395 21.2624988555908 21.6062507629395 22.1000003814697 22.2562503814697 22.0437507629395 22.15625 21.7374992370605 20.4500007629395 19.4187507629395 
21.6312503814697 20.7124996185303 20.9249992370605 20.3999996185303 20.6187496185303 21.4562492370605 22.1187496185303 22.6687507629395 23.7687492370605 24.6875 28.7000007629395 35.1062507629395 41.4187507629395 44.9124984741211 47.2937507629395 48.3499984741211 48.5625 46.9249992370605 45.6937484741211 45.4187507629395 43.5 42.7249984741211 41.75 40.8624992370605 38.6500015258789 37.6375007629395 36.6624984741211 35.2000007629395 33.5187492370605 31.5750007629395 29.6312503814697 28.0874996185303 26.1499996185303 25.0437507629395 23.7062492370605 21.9562492370605 20.9874992370605 20.9249992370605 21.1937503814697 20.46875 19.5062503814697 19.5749988555908 19.3062496185303 19.8687496185303 20.125 19.3250007629395 19.6187496185303 19.125 18.78125 17.90625 16.8187503814697 
20.3250007629395 20.0125007629395 19.7687492370605 20 20.2312507629395 20.84375 21.40625 21.78125 22.71875 23 28.4312496185303 34.2312507629395 38.6187515258789 42.1375007629395 45.0187492370605 46.4562492370605 45.5562515258789 45.2937507629395 43.3250007629395 42.59375 41.2937507629395 39.8937492370605 38.0687484741211 37.3937492370605 36.1749992370605 35.09375 33.9187507629395 32.7125015258789 31.3687496185303 29.1937503814697 26.2999992370605 25.3312492370605 23.7250003814697 22.9375 21.2875003814697 19.65625 19.7000007629395 19.5187492370605 19.6875 19.1875 18.3937492370605 18.78125 18.2124996185303 17.0499992370605 17.1062507629395 16.6812496185303 16.7124996185303 16.9249992370605 15.6312503814697 14.9499998092651 14.8562498092651 
17.9812507629395 17.4750003814697 17.3312492370605 18.2437496185303 18.75 19.4437503814697 19.65625 21.2124996185303 23.2999992370605 26.4437503814697 31.8562507629395 34.8624992370605 37.5374984741211 40.9625015258789 43.3312492370605 43.5499992370605 43.0812492370605 42.2562484741211 39.9625015258789 39.21875 37.8624992370605 36.1375007629395 35.2062492370605 34.5 32.8062515258789 31.8500003814697 31.2437496185303 29.8312492370605 28.8937492370605 27.4562492370605 25.1812496185303 23.2749996185303 21.9125003814697 21.2749996185303 20.21875 19.2250003814697 19.2937507629395 19.4249992370605 19.15625 17.8374996185303 17.8374996185303 18.4874992370605 17.2687492370605 16.4624996185303 16.1625003814697 15.7375001907349 15.0687503814697 14.7749996185303 14.2624998092651 14.1875 13.9250001907349 
15.6750001907349 15.59375 15.59375 16.8187503814697 17.3250007629395 18.5750007629395 19.4249992370605 21.0499992370605 23.5187492370605 26.5562496185303 30.46875 33.7562484741211 36.0999984741211 38.1937484741211 40.4375 41.7750015258789 40.5625 40.2625007629395 38.28125 36.4562492370605 33.7562484741211 32.5374984741211 31.3062496185303 30.6687488555908 29.4624996185303 28.6000003814697 27.8250007629395 26.9874992370605 25.8312492370605 25.1875 24.0499992370605 22.3999996185303 21.1000003814697 20.3250007629395 20.15625 19.1062507629395 18.46875 18.4437503814697 18.9874992370605 18.09375 17.90625 18.1437492370605 17.0125007629395 15.9000005722046 15.03125 14.3874998092651 14.21875 13.7437496185303 13.5562496185303 13.4562501907349 13.1062498092651 
12.90625 13.2562503814697 14.1125001907349 15.1000003814697 15.9812498092651 17.1437492370605 18.59375 20.7000007629395 22.21875 25.8062496185303 29.3937492370605 32.4937515258789 34.7999992370605 35.5499992370605 36.6937484741211 37.875 38.0750007629395 37.0687484741211 35.0562515258789 33.3062515258789 30.7312488555908 29.4499988555908 27.8562488555908 27.2000007629395 27.2000007629395 26.2937488555908 25.5249996185303 25.0500011444092 24.40625 22.7625007629395 21.8875007629395 21.96875 20.8500003814697 20.2124996185303 19.6437492370605 18.8624992370605 18.3875007629395 18.1312503814697 18.4624996185303 18.3187503814697 17.5812492370605 17.3374996185303 16.6062507629395 15.5250005722046 14.7250003814697 13.96875 13.3812503814697 12.6750001907349 12.8812503814697 12.5437498092651 12.3687496185303 
10.1812496185303 10.5874996185303 11.5500001907349 12.4375 13.59375 14.8562498092651 16.5499992370605 17.875 19.5687503814697 22.4187507629395 25.4750003814697 28.7124996185303 30.8187503814697 31.0687503814697 32.2000007629395 33.9937515258789 34.6187515258789 34.1812515258789 32.3187484741211 30.9937496185303 28.4624996185303 26.7937488555908 25.1187496185303 23.75 23.8125 23.1687507629395 22.9375 22.6499996185303 22.5625 22.0125007629395 20.0499992370605 19.9624996185303 19.71875 20.3687496185303 19.8125 18.2250003814697 17.9437503814697 18.1687507629395 18.4437503814697 18.3312492370605 17.4187507629395 16.8062496185303 15.7250003814697 14.90625 14.1937503814697 13.6687498092651 12.6937503814697 11.6687498092651 12.0687503814697 11.75 11.3312501907349 
7.46250009536743 8.02499961853027 8.80624961853027 9.58125019073486 10.2437496185303 11.6812496185303 13.0562496185303 14.2250003814697 16.2124996185303 18.6749992370605 21.1437492370605 23.6375007629395 25.4312496185303 26.7250003814697 28.3374996185303 30.0874996185303 30.8562507629395 31.1124992370605 29.8875007629395 27.7374992370605 25.34375 23.4249992370605 22.375 22.1875 22.25 21.0625 21.0062503814697 20.6437492370605 20.0749988555908 19.7062492370605 18.8250007629395 17.7000007629395 17.2000007629395 18.2250003814697 19.9750003814697 19.5 17.8374996185303 17.84375 17.9187507629395 16.9187507629395 16.2312507629395 16.0187492370605 15.4562501907349 14.4250001907349 14.3062496185303 13.1062498092651 11.8562498092651 11.2937498092651 12.0187501907349 11.3812503814697 10.3687496185303 
5.32499980926514 5.73750019073486 6.375 7.01875019073486 7.80000019073486 8.99374961853027 10.0249996185303 11.2312498092651 12.9624996185303 15.1312494277954 17.1812496185303 19.5187511444092 21.2625007629395 23.2937507629395 24.8875007629395 25.9500007629395 27.7250003814697 28.5562496185303 27.4125003814697 25.9812488555908 23.6749992370605 21.6812496185303 19.875 19.9375 19.5625 18.875 18.5 18.25 17.8562507629395 17.84375 16.9624996185303 16.3187503814697 16.1124992370605 16.6499996185303 19.0625 20.2625007629395 18.1062507629395 17.5437507629395 17.3374996185303 16.0125007629395 15.375 15.1625003814697 14.3312501907349 13.6625003814697 13.3500003814697 12.4437503814697 11.8312501907349 10.8125 10.3874998092651 10.7124996185303 9.67500019073486 
3.78749990463257 4.09999990463257 4.73124980926514 5.28749990463257 6.14375019073486 7.23125028610229 8.0625 8.89999961853027 10.5500001907349 12.3125 13.96875 15.7624998092651 17.9437503814697 20.2000007629395 22.0375003814697 22.6124992370605 23.8687496185303 25.1812496185303 24.8374996185303 23.3687496185303 21.2374992370605 19.8125 17.75 17.4375 17.375 17.125 16.1875 16.125 15.9375 15.9124994277954 15.2937498092651 14.8312501907349 14.8562498092651 16.0499992370605 17.3250007629395 18.9750003814697 17.5562496185303 16.7999992370605 16.21875 15.8374996185303 14.7687501907349 14.3687496185303 14.0812501907349 13.2437496185303 12.7312498092651 11.8874998092651 11.375 10.3374996185303 9.43124961853027 9.73124980926514 9.42500019073486 
