ncols        51
nrows        45
xllcorner    -63.500000000000
yllcorner    -7.500000000000
cellsize     0.166666666667
NODATA_value -99
326.962493896484 330.081237792969 327.981262207031 335.600006103516 337.962493896484 339.799987792969 334.537506103516 327.149993896484 313.59375 310.725006103516 310.4375 305.787506103516 301.443756103516 293.8125 285.918762207031 279.875 271.75 264.6875 257.568756103516 253.4375 252.625 243.931243896484 237.256256103516 230.806243896484 226.625 224.306243896484 228.831253051758 236.037506103516 236.53125 236.475006103516 231.043746948242 232.231246948242 237.943740844727 239.043746948242 240.15625 238.643753051758 235.862503051758 234.512496948242 225.443756103516 218.731246948242 215.543746948242 217.800003051758 212.40625 209.693756103516 204.925003051758 203.618743896484 205.1875 201.5 196.449996948242 194.550003051758 194.306243896484 
320.737487792969 324.575012207031 330.549987792969 336.725006103516 345.056243896484 346.174987792969 339.881256103516 331.081237792969 324.143737792969 319.174987792969 313.924987792969 305.568756103516 292.087493896484 281.287506103516 270.9375 262.618743896484 252.287506103516 243.34375 236.618743896484 234.300003051758 231.943756103516 224.481246948242 220.162506103516 216.587493896484 212.887496948242 209.943756103516 215.03125 219.806243896484 221.393753051758 218.137496948242 217.59375 223.699996948242 227.618743896484 231.368743896484 234.887496948242 229.949996948242 228.5 225.800003051758 217.431243896484 211.481246948242 210.981246948242 203.881256103516 204.550003051758 201.8125 202.100006103516 200.199996948242 201.337493896484 196 188.693756103516 187.675003051758 187.306243896484 
307.631256103516 320.162506103516 325.518737792969 326.056243896484 334.524993896484 338.356262207031 334.862487792969 334.493743896484 327.8125 321.03125 311.168762207031 297.162506103516 284.212493896484 266.3125 253.71875 243.743743896484 231.418746948242 222.59375 215.756256103516 210.949996948242 208.856246948242 206.337493896484 201.493743896484 202.337493896484 196.875 193.737503051758 202.65625 206.09375 205.431243896484 208.375 206.587493896484 209.087493896484 212.287490844727 217.487503051758 218.237503051758 209.600006103516 210.925003051758 212.131256103516 205.856246948242 201.787506103516 203.806243896484 199.737503051758 197.6875 193.643753051758 195.581253051758 191.512496948242 194.84375 192.625 184.274993896484 181.668746948242 179.581253051758 
292.818756103516 299.368743896484 310.081237792969 316.018737792969 319.518737792969 322.543762207031 324.825012207031 326.21875 323.993743896484 318.681243896484 304.375 286.125 268.068756103516 248.987503051758 236.793746948242 226.018753051758 211.068756103516 202.9375 195.774993896484 196.087493896484 192 184.8125 181.625 184.556243896484 180.15625 178.350006103516 185.068756103516 187.112503051758 190.8125 194.881256103516 195.837493896484 195.768753051758 198.231246948242 197.918746948242 198.556243896484 201.212493896484 203.493743896484 202.243743896484 196.518753051758 193.59375 194.699996948242 195.412506103516 192.993743896484 188.231246948242 191.524993896484 184.887496948242 187.387496948242 184.25 179.15625 172.850006103516 173.918746948242 
301.018737792969 303.712493896484 294.950012207031 302.493743896484 313.225006103516 310.825012207031 312.881256103516 319.412506103516 322.6875 317.762512207031 301.387512207031 273.068756103516 253.943756103516 235.956253051758 220.493743896484 208.625 196.03125 183.350006103516 175.350006103516 173.149993896484 169.03125 165.237503051758 163.15625 165.4375 162.568756103516 162.756256103516 167.537506103516 175.112503051758 179.806243896484 180.399993896484 184.512496948242 187.306243896484 187.481246948242 188.725006103516 192.368759155273 190.524993896484 192.356246948242 194.550003051758 188.456253051758 184.162490844727 186.431243896484 187.106246948242 186.574996948242 185.787506103516 185.518753051758 181.225006103516 177.5625 173.881256103516 169.375 166.462493896484 164.768753051758 
294.649993896484 302.512512207031 295.493743896484 282.575012207031 296.762512207031 306.399993896484 303.78125 305.450012207031 312.237487792969 308.818756103516 286.568756103516 259.9375 241.731246948242 224.243743896484 206.837493896484 194.631256103516 180.943756103516 168.225006103516 161.78125 156.881256103516 155.25 151.59375 149.131256103516 148.431243896484 149.600006103516 151.3125 154.824996948242 162.381256103516 167.893753051758 169.225006103516 175.53125 178.956253051758 181.818756103516 181.125 179.625 184.574996948242 183.162506103516 178.762496948242 178.318756103516 181.350006103516 180.418746948242 183.006256103516 180.587493896484 179.475006103516 184 177.25 171.556243896484 168.125 160.962493896484 156.868743896484 156.850006103516 
295.506256103516 299.600006103516 294.024993896484 286.837493896484 281.225006103516 277.5 274.631256103516 282.25 278.90625 274.90625 260.631256103516 240 226.537506103516 212.668746948242 196.581253051758 183.356246948242 171.668746948242 158.768753051758 147.612503051758 142.5 137.53125 135.350006103516 132.868743896484 135.106246948242 139.975006103516 142.287506103516 145.587493896484 151.212493896484 156.631256103516 164.324996948242 166.162506103516 166.831253051758 167.762496948242 170.875 174.762496948242 174.53125 169.350006103516 168.487503051758 167.956253051758 172.731246948242 172.568756103516 173.65625 174.606246948242 174.1875 174.106246948242 174.824996948242 166.574996948242 155.274993896484 151.856246948242 150.618743896484 151.449996948242 
292.674987792969 290.5625 286.09375 286.956237792969 281.987487792969 280.637512207031 263.118743896484 247.762496948242 234.581253051758 234.975006103516 230.737503051758 220.081253051758 210.774993896484 198.487503051758 187.481246948242 174.737503051758 160.306243896484 147.949996948242 135.96875 125.96875 128.375 124.849998474121 122.056251525879 124.25 129.268753051758 130.537506103516 135.050003051758 140.637496948242 146.356246948242 150.15625 158.59375 159.100006103516 160.550003051758 161.568756103516 160.162506103516 159.131256103516 157.787506103516 157.137496948242 153.943756103516 154.71875 157.737503051758 162.78125 160.331253051758 157.518753051758 155.918746948242 152.431243896484 147.487503051758 143.868743896484 140.993743896484 138.806243896484 142.662506103516 
286.306243896484 286.575012207031 278.574981689453 275.837493896484 273.475006103516 265.09375 258.03125 247.793746948242 225.850006103516 210.6875 204.3125 199.300003051758 197.71875 188.356246948242 178.1875 164.481246948242 155.693756103516 145.331253051758 134.731246948242 122.543746948242 116.587501525879 118.518753051758 113.131248474121 119.043746948242 121.087501525879 123.3125 127.962501525879 135.21875 144.212493896484 147.268753051758 155.837493896484 150.0625 145.118743896484 144.268753051758 147.112503051758 151.868743896484 153.518753051758 155.199996948242 152.462493896484 149.768753051758 148.975006103516 147.506256103516 152.15625 149.637496948242 141.800003051758 137.375 135.837493896484 131.225006103516 126.849998474121 128.100006103516 129.100006103516 
280.431243896484 281.056243896484 273.84375 270.350006103516 266.674987792969 257.081237792969 248.712493896484 235 222.550003051758 209.46875 196.568756103516 182.756256103516 183.606246948242 178.456253051758 169.925003051758 159.243743896484 147.881256103516 142.206253051758 132.412506103516 122.875 114.824996948242 111.006248474121 105.006248474121 108.856246948242 110.137496948242 114.949996948242 120.40625 126.381248474121 132.46875 139.118743896484 144.962493896484 142.78125 141.71875 141.443756103516 140.3125 142.899993896484 146.737503051758 150.612503051758 150.524993896484 153.418746948242 155.3125 153.706253051758 146.875 138.600006103516 131.850006103516 130.131256103516 128.612503051758 125.974998474121 123.831253051758 119.981246948242 114.862503051758 
278.018737792969 275.631256103516 267.90625 262.149993896484 255.524993896484 249.587493896484 235.962493896484 223.324996948242 214.350006103516 204.28125 194.318756103516 181.774993896484 172.443756103516 168.618743896484 159.756256103516 150.543746948242 140.387496948242 131.768753051758 125.431251525879 120.53125 119.368751525879 112.262496948242 102.150001525879 95.84375 101.443748474121 111.668746948242 118.5 122.212501525879 125.474998474121 130.100006103516 134.837493896484 135.387496948242 136.056243896484 136.5625 136.643753051758 136.306243896484 140.106246948242 142.237503051758 148.5 149.993743896484 151.074996948242 147.193756103516 144.506256103516 132.28125 121.712501525879 117.793746948242 121.987503051758 121.800003051758 119.706253051758 116.706253051758 109.318748474121 
268.799987792969 267.15625 263.362487792969 253.831253051758 248.112503051758 238.274993896484 231.418746948242 221.362503051758 211.712493896484 196.487503051758 189.681243896484 179.893753051758 163.537506103516 159.175003051758 155.087493896484 145.300003051758 135.350006103516 128.212493896484 123.456253051758 123.0625 122.368751525879 116.243751525879 104.949996948242 95.8562469482422 97.59375 102.53125 107.25 113.568748474121 120.181251525879 123.012496948242 122.356246948242 126.331245422363 128.193756103516 126.712501525879 129.681243896484 134.149993896484 140.050003051758 143.637496948242 142.618743896484 148.3125 150.212493896484 145.5625 133.149993896484 114.681251525879 102.550003051758 97.5124969482422 99.3000030517578 110.993751525879 112.693748474121 108.3125 99.09375 
264.700012207031 260.793762207031 254.643753051758 245.456253051758 241.081253051758 229.556243896484 221.4375 212.793746948242 200.981246948242 190.125 182.231246948242 174.856246948242 164.356246948242 148.818756103516 141.65625 135.725006103516 127.875 123.112503051758 114.893753051758 113.681251525879 115.112495422363 109.712501525879 101.643753051758 95.3874969482422 91.0625 94.0625 101.181251525879 108.331253051758 115.974998474121 120.762496948242 119.112503051758 118.300003051758 122.681251525879 120.012496948242 122.381248474121 128.712493896484 138.356246948242 144.881256103516 153.256256103516 154.175003051758 149.056243896484 142.28125 123.824996948242 109.087501525879 102.925003051758 100.831253051758 100.949996948242 100.550003051758 100.599998474121 100.15625 97.1437530517578 
258.068756103516 254.168746948242 246.243743896484 238 229.456253051758 220.65625 210.793746948242 204.524993896484 195.706253051758 183.837493896484 175.300003051758 164.574996948242 156.300003051758 144.893753051758 128.831253051758 125.9375 118.099998474121 112.050003051758 106.287498474121 104.131248474121 104.28125 99.7249984741211 93.6875 92.2937469482422 91.1812515258789 91.1937484741211 95.2125015258789 100.387496948242 106.981246948242 110.743751525879 113.956253051758 114.862503051758 116.512496948242 118.418746948242 117.818748474121 129.331253051758 142.943756103516 154.387496948242 163.537506103516 161.375 143.175003051758 130.212493896484 125.306251525879 125.549995422363 123.525001525879 115.224998474121 111.349998474121 110.256248474121 107.75 109.324996948242 103.231246948242 
246.162506103516 242.731246948242 237.837493896484 231.462493896484 222.5625 213.631256103516 205.806243896484 197.381256103516 188.262496948242 178.393753051758 168.456253051758 158.756256103516 149.78125 137.15625 120.050003051758 115.6875 109.512496948242 106.237503051758 98.6500015258789 95.5250015258789 96.3687515258789 93.0500030517578 90.1937484741211 91.28125 94.2249984741211 95.4562530517578 99.6812515258789 103.943748474121 111.050003051758 110.737503051758 109.143753051758 112.456253051758 118.856246948242 116.40625 112.331253051758 117.793746948242 138.75 160.612503051758 167.96875 162.668746948242 154.756256103516 147.925003051758 146.987503051758 135.899993896484 127.956253051758 125.106246948242 125.712501525879 125.981246948242 123.193748474121 113.987503051758 103.462501525879 
237.706253051758 231.84375 227.274993896484 219.012496948242 214.793746948242 207.306243896484 198.331253051758 188.743743896484 182.737503051758 176.837493896484 166.806243896484 156.15625 146.918746948242 134.725006103516 119.443748474121 102.775001525879 99.71875 99.0374984741211 92.2687530517578 89.0062484741211 88.8625030517578 87.21875 86.8937530517578 91.2062530517578 94.9437484741211 96.9749984741211 99.6812515258789 105.006248474121 110.09375 114.650001525879 115.206253051758 114.3125 110.71875 106.699996948242 103.775001525879 123.637496948242 135.137496948242 151.362503051758 165.668746948242 173.574996948242 176.4375 169.668746948242 156.6875 139.012496948242 128.037506103516 122.53125 121.387496948242 117.775001525879 117.768753051758 113.099998474121 104.625 
227.393753051758 223.506256103516 216.34375 212.324996948242 207.699996948242 201.512496948242 192.731246948242 184.837493896484 175.09375 167.84375 161.774993896484 152.931243896484 141.381256103516 129.725006103516 119.462501525879 104.118751525879 88.4749984741211 87.1687469482422 85.1750030517578 81.59375 80.4000015258789 81.09375 81.5250015258789 89.1875 93.3562469482422 92.7437515258789 95.6312484741211 100.362495422363 109.068748474121 114.737503051758 118.612503051758 120.974998474121 117.606246948242 118.175003051758 127.087501525879 136.631256103516 151.262496948242 165.043746948242 179.850006103516 178.787506103516 182.324996948242 169.762496948242 151.100006103516 137.743743896484 127.737503051758 122.243751525879 120.881248474121 120.28125 117.400001525879 106.818748474121 99.9562530517578 
215.699996948242 213.15625 210.243743896484 206.318756103516 202.449996948242 198.5 188.806243896484 180.074996948242 170.600006103516 160.506256103516 152.393753051758 146.618743896484 134.868743896484 124.800003051758 116.762496948242 104.574996948242 89.59375 76.6750030517578 80.0374984741211 74.3062515258789 73.1187515258789 73.8125 77.03125 83.8062515258789 90.0124969482422 89.7687530517578 91 99.8187484741211 107.824996948242 111.199996948242 109.875 108.918746948242 125.706253051758 131.006256103516 135.90625 161.225006103516 173.768753051758 173.25 179.493743896484 180.293746948242 167.931243896484 153.037506103516 138.681243896484 129.631256103516 122.912498474121 120.375 119.856246948242 117.581253051758 113.34375 100.768753051758 98.7062530517578 
205.475006103516 205.9375 203.243743896484 200.581253051758 197.868743896484 190.90625 182.53125 173.462493896484 165.987503051758 158.100006103516 148.862503051758 136.443740844727 126.768753051758 119.143753051758 109.65625 99.8937530517578 91.6312484741211 77.1125030517578 69.2750015258789 65.65625 67.3125 70.6187515258789 66.6999969482422 75.2249984741211 81.3125 88.1999969482422 93.1937484741211 97.0999984741211 107.175003051758 110.449996948242 111.199996948242 116.306251525879 126.387496948242 130.237503051758 140.581253051758 159.731246948242 165.862503051758 164.074996948242 168.0625 162.868743896484 152.037506103516 135.34375 127.5625 123.381248474121 120.081253051758 118.556251525879 119.224998474121 116.224998474121 108.268753051758 94.6812515258789 98.125 
198.600006103516 199.837493896484 195.581253051758 188.606246948242 184.731246948242 182.96875 175.743743896484 166.306243896484 162.40625 155.9375 147.887496948242 138.800003051758 128.09375 117.118751525879 106.34375 91.4499969482422 81.0062484741211 77.84375 69.6999969482422 66.6374969482422 60.5875015258789 60.8125 65.4375 70.9875030517578 73.7374954223633 77.0687484741211 82.6374969482422 93.9000015258789 98.0187530517578 99.8062515258789 104.5 120.543746948242 126.856246948242 129.931243896484 135.024993896484 147.399993896484 156.256256103516 155.84375 153.212493896484 147.818756103516 135.28125 119.118751525879 118.1875 117.199996948242 114.25 113.675003051758 113.981246948242 110.181251525879 102.768753051758 95.6937484741211 99.3125 
181.043746948242 191.756256103516 192.65625 186.887496948242 177.056243896484 171.899993896484 168.768753051758 162.456253051758 157.243759155273 149.918746948242 144.0625 135.181243896484 124.887496948242 112.587501525879 100.412498474121 91.0625 80.3249969482422 74.0187530517578 71.6312484741211 66.6125030517578 67.9000015258789 68.4875030517578 70.9500045776367 78.5124969482422 82.8249969482422 83.8375015258789 83.1187515258789 89.1812515258789 95.6875 102.599998474121 109.506248474121 121.087501525879 119.493751525879 121.456253051758 125.012496948242 136.40625 146.53125 149.787506103516 143.987503051758 137.637496948242 129.856246948242 117.706253051758 114.943748474121 115.006248474121 112.800003051758 112.543746948242 112.731246948242 107.199996948242 98.4437484741211 99.5562515258789 98.2062530517578 
175.537506103516 176.637496948242 181.100006103516 180.925003051758 173.956253051758 166.337493896484 161.743743896484 155.324996948242 149.931243896484 146.318756103516 140.5 130.137496948242 120.09375 112.256248474121 103.637496948242 91.2937469482422 88.2249984741211 79.7750015258789 76.9562530517578 72.2312469482422 69.34375 72.4000015258789 74.8562469482422 78.1187515258789 80.4000015258789 82.2062530517578 88.1812515258789 91.0374984741211 100.481246948242 107.75 110.875 112.775001525879 114.006248474121 119.53125 121.15625 127.193748474121 135.199996948242 141.699996948242 139.756256103516 135.268753051758 127.743751525879 119.443748474121 116.5 117.206253051758 113.568748474121 111.40625 109.912498474121 104.106246948242 96.3062515258789 101.293746948242 98.7624969482422 
170.6875 181.787506103516 184.956253051758 183.056243896484 176.012496948242 166.024993896484 152.743743896484 145.087493896484 145.231246948242 141.256256103516 135.274993896484 129.637496948242 125.518753051758 119.606246948242 110.175003051758 99.9499969482422 90.0500030517578 82.3937530517578 78.2687530517578 75.3125 76.0124969482422 74.9187469482422 73.90625 77.6750030517578 83.5812530517578 85.4937515258789 88.1937484741211 93.1812515258789 100.53125 102.362503051758 104.831253051758 109.125 109 110.287498474121 116.668746948242 118.8125 122.900001525879 129.856246948242 133.387496948242 132.618759155273 126.462501525879 120.59375 117.03125 115.006248474121 113.993751525879 111.862503051758 105.737503051758 99 98.1312484741211 102.400001525879 100.262496948242 
161.893753051758 174.456253051758 183.706253051758 178 169.475006103516 159.987503051758 154.631256103516 146.487503051758 139.893753051758 133.037506103516 132.862503051758 133.03125 126.912498474121 123.356246948242 111.112503051758 101.474998474121 92.8874969482422 88.0250015258789 82.71875 78.125 77.6500015258789 78.21875 76.1500015258789 82.8249969482422 85.5437469482422 86.09375 92.5625 92.4812545776367 95.6812515258789 98.9312515258789 100.837501525879 104.125 105.806251525879 105.28125 110.087501525879 111.068748474121 116.956253051758 123.71875 125.537498474121 124.675003051758 121.606246948242 118.262496948242 115.868751525879 114.974998474121 115.449996948242 108.643753051758 99.0374984741211 93.6500015258789 95.6062469482422 99.2624969482422 97.5250015258789 
151.399993896484 166.018753051758 173.125 175.131256103516 169.756256103516 160.456253051758 152.818756103516 147.262496948242 139.75 137.056243896484 132.662506103516 129.475006103516 127.831253051758 119.993751525879 108.806251525879 100.212501525879 93.7750015258789 87.1937484741211 83.0062484741211 80.25 79.3312530517578 77.84375 79.375 84.78125 84.9250030517578 85.6875 88.9250030517578 91.2874984741211 93.3062515258789 96.4124984741211 95.1062469482422 95.3375015258789 96.8187484741211 100.037498474121 103.287498474121 106.712501525879 111.387496948242 115.09375 119.362503051758 119.831253051758 118.018753051758 116.724998474121 116.356246948242 112.481246948242 108.856246948242 101.268753051758 90.7375030517578 87.4000015258789 86.0749969482422 92.84375 95.8562469482422 
147.84375 164.956253051758 163.993743896484 166.512496948242 161.293746948242 154.587493896484 146.493743896484 141.931243896484 131.831253051758 125.693748474121 126.337501525879 123.849998474121 122.137496948242 116.637496948242 108.693748474121 98.5500030517578 92.6624984741211 88.6437530517578 84.6937484741211 79.2874984741211 78.75 77.9625015258789 78.3937530517578 82.5 85.1062469482422 84.6125030517578 87.5562515258789 90 89.7687530517578 91.1374969482422 89.6374969482422 89.3062515258789 90.7937469482422 93.1187515258789 96.0437469482422 102.143753051758 107.15625 109.125 110.84375 114.506248474121 113.431251525879 106.518753051758 105.71875 106.1875 104.474998474121 98.0749969482422 91.2437515258789 84.5437469482422 86.1812515258789 93.8812484741211 94.2125015258789 
143.350006103516 150.556243896484 155.618743896484 156.262496948242 151.831253051758 146.737503051758 140.037506103516 129.774993896484 123.1875 124.025001525879 125 122.275001525879 118.181251525879 114.525001525879 108.443748474121 101.8125 94.2687530517578 87.1187515258789 83.9562530517578 78.7687530517578 76.1875 75.28125 76.03125 82.9812469482422 82.5625 82.5687484741211 85.7562484741211 86.8687515258789 86.9000015258789 86.9000015258789 86.9625015258789 84.0875015258789 84.8000030517578 87.5250015258789 91.0562515258789 95.7562484741211 102.506248474121 104.849998474121 105 109.637496948242 111.168746948242 106.306251525879 101.456245422363 99.5999984741211 97.9437484741211 96.6062469482422 94.5875015258789 85.8499984741211 83.8062515258789 86.4937515258789 84.6999969482422 
140.125 141.675003051758 144.712493896484 141.9375 138.375 136.324996948242 131.800003051758 123.925003051758 119.900001525879 120.837501525879 119.449996948242 117.868751525879 113.699996948242 109.4375 103.675003051758 97.8312530517578 91.3874969482422 86.71875 80.5062484741211 77.0437469482422 75.0500030517578 71.9124984741211 73.0812530517578 77.0999984741211 78.5875015258789 78.3937530517578 81.5562515258789 82.8187484741211 85.4499969482422 86.5562515258789 85.2687530517578 83.8499984741211 83.2750015258789 82.6750030517578 88.1875 92.5250015258789 99.1624984741211 101.212501525879 103.400001525879 106.6875 108.5 106.731246948242 97.0437469482422 96.4812469482422 92.7125015258789 92.0250015258789 89.25 85.3249969482422 81.2687530517578 75.2874984741211 73.6750030517578 
133.25 138.131256103516 133.6875 129 127.731254577637 121.625 119.368751525879 117.4375 116.762496948242 115.081253051758 114.4375 112.268753051758 110.206253051758 106.900001525879 101.568748474121 96.3874969482422 91.6624984741211 85.3375015258789 81 77.28125 72.8937454223633 68.9000015258789 67.1937484741211 70.4187469482422 72.6875 72.8249969482422 77.8874969482422 81.7874984741211 83.6937484741211 82.5749969482422 80.5562515258789 80.375 79.5374984741211 81.7062530517578 84.3375015258789 88.3312530517578 96.1812515258789 96.59375 99.2375030517578 101.087501525879 101.143753051758 97.40625 93.0500030517578 94.84375 92.3687515258789 87.3249969482422 86.4937515258789 81.1750030517578 76.3125 70.5500030517578 64.6374969482422 
126.8125 127.981246948242 124.631248474121 119.493751525879 116.956253051758 115.037498474121 112.449996948242 113.743751525879 112.025001525879 111.568748474121 110.731246948242 109.887496948242 108.4375 105.862503051758 99.8062515258789 93.7874984741211 88.65625 84.84375 77.8000030517578 71.7125015258789 69.4812469482422 65.8499984741211 63.71875 66.6312484741211 67.7874984741211 70.7249984741211 74.7312469482422 77.8062515258789 80.1500015258789 78.5124969482422 77.1312484741211 76.4000015258789 77.4499969482422 79.9875030517578 84.0062484741211 86.1500015258789 95.09375 95.84375 93.7437515258789 99.4625015258789 98.8625030517578 94.7062530517578 93.0687484741211 89.71875 86.9187469482422 86.4437484741211 80.4124984741211 76.8874969482422 72.6812515258789 67.2312469482422 60.6437492370605 
122.375 121.131248474121 116.65625 113.268753051758 111.056251525879 108.893753051758 108.53125 108.356246948242 106.831253051758 107.606246948242 107.650001525879 105.431251525879 105.793746948242 99.1812515258789 95.09375 92.9562530517578 89.0562515258789 82.6437530517578 76.3375015258789 71.3375015258789 67.2624969482422 62.3062515258789 59.9812507629395 62.9625015258789 64.7687530517578 67.7937469482422 71.0999984741211 74.5625 76.375 75.4250030517578 76.5500030517578 76.1875 76.2624969482422 77.0625 80.46875 83.1812515258789 90.3812484741211 93.5687484741211 92.0250015258789 90.40625 92.4625015258789 88.96875 86.8937530517578 84.8937530517578 84.1374969482422 80.65625 74.6374969482422 70.8249969482422 66.9000015258789 63.6124992370605 59.6312484741211 
116.768753051758 115.106246948242 109.637496948242 108.081253051758 108.837501525879 106.668746948242 105.106246948242 103.96875 103.599998474121 102.293746948242 100.118751525879 99.2750015258789 96.6125030517578 95.0124969482422 93.1187515258789 90.0999984741211 84.1312484741211 78.2125015258789 73.09375 68.7375030517578 64.40625 60.2249984741211 56.2437515258789 58.3937492370605 61.59375 63.8062515258789 67.8125 71.2750015258789 72.9875030517578 75.5250015258789 75.2375030517578 74.4375 75.3125 75.6937484741211 78.0999984741211 79.7937469482422 84.5374984741211 85.5437469482422 86.8375015258789 86.90625 89.3125 86.65625 83.4375 81.2375030517578 79.7750015258789 77.8000030517578 74.7437515258789 69.3687515258789 64.5999984741211 61.0750007629395 56.9124984741211 
109.956253051758 108.618751525879 106.375 105.5625 103.556251525879 102.349998474121 101.4375 101.300003051758 99.2562484741211 98.0625 99.3375015258789 97.0625 95.1500015258789 95.3062515258789 93.6875 87.9562530517578 81.8375015258789 78.0250015258789 73.0687484741211 68.4250030517578 62.8250007629395 58.2062492370605 55.4187507629395 57.3812484741211 59.4375 61.7312507629395 65 67.8187484741211 70.59375 73.0125045776367 73.6875 71.8625030517578 73.15625 75.5374984741211 76.6437530517578 77.9625015258789 79.5999984741211 80.4124984741211 81.4812469482422 84.9124984741211 86.9437484741211 84.1125030517578 79.7249984741211 76.9312515258789 73.7937469482422 73.1437530517578 73.8625030517578 67.9625015258789 64.2937469482422 57.2437515258789 54.2125015258789 
102.868751525879 103.21875 104.21875 103.03125 100.837501525879 99.1312484741211 99.5500030517578 97.4937515258789 94.9937515258789 93.0625 94.4375 95.3249969482422 94.0187530517578 91.71875 88.8249969482422 86.2249984741211 82.6374969482422 77.0687484741211 70.6437530517578 66.3000030517578 62.0187492370605 57.3375015258789 55.4375 55.8562507629395 58.0750007629395 58.9812507629395 62.9812507629395 65.8249969482422 69.5875015258789 71.2624969482422 72.78125 72.9499969482422 71.2937469482422 72.1750030517578 74.5875015258789 75.8062515258789 76.5374984741211 76.8125 78.1312484741211 79.9437484741211 79.7874984741211 79.3812484741211 77.0500030517578 70.9187469482422 70.7874984741211 70.96875 68.3125 62.65625 59.0250015258789 56.6062507629395 54.0750007629395 
98.2312469482422 96.7249984741211 99.40625 101.068748474121 99.4250030517578 95.3187484741211 93.2624969482422 92.8937530517578 91.0187530517578 89.1125030517578 93.0124969482422 94.8625030517578 94.3187484741211 95.3125 92.3875045776367 87.34375 81.6624984741211 74.2624969482422 68.1437530517578 61.7312507629395 59.9749984741211 55.1312484741211 52.4874992370605 53 56.4500007629395 58.0125007629395 60.9874992370605 62.8624992370605 65.75 67.0999984741211 69.2624969482422 70.6812515258789 68.6374969482422 69.1062469482422 69.8000030517578 71.7375030517578 70.9499969482422 74.5 73.5374984741211 74.9625015258789 74.8125 72.65625 71.5687484741211 67.9812469482422 67.0500030517578 65.4875030517578 63.1500015258789 61.1749992370605 56.625 55.4312515258789 51.9187507629395 
93.6875 92.0875015258789 93.25 94.8625030517578 94.6812515258789 92.0187454223633 90.1750030517578 88.1500015258789 85.4875030517578 83.7375030517578 85.25 91.9375 94.7624969482422 94.4749984741211 91.8375015258789 87.1500015258789 80.6875 71.90625 65.3812484741211 58.8499984741211 55.90625 54.28125 51.5187492370605 51.8624992370605 54.6812515258789 55.8937492370605 58.1812515258789 59.8312492370605 63.1749992370605 64.0500030517578 64.7624969482422 66.2750015258789 65.8187484741211 65.25 64.4187469482422 66.0812530517578 68.4812469482422 68.3812484741211 68.6125030517578 70.3125 70.1374969482422 67.4875030517578 66.1437530517578 65.1624984741211 62.8499984741211 59.9375 59.6312484741211 56.71875 54.8187484741211 51.4625015258789 49.3375015258789 
86.5749969482422 88.4625015258789 87.3000030517578 89.1062469482422 90.4250030517578 88.3562469482422 86.46875 86.0124969482422 83.1437530517578 77.7249984741211 82.71875 92.7375030517578 96.4937515258789 93.8687515258789 91.0062484741211 85.9437484741211 80.0124969482422 72.3375015258789 65.4562530517578 57.40625 53.8187484741211 53.2000007629395 50.7312507629395 51.3624992370605 52.2249984741211 53.3562507629395 56.65625 57.8812484741211 59.1124992370605 58.9187507629395 61.3624992370605 61.4312515258789 61.8937492370605 62.1437492370605 61.1937484741211 62.2625007629395 64.2125015258789 65.7874984741211 64.4562530517578 63.8562507629395 63.40625 63.1124992370605 60.4000015258789 63.7750015258789 61.34375 57.375 58.8875007629395 54.0812492370605 51.8624992370605 49.8875007629395 46.8624992370605 
80.4625015258789 82.5374984741211 83.4312515258789 86.0562515258789 86.4375 85.5625 85.3249969482422 84.8499984741211 83.6125030517578 78.0500030517578 88.8000030517578 97.7312469482422 97.4375 95.3375015258789 89.5562515258789 84.0374984741211 77.7437515258789 71.3625030517578 65.5749969482422 58.8624992370605 54.4000015258789 52.375 49.4437484741211 50.0625 50.2750015258789 52.2249984741211 54.8624992370605 55.53125 56.1937484741211 55.21875 55.90625 58.1937484741211 59.0437507629395 58.1375007629395 57.4500007629395 58.6062507629395 59.6624984741211 59.9500007629395 62.1749992370605 60.3562507629395 58.9812507629395 59.4937515258789 56.4187507629395 55.8812484741211 55.4874992370605 54.0687522888184 54.8499984741211 51.9812507629395 47.1062507629395 46.2374992370605 44.5 
77.9875030517578 78.28125 79.7125015258789 81.5749969482422 82.7937469482422 84.2750015258789 83.7562484741211 85 86.59375 94.6437530517578 108.243751525879 105.25 97.4375 91.7125015258789 85.9375 79.5187530517578 74.8562469482422 69.0812530517578 63.6437492370605 58.75 53.9375 51.125 48.6500015258789 48.6500015258789 49.0812492370605 51.2249984741211 52.2874984741211 52.0625 52.3687515258789 52.8125 53.8125 54.2249984741211 54.0562515258789 54.2937507629395 55.6312484741211 54.9437484741211 55.6500015258789 55.5687484741211 54.21875 52.9874992370605 54.1375007629395 54.9249992370605 53.5625 53.0687484741211 51.5062484741211 50.1187515258789 48.5250015258789 45.3375015258789 43.0875015258789 42.7562484741211 41.9312515258789 
73.7624969482422 75.2249984741211 77.1125030517578 77.4499969482422 80.8125 83.3562469482422 81.8062515258789 86.0124969482422 89.53125 96.40625 99.8125 99.9937515258789 94.4437484741211 88.9124984741211 83.7312469482422 79.3874969482422 73.2375030517578 67.4124984741211 61.7625007629395 57.5687484741211 53.5374984741211 51 47.1312484741211 47.4500007629395 46.7125015258789 47.2999992370605 48.8562507629395 48.7374992370605 48.4874992370605 48.1812515258789 48.4375 49.5750007629395 48.59375 50.1187515258789 49.3687515258789 49.5875015258789 49.9249992370605 51.0062484741211 50 49.1749992370605 50.7750015258789 50.8875007629395 48.5499992370605 47.3312492370605 45.3375015258789 45.3687515258789 43.8125 43.0187492370605 41.6062507629395 41.1875 39.40625 
72.5374984741211 72.5187530517578 73.9124984741211 75.84375 77.5250015258789 78.03125 78.5562515258789 83.375 86.2312469482422 90.75 92.4000015258789 91.4499969482422 89.2750015258789 83.2062530517578 80.28125 74.6437530517578 70.8687515258789 66.1812515258789 59.6749992370605 55.3937492370605 52.6812515258789 49.4812507629395 47.0125007629395 46.8062515258789 45.6937484741211 44.2750015258789 45.2312507629395 46.1375007629395 46.2000007629395 44.4874992370605 46.1500015258789 47.1187515258789 44.5125007629395 45.2750015258789 45.2562522888184 45.1124992370605 44.5687484741211 46.3562507629395 45.3875007629395 44.2937507629395 46.5437507629395 45.6062507629395 43.4812507629395 42.2125015258789 43.1312484741211 42.3375015258789 40.4124984741211 39.0562515258789 41.0374984741211 40.4500007629395 37.9437484741211 
73.5562515258789 74.28125 73.0687484741211 76.0437469482422 76.3812484741211 78.5875015258789 78.4562530517578 82.0062484741211 85.0437469482422 85.5250015258789 86.78125 84.7687530517578 82.9812469482422 78.6437530517578 74.9749984741211 70.7125015258789 67.4375 62.2062492370605 57.8687515258789 53.2625007629395 49.5062484741211 46.3062477111816 43.8875007629395 43.25 42.46875 40.625 40.8125 41.75 42.3375015258789 40.4624977111816 40.2750015258789 41.96875 42.1437492370605 43.4812507629395 41.7374992370605 40.3937492370605 40.2062492370605 40.7312507629395 40.2750015258789 40.7937507629395 41.5062484741211 40.9187507629395 40.4874992370605 39.9437484741211 38.8875007629395 37.8937492370605 35.5374984741211 33.8562507629395 34.75 35.6187515258789 34.7562484741211 
73.59375 73.9625015258789 75.4937515258789 74.8125 77 78.7375030517578 80.8874969482422 81.6500015258789 80.9812469482422 80.6374969482422 80.8375015258789 80.3125 76.6750030517578 72.25 69.5749969482422 66.3375015258789 61.96875 59.4437484741211 55.46875 50.5875015258789 45.8125 41.2562484741211 38.2687492370605 38.7312507629395 39.1875 38.7249984741211 38.2062492370605 38.4249992370605 38.5250015258789 36.9249992370605 36.71875 36.7687492370605 37.4625015258789 39.6312484741211 40.78125 37.9000015258789 36.0875015258789 35.8125 36.0625 36.1749992370605 36.6124992370605 36.96875 36.7437515258789 36.2000007629395 34.3687515258789 32.7875022888184 31.34375 30.625 32.1500015258789 30.5499992370605 31.09375 
73.4562530517578 75.5749969482422 77.2687530517578 76.8874969482422 80.4937515258789 80.2750015258789 80.8625030517578 82.6875 82.2125015258789 78.9499969482422 75.8625030517578 74.0374984741211 69.7937469482422 66.5062484741211 63.8875007629395 59.9500007629395 57.6062507629395 56.0625 54.2125015258789 48.6812515258789 42.6437492370605 38.2687492370605 35.1812515258789 36.4874992370605 35.8499984741211 34.8499984741211 34.2874984741211 35.8624992370605 35.9375 34.2062492370605 33.53125 33.875 34.46875 35.5187492370605 38.5875015258789 36.7125015258789 33.3937492370605 32.3875007629395 32.7437515258789 32.7750015258789 32.3624992370605 32.0125007629395 32.6749992370605 32.2750015258789 30.8312492370605 29.8312492370605 28.6687488555908 26.7124996185303 26.5625 27.8812503814697 27.9562492370605 
73.2874984741211 73.9375 74.96875 77.1999969482422 80.1875 82.1500015258789 81.2062530517578 80.9625015258789 80.4937515258789 77.21875 71.8375015258789 66.875 63.875 60.9312515258789 57.2125015258789 55.625 53.1312484741211 51.4000015258789 50.0250015258789 45.7249984741211 40.6812477111816 37.1875 34 33.1875 32.9375 32.5625 31.6875 33.4375 33.875 31.5625 30.0874996185303 30.5249996185303 30.5 30.4937515258789 32.3937492370605 32.0812492370605 30.1312503814697 29.7562503814697 30.53125 30.8562507629395 30.2875003814697 30.0062503814697 29.0125007629395 28.5812492370605 27.8624992370605 27.1687507629395 26.1125011444092 23.7999992370605 22.6875 23.4375 24.9375 
