ncols        51
nrows        45
xllcorner    -63.500000000000
yllcorner    -7.500000000000
cellsize     0.166666666667
NODATA_value -99
176.887496948242 180.475006103516 182.149993896484 188.28125 195.300003051758 202.15625 203.081253051758 206.09375 207.631256103516 206.643753051758 199.681243896484 195.662506103516 194.043746948242 188.78125 185.131256103516 177.743743896484 173.224990844727 168.399993896484 163.493743896484 162.75 160.068740844727 155.21875 150.731246948242 146.356246948242 140.668746948242 135.506256103516 133.837493896484 133.881256103516 127.887496948242 126.193748474121 120.287498474121 118.675003051758 117.731246948242 114.443748474121 112.449996948242 110.037498474121 106.199996948242 103.625 101.012496948242 97.2062530517578 93.8562469482422 91.5062484741211 86.9312515258789 82.2375030517578 79.71875 75.9375 72.1812515258789 69.0562515258789 66.9437484741211 63.2437515258789 63.2687492370605 
167.081253051758 169.893753051758 176.400009155273 184.131256103516 193.600006103516 198.712493896484 196.518753051758 198.324996948242 200.224990844727 198.831253051758 193.675003051758 191.074996948242 185.350006103516 178.287506103516 173.231246948242 169.574996948242 163.331253051758 158.762496948242 155.337493896484 153.643753051758 150.506240844727 145.506256103516 141.125 137.918746948242 132.081253051758 125.918746948242 126.381248474121 124.887504577637 119.668746948242 117.043746948242 114.837501525879 112.849998474121 112.118751525879 111.724998474121 109.650001525879 105.9375 99.8937530517578 98.3125 94.1500015258789 89.8249969482422 87.90625 83.9625015258789 80.34375 76.1437530517578 73.1624984741211 68.4499969482422 64.375 59.9874992370605 56.5562515258789 52.9812507629395 52.2374992370605 
151.231246948242 156.731246948242 164.793746948242 174.737503051758 184.362503051758 188.293746948242 188.631256103516 189.34375 188.612503051758 186.306243896484 183.9375 181.131256103516 175.056243896484 166.287506103516 160.943756103516 156.75 152.137496948242 147.318756103516 143.537506103516 139.506256103516 137.631256103516 135.15625 131.09375 128.762496948242 121.875 117.318748474121 118.743751525879 115.78125 111.162498474121 109.987503051758 106.949996948242 105.5 105.262496948242 105.893753051758 103.131248474121 97.3187484741211 93.1750030517578 91.3187484741211 87.0250015258789 84.3499984741211 83.6437530517578 80.6812515258789 78.4250030517578 73.96875 70.8812484741211 65.8499984741211 60.7437515258789 57.2874984741211 52.6375007629395 48.59375 46.6937484741211 
136.537506103516 140.143753051758 150.34375 161.237503051758 169.212493896484 172.518753051758 174.556243896484 176.006256103516 178.237503051758 176.043746948242 171.456253051758 166.699996948242 161.768753051758 153.787506103516 148.6875 144.149993896484 140.631256103516 136.493743896484 132.774993896484 132.068756103516 128.993743896484 124.762496948242 120.356246948242 118.262496948242 112.699996948242 108.15625 108.699996948242 104.043746948242 100.806251525879 100.493751525879 98.8625030517578 96.7249984741211 95.125 94.34375 92.7562484741211 89.2125015258789 87.6437530517578 84.875 80.2249984741211 79.34375 77.9875030517578 77.3874969482422 75.4312515258789 72.7312469482422 69.4875030517578 64.3187484741211 58.9562492370605 54.4500007629395 49.4312515258789 45.28125 41.4000015258789 
135.337493896484 135.28125 136.743743896484 144.399993896484 154.59375 157.287506103516 158.362503051758 163.331253051758 167.618743896484 165.731246948242 159.706253051758 154.068756103516 149.0625 143.012496948242 137.59375 133.887496948242 129.506256103516 124.612503051758 120.862503051758 120.775001525879 120.268753051758 114.431251525879 110.75 110.099998474121 103.650001525879 98.6937484741211 96.90625 95.75 92.9937515258789 90.8625030517578 91.6125030517578 89.28125 88.7874984741211 88.6875 87.3937530517578 83.0812530517578 80.25 78.0437469482422 74.1500015258789 72.4812469482422 73.5625 73.2874984741211 73.5687484741211 71.4812469482422 68.5062484741211 63.7000007629395 57.7000007629395 51.6875 46.4312515258789 41.7999992370605 36.9375 
129.887496948242 129.743743896484 129.606246948242 128.587493896484 137.125 145.737503051758 148.59375 150.981246948242 155.600006103516 153.96875 146.337493896484 141.362503051758 138.087493896484 133.481246948242 128.412506103516 125.318748474121 120.118751525879 114.1875 111.8125 111.293746948242 110.681251525879 107.449996948242 104.393753051758 99.9124984741211 96.03125 92.1812515258789 90.4375 88.5124969482422 86.7375030517578 84.03125 84.4499969482422 84.2937469482422 82.8000030517578 83.21875 81.1187515258789 79.1687469482422 75.9625015258789 72.7937469482422 70.78125 70.9937515258789 70.875 72.1312484741211 73.40625 74.0812530517578 73.8625030517578 68.0625 59.8375015258789 53.1500015258789 48.4375 43.46875 38.7999992370605 
125.237503051758 126.4375 126.787498474121 126.837501525879 130.100006103516 132.375 134.381256103516 136.287506103516 134.212493896484 133.574996948242 130.393753051758 128.106246948242 127.612503051758 124.368751525879 121.243751525879 118.1875 113.275001525879 108.074996948242 104.15625 104.087501525879 102.543746948242 100.400001525879 97.65625 94.1500015258789 89.9875030517578 86.875 84.7874984741211 82.21875 78.7874984741211 78.53125 78.0875015258789 77.1062545776367 77.375 77.7687530517578 76.6937484741211 74.375 71.0749969482422 68.90625 68.15625 68.9437484741211 69.1624984741211 70.9124984741211 73.7312469482422 76.53125 78.4375 73.4375 63.5125007629395 53.84375 49.0625 45.03125 41.3312492370605 
121.631248474121 121.5625 124.293746948242 126 130.193756103516 131.96875 127.318748474121 118.5 112.731246948242 112.849998474121 116.125 116.212501525879 116.331253051758 115.025001525879 113.356246948242 110.481246948242 107.037498474121 102.037498474121 97.6374969482422 96.1687469482422 95.8874969482422 94.2750015258789 90.78125 87.0999984741211 84.6687469482422 80.6750030517578 78.0374984741211 75.9749984741211 73.4812469482422 71.6062469482422 72.7062530517578 71.7937469482422 71.25 72.3937530517578 70.5437469482422 68.40625 65.8687515258789 63.7999992370605 62.7687492370605 63 64.2937469482422 67.1437530517578 70.375 73.1500015258789 73.7562484741211 69.34375 61.4375 53.9375 48.7687492370605 45.1875 41.7249984741211 
119.206253051758 119.587501525879 123.056251525879 123.78125 126.462501525879 126.068748474121 122.8125 116.168746948242 105.931251525879 101.056251525879 103.3125 104.712501525879 108.537498474121 108.074996948242 106.275001525879 103.518753051758 101.96875 98.1875 96.34375 92.7375030517578 91.1875 90.125 86.3687515258789 85.1062469482422 81.7937469482422 76.6750030517578 72.8062515258789 72.0437545776367 70.125 68.7312469482422 69.9375 68.0374984741211 66.4124984741211 65.2874984741211 64.3874969482422 63.9000015258789 62.4625015258789 61.0250015258789 59.625 59.7312507629395 60.4749984741211 62.0499992370605 64.1687469482422 66.2437515258789 65.15625 62.1624984741211 56.4437484741211 50.9375 46.59375 44.2937507629395 43.0374984741211 
115.96875 116.806251525879 119.206253051758 121.375 123.737503051758 123.03125 122.143753051758 115.775001525879 107.349998474121 104.150001525879 102.574996948242 100.5 103.418746948242 103.90625 100.65625 98.3062515258789 95.5999984741211 94.21875 92.6999969482422 90.8125 89.0625 86.0500030517578 82.0562515258789 80.5187530517578 76.7249984741211 71.7874984741211 68.6624984741211 67.46875 65.0062484741211 63.9187507629395 63.65625 62.7062492370605 62.7937507629395 62.7374992370605 62.5562515258789 61.7437515258789 59.7625007629395 57.9749984741211 57.4625015258789 57.3250007629395 57.375 57.6312484741211 58.3875007629395 58.4437484741211 57.0125007629395 54.7312507629395 50.8812484741211 45.3875007629395 41.8125 40.71875 38.9249992370605 
114.96875 115.662498474121 116.506248474121 118 121.068748474121 122.537498474121 121.481246948242 113.950004577637 107.131248474121 102.706253051758 101.881248474121 100.0625 99.75 98.8375015258789 94.2750015258789 90.7562484741211 88.6687469482422 88.7062530517578 87.75 87.5500030517578 88.4312515258789 85.28125 80.6125030517578 76.2312469482422 74.1187515258789 69.6187515258789 67.0437469482422 64.8249969482422 61.1687507629395 59.4812507629395 60.3250007629395 59.9812507629395 61.1187515258789 61.2937507629395 60.0562515258789 58.59375 56.625 55.5062484741211 54.4187507629395 53.5437507629395 52.7687492370605 52.8250007629395 53.8250007629395 52.9937515258789 50.4812507629395 48.1687507629395 43.8812522888184 39.3187522888184 36.3812484741211 35.0437507629395 33.0374984741211 
113.356246948242 114.387496948242 115.143753051758 117.368751525879 120.662498474121 122.1875 122.081253051758 116.206253051758 108.918746948242 103.793746948242 101.599998474121 98.9562530517578 95.8625030517578 92.2750015258789 90.6750030517578 87.1687469482422 84.3937530517578 83.2249984741211 83.5625 85.09375 86.3375015258789 83.6937484741211 79.6812515258789 76.0562515258789 72.1437530517578 64.6374969482422 62.4000015258789 61.4124984741211 58.9375 58.0374984741211 58.125 59.1312484741211 58.7249984741211 58.5125007629395 58.3312492370605 57.78125 56.1187515258789 54.25 51.4749984741211 48.96875 47.9749984741211 47.9437484741211 48.0374984741211 45.1437492370605 42.03125 39.2874984741211 34.3125 30.875 30.4937496185303 30.4812507629395 27.5687503814697 
110.862503051758 110.587501525879 111.949996948242 112.868751525879 116.831253051758 117.5 115.150001525879 111.693748474121 105.387496948242 101.5 99.3499984741211 96.6624984741211 91.8874969482422 85.8062515258789 82.3499984741211 80.2687530517578 77.28125 77.7375030517578 78.0812530517578 78.3937530517578 80.3375015258789 78.625 75.40625 70.21875 63.3312492370605 57.5499992370605 58 58.2374992370605 58.4749984741211 58.1375007629395 57.7000007629395 57.84375 58.3624992370605 56.4312515258789 56.5437507629395 57.28125 58.0062484741211 55.7125015258789 53.3187484741211 48.4375 43.75 44.5437507629395 43.8312492370605 40.4625015258789 39.375 37.0374984741211 32.0625 28.375 27.2687492370605 27.7124996185303 26.4562492370605 
107.59375 106.043746948242 106.543746948242 108.731246948242 111.068748474121 110.625 108.706253051758 107.106246948242 101.46875 98.09375 94.8687515258789 90.1312484741211 85.7624969482422 80.09375 73.2624969482422 72.3312530517578 70.59375 70.8312530517578 69.2687530517578 69.0687484741211 71.0250015258789 69.7750015258789 67.2062530517578 63.8062515258789 59 55.1812515258789 56.1124992370605 57.28125 58.0812492370605 58.5687484741211 59.0499992370605 58.0250015258789 57.8624992370605 56.4749984741211 57.6749992370605 60.1624984741211 61.3937492370605 61.9249992370605 59.9187507629395 53.28125 43.5750007629395 40.5062484741211 41.71875 44.1624984741211 44.3375015258789 39.875 35.8312492370605 32.7312507629395 30.5750007629395 30.7374992370605 29.8312492370605 
104.068748474121 103.606246948242 103.087501525879 103.71875 106.081253051758 105.443748474121 103.556251525879 100.96875 95.7624969482422 92.5124969482422 87.8375015258789 83.9375 79.4312515258789 73.1187515258789 66.5 63.40625 61.9000015258789 61.1062507629395 60.4500007629395 60.8687515258789 62.7312507629395 62.4437484741211 61.2437515258789 60.6749992370605 59.0374984741211 57.5437507629395 58.1875 58.96875 59.1937484741211 59.3875007629395 59 58.90625 58.78125 58.5625 58.7750015258789 61.8624992370605 65.4875030517578 71.0374984741211 70.6437530517578 61.9000015258789 54.5250015258789 50.6875 51.3812484741211 50.4000015258789 47.4937515258789 44.7687492370605 42.4187507629395 40.4874992370605 39.34375 35.5187492370605 32.6375007629395 
99.21875 99.3125 99.5562515258789 100.012496948242 101.018753051758 101.243751525879 99.75 95.6999969482422 91.0500030517578 87.1312484741211 82.6187515258789 77.5187530517578 72.1875 66.4250030517578 60.7437515258789 55.125 53.4874992370605 53.03125 52.4625015258789 53.3125 55.0125007629395 56.0499992370605 57.25 59.6062507629395 60.2999992370605 59.7874984741211 60.8624992370605 60.8812484741211 60.7249984741211 61.2562484741211 61.8062515258789 61.5062484741211 60.2000007629395 59.8375015258789 60.9625015258789 68.4375 74.2687530517578 79.9375 81.21875 76.3937530517578 70.8687515258789 65.2312469482422 60.4375 55.4249992370605 51.0812492370605 47.71875 45.7687492370605 42.9437484741211 42.2874984741211 39.7125015258789 36.2312507629395 
96.6687469482422 96.84375 96.3687515258789 97.0437469482422 96.5500030517578 97.125 96.5124969482422 93.5687484741211 87.4812469482422 83.5687484741211 79.0499954223633 72.6437530517578 67.0999984741211 61.3187484741211 55.75 50.5187492370605 45.6749992370605 44.7000007629395 45.5 46.8875007629395 47.7750015258789 50.1812477111816 53.4375 59.2062492370605 62.6437492370605 62.53125 62.1875 62.4124984741211 61.5125007629395 61.4124984741211 63.21875 65.2312469482422 65.4749984741211 65.8375015258789 73.8187484741211 81.28125 87.4250030517578 96.09375 100.143753051758 91.0625 81.96875 72.7687530517578 64.59375 59.7687492370605 54.9874992370605 51.4749984741211 49.9500007629395 48.5 47.9312515258789 44.1500015258789 41.8875007629395 
92.6062469482422 93.6812515258789 93.9000015258789 95.0562515258789 94.7249984741211 95.2312469482422 92.7750015258789 90.1750030517578 84.46875 79.6687469482422 75.0062484741211 69.2062530517578 62.3312492370605 56.0999984741211 50.9375 45.8812484741211 41.25 37.8562507629395 39.5499992370605 39.9749984741211 41.9874992370605 44.9124984741211 49.6749992370605 56.25 62.1937484741211 63.9749984741211 65.0437469482422 64.875 63.03125 61.8312492370605 60.4625015258789 61.375 70.0812530517578 79.1687469482422 85.21875 94.6187515258789 103.28125 109.168746948242 108.043746948242 100.387496948242 86.2437515258789 77.1875 69.0062484741211 63.84375 58.0437507629395 55.3562507629395 54.1624984741211 51.9937515258789 49.5999984741211 45.9124984741211 45.2000007629395 
88.6125030517578 90.0124969482422 90.9937515258789 92.4875030517578 93.46875 92.7562484741211 90.9312515258789 87.7624969482422 83.8249969482422 79.3562469482422 73.8125 65.5687484741211 58.9874992370605 53.1312484741211 47.0499992370605 42.8687515258789 38.2312507629395 34.3125 33.5875015258789 34.71875 38.9249992370605 46.0562515258789 44.5 51.9375 58.7125015258789 64.5812530517578 67.4625015258789 66.8687515258789 66.7249984741211 62.5875015258789 60.2437515258789 64.9000015258789 75.8874969482422 84.0625 92.2562484741211 101.693748474121 106.381248474121 107.224998474121 106.612503051758 98.1937484741211 88.3062515258789 79.5625 71.5749969482422 65.4312515258789 60.5875015258789 58.0687484741211 56.2750015258789 54.5999984741211 52.3125 46.5999984741211 47.4187507629395 
85.3062515258789 86.7125015258789 87.5062484741211 89.0437469482422 89.40625 88.9499969482422 87.34375 84.9437484741211 82.5374984741211 78.4000015258789 73.5999984741211 67.5500030517578 59.4124984741211 51.7062492370605 46.0062484741211 40.4937515258789 34.3062515258789 32.5125007629395 32.2937507629395 33.9812507629395 34.84375 37.5875015258789 43.5625 50.5187492370605 56.7000007629395 61.0562515258789 65.2125015258789 67.3000030517578 66.8187484741211 62.1812515258789 61.7249984741211 71.9625015258789 79.3687515258789 88.125 97.6750030517578 103.21875 106.512496948242 108.856246948242 105.662498474121 98.5562515258789 88.09375 79.8937530517578 73.6875 68.0250015258789 63.25 61.4375 58.3125 56.2062492370605 53.7937507629395 48.9937515258789 50.4874992370605 
79.9749984741211 83.6875 86.3312530517578 88.1187515258789 87.5437469482422 86.6500015258789 85.6624984741211 83.8562469482422 81.7874984741211 77.8249969482422 73.7562484741211 68.8625030517578 60.71875 52.8125 46.2625007629395 40.6749992370605 35.3687515258789 32.34375 32.8875007629395 33.8187484741211 36.8937492370605 41.0125007629395 46.0562515258789 53.5999984741211 61.7874984741211 65.5875015258789 66.71875 68.4250030517578 69.6999969482422 70.4749984741211 73.0625 79.875 84.1437530517578 89.5875015258789 98.53125 103.568748474121 108.824996948242 111.15625 106.587501525879 100.131248474121 90.3375015258789 82.9499969482422 76.8687515258789 70.2750015258789 65.6999969482422 63.25 61.09375 58.5625 55.03125 52.8875007629395 52.9312515258789 
77.40625 80.25 83.5374984741211 86.6812515258789 87.59375 85.7062530517578 85.1999969482422 82.3562469482422 80.9499969482422 77.1312484741211 74.71875 72.2562484741211 67.9937515258789 60.3624992370605 52.7437515258789 44.96875 40.6312484741211 37.7437515258789 37.2687492370605 37.9500007629395 38.9375 42.3312492370605 47.5499992370605 54.8187484741211 61.6875 66.90625 73.3312530517578 74.75 77.125 77.8499984741211 79.75 83.375 86.7312469482422 91.7062530517578 95.7687530517578 100.987503051758 108.275001525879 113.162498474121 109.681251525879 102.40625 92.9875030517578 85.125 77.5187530517578 72.5625 66.5187530517578 64 62.7562484741211 60.7437515258789 57.5750007629395 57.2937507629395 54.8125 
75.0187530517578 80.6500015258789 84.9124984741211 87.0812530517578 88.5562515258789 86.6437530517578 83.4625015258789 80.0749969482422 79.8249969482422 79.0250015258789 78.8000030517578 78.2437515258789 76.5749969482422 69.53125 60.0187492370605 51.3062515258789 45 41.9937515258789 40.9812507629395 40.75 42.0875015258789 45.3812484741211 49.9187507629395 54.59375 62.78125 70.34375 76.6062469482422 80.6999969482422 82 80.9437484741211 82.1500015258789 85.78125 88.4499969482422 90.5124969482422 92.5062484741211 93.6374969482422 101.074996948242 111.268753051758 110.96875 103.168746948242 95.0812530517578 86.1937484741211 78.4875030517578 72.9749984741211 67.3687515258789 64.96875 63.46875 62.8375015258789 61.0875015258789 60.1312484741211 57.8062515258789 
74.7874984741211 81.9375 86.8062515258789 86.78125 86.9375 85.4187469482422 83.75 81.9562530517578 79.3375015258789 79.7312469482422 80.3375015258789 83.1374969482422 83.21875 75.5124969482422 65.9000015258789 57.125 50.7000007629395 47.0625 45.2312507629395 44.9249992370605 46.2374992370605 48.9500007629395 52.0499992370605 57.90625 64.8874969482422 70.9625015258789 78.6687469482422 80.9000015258789 83.25 83.6875 85.3562469482422 87.8249969482422 90.15625 89.84375 90.5749969482422 90.0500030517578 96.1875 106.693748474121 108.050003051758 101.699996948242 94.0999984741211 86.1937484741211 78.4124984741211 72.1875 69.5187530517578 65.9000015258789 65.6437530517578 65.4625015258789 66.09375 64.3312530517578 61.40625 
76.1125030517578 83.4375 87.4937515258789 88.9312515258789 89.1624984741211 86.8499984741211 84.2125015258789 82.59375 81.3937530517578 81.6500015258789 81.2312469482422 82.2687530517578 81.9187469482422 76.1374969482422 68.375 61.1624984741211 55.28125 51.3937492370605 49.1624984741211 48.6187515258789 49.9375 51.8499984741211 54.6437492370605 60.2125015258789 65.7000045776367 72.78125 77.5625 80.3687515258789 83 84.5 85.7937469482422 87.5999984741211 89.8687515258789 91.4187469482422 91.7249984741211 91.1500015258789 96.4562530517578 101.474998474121 102.28125 98.7562484741211 92.5500030517578 86.0625 79.0749969482422 73.3874969482422 69.7062530517578 68.1875 64.8000030517578 68.96875 70.4937515258789 67.7937469482422 64.625 
79.3375015258789 86.7249984741211 87.9562530517578 90.1187515258789 88.8000030517578 86.5437469482422 84.125 83.3937530517578 80.9124984741211 79.75 79.46875 79.6937484741211 78.7249984741211 73.5437545776367 68.4875030517578 62.3375015258789 57.6187515258789 54.5374984741211 51.8562507629395 51.6187515258789 53.0875015258789 54.3875007629395 57.3375015258789 61.5062484741211 66.40625 72.3249969482422 77.1624984741211 80.09375 83.2750015258789 85.4625015258789 86.4437484741211 88.3499984741211 89.6687469482422 90.9875030517578 91.4937515258789 93.2375030517578 96.6500015258789 98.53125 99.4124984741211 95.2937469482422 90.7750015258789 84.9625015258789 79.4375 74.7874984741211 70.8937530517578 63.0687484741211 66.5374984741211 69.7937469482422 71.5875015258789 68.0062484741211 63.8125 
82.2249984741211 87.4312515258789 89.1062469482422 89.8062515258789 88.7249984741211 86.4562530517578 85.2125015258789 83.0250015258789 79.7437515258789 79.6312484741211 79.46875 77.4250030517578 75.4937515258789 71.5812530517578 68.0250015258789 63.1875 59.5499992370605 56.53125 54.7125015258789 53.4000015258789 53.7562484741211 55.5125007629395 57.4749984741211 62.3499984741211 66.8687515258789 70.59375 76.0124969482422 79.2750015258789 81.8687515258789 83.25 85.4250030517578 86.3375015258789 88.8062515258789 90.7437515258789 91 93.09375 94.4124984741211 96.5 95.4562530517578 91.8375015258789 87.8562469482422 83.2937469482422 80.3687515258789 75.1750030517578 71.5687484741211 69.8874969482422 71.0250015258789 69.5374984741211 69.6687469482422 65.6437530517578 60.2437515258789 
86.4812469482422 87.65625 89.0500030517578 89.53125 89.0500030517578 85.9124984741211 84.3562469482422 82.5250015258789 80.2249984741211 79.2249984741211 77.0749969482422 74.625 72.5374984741211 70.0062484741211 66.4562530517578 63.125 60.7249984741211 58.1437492370605 56.4562492370605 54.9437484741211 55.3250007629395 55.3812484741211 58.0687484741211 62.3187484741211 66.0687484741211 68.7750015258789 73.8187484741211 77.7874984741211 80.8874969482422 82.53125 83.5062484741211 84.09375 86.8499984741211 88.3125 90.9875030517578 91.9124984741211 92.2687530517578 93.75 93.5124969482422 91.3125 87.4749984741211 84.4562530517578 81.8562469482422 79.8625030517578 77.9000015258789 76.21875 74.4812469482422 71.3187484741211 67.7562484741211 62.2249984741211 58.15625 
88 90.3312530517578 89.78125 89.6999969482422 87.1875 84.46875 81.9437484741211 79.28125 79.0562515258789 76.9250030517578 74.7750015258789 72.0999984741211 69.8562469482422 67.9437484741211 65.4812469482422 62.8937492370605 61.5374984741211 59.65625 58 56.7874984741211 56.7249984741211 56.6124992370605 58.3937492370605 61.4937515258789 65.2625045776367 67.2687530517578 72.2249984741211 75.7375030517578 78.46875 79.9875030517578 80.65625 81.9000015258789 83.5187530517578 84.7437515258789 87.9437484741211 90.9875030517578 92.6437530517578 94.375 94.3062515258789 91.3625030517578 86.3062515258789 84.0187530517578 82.9499969482422 83.1624984741211 81.2562484741211 78.6687469482422 76.09375 71.7624969482422 65.4375 59.0875015258789 52.8312492370605 
89.0875015258789 91.2125015258789 90.0187530517578 87.5500030517578 85.6624984741211 83.3187484741211 80.3499984741211 78.9875030517578 77.4187469482422 74.8000030517578 73.1500015258789 71.125 68.8375015258789 66.6437530517578 64.6312484741211 62.5 60.6687507629395 60.1687507629395 59.9124984741211 57.6375007629395 57.1124992370605 57.6500015258789 59.125 61.4625015258789 63.9500007629395 66.9875030517578 70.0500030517578 72.9749984741211 74.09375 75.34375 76.71875 78.6187515258789 80.4124984741211 82.6312484741211 86.0062484741211 88.3062515258789 93.0187530517578 96.125 95.3625030517578 95.2437515258789 92.8687515258789 89.7249984741211 85.7937469482422 84.6187515258789 83.1125030517578 79.8312530517578 76.1437530517578 71.9875030517578 64.1812515258789 57.4312515258789 51.0562515258789 
89.78125 90.1312484741211 87.1500015258789 85.9312515258789 86.1812515258789 83.0250015258789 80.375 77.5500030517578 75.2624969482422 72.7750015258789 70.53125 70.0250015258789 69.0500030517578 66.875 63.84375 61.8624992370605 61.2562484741211 60.9625015258789 61.1500015258789 59.6812515258789 58.6500015258789 57.3187484741211 58.0125007629395 60 61.9562492370605 64.9749984741211 66.65625 69.59375 71.3687515258789 72.9937515258789 74.8062515258789 76.0875015258789 77.4937515258789 80.1624984741211 85.0437469482422 87.4625015258789 92.1999969482422 96.1624984741211 98.3874969482422 100.887496948242 99.1062469482422 92.5437545776367 87.0875015258789 86.9625015258789 83.9625015258789 79.8874969482422 73.8499984741211 69.2562484741211 63.3500022888184 56.1937484741211 50.6749992370605 
89.5749969482422 89.3812484741211 86.1750030517578 84.53125 85.09375 82.0187530517578 78.8625030517578 75.1125030517578 73.15625 71.1750030517578 69.0999984741211 68.1500015258789 66.4875030517578 65.2687530517578 63.21875 62.9312515258789 61.7625007629395 61.1312484741211 60.46875 59.6124992370605 58.78125 58.6124992370605 57.8499984741211 58.1437492370605 60.0875015258789 62.3375015258789 63.875 66.5437469482422 67.7937469482422 69.0437469482422 71.5062484741211 72.5250015258789 74.4437484741211 77.9312515258789 80.5687484741211 83.1125030517578 88.15625 93.2062530517578 96.6500015258789 99.8000030517578 98.6437530517578 92.2437515258789 88.4375 85.8312530517578 83.7312469482422 80.0374984741211 72.7312469482422 67.4437484741211 61.78125 56.4812507629395 50.9937515258789 
86.25 85.2249984741211 82.9937515258789 82.1999969482422 81.1187515258789 78.0749969482422 76.2312469482422 73.6374969482422 71 69.6687469482422 69.2249984741211 67.09375 65.1312484741211 64.75 62.96875 62.84375 61.78125 61.5187492370605 60.5999984741211 59.5875015258789 58.5625 57.7937507629395 57.1624984741211 58.5562515258789 59.9562492370605 60.7625007629395 62.0812492370605 62.4500007629395 63.8624992370605 64.8499984741211 67.3187484741211 68.2874984741211 70.15625 72.78125 75.5124969482422 77.9187469482422 82.46875 86.5687484741211 89.8625030517578 92.9187469482422 91.84375 87.9375 84.625 81.6437530517578 79.3125 76.0687484741211 72.4499969482422 66.0749969482422 60.4562492370605 56.0437507629395 51.0437507629395 
82.5250015258789 82.5 80.4124984741211 80.5437469482422 76.9875030517578 75.2249984741211 74.4312515258789 72.3687515258789 69.6312484741211 67.6062469482422 66.3937530517578 65.3499984741211 64.6500015258789 62.1687507629395 61.6875 60.8312492370605 60.8312492370605 60 58.8187484741211 58.4124984741211 57.7374992370605 56.9749984741211 56.7000007629395 57.1187515258789 58.6187515258789 59.4749984741211 60.0875015258789 59.6375007629395 61.3375015258789 62.7249984741211 64.4312515258789 65.0437469482422 65.7249984741211 67.1187515258789 70.0374984741211 72.3125 76.15625 79.2874984741211 82.3625030517578 83.875 85.3937530517578 83.4375 80.4562530517578 77.3187484741211 74.4812545776367 71.9187469482422 68.7375030517578 64.5374984741211 59.96875 55.2125015258789 51.53125 
79.8062515258789 79.21875 77.9375 76.3375015258789 74.4562530517578 73.0187530517578 72.0562515258789 70.5812530517578 66.7937469482422 65.4437484741211 64.1437530517578 64.09375 62.5750007629395 61.65625 61.0875015258789 60.8250007629395 60.5750007629395 59.5062484741211 58.2937507629395 57.8499984741211 57.3687515258789 56.2999992370605 55.3062515258789 55.9749984741211 56.6375007629395 57.6062507629395 57.71875 57.2062492370605 58.6687507629395 60.2374992370605 60.6312484741211 60.5250015258789 61.1375007629395 61.7562484741211 63.7374992370605 65.65625 67.7750015258789 71.34375 74.5187530517578 76.1125030517578 76.6812515258789 75.5749969482422 74.4625015258789 72.4000015258789 70.5374984741211 67.7624969482422 65.7937469482422 62.7000007629395 58.15625 53.4000015258789 50.3499984741211 
77.15625 76.9437484741211 75.0812454223633 73.3000030517578 71.9749984741211 69.7062530517578 68.1875 66.03125 63.3875007629395 62.6187515258789 62.875 62.375 62.3624992370605 61.6875 61.3312492370605 61.53125 60.5250015258789 60.15625 58.2437515258789 57.4625015258789 57.2437515258789 57.3499984741211 56.0812492370605 56.4375 56.1500015258789 56 55.4375 56.1437492370605 55.9562492370605 56.5187492370605 56.7000007629395 56.5687484741211 55.2562484741211 56.2000007629395 56.96875 57.2937507629395 60.0750007629395 63.0062484741211 64.6750030517578 67.0250015258789 67.8562469482422 68.5999984741211 66.75 65.7874984741211 64.0625 61.1875 59.3812484741211 58.0750007629395 54.8187484741211 51.1937484741211 48.6312484741211 
72.4812469482422 72.2750015258789 70.5187454223633 69.5500030517578 68.53125 66.9187469482422 65.5250015258789 64.2062530517578 61.2437515258789 59.5250015258789 61.9749984741211 63.9500007629395 64.4312515258789 63.2374992370605 63.25 62.0687484741211 60.8312492370605 59.9000015258789 58.5625 57.1062507629395 56.9812507629395 57.1875 56.2750015258789 56.5 56.28125 54.75 54.4249992370605 54.2687492370605 52.6624984741211 52.9937515258789 53.4249992370605 52.5562515258789 51.4437484741211 50.8250007629395 50.9749984741211 51.4000015258789 53.5062484741211 56.2562484741211 57.4000015258789 59.4812507629395 59.9812507629395 60.9500007629395 59.6687507629395 59.5250015258789 57.59375 56.1687507629395 55.6812515258789 54.5250015258789 52.1312484741211 49.4249992370605 46.7750015258789 
69.0875015258789 69.2625045776367 67.1750030517578 67.2687530517578 66.7687530517578 64.8874969482422 63.5250015258789 62.0374984741211 60.6749992370605 59 65.09375 67.6187515258789 66.09375 65.7375030517578 65.7750015258789 63.9249992370605 61.53125 59.7000007629395 59.4249992370605 57.8250007629395 57.5062484741211 56.9000015258789 56.1687507629395 56.0687484741211 55.6437492370605 54.6624984741211 54.0625 53.5374984741211 52.1749992370605 51.65625 50.8062515258789 50.5687522888184 49.59375 47.0437507629395 45.9749984741211 45.6937484741211 48.40625 51.0812492370605 52.5437507629395 54.3375015258789 52.9000015258789 52.8062515258789 52.46875 52.3687515258789 52.09375 52.0374984741211 53.3375015258789 53.2125015258789 49.75 48.1062507629395 46.7000007629395 
66.84375 65.9187545776367 64.9499969482422 64.2437515258789 64.5062484741211 63.1375007629395 62.2874984741211 61.25 61.6062507629395 65.3187484741211 71.9562530517578 70.0749969482422 66.6187515258789 65.9250030517578 64.9312515258789 63.5374984741211 62.53125 61.40625 59.2687492370605 59.40625 58.34375 57.0374984741211 56.5374984741211 55.7312507629395 55.09375 53.7999992370605 53.1812515258789 53 51.7312507629395 50.5499992370605 49.5 48.9187507629395 47.5812492370605 44.1437492370605 42.8062515258789 43.9249992370605 45.28125 47.2437515258789 48.8875007629395 48.4625015258789 47.6500015258789 47.3062515258789 46.6937484741211 46.375 47.0999984741211 47.7062492370605 47.09375 48.1312484741211 46.5875015258789 46.21875 45.1312484741211 
64.125 63.6875 62.5625 62 61.53125 60.8624992370605 59.4937515258789 59.5437507629395 61.1500015258789 64.9124984741211 67.8874969482422 68.6687469482422 67.2750015258789 65.8187484741211 65.3062515258789 64.9124984741211 63.1624984741211 61.4937515258789 59.4500007629395 60.2062492370605 59.8375015258789 57.4874992370605 56.8312492370605 55.7249984741211 54.84375 53.4500007629395 52.6312484741211 51.8937492370605 49.9312515258789 49.4437484741211 48.6749992370605 48.7062492370605 46.6375007629395 43.75 43.0687484741211 43.2687492370605 43.0999984741211 44.7999992370605 45.5187492370605 43.875 42.7312507629395 42.59375 42 41.1375007629395 42.6124992370605 42.1437492370605 41.7437515258789 43.3250007629395 43.4562492370605 44.2000007629395 43.4000015258789 
62.0812492370605 62.4187507629395 61.375 61 59.7312507629395 58.1312522888184 57.1875 56.6437492370605 57.375 61.0062484741211 63.6687507629395 64.7562484741211 65.4124984741211 64.3812484741211 64.2937469482422 64.03125 63.1375007629395 61.9749984741211 61.0499992370605 60.7999992370605 60.9249992370605 58.4625015258789 56.6062507629395 55.4249992370605 54.6062507629395 52.78125 52.5062522888184 50.65625 48.9375 48.0187492370605 47.2750015258789 47.1062507629395 45.8062515258789 43.7562484741211 43.8812484741211 42.875 42.0125007629395 42.3562507629395 43.1124992370605 40.8250007629395 38.4249992370605 38.5250015258789 37.9000015258789 37.6937484741211 37.7125015258789 38.3375015258789 38.6312484741211 40.0499992370605 42.7062492370605 41.4749984741211 40.6375007629395 
61.3125 61.4312515258789 60.3187484741211 59.34375 57.4187507629395 54.6437492370605 53.2312507629395 53.1500015258789 54.03125 56.2562484741211 57.9874992370605 59.65625 61.4749984741211 61.2312507629395 61.6374969482422 62.3687477111816 61.8687477111816 61.6937484741211 60.3250007629395 59.90625 59.0875015258789 59.0687484741211 55.8937492370605 54.2937507629395 53.4625015258789 51.7562484741211 49.7625007629395 48.375 48.4000015258789 48.2125015258789 46.6187515258789 45.6749992370605 44.90625 46.0687484741211 46.1062507629395 43.34375 40.9249992370605 41.1624984741211 40.0250015258789 38.4500007629395 36.2062492370605 34.3687515258789 33.0250015258789 33.75 34.8062515258789 36.2125015258789 36.4874992370605 37.40625 40.75 38.5062484741211 38.2625007629395 
60.6062507629395 60.9249992370605 59.28125 57.1375007629395 54.40625 51.125 49.5499992370605 49.1375007629395 48.9624977111816 50.7062492370605 52.6624984741211 54.6375007629395 55.6624984741211 56.8312492370605 59.0999984741211 59.6749992370605 60.2249984741211 59.8875007629395 59.4375 58.8062515258789 57.9749984741211 58.8187484741211 56.3375015258789 54.3937492370605 52.5125007629395 49.9187507629395 48.6812515258789 48.3562507629395 46.9874992370605 46.6624984741211 45.8250007629395 44.8062515258789 44.4000015258789 44.7000007629395 46.1500015258789 45.3687515258789 40.8812522888184 39.6312484741211 38.21875 36.9000015258789 34.40625 32.3250007629395 31.1625003814697 31.34375 32.75 33.5750007629395 34.6124992370605 35.4437484741211 38.96875 37.5187492370605 36.2000007629395 
60.1062507629395 60.8499984741211 59.4874992370605 55.1937484741211 51.2312507629395 47.375 44.5625 43.8375015258789 44.2125015258789 45.65625 48.0250015258789 51.0062484741211 52.0562515258789 54.3250007629395 56.7000007629395 58.25 58.7999992370605 58.5187492370605 58.6687507629395 58.2687492370605 57.5499992370605 57.71875 54.3562507629395 52.5999984741211 51.8687515258789 50.4812507629395 48.9249992370605 47.59375 46.4500007629395 45.4124984741211 45.5374984741211 45 44.21875 43.4749984741211 45.7374992370605 48.2687492370605 42.7937507629395 39.65625 38.6312484741211 35.5187492370605 33.3125 32.1687507629395 30.8374996185303 31.0687503814697 30.8875007629395 31.6625003814697 32.09375 32.5062484741211 34.8499984741211 35.8250007629395 33.7625007629395 
59.125 60.5875015258789 60.7312507629395 55.4749984741211 49.09375 43.8937492370605 39.0125007629395 37.8250007629395 38.9187507629395 41.3937492370605 43.8687515258789 46.6187515258789 49.5499992370605 52.34375 54.2000007629395 55.2125015258789 56.3062515258789 56.2062492370605 56.8499984741211 57.1437492370605 55.8250007629395 54.8937492370605 52.4937515258789 51.8375015258789 51.0374984741211 49.59375 47.6124992370605 46.6749992370605 45.8375015258789 45.25 44.40625 44.2874984741211 43.5250015258789 42.7000007629395 44.2249984741211 45.2249984741211 42.3812484741211 39.3375015258789 36.9312515258789 35.0687484741211 33.2374992370605 32.1124992370605 30.5375003814697 30.6187496185303 30.7437496185303 30.8875007629395 30.9437503814697 31.3875007629395 31.8374996185303 32.7562522888184 31.3062496185303 
