ncols        51
nrows        45
xllcorner    -63.500000000000
yllcorner    -7.500000000000
cellsize     0.166666666667
NODATA_value -99
93.1687469482422 87.3312530517578 81.75 77.625 73.2125015258789 71 68.75 66.2874984741211 65.6624984741211 65.4875030517578 66.5124969482422 68.5124969482422 71.1812515258789 73.1999969482422 76.2312545776367 79.5 82.9437484741211 85.03125 87.9437484741211 90.8062515258789 93.7562484741211 96.3375015258789 98.96875 101.512496948242 104.018753051758 106.293746948242 109.256248474121 112.375 115.46875 117.287498474121 118.262496948242 119.724998474121 119.256248474121 118.231246948242 116.956253051758 117.131248474121 116.125 115.074996948242 114.21875 113.800003051758 113.074996948242 112.256248474121 111.431251525879 110.112503051758 110.737503051758 109.943748474121 109.824996948242 110.043746948242 111.199996948242 111.849998474121 112.293746948242 
96.3125 90.0687484741211 85.6187515258789 81.9375 78.4437484741211 76.2249984741211 73.8687515258789 72.65625 73.2750015258789 73.9499969482422 75.125 76.9562530517578 79.65625 82.15625 85.0374984741211 88.2375030517578 91.7062530517578 94.9375 98.5749969482422 102.962501525879 105.974998474121 108.618751525879 111.875 114.3125 116.65625 118.768753051758 120.90625 122.90625 124.849998474121 126.131248474121 126.256248474121 126.881248474121 124.818748474121 123.043746948242 121.537498474121 119.431251525879 118.974998474121 117.668746948242 116.106246948242 115.21875 114.131248474121 113.068748474121 112.099998474121 109.768753051758 109.693748474121 108.75 108.8125 108.900001525879 109.831253051758 109.868751525879 110.231246948242 
100.356246948242 94.7000045776367 91.03125 87.8874969482422 85.1437530517578 83.6062469482422 82.7249984741211 82.7750015258789 84.2562484741211 85.5 86.625 88.5062484741211 91.3062515258789 93.8375015258789 96.71875 99.4312515258789 102.90625 106.09375 109.949996948242 114.15625 117.449996948242 120.824996948242 124.349998474121 126.3125 128.237503051758 130.768753051758 132.268753051758 133.287506103516 134.756240844727 134.425003051758 134.143753051758 134.143753051758 132.837493896484 129.631256103516 127.175003051758 125.34375 123.150001525879 120.724998474121 118.868751525879 117.037498474121 114.900001525879 113.25 111.237503051758 109.612503051758 108.78125 107.168746948242 107.137496948242 107.762496948242 107.862503051758 107.400001525879 107.831253051758 
103.637496948242 99.1374969482422 96.9875030517578 94.0250015258789 92.2624969482422 92 92.5562515258789 93.8562469482422 96.1374969482422 98.5625 100.112503051758 102.112503051758 104.425003051758 106.956253051758 109.387496948242 112.268753051758 115.4375 117.824996948242 121.612503051758 126.706253051758 130.512496948242 134.050003051758 136.824996948242 138.706253051758 139.949996948242 142.4375 143.362503051758 143.112503051758 144.050003051758 143.774993896484 142.574996948242 141.09375 139.699996948242 137.168746948242 133.768753051758 130.800003051758 127.025001525879 123.756248474121 121.449996948242 118.393753051758 114.706253051758 112.506248474121 110.112503051758 108.462501525879 107.425003051758 106.106246948242 105.28125 105.818748474121 106.143753051758 105.412498474121 105.087501525879 
111.462501525879 105.074996948242 101.518753051758 99.9187469482422 99.28125 100.631248474121 102.262496948242 104.743751525879 108.668746948242 112.21875 113.837501525879 115.393753051758 118.143753051758 120.881248474121 123.03125 125.59375 128.306243896484 130.59375 134.606246948242 140.318756103516 144.449996948242 147.212493896484 149.731246948242 151.168746948242 152.012496948242 154.21875 153.262496948242 152.25 152.362503051758 151.949996948242 150.574996948242 148.131256103516 145.837493896484 143.03125 139.356246948242 135.84375 131.875 127.306251525879 123.799995422363 119.3125 114.40625 111.487503051758 108.987503051758 106.268753051758 105.650001525879 104.381248474121 102.806251525879 103.3125 103.431251525879 103.506248474121 102.224998474121 
118.212501525879 112.112503051758 107.724998474121 104.275001525879 104.21875 107.324996948242 110.299995422363 113.237503051758 117.387496948242 121.418746948242 123.512496948242 125.762496948242 129.362503051758 132.487503051758 135.725006103516 138.6875 142.03125 144.112503051758 149.606246948242 154.899993896484 157.443756103516 160.181243896484 161.824996948242 162.443756103516 162.706253051758 163.306243896484 162.862503051758 161.193756103516 159.925003051758 159 157.699996948242 155.912506103516 151.84375 147.84375 145.524993896484 141.756256103516 137.03125 133.012496948242 128.425003051758 121.65625 113.925003051758 110.262496948242 106.356246948242 103.650001525879 103.574996948242 102.068748474121 100 99.5187530517578 100.612503051758 100.431251525879 99.4749984741211 
126.362503051758 120.018753051758 115.643753051758 111.618751525879 110.0625 113.006248474121 116.875 120.256248474121 123.893753051758 127.068748474121 131.449996948242 135.162506103516 140.387496948242 144.337493896484 148.25 152.331253051758 157.350006103516 162.743743896484 168.949996948242 172.712493896484 172.893753051758 174.225006103516 174.262496948242 173.28125 173.350006103516 172.550003051758 170.731246948242 169.768753051758 167.90625 166.056243896484 164.356246948242 162.175003051758 158.662506103516 154.15625 150.443756103516 146.037490844727 141.631256103516 137.043746948242 132.574996948242 123.40625 113.231246948242 107.9375 103.793746948242 100.118751525879 99.5749969482422 98.9375 97.71875 96.875 97.1062469482422 97.0562515258789 97 
134.743743896484 127.993751525879 123.793746948242 120.818748474121 119.40625 121.743751525879 124.131248474121 125.637504577637 127.681251525879 132.193756103516 139.074996948242 145.4375 151.300003051758 157.28125 161.6875 166.837493896484 172.643753051758 180.59375 188.012496948242 188.943756103516 187.149993896484 185.975006103516 184.6875 182.287506103516 182.1875 181.40625 178.425003051758 176.40625 175.46875 173.787506103516 170.449996948242 167.756256103516 164.356246948242 159.475006103516 155.943756103516 149.831253051758 144.737503051758 138.96875 131.824996948242 121.762496948242 111.25 105.1875 100.362503051758 96.0562515258789 94.8499984741211 95.5374984741211 95.4499969482422 94.7125015258789 94.3625030517578 94.3000030517578 93.0999984741211 
143.274993896484 136.681243896484 133.112503051758 130.556243896484 128.90625 131.5625 133.787506103516 134.487503051758 134.537506103516 137.949996948242 146.518753051758 154.412506103516 161.412506103516 167.556243896484 172.618743896484 178.106246948242 184.318756103516 192.425003051758 199.600006103516 199.649993896484 195.231246948242 193.28125 191.925003051758 190.993743896484 189.768753051758 188.15625 184.706253051758 182.606246948242 180.556243896484 177.943756103516 175.693756103516 171.84375 167.806243896484 163.625 159.193756103516 153.118743896484 146.581253051758 139.4375 130.731246948242 120.699996948242 109.574996948242 103.018753051758 97.9312515258789 93.375 92.8312530517578 92.7874984741211 93.2437515258789 92.5437469482422 91.8874969482422 91.6500015258789 92 
151.018753051758 145.006256103516 142.162490844727 140.550003051758 139.212493896484 141.962493896484 144.5 145.918746948242 148.199996948242 152.137496948242 158.90625 164.962493896484 172.568756103516 177.837493896484 183.493759155273 188.84375 194.274993896484 199.956253051758 204.662490844727 205.6875 201.800003051758 199.34375 198.056243896484 197.6875 195.787506103516 193.587493896484 190.03125 187.199996948242 185.175003051758 182.212493896484 178.618743896484 174.5625 170.131256103516 165.268753051758 161.118743896484 155.806243896484 148.537506103516 140.631256103516 130.274993896484 119.443748474121 108.574996948242 101.831253051758 95.4000015258789 90.25 90.1875 91.0687484741211 90.2750015258789 89.5124969482422 88.9812469482422 88.9437484741211 87.9124984741211 
159.943756103516 154.043746948242 151.28125 149.524993896484 149.381256103516 153.268753051758 156.475006103516 157.993743896484 160.943756103516 165.787506103516 172.1875 178.237503051758 184.25 189.5 194.118743896484 199 203.118743896484 206.862503051758 209.262496948242 209.800003051758 207.65625 205.318756103516 204.243743896484 201.46875 202.106246948242 199.90625 195.181243896484 190.475006103516 186.449996948242 183.274993896484 179.5625 176.037506103516 171.65625 166.925003051758 162.399993896484 156.300003051758 149.137496948242 141.112503051758 131.024993896484 119.393753051758 108.050003051758 100.400001525879 93.6687469482422 88.125 87.78125 89.4312515258789 87.4000015258789 85.6812515258789 84.7687530517578 83.4875030517578 82.5500030517578 
167.993743896484 161.993743896484 159.71875 158.9375 159.037506103516 163.28125 167.462493896484 169.668746948242 173.018753051758 178.78125 185.493743896484 191.881256103516 196 200.168746948242 204.556243896484 207.862503051758 210.949996948242 212.293746948242 213.418746948242 213.850006103516 210.806243896484 209.375 210.068756103516 208.137496948242 207.875 205.256256103516 198.925003051758 192.431243896484 186.637496948242 183.018753051758 179.006256103516 175.46875 171.137496948242 166.9375 162.774993896484 156.987503051758 149.925003051758 142.243743896484 131.649993896484 120 108.512496948242 100.299995422363 92.8562469482422 86.53125 85.1812515258789 84.0687484741211 82.1125030517578 81.5437469482422 81.1187515258789 80.8812484741211 79.34375 
175.824996948242 170.318756103516 168.612503051758 167.787490844727 168.475006103516 172.393753051758 176.28125 179.706253051758 183.887496948242 190.425003051758 197.693756103516 204.149993896484 207.918746948242 210.125 214.237503051758 216.862503051758 218.706253051758 219.75 219.737503051758 218.5 213.125 212.831253051758 215.793746948242 214.568756103516 211.837509155273 207.4375 200.443756103516 193.556243896484 187.1875 181.725006103516 177.21875 173.143753051758 168.768753051758 165.137496948242 161.53125 156.893753051758 150.887496948242 143.631256103516 132.831253051758 120.481246948242 108.53125 100.318748474121 91.6812515258789 83.1750030517578 81.3187484741211 80.8812484741211 78.78125 77.5187530517578 76.75 77.5562515258789 77.65625 
182.493743896484 177.262496948242 175.774993896484 175.456253051758 175.987503051758 179.875 183.824996948242 188.681243896484 194.568756103516 200.824996948242 206.856246948242 212.731246948242 217.368743896484 220.193756103516 222.587493896484 226.162506103516 227.387496948242 227.050003051758 226.168746948242 224.65625 220.793746948242 220.006256103516 221.393753051758 218.587493896484 214.787506103516 210.006256103516 203.006256103516 193.90625 185.78125 179.387496948242 174.3125 169.506256103516 165.875 162.400009155273 159.84375 155.856246948242 151.03125 145.34375 135.137496948242 123.324996948242 109.393753051758 98.3062515258789 88.7562484741211 81.0812530517578 79.7750015258789 78.0999984741211 77.1750030517578 76.6437530517578 75.1875 74.96875 76.4937515258789 
187.96875 182.78125 182.03125 181.881256103516 182.912506103516 186.84375 192.0625 197.34375 203.399993896484 209.225006103516 215.112503051758 221.206253051758 225.556243896484 229.274993896484 231.399993896484 234.881256103516 235.262496948242 234.40625 233.168746948242 233.09375 229.399993896484 227.837493896484 227.050003051758 222.712493896484 218.162490844727 212.381256103516 204.306259155273 194.706253051758 185.212493896484 176.5 169.631256103516 164.774993896484 161.418746948242 158.737503051758 156.800003051758 152.331253051758 149.006256103516 145.5625 137.225006103516 124.106246948242 108.412498474121 97.4874954223633 88.4749984741211 81.2249984741211 78.4437484741211 76.4749984741211 74.625 75.0124969482422 75.0749969482422 74.3125 74.625 
192.043746948242 187.337493896484 187.087493896484 187.912506103516 189.262496948242 193.9375 199.443756103516 204.287506103516 210.524993896484 217.550003051758 223.212493896484 229.037506103516 233.837493896484 237.725006103516 240.556259155273 241.856246948242 242.168746948242 242.3125 241.006256103516 240.574996948242 237.856246948242 235.074996948242 233.131240844727 227.28125 221.949996948242 216.625 207.462493896484 196.512496948242 184.84375 173.46875 164.96875 158.518753051758 154.112503051758 151.524993896484 149.199996948242 145.96875 144.675003051758 143.768753051758 137.537506103516 124.087501525879 107.5 96.6937484741211 87.84375 79.7750015258789 77.2062530517578 75.2437515258789 73.71875 74.03125 73.6500015258789 73.1125030517578 73.1187515258789 
195.412506103516 191.350006103516 190.581253051758 192.28125 194.6875 199.34375 205.543746948242 211.868743896484 219.024993896484 225.537506103516 231.387496948242 236.71875 241.625 245.649993896484 248.78125 249.587493896484 247.850006103516 248.087493896484 248.431243896484 248.006256103516 245.237503051758 242.212493896484 239.524993896484 232.3125 226.381256103516 221.300003051758 212.131256103516 198.912506103516 183.225006103516 169.53125 159.449996948242 152.8125 146.912506103516 141.512496948242 137.850006103516 136.181243896484 137.912506103516 141.993743896484 141.574996948242 124.800003051758 105.868751525879 94.9937515258789 85.7062454223633 78.8375015258789 76.03125 73.9937515258789 72.5749969482422 72.7249984741211 73.0062484741211 72.7624969482422 73.4124984741211 
197.306243896484 193.625 193.550003051758 196.0625 199.1875 205.375 212.0625 218.4375 225.71875 233.425003051758 240.106246948242 245.368759155273 249.287506103516 253.175003051758 255.693740844727 256.049987792969 254.425003051758 251.324996948242 254.318756103516 254.425003051758 252.425003051758 248.974990844727 245.1875 237.925003051758 231.506256103516 226.162506103516 217.962493896484 200.993743896484 181.25 164.318756103516 152.206253051758 144.712493896484 140.125 135.675003051758 129.293746948242 122.393753051758 129.131256103516 136.068756103516 134.006256103516 121.081253051758 103.518753051758 93.0999984741211 84.9437484741211 78.625 75.8062515258789 74.1187515258789 72.7125015258789 72.6999969482422 72.6812515258789 72.65625 73.8812484741211 
197.887496948242 194.506256103516 195.737503051758 198.949996948242 202.956253051758 210.175003051758 217.550003051758 225.625 233.600006103516 241.706253051758 247.59375 251.8125 256.46875 260.993743896484 262.681243896484 262.456237792969 260.956237792969 257.981262207031 257.1875 258.524993896484 258.149993896484 257.0625 249.662506103516 242.793746948242 236.850006103516 230.587493896484 219.912506103516 202.768753051758 181.456253051758 161.324996948242 145.762496948242 141.631256103516 139.6875 134.743743896484 127.556251525879 122.65625 125.875 128.462493896484 125.262496948242 114.28125 100.068748474121 90.9625015258789 83.7125015258789 78.1500015258789 75.9437484741211 74.4625015258789 72.8062515258789 72.8937530517578 72.8937530517578 72.2687530517578 74.3187484741211 
197.550003051758 194.78125 196.256256103516 200.306243896484 205.606246948242 214.449996948242 223.481246948242 232.524993896484 241.474990844727 248.737503051758 255.231246948242 260.837493896484 265.774993896484 268.912506103516 268.981262207031 266.625 264.056243896484 263.25 263.168762207031 264.09375 261.024993896484 257.075012207031 253.725006103516 247.381256103516 240.881240844727 233.456253051758 221.462493896484 205.912490844727 185.506256103516 165.087493896484 151.024993896484 146.862503051758 143.543746948242 139.65625 135.206253051758 129.693756103516 127.912498474121 126.037498474121 120.331253051758 110.268753051758 97.7687530517578 88.6500015258789 82.7937545776367 78.0687484741211 76.2062530517578 74.8375015258789 73.65625 73.6937484741211 73.5999984741211 73.1062469482422 74.5875015258789 
196.368743896484 195.043746948242 198.125 202.993743896484 209.287506103516 219.425003051758 229.75 239.78125 249.40625 257.131256103516 262.706237792969 267.581268310547 271.637512207031 273.456237792969 272.881256103516 270.21875 267.268737792969 264.96875 265.606262207031 265.637512207031 263.443756103516 260.543762207031 257.28125 251.46875 246.606246948242 240.225006103516 228.699996948242 211.862503051758 192.981246948242 177.100006103516 164.806243896484 157.899993896484 151.96875 147.3125 142.837509155273 137.28125 132.787506103516 127.987503051758 120.506248474121 110.050003051758 98.2375030517578 89.9500045776367 83.6374969482422 78.3625030517578 76.4749984741211 75.3562469482422 74.5124969482422 74.6437530517578 74.3375015258789 74.7750015258789 75.65625 
195.25 193.368743896484 198.0625 205.46875 213.46875 224.5 236.399993896484 247.96875 257.424987792969 264.806243896484 269.237487792969 272.674987792969 275.3125 275.806243896484 275.625 273.8125 271.725006103516 270 269.456237792969 268.612487792969 263.799987792969 260.818756103516 259.081237792969 253.087493896484 248.431243896484 244.943756103516 237.681243896484 221.943756103516 203.84375 189.774993896484 178.237503051758 169.824996948242 161.5625 155.381256103516 149.043746948242 142.40625 137.362503051758 132.412506103516 123.912498474121 112.175003051758 100.337501525879 92.0124969482422 85.1750030517578 79.4875030517578 77.46875 76.5 75.625 75.7624969482422 76.1374969482422 77.0374984741211 77.4499969482422 
194.962493896484 194.568756103516 199.449996948242 207.46875 217.125 230.081253051758 242.743743896484 255.837493896484 266.6875 272.731262207031 275.856262207031 276.924987792969 278.9375 279.049987792969 278.600006103516 277.018737792969 274.856262207031 272.649993896484 271.743743896484 269.381256103516 263.956237792969 259.875 256.743743896484 250.987503051758 247.487503051758 246.706253051758 243.231246948242 229.274993896484 212.168746948242 200.074996948242 189.993743896484 181.362503051758 171.993743896484 163.199996948242 154.931243896484 145.893753051758 140.675003051758 137.606246948242 128.462493896484 115.381248474121 102.787498474121 93.96875 86.7874984741211 80.6937484741211 78.2874984741211 77.46875 76.6437530517578 77.3499984741211 78.4437484741211 79.4000015258789 79.7437515258789 
196.90625 196.84375 201.5625 210 220.725006103516 234.256256103516 248.243743896484 261.193756103516 271.299987792969 276.206237792969 278.8125 280.100006103516 281.40625 281.681243896484 280.850006103516 279.100006103516 277.243743896484 275.299987792969 273.606262207031 270.600006103516 263.3125 257.950012207031 252.918746948242 247.393753051758 243.53125 242.137496948242 238.818756103516 229.524993896484 217.706253051758 208.193756103516 200.350006103516 191.731246948242 182.293746948242 172.256256103516 162.675003051758 151.09375 144.356246948242 140.34375 130.768753051758 117.375 104.212501525879 95.375 87.78125 81.4124984741211 79.53125 78.8249969482422 78.6437530517578 78.9375 81.5749969482422 83.4375 84.0625 
201.78125 201.543746948242 205.4375 215.887496948242 228.34375 241.149993896484 254.199996948242 265.518737792969 273.700012207031 279.162506103516 282.081237792969 282.643737792969 283.21875 283.018768310547 282.631256103516 281.262512207031 279.418762207031 277.681243896484 275.4375 271.806243896484 263.106262207031 255.162506103516 248.756256103516 241.84375 238.287506103516 237.675003051758 235.056243896484 228.956253051758 220.762496948242 214.75 209.1875 201.78125 192.449996948242 181.868743896484 170.762496948242 159.056243896484 150.556243896484 142.256256103516 131.737503051758 118.974998474121 105.775001525879 96.7874984741211 88.7562484741211 82.7125015258789 80.2062530517578 79.8937530517578 79.34375 81.2750015258789 83.3499984741211 87.3687515258789 88.3874969482422 
210.462493896484 213.131256103516 217.212493896484 226.881256103516 236.893753051758 248.412506103516 259.387512207031 269.087493896484 276.15625 280.649993896484 283.125 284.125 284.106231689453 283.65625 284.024993896484 283.256256103516 281.200012207031 279.568756103516 277.231262207031 273.087493896484 264.712493896484 254.068756103516 244.25 234.699996948242 233.375 234.449996948242 233.850006103516 229.800003051758 224.018753051758 220.318756103516 216.462493896484 211.881256103516 203.09375 191.331253051758 179.625 166.774993896484 156.074996948242 145.618743896484 134.15625 121.46875 108.162498474121 98.2125015258789 89.4250030517578 82.75 80.8562469482422 80.2562484741211 82.96875 85.0187530517578 85.8375015258789 87.6750030517578 87.9250030517578 
214.84375 218.056243896484 224.943756103516 234.53125 243.800003051758 253.725006103516 262.21875 269.899993896484 274.962493896484 279.649993896484 283.450012207031 284.299987792969 283.71875 283.556243896484 284.40625 284.668762207031 283.53125 282.387512207031 280.381256103516 275.674987792969 266.962493896484 255.975006103516 244.5625 232.625 233.0625 234.631256103516 234.53125 231.399993896484 227.462493896484 224.90625 222.925003051758 219.862503051758 211.90625 199.237503051758 186.53125 173.137496948242 160.46875 148.46875 136.524993896484 124.012496948242 110.831253051758 100.025001525879 89.9625015258789 82.9000015258789 83.03125 85.5999984741211 88.4749984741211 89.2312469482422 89.4749984741211 88.9499969482422 88.3312530517578 
219.143753051758 222.912506103516 231.881256103516 242.037506103516 250.818756103516 259.206237792969 265.975006103516 270.987487792969 274.600006103516 278.162506103516 281.112487792969 282.03125 282.806243896484 283.243743896484 284.737487792969 285.1875 285.475006103516 284.631256103516 283.543762207031 279.631256103516 272.0625 262.893737792969 254.881256103516 244.5 240.831253051758 239.962493896484 238.024993896484 234.15625 230.056243896484 228.162506103516 226.399993896484 223.168746948242 214.787506103516 203.368743896484 191.006240844727 177.243743896484 164.012496948242 151.375 139.606246948242 127.618751525879 114.887496948242 103.65625 91.125 83.6500015258789 86.8499984741211 91.2562484741211 94.4937515258789 94.7375030517578 93.5812530517578 91.8375015258789 90.3687515258789 
222.34375 227.012496948242 238.018753051758 250.100006103516 258.46875 263.9375 268.0625 271.381256103516 273.700012207031 275.768737792969 278.868743896484 280.53125 281.512512207031 282.818756103516 284.556243896484 286.84375 288.068756103516 288.356262207031 287.912506103516 285.149993896484 279.149993896484 272.443756103516 267.274993896484 256.768737792969 250.856246948242 247.431243896484 243.524993896484 238.625 233.912490844727 231.25 228.868743896484 224.918746948242 216.237503051758 205.081253051758 193.512496948242 180.081253051758 166.956253051758 153.868759155273 141.887496948242 130.481246948242 119.068748474121 107.21875 94.8499984741211 88.9187469482422 92.2375030517578 96.4375 99.9312515258789 99.6750030517578 98.21875 95.5999984741211 93.0812530517578 
227.024993896484 231.90625 244.149993896484 257.606262207031 266.674987792969 267.462493896484 267.868743896484 269.306243896484 270.15625 271.212493896484 274.049987792969 275.8125 278.737487792969 281.818756103516 284.575012207031 286.837493896484 289.162506103516 292.143737792969 292.806243896484 290.537506103516 285.481262207031 280.756256103516 276.106262207031 266.431243896484 259.606262207031 254.956253051758 248.337493896484 242.824996948242 236.949996948242 233.65625 230.518753051758 225.84375 217.456253051758 206.550003051758 195.225006103516 181.543746948242 168.243743896484 154.837493896484 142.981246948242 131.28125 119.356246948242 110.543746948242 101.300003051758 96.2624969482422 96.5875015258789 101.362503051758 105.300003051758 106.106246948242 104.118751525879 100.6875 97.6750030517578 
229.96875 234.774993896484 245.887496948242 258.881256103516 266.5 264.90625 263.818756103516 263.462493896484 263.306243896484 265.256256103516 268.193756103516 271.118743896484 275.493743896484 279.487487792969 282.712493896484 286.212493896484 290.537506103516 293.71875 296.693756103516 295.46875 291.256256103516 287.668762207031 284.518737792969 274.950012207031 267.112487792969 261.131256103516 253.581253051758 246.831253051758 240.056243896484 236.431243896484 232.431243896484 227.056243896484 218.024993896484 207.550003051758 196.081253051758 182.568756103516 169.28125 155.737503051758 143.524993896484 131.106246948242 119.849998474121 113.550003051758 107.393753051758 102.131248474121 101.262496948242 108.175003051758 113.262496948242 114.143753051758 111.449996948242 106.993751525879 103.28125 
232.375 235.550003051758 244.025009155273 251.787506103516 255.681259155273 256.193756103516 255.712493896484 254.556243896484 255.112503051758 256.875 260.581237792969 265.34375 271.28125 276.493743896484 281.424987792969 285.918762207031 289.131256103516 292.5625 295.831237792969 296.162506103516 294.306243896484 292.34375 289.712493896484 280.549987792969 273.8125 266.993743896484 258.118743896484 250.550003051758 243.293746948242 239.168746948242 234.4375 228.59375 218.274993896484 207.631256103516 196.512496948242 183.618743896484 169.6875 155.75 143.806243896484 131.918746948242 122.231246948242 118.362503051758 115.012496948242 111.962501525879 112.443748474121 121.318748474121 126.34375 125.006248474121 120.0625 113.943748474121 109.34375 
239.837493896484 240.475006103516 244.350006103516 248.637496948242 250.112503051758 249.649993896484 247.606246948242 245.293746948242 245.318756103516 247.568756103516 253.768753051758 259.643737792969 267.362487792969 275.306243896484 280.356262207031 284.225006103516 286.756256103516 291.075012207031 292.75 293.774993896484 293.09375 292.600006103516 290.837493896484 282.350006103516 276.049987792969 270.362487792969 261.506256103516 252.600006103516 245.637496948242 240.774993896484 236.100006103516 230.006256103516 219.618743896484 208.668746948242 197.412506103516 184.456253051758 170.737503051758 157.1875 146.399993896484 137.431243896484 129.100006103516 126.793746948242 126.043746948242 126.837501525879 132.675003051758 144.493743896484 146.074996948242 138.9375 130.675003051758 123.087501525879 117.856246948242 
247.224990844727 245.65625 246.524993896484 246.649993896484 244.5 242.350006103516 239.425003051758 236.018753051758 235.256256103516 237.268753051758 243.381256103516 253.1875 263.65625 272.168762207031 278.09375 281.693756103516 284.725006103516 288.818756103516 289.856231689453 290.981262207031 290.956268310547 290.631256103516 289.03125 282.012512207031 276.137512207031 271.03125 263.125 254.868743896484 248.243743896484 242.46875 237.300003051758 231.412506103516 220.831253051758 209.675003051758 197.887496948242 184.806243896484 171.625 157.893753051758 149.59375 142.737503051758 136.399993896484 135.412506103516 136.40625 139.693756103516 147.681243896484 159.21875 159.231246948242 149.96875 140.837509155273 131.96875 126.387496948242 
253.731246948242 250.981246948242 248.899993896484 245.362503051758 240.956253051758 236.637496948242 231.737503051758 226.899993896484 224.28125 226.143753051758 233.824996948242 246.256256103516 260.493743896484 272.03125 278.018737792969 281.375 283.462493896484 286.443756103516 287.90625 287.543762207031 288.4375 287.481231689453 287.118743896484 280.71875 275.143737792969 270.931243896484 263.518737792969 256.287506103516 249.887496948242 243.956253051758 238.581253051758 232.431243896484 221.962493896484 210.868743896484 198.831253051758 185.443756103516 172.050003051758 159.899993896484 153.53125 147.856246948242 143.350006103516 143.056243896484 144.625 148.168746948242 154.943756103516 160.100006103516 160.324996948242 154.912506103516 147.131256103516 139.818756103516 135.149993896484 
260.881256103516 257.081237792969 253.056243896484 248.0625 241.875 236.0625 228.818756103516 221.456253051758 216.4375 215.618743896484 224.487503051758 240.925003051758 259.049987792969 272.149993896484 278.600006103516 281.693756103516 282.981262207031 285.024993896484 284.850006103516 283.424987792969 283.493743896484 283.506256103516 282.006256103516 276.487487792969 272.237487792969 268.318756103516 262.262512207031 255.96875 250.212493896484 244.850006103516 239.899993896484 233.493743896484 223.712493896484 212.643753051758 201.018753051758 188.587493896484 177.774993896484 167.149993896484 161.449996948242 156.768753051758 153.0625 153.362503051758 154.46875 157.306243896484 162.168746948242 165.550003051758 165.34375 162.143753051758 156.850006103516 150.975006103516 147.537506103516 
267.637512207031 263.206237792969 258.225006103516 252.543746948242 245.837493896484 238.756256103516 230.668746948242 220.84375 211.706253051758 204.850006103516 217.425003051758 242.512496948242 261.212493896484 273.131256103516 279.450012207031 282.012512207031 282.943756103516 283.4375 282.700012207031 280.34375 279.143737792969 277.856262207031 275.956237792969 271.21875 267.325012207031 264.506256103516 259.1875 255.03125 250.975006103516 246.018753051758 240.912506103516 234.581253051758 225.175003051758 214.962493896484 203.737503051758 193.862503051758 184.512496948242 175.34375 169.706253051758 165.462493896484 162.0625 162.137496948242 162.962493896484 165.131256103516 168.300003051758 170.243743896484 170.868743896484 169.262496948242 166.300003051758 161.881256103516 160.243743896484 
273.700012207031 269.325012207031 264.299987792969 258.243743896484 251.925003051758 243.912506103516 236.006256103516 226.306243896484 217.043746948242 206.862503051758 230.725006103516 257.399993896484 270.049987792969 278.193756103516 282.475006103516 284.03125 283.475006103516 283.231262207031 280.674987792969 277.6875 274.200012207031 271.493743896484 269.393737792969 265.206237792969 261.799987792969 259.725006103516 256.831237792969 254.006256103516 251.118743896484 247.068756103516 241.662506103516 235.893753051758 227.225006103516 217.800003051758 207.462493896484 199.21875 191.268753051758 183.206253051758 178.375 174.212493896484 170.6875 170.324996948242 170.331253051758 171.675003051758 174.71875 176.350006103516 177.4375 177.737503051758 175.475006103516 173.475006103516 173.387496948242 
278.918762207031 274.418762207031 270.03125 264.943756103516 258.868743896484 251.956253051758 245.53125 240.03125 238.306243896484 247.006256103516 274.931243896484 281.331237792969 283.612487792969 287.212493896484 289.175018310547 289.487487792969 287.962493896484 285.15625 280.975006103516 276.137481689453 270.649993896484 265.8125 262.568756103516 259.149993896484 256.899993896484 255.675003051758 253.712493896484 252.643753051758 251.324996948242 248.524993896484 245.012496948242 239.362503051758 232.21875 224.331253051758 216.668746948242 209.431243896484 202.193756103516 195.012496948242 190.050003051758 185.600006103516 182.324996948242 181.350006103516 180.831253051758 181.425003051758 183.943756103516 185.912506103516 186.462493896484 188.237503051758 188.40625 187.675003051758 188.774993896484 
285.28125 280.706237792969 276.681243896484 272.237487792969 267.362487792969 262.806243896484 258.981262207031 257.993743896484 260.712493896484 270.618743896484 286.40625 293.725006103516 294.837493896484 296.412506103516 297.356262207031 296.15625 293.25 289.206237792969 282.412506103516 275.299987792969 266.3125 258.868743896484 253.981246948242 250.637496948242 250.206253051758 250.762496948242 251.043746948242 251.818756103516 251.850006103516 250.618743896484 247.681243896484 244.362503051758 239.34375 233.100006103516 226.643753051758 219.618743896484 213.487503051758 206.818756103516 201.699996948242 196.71875 192.6875 191.568756103516 191.074996948242 191.25 193.824996948242 195.506256103516 196.756256103516 199.512496948242 200.818756103516 201.78125 204.006256103516 
292.100006103516 287.918762207031 284.325012207031 280.318756103516 276.712493896484 273.606262207031 272.174987792969 273.743743896484 277.987487792969 285.506256103516 294.568756103516 300.862487792969 303.756256103516 305.318756103516 304.868743896484 303.181243896484 299.325012207031 293.556243896484 284.731262207031 274.1875 261.737487792969 251.381256103516 244.90625 242.5 243.956253051758 246.03125 248.481246948242 251.375 253.543746948242 253.175003051758 252.568756103516 251.149993896484 247.268753051758 242.868743896484 237.212493896484 230.449996948242 224.112503051758 217.887496948242 213.037506103516 207.706253051758 203.293746948242 201.487503051758 200.056243896484 200.34375 203.274993896484 205.881256103516 207.518753051758 211.018753051758 214.043746948242 215.324996948242 218.824996948242 
301.631256103516 297.9375 294.612487792969 291.043762207031 287.549987792969 285.568756103516 285.9375 288.375 293.325012207031 299.125 305.543762207031 310.75 314.643737792969 315.831237792969 314.362487792969 312.331237792969 308.587493896484 301.856262207031 291.606262207031 276.024993896484 258.299987792969 245.018753051758 237.956253051758 237.018753051758 240.268753051758 243.456253051758 247.168746948242 251.0625 255.925003051758 258.143737792969 258.537506103516 259.162506103516 256.456237792969 253.125 248.106246948242 240.893753051758 234.818756103516 228.887496948242 224.068756103516 218.524993896484 214 210.512496948242 208.881256103516 210.443756103516 214.368743896484 216.981246948242 218.787506103516 222.231246948242 226.443756103516 229.387496948242 233.800003051758 
311.649993896484 307.856262207031 305.149993896484 301.5625 299.262512207031 298.418762207031 299.618743896484 302.237487792969 306.362487792969 311.331237792969 317.299987792969 321.549987792969 324.818756103516 325.818756103516 325.137512207031 323.018737792969 318.274993896484 312.537506103516 302.375 280.481262207031 255.4375 235.662506103516 230.199996948242 233.181243896484 237.912506103516 242.5 246.675003051758 252.206253051758 257.837493896484 262.081237792969 265.399993896484 267.087493896484 266.006256103516 262.774993896484 258.100006103516 251.9375 245.606246948242 240.125 235.175003051758 230.537506103516 225.774993896484 222.887496948242 221.225006103516 222.262496948242 225.912506103516 227.9375 229.481246948242 233.106246948242 237.512496948242 240.931243896484 247.78125 
322.84375 318.75 315.387512207031 311.637512207031 311.4375 311.168762207031 312.212493896484 315.443756103516 319 323.381256103516 328.15625 332.40625 335.237487792969 336.8125 335.674987792969 331.549987792969 326.75 320.700012207031 312.731262207031 287.206237792969 258.212493896484 234.112503051758 228.762496948242 232.449996948242 237.743743896484 242.712493896484 247.637496948242 253.5 259.693756103516 266 271.243743896484 274.918762207031 274.712493896484 271.668762207031 267.143737792969 262.5625 256.125 250.71875 247.1875 242.668746948242 239.024993896484 236.350006103516 235.256256103516 235.75 237.675003051758 239.28125 240.78125 243.125 246.556243896484 251.806243896484 259.543762207031 
332.899993896484 328.943756103516 325.318756103516 322.262512207031 322.0625 322.793762207031 323.762512207031 326.518737792969 329.59375 334.568756103516 339.5 343.412506103516 346.524993896484 347.162506103516 344.262512207031 338.893737792969 331.756256103516 323.600006103516 311.987487792969 289.556243896484 265.506256103516 247.524993896484 237.899993896484 237.5625 241.1875 245.5 249.875 255.25 261.268737792969 267.462493896484 272.956237792969 277.581237792969 277.962493896484 275.068756103516 272.356262207031 268.537506103516 262.962493896484 258.649993896484 255.443756103516 252.137496948242 249.162506103516 247.34375 246.506240844727 246.731246948242 248.100006103516 248.881256103516 249.850006103516 251.587493896484 252.425003051758 256.5 265.756256103516 
