ncols        51
nrows        45
xllcorner    -63.500000000000
yllcorner    -7.500000000000
cellsize     0.166666666667
NODATA_value -99
83.5562515258789 81.3687515258789 77.34375 75.0124969482422 72.5999984741211 70.9812469482422 68.90625 67.0374984741211 66.3687515258789 65.5500030517578 65.0500030517578 65.96875 67.2624969482422 67.8125 70.7375030517578 73.625 76.4937515258789 78.2874984741211 80.0374984741211 81.6937484741211 80.6999969482422 79.2562484741211 78.25 76.9749984741211 76.1812515258789 75.9375 77.6750030517578 79.6687469482422 81.4625015258789 83.875 86.7125015258789 90.09375 92.9937515258789 96.5500030517578 99.7687530517578 102.606246948242 105.637496948242 108.106246948242 109.037498474121 109.887496948242 109.756248474121 110.012496948242 108.956253051758 107.818748474121 105.793746948242 102.900001525879 98.7312469482422 92.9499969482422 87.6187515258789 81.0562515258789 73.4124984741211 
86.5875015258789 84.0625 81.1312484741211 79.1875 77.7687530517578 75.8499984741211 73.2687454223633 71.6999969482422 70.53125 68.8812484741211 67.6500015258789 67.7437515258789 67.9625015258789 68.3562469482422 70.6062469482422 73.625 76.0687484741211 79.625 83.0062484741211 85.9749984741211 84.7750015258789 82.9499969482422 81.6812515258789 80.40625 78.3312530517578 77.1125030517578 78.3625030517578 79.53125 80.8625030517578 83.15625 86.0374984741211 89.5124969482422 92.09375 96.6687469482422 100.818748474121 104.481246948242 108.462501525879 111.887496948242 112.90625 113.893753051758 114.550003051758 114.349998474121 113.768753051758 111.53125 109.25 105.856246948242 101.875 94.78125 88.0437469482422 80.46875 72.09375 
92.4937515258789 90.5562515258789 87.4187469482422 84.8375015258789 83.3625030517578 80.84375 78.8687515258789 76.8125 75.5374984741211 73.4625015258789 71.0625 70.2312469482422 69.7937469482422 69.4187469482422 71.34375 73.7625045776367 76.2312469482422 79.1312484741211 81.4499969482422 83.5250015258789 81.6500015258789 79.1750030517578 77.2687530517578 75.8562469482422 73.9187469482422 72.3687515258789 73.40625 74.6999969482422 75.71875 78.03125 81.7249984741211 85.3125 89.9812469482422 94.96875 100.387496948242 104.849998474121 109.875 115.59375 117.34375 119.012496948242 119.856246948242 118.90625 117.868751525879 115.956245422363 112.743751525879 108.818748474121 104.443748474121 97.21875 88.8375015258789 80.2874984741211 71.6062469482422 
96.96875 95.1999969482422 93.0687484741211 90.15625 88.5437469482422 85.8000030517578 83.2687530517578 81.5124969482422 80.5 78.2750015258789 74.7562484741211 72.7562484741211 71.2874984741211 70.125 71.9250030517578 74.2374954223633 76.5687484741211 77.9000015258789 79.0999984741211 80.3249969482422 77.7125015258789 74.3125 71.1875 69.2874984741211 67.4312515258789 66.0250015258789 67.15625 67.8375015258789 69.2312469482422 72.4875030517578 76.3812484741211 80.8312530517578 85.6624984741211 91.5187530517578 97.7874984741211 104.856246948242 112.050003051758 118.912498474121 121.693748474121 123.662498474121 123.925003051758 123.550003051758 121.331245422363 118.849998474121 115.431251525879 112.03125 106.431251525879 98.9124984741211 90.0500030517578 80.8937530517578 71.3937530517578 
104.206253051758 101.268753051758 95.9187469482422 93.71875 93.0749969482422 90.34375 87.5374984741211 85.8000030517578 85.3187484741211 83.4250030517578 78.0374984741211 74.2624969482422 71.9437484741211 70.5562515258789 72.1937484741211 74.5750045776367 76.4124984741211 76.6750030517578 76.3687515258789 75.625 72.75 68.6875 64.9749984741211 63.2374992370605 60.7750015258789 59.2125015258789 59.5437507629395 60.9249992370605 62.8125 65.9499969482422 70.15625 75.0374984741211 80.8874969482422 87.875 95.4437484741211 103.881248474121 112.875 121.6875 125.762496948242 126.862503051758 127.756248474121 126.112503051758 123.893753051758 121.300003051758 118.056251525879 113.6875 108.018753051758 99.2562484741211 90.6437530517578 82.0250015258789 71.5 
110.568748474121 108.074996948242 102.474998474121 97.0124969482422 96.9562530517578 95.53125 92.6937484741211 89.8125 88.5875015258789 86.65625 80.2624969482422 76.1437530517578 73.8499984741211 72.1374969482422 72.8125 74.0625 75.1437530517578 73.7624969482422 72.1312484741211 69.6999969482422 66.21875 62.4000015258789 58.7312507629395 56.4375 54.4625015258789 52.6687507629395 53.2312507629395 54.3937492370605 56.1312484741211 59.4124984741211 63.3312492370605 69.0562515258789 75.4499969482422 83.3874969482422 91.6312484741211 101.381248474121 111.574996948242 121.71875 126.525001525879 128.0625 126.375 124.706253051758 122.268753051758 119.974998474121 117.881248474121 112.550003051758 105.643753051758 97.4250030517578 90.2999954223633 82.1687469482422 71.6999969482422 
118.181251525879 117.043746948242 111.25 105.375 102.881248474121 99.2062530517578 95.5062484741211 91.46875 87.9437484741211 83.3687515258789 79.03125 76.4000015258789 74.8375015258789 73.2874984741211 73.46875 74 73.9437484741211 70.625 66.6687469482422 63.4625015258789 59.6749992370605 55.8125 52.2000007629395 49.8187484741211 47.7937507629395 46.3375015258789 46.8562507629395 47.7750015258789 48.875 52.4312515258789 56.8187484741211 62.2374992370605 69.4875030517578 78.1999969482422 87.6687469482422 97.6312484741211 108.199996948242 119.425003051758 126.087501525879 126.737503051758 123.875 121.53125 119.09375 116.456253051758 114.131248474121 109.506248474121 103.193748474121 95.3812484741211 88.9562530517578 82.4124984741211 73.0250015258789 
127.099998474121 125.837501525879 120.587501525879 116.212501525879 113.025001525879 106.800003051758 99.0500030517578 90.71875 84.1125030517578 79.4187469482422 77.15625 76.4000015258789 75.5875015258789 74.3625030517578 73.84375 73.5812530517578 72.2874984741211 67.1750030517578 61.6812515258789 56.6875 53.2249984741211 49.5250015258789 45.6437492370605 43.3062515258789 41.5625 39.6312484741211 40.1124992370605 40.8562507629395 42.1437492370605 45.5499992370605 49.9124984741211 55.7000007629395 63.53125 72.5625 82.5875015258789 92.4437484741211 103.668754577637 114.237503051758 118.287498474121 118.693748474121 116.699996948242 114.631248474121 112.231246948242 109.512496948242 106.831253051758 103.787498474121 98.5187530517578 92.2249984741211 87.0062484741211 81.9562530517578 72.4875030517578 
134.725006103516 134.074996948242 129.806243896484 125.5 121.518753051758 114.125 105.28125 95.6187515258789 85.8125 79.2249984741211 77.9875030517578 78.1125030517578 78.0437469482422 76.9000015258789 74.8062515258789 72.4000015258789 69.34375 63.8937492370605 58.7312507629395 53.15625 48.7000007629395 44.7374992370605 40.5125007629395 38.59375 36.5562515258789 34.5625 34.9000015258789 35.8250007629395 37.09375 40.15625 44.6437492370605 50.6624984741211 58.1500015258789 66.8062515258789 76.1875 85.53125 95.375 104.449996948242 107.162498474121 107.962501525879 106.543746948242 104.375 102.737503051758 100.493751525879 97.7375030517578 94.8874969482422 91.3312530517578 86.4875030517578 82 77.7249984741211 70.9625015258789 
142.824996948242 141.662506103516 137.649993896484 133.693756103516 129.912506103516 122.699996948242 112.993751525879 102.449996948242 93.4312515258789 86.96875 83.2437515258789 81.7062530517578 81.5187530517578 79.9749984741211 75.7312469482422 71.1062469482422 66.1500015258789 60.7374992370605 55.2437515258789 49.8562507629395 45.0187492370605 40.3499984741211 35.7000007629395 33.5437507629395 31.2937507629395 29.5125007629395 30.2625007629395 31.1000003814697 32.2874984741211 35.2249984741211 39.6124992370605 45.3812484741211 52.8499984741211 61.4750022888184 70.5999984741211 78.9499969482422 87.6750030517578 94.9437484741211 97.0500030517578 97.5437469482422 96.8249969482422 95.1875 93.1187515258789 90.4250030517578 88.5875015258789 86.5749969482422 83.4375 80.4499969482422 76.9375 73.7750015258789 67.2624969482422 
151.362503051758 150.125 145.71875 141.762496948242 137.881256103516 131.84375 122.481246948242 111 101.756248474121 94.5500030517578 89.8249969482422 87.1999969482422 85.4562530517578 82.9499969482422 76.4625015258789 69.5562515258789 63 57.4375 51.9312515258789 46.5999984741211 42.1687507629395 36.7000007629395 31.2437496185303 28.28125 26.3187503814697 24.9874992370605 26.0062503814697 27.1749992370605 28.2875003814697 31.4187507629395 35.8125 41.25 48.8187484741211 57.21875 65.65625 72.4812469482422 79.3812484741211 85.5999984741211 88.0187530517578 88.4562530517578 87.5875015258789 86.25 84.5437469482422 82.2375030517578 79.8000030517578 78.7687530517578 75.8562469482422 73.2687530517578 71.0812530517578 67.9749984741211 62.625 
158.449996948242 156.737503051758 152.237503051758 148.912506103516 145.112503051758 139.425003051758 131.125 119.606246948242 110.199996948242 102.637496948242 96.71875 92.4250030517578 87.7562484741211 83.40625 76.5250015258789 69.3812484741211 62.7625007629395 57.0437507629395 51.75 46.6687507629395 41.9625015258789 35.6437492370605 29.1875 25.75 23.4312496185303 22.0062503814697 23.2124996185303 24.6499996185303 26.3500003814697 29.7312507629395 33.75 38.5250015258789 45.5062484741211 53.2437515258789 61.28125 66.7687530517578 71.9437484741211 76.9812469482422 78.6812515258789 79.25 79.0250015258789 77.7750015258789 76.2874984741211 74.3874969482422 71.3625030517578 67.9187469482422 65.3062515258789 65.0250015258789 63.5999984741211 61.9437484741211 57.7562522888184 
165.168746948242 163.475006103516 158.956237792969 154.606246948242 150.074996948242 144.231246948242 135.90625 125.931251525879 117.118751525879 109.962501525879 103.393753051758 97.28125 90.5812530517578 82.8874969482422 75.4249954223633 68.5625 62.2249984741211 57.0374984741211 51.7312507629395 46.3125 41.1812515258789 34.1124992370605 26.8312492370605 23.4500007629395 20.8187503814697 19.1687507629395 20.8125 22.5499992370605 24.5125007629395 28.09375 31.9249992370605 36.2437515258789 42.4812507629395 49.5499992370605 56.8250007629395 60.9749984741211 64.7562484741211 68.3562469482422 70.1437530517578 70.1937484741211 70.4749984741211 69.8062515258789 67.7249984741211 63.3250007629395 60.7312507629395 60.0562515258789 58.4812507629395 57.4437484741211 55.7750015258789 55.0999984741211 53.0812492370605 
171.46875 168.362503051758 163.59375 158.762496948242 154.024993896484 147.28125 139.537506103516 131.131256103516 123.65625 116.362503051758 109.356246948242 100.28125 91.6437530517578 82.6937484741211 73.7312469482422 67.0749969482422 61.2312507629395 56.0125007629395 50.59375 44.7687492370605 38.6749992370605 31.28125 24.0812492370605 20.8250007629395 18.4375 16.8812503814697 18.8125 20.84375 22.90625 26.4624996185303 30.2562503814697 34.2000007629395 39.8937492370605 46.2437515258789 53.03125 56.1812515258789 58.625 61.6124992370605 62.5062484741211 63.0687484741211 62.5750007629395 60.1624984741211 57.5499992370605 55.875 54.8125 54.1687507629395 54.1812515258789 53.7562484741211 52.0187492370605 50.4625015258789 48.8312492370605 
175.037506103516 171.524993896484 166.756256103516 161.856246948242 156.787506103516 150.056243896484 143.112503051758 135.356246948242 127.768753051758 120.324996948242 112.762496948242 102.912498474121 93.0250015258789 83.34375 73.4749984741211 66.8062515258789 61.6437492370605 56.7625007629395 51.5062484741211 45.5999984741211 38.8562507629395 31.2250003814697 23.9624996185303 20.6875 18.28125 16.625 18.5375003814697 20.65625 22.7312507629395 26.1375007629395 29.6312503814697 33.1624984741211 38.625 44.59375 50.4375 52.3562507629395 54.1875 56.5999984741211 57.59375 56.9874992370605 54.9812507629395 53.6875 52.9749984741211 52.3875007629395 50.7374992370605 49.8375015258789 49.3562507629395 49.6875 49.34375 47.9249992370605 45.9500007629395 
177.331253051758 173.431243896484 169.231246948242 164.28125 159.337509155273 153.206253051758 146.074996948242 138.725006103516 131.881256103516 125.056251525879 116.856246948242 106.162498474121 95.5062484741211 84.6875 74.3874969482422 66.2874984741211 62.3812484741211 58.375 53.1500015258789 47.0999984741211 40.0437507629395 32.1062507629395 24.46875 20.9874992370605 18.3812503814697 16.6375007629395 18.7374992370605 20.9125003814697 22.8062496185303 25.9500007629395 29.1375007629395 32.4437484741211 37.5250015258789 43.40625 48.25 49.6937484741211 50.8687515258789 50.8687515258789 51.0625 50.2062492370605 49.3312492370605 49.0562515258789 48.7249984741211 47.3312492370605 46.9187507629395 46.6124992370605 46.5999984741211 46.46875 45.9312477111816 45.3250007629395 43.96875 
179.225006103516 175.96875 171.28125 166.431243896484 161.956253051758 156 149.837493896484 142.725006103516 136.199996948242 129.206253051758 121.337501525879 110.324996948242 98.9187469482422 87.7562484741211 77.7687530517578 69.90625 64.3874969482422 59.9812507629395 55.1937484741211 49.3375015258789 41.8312492370605 33.40625 25.2999992370605 21.40625 18.5187492370605 16.7062492370605 19.1375007629395 21.1812496185303 22.7062492370605 25.7000007629395 28.8312492370605 32.375 37.125 42.4375 48.5062484741211 49.875 48.65625 47.8562507629395 47.8812484741211 46.40625 45.625 45.5499992370605 44.4124984741211 43.8562507629395 43.7625007629395 43.6187515258789 43.5812492370605 43.9812507629395 44.2125015258789 43.7312507629395 43.15625 
180.40625 177.081253051758 173 168.53125 163.6875 158.881256103516 153.193756103516 146.275009155273 139.993743896484 133.09375 125.306251525879 114.668746948242 102.981246948242 92.5875015258789 83.5562515258789 75.7437515258789 69.3687515258789 62.9874992370605 58.8499984741211 53.3062515258789 45.5999984741211 36.2562484741211 27.4375 23.1375007629395 19.8687496185303 17.5874996185303 20.4562492370605 22.2999992370605 23.3500003814697 25.7687492370605 28.5125007629395 31.7562503814697 36.9562492370605 43.4749984741211 49.4812507629395 48.2062492370605 47 45.8375015258789 44.6937484741211 44.5187492370605 43.5625 43.2062492370605 42.5437507629395 42.125 42.2312507629395 42.28125 42.5062484741211 43.0187492370605 43.65625 43.1687507629395 43.6687507629395 
180.9375 178.4375 174.449996948242 170.243743896484 166.018753051758 161.362503051758 155.737503051758 149.731246948242 144.175003051758 138.149993896484 130.268753051758 119.699996948242 108.493751525879 98.5875015258789 89.34375 81.6875 75.09375 67.8625030517578 62.5250015258789 57.2562484741211 49.7000007629395 40.3312492370605 29.7875003814697 24.96875 21.2000007629395 18.3687496185303 20.7937507629395 22.8312492370605 24.0499992370605 26.1062507629395 28.25 32.1124992370605 38.2437515258789 43.9500007629395 48.3624992370605 47.6624984741211 45.6375007629395 43.6937484741211 43.1500015258789 42.6749992370605 41.8312492370605 42.1062507629395 41.25 40.71875 41.1124992370605 41.5625 41.875 42.7249984741211 43.1749992370605 42.4937515258789 44.4375 
181.100006103516 179.162506103516 175.168746948242 171.425003051758 167.518753051758 163.65625 158.862503051758 153.337493896484 148.762496948242 143.649993896484 136.949996948242 127.056251525879 116.28125 105.6875 96.3187484741211 87.8000030517578 79.6374969482422 73.2624969482422 67.3187484741211 61.5125007629395 52.65625 42.0499992370605 32.1062507629395 26.7749996185303 22.2625007629395 18.6499996185303 20.6875 23.1499996185303 24.6062507629395 26.78125 29.4437503814697 34.2062492370605 39.1437492370605 44.3687477111816 48.46875 47 44.6624984741211 42.5812492370605 41.7625007629395 41.0062484741211 40.2625007629395 40.4124984741211 39.9124984741211 39.7125015258789 40.3375015258789 41.1500015258789 41.4437484741211 42.2999992370605 42.9187507629395 42.75 44.5750007629395 
181.393753051758 180.793746948242 177.856246948242 174.28125 170.006256103516 166.78125 163.293746948242 158.912506103516 155.3125 150.481246948242 144.375 135.550003051758 125.700004577637 114.731246948242 104.550003051758 94.5687484741211 85.4250030517578 77.2062530517578 70.7312469482422 63.4937515258789 54.4187507629395 44.1437492370605 34.0687484741211 28.5187492370605 23.7749996185303 19.9249992370605 21.9437503814697 24.1625003814697 26.0625 29.7562503814697 33.625 38.2937507629395 42.0437507629395 46.0062484741211 49.2874984741211 47.9937515258789 45.2562484741211 42.8125 41.8187484741211 41.1375007629395 40.3062477111816 40.3375015258789 40.1437492370605 39.9249992370605 40.6124992370605 41.2687492370605 41.8375015258789 42.96875 43.3624992370605 44.1937484741211 45.5187492370605 
182.818756103516 181.387496948242 179.09375 176.024993896484 172.643753051758 169.856246948242 167.431243896484 163.918762207031 161.887496948242 158.193756103516 152.824996948242 145.693756103516 136.881256103516 125.943748474121 114.293746948242 103.012496948242 93.2750015258789 83.3062515258789 74.6437530517578 66.3937530517578 55.9000015258789 45.2937507629395 35.5187492370605 29.7999992370605 24.8062496185303 20.8875007629395 23.2312488555908 25.8687496185303 28.5125007629395 33.03125 37.3875007629395 42.1812515258789 44.90625 48.1062507629395 50.8250007629395 49.1749992370605 46.3187484741211 43.5812492370605 42.2562484741211 41.5437507629395 40.65625 40.625 40.59375 40.6500015258789 41.4812507629395 41.9249992370605 42.4749984741211 43.5875015258789 44.6937484741211 45.9500007629395 46.9437484741211 
184.53125 184.412506103516 181.862503051758 178.856246948242 175.774993896484 173.112503051758 170.456253051758 168.649993896484 168.074996948242 165.087493896484 161.306243896484 155.712493896484 150.3125 139.987503051758 125.1875 111.699996948242 100.368751525879 89.03125 78.6500015258789 68.9124984741211 57.875 46.84375 36.7999992370605 30.9750003814697 26.0625 22.2000007629395 24.6499996185303 27.8500003814697 30.9249992370605 35.9812507629395 41.2687492370605 46.3875007629395 48.5250015258789 50.6062507629395 52.0999984741211 50.3062515258789 47.4000015258789 44.125 42.7000007629395 41.8875007629395 41.2000007629395 41.1312484741211 41.0875015258789 41.1875 41.9500007629395 42.75 43.34375 44.5687522888184 45.7750015258789 47.3687515258789 48.6062507629395 
187.237503051758 187.118743896484 184.625 180.8125 177.975006103516 176.331253051758 174.324996948242 173.068756103516 171.943756103516 169.587493896484 166.556243896484 164.425003051758 161.487503051758 150.475006103516 133.543746948242 118.637496948242 106 93.59375 81.9250030517578 70.9187469482422 59.59375 48.4500007629395 38.2625007629395 32.6312484741211 27.9125003814697 24.2562503814697 27.3875007629395 30.8125 34.5875015258789 40.3062515258789 46.6500015258789 52.3812484741211 53.40625 53.9124984741211 54.2562484741211 52.5687484741211 49.5875015258789 45.78125 44.2937507629395 43.3187484741211 42.5125007629395 42.3812484741211 42.3375015258789 42.375 43.8312492370605 44.4812507629395 44.8187484741211 45.5812492370605 47.5999984741211 48.6062507629395 50.1312484741211 
192.868743896484 191.356246948242 188.387496948242 184.425003051758 182.03125 179.662506103516 177.168746948242 175.425003051758 174.481246948242 172.300003051758 169.925003051758 166.637496948242 162.949996948242 153.862503051758 138.40625 123.525001525879 110.34375 96.8562469482422 84.5 72.8687515258789 61.15625 49.65625 39.7625007629395 34.2687492370605 29.6812496185303 26.5625 30.0062503814697 34.1687507629395 38.4375 45.1500015258789 52.125 58.4000015258789 58.1687507629395 57.0687484741211 55.71875 53.3687515258789 50.4187507629395 46.7687492370605 45.4812507629395 44.7062492370605 43.8187484741211 43.65625 43.8562507629395 44.1875 45.2625007629395 46 45.4937515258789 47.4437484741211 49.125 50.4937515258789 52.21875 
202.068756103516 200.143753051758 193.693756103516 189.65625 185.443756103516 182.181243896484 178.956253051758 176.524993896484 175 172.824996948242 170.024993896484 166.893753051758 162.181243896484 154.399993896484 140.856246948242 127.012496948242 114.15625 100.256248474121 87.3562469482422 75.3000030517578 63.1937484741211 51.5812492370605 41.4375 35.8812484741211 31.7875003814697 29.125 33.1625022888184 38.0250015258789 43.0562515258789 50.4124984741211 57.9812507629395 64.5437469482422 62.9812507629395 59.7937507629395 56.8187484741211 53.9562492370605 50.8125 47.625 46.7625007629395 46.09375 45.3875007629395 45.2000007629395 45.0062484741211 45.53125 46.7437515258789 46.7374992370605 47.6937484741211 49.6687507629395 51.1937484741211 53.1062507629395 54.7874984741211 
214.03125 209.9375 202.600006103516 196.262496948242 190.087493896484 185.462493896484 182.506256103516 178.824996948242 175.362503051758 172.725006103516 170.331253051758 167.162490844727 162.518753051758 155.675003051758 143.3125 129.8125 117.462501525879 103.912498474121 91.0187530517578 78.5437469482422 66.3312530517578 54.6624984741211 44.4562492370605 39.3499984741211 35.96875 33.8375015258789 38.3812484741211 43.9312515258789 49.7562484741211 56.9437484741211 64.6999969482422 71.0687484741211 68.4312515258789 63.84375 59.1875 55.90625 52.5562515258789 49.21875 48.5875015258789 48.0499992370605 47.40625 46.96875 46.5875015258789 46.5999984741211 47.71875 49.0562515258789 50.2562522888184 51.84375 53.7999992370605 55.0687484741211 57.03125 
226.774993896484 220.46875 211.387496948242 202.606246948242 195.068756103516 188.90625 184.59375 180.493743896484 176.887496948242 173.556243896484 169.71875 166.71875 162.4375 156.243743896484 145.112503051758 132.59375 120.424995422363 107.506248474121 94.6374969482422 82.2937469482422 70.3125 58.5812492370605 48.8812484741211 44.3812522888184 41.2062492370605 39.2874984741211 44.2750015258789 50.53125 56.8375015258789 63.8875007629395 71.1374969482422 77.1500015258789 73.3249969482422 67.1500015258789 61.6124992370605 57.9124984741211 54.375 51.2374992370605 50.2937507629395 50.2125015258789 49.9625015258789 49.3937492370605 47.9249992370605 47.4500007629395 49.4124984741211 51.1875 52.5250015258789 54.7937507629395 56.46875 57.4937515258789 59.1937484741211 
239.443756103516 230.893753051758 218.668746948242 208.09375 199.056243896484 191.662506103516 186.106246948242 181.212493896484 178.03125 173.993743896484 169.818756103516 166.418746948242 162.831253051758 157.056243896484 146.618743896484 135.6875 124.693748474121 111.518753051758 98.8062515258789 86.6374969482422 75 63.5062484741211 54.0875015258789 50.2437515258789 47.3375015258789 45.6875 51.2625007629395 57.84375 64.6062469482422 71.0062484741211 77.7375030517578 82.8874969482422 77.5437469482422 70.3499984741211 64.0250015258789 60.0374984741211 56.4187507629395 53.0562515258789 52.0374984741211 51.5812492370605 51.625 50.6187515258789 49.3562507629395 49.6187515258789 52.0062484741211 53.6937484741211 55.3187484741211 57.8375015258789 59.4000015258789 60.2687492370605 61.34375 
250.300003051758 239.793746948242 226.056243896484 212.337493896484 202.875 195.131256103516 188.681243896484 183.1875 179.462493896484 174.518753051758 170.143753051758 167.143753051758 163.850006103516 159.212493896484 150.018753051758 140.300003051758 129.537506103516 117.481246948242 104.862503051758 92.9499969482422 81.7375030517578 71.25 62.1812477111816 58.6687507629395 56.3375015258789 55.3562507629395 61.1312484741211 67.75 74.2312469482422 79.5562515258789 84.6437530517578 88.2874984741211 82.3937530517578 75.1374969482422 68.4187469482422 63.8187484741211 59.6812515258789 56.3125 54.3375015258789 53.21875 52.7125015258789 52.9874992370605 52.5374984741211 53.1624984741211 54.4500007629395 57.1812515258789 59.4500007629395 62.2437515258789 63.6187515258789 64.0749969482422 64.9499969482422 
259.34375 247.537506103516 232.893753051758 218.487503051758 207.300003051758 199.693756103516 192.381256103516 185.59375 180.40625 175.912506103516 171.524993896484 168.706253051758 166.149993896484 161.118743896484 153.449996948242 145.181243896484 136.243743896484 124.168746948242 111.418746948242 100.612503051758 90.1500015258789 80.0687484741211 71.3249969482422 68.3625030517578 66.3874969482422 66.0437469482422 71.75 78.4812469482422 84.5749969482422 88.1875 91.6312484741211 93.8625030517578 87.4000015258789 80.3249969482422 73.0875015258789 68.0062484741211 63.6187515258789 60.2125015258789 57.46875 54.375 53.8062515258789 55.125 55.6312484741211 56.1500015258789 57.59375 61.9625015258789 65.1500015258789 67.6437530517578 68.5 68.1500015258789 69.2437515258789 
266.693756103516 254.725006103516 239.84375 226.581253051758 216.024993896484 205.362503051758 196.743743896484 188.481246948242 182.631256103516 177.418746948242 172.893753051758 170.568756103516 167.956253051758 164.081253051758 158.431243896484 151.681243896484 143.800003051758 132.137496948242 120.256248474121 109.824996948242 99.8125 89.8812484741211 81.2562484741211 78.7437515258789 77.6750030517578 77.5812530517578 83.09375 89.625 95.1750030517578 97.4937515258789 99.1687469482422 99.5062484741211 92.8499984741211 85.3249969482422 78.4375 73.0749969482422 68.3625030517578 64.2312469482422 60.625 57.7937507629395 57.6500015258789 59.2937507629395 60.2562484741211 61.8250007629395 64.3125 70.4562530517578 73.9375 75.3812484741211 74.4375 73.0749969482422 73.4749984741211 
268.90625 258.450012207031 245.106246948242 233.543746948242 223.512496948242 212.137496948242 202.787506103516 194.262496948242 187.212493896484 181.112503051758 177.306243896484 174.368743896484 172.28125 170.175003051758 165.443756103516 160.300003051758 153.262496948242 143.462493896484 132.606246948242 122.449996948242 112.806251525879 102.737503051758 93.96875 91.90625 91.3874969482422 91.5687484741211 96.8062515258789 102.787498474121 108.168746948242 108.793746948242 108.65625 107.474998474121 100.46875 92.8000030517578 86.1750030517578 80.7624969482422 76 71.2125015258789 67.28125 65.6937484741211 65.21875 66.6750030517578 68.3687515258789 70.9875030517578 76.6750030517578 85.25 87.9937515258789 85.6062469482422 82.7562484741211 79.78125 79.7312469482422 
269.424987792969 260.893737792969 249.518753051758 240.037490844727 230.375 219.106246948242 208.543746948242 200.03125 192.0625 184.774993896484 180.025009155273 178.643753051758 177.6875 175.425003051758 172.350006103516 169.006256103516 164.306243896484 155.574996948242 145.725006103516 136.212493896484 126.59375 116.71875 108.099998474121 106.262496948242 106.087501525879 106.381248474121 111.493751525879 116.8125 121.518753051758 120.40625 118.5 116.137496948242 108.956253051758 101.300003051758 94.7874984741211 89.4250030517578 84.0062484741211 78.4562530517578 75.4437484741211 74.2062530517578 73.21875 74.6875 77.3625030517578 80.8062515258789 87.65625 95.8562469482422 97.2874984741211 93.5374984741211 89.7437515258789 86.1374969482422 85.5999984741211 
270.774993896484 263.768737792969 254.212493896484 245.262496948242 236.78125 225.268753051758 214.006256103516 205.118743896484 194.800003051758 187.456253051758 183.318756103516 183.518753051758 183.524993896484 182.956253051758 181.868743896484 178.987503051758 175.981246948242 168.425003051758 159.456253051758 150.449996948242 141.443756103516 131.75 123.099998474121 121.074996948242 120.662498474121 121.456253051758 125.762496948242 130.949996948242 134.712493896484 132.037506103516 128.800003051758 124.900001525879 117.443748474121 110.34375 103.356246948242 97.28125 91.5437469482422 87.4250030517578 84.5999984741211 82.6187515258789 81.5437545776367 82.6437530517578 85.1437530517578 88.34375 94.0875015258789 98.71875 100.162498474121 98.3000030517578 94.8687515258789 91.7375030517578 91.2750015258789 
271.293731689453 264.90625 256.399993896484 247.743743896484 239.643753051758 228.918746948242 218.162506103516 207.581253051758 196.387496948242 188.368743896484 186.375 188.356246948242 191.037506103516 192.487503051758 191.53125 190.53125 187.149993896484 181.09375 173.987503051758 166.818756103516 158.1875 147.925003051758 139.193756103516 137.125 136.5 136.818756103516 140.543746948242 145.143753051758 148.318756103516 143.90625 139.96875 134.981246948242 127.856246948242 120.800003051758 113.21875 106.806251525879 102.756248474121 98.40625 95.125 93.2750015258789 92.28125 92.8499984741211 94.53125 97.2249984741211 101.387496948242 104.112503051758 105.362503051758 104.650001525879 102.193748474121 99.625 99.1187515258789 
271.71875 266.537506103516 259.206237792969 251.59375 243.618743896484 233.625 222.649993896484 211.65625 199.074996948242 187.9375 189.243743896484 198.03125 201.78125 202.09375 201.837493896484 200.981246948242 198.206253051758 193.149993896484 187.487503051758 181.168746948242 173.018753051758 163.337493896484 155.118743896484 152.793746948242 151.887496948242 152.418746948242 154.837493896484 159.162506103516 161.231246948242 156.362503051758 150.993743896484 146.118743896484 138.693756103516 131.862503051758 124.34375 118.53125 114.331253051758 110.181251525879 107.118751525879 104.15625 102.34375 102.25 103.243751525879 105.431251525879 108.587501525879 109.831253051758 110.96875 111.056251525879 109.493751525879 107.193748474121 106.5 
276 270.831237792969 263.662506103516 256.837493896484 249.149993896484 239.949996948242 230.175003051758 219.762496948242 207.574996948242 195.243743896484 204.193756103516 214.881256103516 215.143753051758 213.550003051758 212.75 211.5625 208.943756103516 204.393753051758 199.100006103516 192.193756103516 185.568756103516 177.5625 170.475006103516 167.537506103516 166.756256103516 167.118743896484 168.793746948242 172.362503051758 174.068756103516 168.9375 161.112503051758 155.293746948242 148.606246948242 142.125 135.206253051758 130.28125 126.375 121.949996948242 119.481246948242 116.643753051758 113.025001525879 112.574996948242 111.962501525879 112.543746948242 114.775001525879 115.806251525879 116.537498474121 117.543746948242 115.793754577637 114.168746948242 113.962501525879 
285.5 279.631256103516 272.681243896484 265.168762207031 256.71875 247.487503051758 238.618743896484 229.768753051758 222.731246948242 222.774993896484 233.90625 231.800003051758 227.556243896484 224.756240844727 222.649993896484 220.393753051758 217.481246948242 213.212493896484 207.518753051758 201.568756103516 195.40625 188.362503051758 182.793746948242 180.256256103516 178.225006103516 178.243743896484 179.087493896484 181.337493896484 182.537506103516 177.399993896484 170.887496948242 165.143753051758 158.800003051758 152.675003051758 148.262496948242 144.15625 139.537506103516 136.125 133.181243896484 128.318756103516 124.181251525879 123.550003051758 121.59375 121.699996948242 123.393753051758 123.787498474121 122.668746948242 123.724998474121 122.650001525879 121.756248474121 121.818748474121 
295.993743896484 289.774993896484 282.037506103516 273.637512207031 266.056243896484 257.8125 249.118743896484 242.84375 238.943756103516 239.012496948242 242.181243896484 241.78125 238.268753051758 235.287506103516 232.681243896484 229.412506103516 226.587493896484 222.081253051758 216.59375 211.21875 205.193756103516 199.212493896484 193.800003051758 190.774993896484 189.4375 188.449996948242 188.268753051758 189.706253051758 189.96875 185.043746948242 179.168746948242 176.524993896484 172.512496948242 167.125 163.512496948242 159.056243896484 154.087493896484 149.837493896484 146.868743896484 140.699996948242 135.875 134.393753051758 131.868759155273 130.181243896484 130.881256103516 130.793746948242 130.399993896484 131.4375 131.006256103516 130.024993896484 129.818756103516 
307.806243896484 300.9375 292.981262207031 285.106262207031 276.899993896484 267.868743896484 260.306243896484 256.168762207031 251.912506103516 249.925003051758 249.512496948242 249.300003051758 248.774993896484 245.481246948242 242.71875 238.78125 235.125 231.324996948242 225.800003051758 220 214.412506103516 208.65625 203.449996948242 200.59375 200.331253051758 198.193756103516 196.875 196.90625 196.225006103516 192.068756103516 189.181243896484 189.537506103516 185.725006103516 182.287506103516 179.487503051758 175.706253051758 170.524993896484 165.168746948242 160.725006103516 153.524993896484 147.481246948242 144.506256103516 140.5 138.75 138.943756103516 139.412506103516 138.462493896484 138.206253051758 138.6875 138.40625 138.056243896484 
324.893737792969 318.856262207031 311.112487792969 303.087493896484 295.537506103516 286.318756103516 279.712493896484 274.8125 271.087493896484 266.743743896484 265.075012207031 263.443756103516 261.674987792969 257.875 253.40625 249.524993896484 244.556243896484 239.975006103516 234.21875 225.824996948242 217.993743896484 213.087493896484 207.600006103516 204.40625 203.637496948242 201.931243896484 199.824996948242 199.09375 199.681243896484 198.600006103516 194.149993896484 196.662506103516 195.5 196.649993896484 196.837493896484 192.081253051758 187.181243896484 181.493743896484 174.90625 166.53125 159.181243896484 153.237503051758 148.53125 147.737503051758 148.356246948242 148.643753051758 146.850006103516 145.75 146.456253051758 145.362503051758 144.731246948242 
344.243743896484 338.306274414062 331.006256103516 322.825012207031 314.193756103516 306.200012207031 299.637512207031 294.412506103516 289.743743896484 284.631256103516 281.243743896484 278.15625 275.462493896484 269.931243896484 265.012512207031 259.78125 253.350006103516 249.193756103516 242.606246948242 230.737503051758 221.274993896484 214.149993896484 209.018753051758 207.881256103516 206.681243896484 204.8125 202.112503051758 201.037506103516 201.706253051758 201.09375 200.199996948242 199.418746948242 201.237503051758 207.199996948242 212.881256103516 213.818756103516 206.193756103516 198.975006103516 189.9375 179.962493896484 171.6875 165.387496948242 160.71875 158.356246948242 158.606246948242 157.387496948242 155.381256103516 154.293746948242 154.412506103516 153.193756103516 152.268753051758 
364.243743896484 359.318756103516 351.53125 342.168762207031 334.737487792969 325.475006103516 317.512512207031 312.081237792969 305.868743896484 301.1875 297.450012207031 293.674987792969 287.412506103516 282.25 276.299987792969 269.5 261.9375 256.693756103516 251.356246948242 238.087493896484 226.543746948242 217.462493896484 211.975006103516 210.050003051758 209.475006103516 207.518753051758 204.618743896484 204.15625 203.737503051758 204.337493896484 203.606246948242 203.362503051758 205.243743896484 214.524993896484 227.0625 235.606246948242 227.893753051758 216.706253051758 205.393753051758 194.456253051758 185.512496948242 178.793746948242 173.256256103516 170.681243896484 169.662506103516 167.306243896484 165.462493896484 163.268753051758 161.637496948242 161.318756103516 160.40625 
383.137512207031 378.774993896484 371.393737792969 361.162506103516 353.40625 343.956237792969 333.868743896484 327.581237792969 320.5 315.768737792969 311.518737792969 306.024993896484 298.993743896484 292.143737792969 284.725006103516 276.299987792969 266.6875 258.962493896484 251.475006103516 239.15625 228.537506103516 220.756256103516 213.643753051758 210.9375 210.8125 208.75 206.25 205.3125 205.600006103516 207.125 206.981246948242 206.318756103516 210.356246948242 219.043746948242 231.162506103516 242.71875 239.412506103516 227.181243896484 215.787490844727 206.449996948242 197.131256103516 190.75 185.600006103516 180.668746948242 179.693756103516 177.693756103516 174.75 172.125 168.612503051758 168.0625 167.78125 
