ncols        51
nrows        45
xllcorner    -63.500000000000
yllcorner    -7.500000000000
cellsize     0.166666666667
NODATA_value -99
32.375 30.28125 28.9249992370605 28.2124996185303 27.3312492370605 27.8312492370605 28.0812492370605 28.0062503814697 28.7999992370605 30.0749988555908 31.8875007629395 34.9625015258789 37.9187507629395 40.0812492370605 43.9437484741211 48.5625 53.1937484741211 56.6624984741211 62.7687492370605 68.6937484741211 73.0374984741211 77.9562530517578 83.1187515258789 88.2624969482422 94.6937484741211 100.981246948242 108.518753051758 117.368751525879 125.756248474121 124.59375 122.037498474121 119.34375 116.368751525879 114.3125 111.349998474121 110.487503051758 108.324996948242 105.724998474121 105.275001525879 104.849998474121 104.09375 104.143753051758 103.75 103.875 106.143753051758 107.137496948242 108.431251525879 109.231246948242 110.262496948242 112.5 115.34375 
32.8312492370605 30.6937503814697 29.5187492370605 28.6375007629395 28.0437507629395 28.3937492370605 28.4812507629395 28.7250003814697 29.84375 31.1062507629395 32.4375 35.0812492370605 37.625 40.34375 44.3499984741211 48.65625 53.0187492370605 58.7249984741211 66.0687484741211 74.0812530517578 79.4000015258789 84.4250030517578 90.0749969482422 95.9000015258789 101.331253051758 107.050003051758 114.78125 123.143753051758 130.506256103516 129.824996948242 126.918746948242 123.631248474121 121.237503051758 120.643753051758 118.3125 117.0625 117.106246948242 115.456253051758 115.131248474121 115.050003051758 115.087501525879 114.993751525879 113.831253051758 113.618751525879 115.400001525879 116.306251525879 117.418754577637 117 116.618751525879 116.668746948242 117.574996948242 
35.8812484741211 34.1875 33.1437492370605 32.4375 31.9312496185303 31.8187503814697 31.6375007629395 31.6875 32.5625 33.5499992370605 34.46875 36.8062515258789 39.2437515258789 41.59375 45.71875 49.75 54.125 59.4312515258789 65.7937469482422 73.5625 78.71875 83.9875030517578 89.1437454223633 94.3562469482422 99.5437469482422 105.006248474121 113.050003051758 121.681251525879 128.387496948242 126.71875 124.28125 121.268753051758 119.581253051758 116.6875 115.168746948242 114.043746948242 113.793746948242 113.118751525879 112.918746948242 112.556251525879 113.025001525879 113.043746948242 112.625 112.518753051758 113.268753051758 114.212501525879 115.068748474121 114.356246948242 112.625 112.087501525879 112.293746948242 
39.2374992370605 38.125 37.7687492370605 37.3062515258789 37.15625 35.8937492370605 35.2874984741211 35.0812492370605 35.90625 36.6937484741211 36.875 38.7062492370605 40.7062492370605 42.8062515258789 47.1437492370605 51.3562507629395 55.2437515258789 58.9625015258789 64.4124984741211 71.8125 77.1937484741211 81.7750015258789 85.1687469482422 90.4312515258789 95.7437515258789 101.300003051758 109.849998474121 117.693748474121 124.574996948242 122.9375 119.8125 117.34375 114.8125 111.71875 108.881248474121 108.675003051758 107.962501525879 107.568748474121 107.849998474121 108.21875 108 109.012496948242 109.34375 109.224998474121 109.743751525879 110.481246948242 111.387496948242 109.268753051758 107.193748474121 105.412498474121 105.118751525879 
44.4375 43.25 42.6875 42.6312484741211 42.53125 40.9437522888184 39.3062515258789 38.6187515258789 39.4500007629395 40.0187492370605 39.3125 40.6749992370605 42.5562515258789 44.6437492370605 49.125 53.375 56.84375 58.3812484741211 63.2125015258789 70.1999969482422 75.2249984741211 78.5062484741211 81.1187515258789 85.7624969482422 90.8062515258789 96.9749984741211 104.362503051758 112.525001525879 121.050003051758 118.962501525879 115.481246948242 111.043746948242 108.862503051758 106.237503051758 103.262496948242 102.875 102.90625 101.849998474121 102.387496948242 102.737503051758 103.65625 104.706253051758 105.875 105.993751525879 106.175003051758 107.143753051758 107.40625 104.612503051758 101.393753051758 98.9812469482422 98.1312484741211 
50.9312515258789 50.4500007629395 49.8687515258789 49.4312515258789 49.1312484741211 47.1437492370605 45.1312484741211 43.6687507629395 44.0875015258789 44.4749984741211 43.2312507629395 44.7625007629395 46.625 48.8499984741211 52.7750015258789 57.2999992370605 60.21875 60.1937484741211 63.9812507629395 69.1687469482422 72.78125 75.0437469482422 77.5875015258789 81.5124969482422 86.4625015258789 92.2125015258789 99.9000015258789 107.974998474121 115.981246948242 114.6875 110.96875 106.993751525879 103.637496948242 101.074996948242 99.1750030517578 98.8499984741211 98.9875030517578 98.78125 99.6875 100.768753051758 101 102.318748474121 103.09375 103.337501525879 103.525001525879 103.775001525879 103.887496948242 101.025001525879 97.9562530517578 94.7624969482422 92.5437469482422 
58.1749992370605 58.34375 57.8687515258789 56.8812484741211 55.8875007629395 52.90625 50.2062492370605 47.9500007629395 47.3499984741211 46.6187515258789 46.3125 48.5250015258789 51.2625007629395 53.8875007629395 57.7749977111816 62.2000007629395 65.9250030517578 66.40625 67.6125030517578 68.5687484741211 69.2375030517578 70.6999969482422 71.9187469482422 75.8062515258789 80.84375 86.0687484741211 93.7624969482422 102.143753051758 109.418746948242 108.231246948242 105.824996948242 102.40625 98.8125 95.6187515258789 93.2624969482422 94.0437469482422 94.6812515258789 95.375 97.4375 98.1374969482422 98.2249984741211 99.2937469482422 99.9875030517578 100.275001525879 100.456253051758 101.381248474121 101.331253051758 97.6875 93.8375015258789 90.3625030517578 89.2125015258789 
66.3062515258789 66.1937484741211 65.5187530517578 64.59375 63.1937484741211 59.7000007629395 55.7000007629395 51.4937515258789 49.3062515258789 48.875 49.6187515258789 52.90625 56.5499992370605 59.3875007629395 63.0374984741211 67.0124969482422 70.8062515258789 70.40625 69.7125015258789 66.15625 64.4937515258789 64.7062454223633 65.46875 69.3812484741211 74.4312515258789 79.3812484741211 86.7125015258789 94.8874969482422 102.762496948242 102.193748474121 99.5999984741211 96.875 93.3125 89.9937515258789 87.4437484741211 88.5625 89.9625015258789 91.3375015258789 93.4000015258789 95.0374984741211 95.9625015258789 97.0625 97.7624969482422 97.8187484741211 98.6687469482422 99.9499969482422 99.7937469482422 95.2375030517578 90.7562484741211 87.09375 84.5437469482422 
74.2874984741211 74.09375 73.2312469482422 71.7062530517578 70.2312469482422 66.1687469482422 61.7374992370605 57.3187484741211 54.3375015258789 53.3624992370605 55.6500015258789 59.9937515258789 64.6687469482422 67.7937469482422 69.0875015258789 70.1125030517578 71.0437469482422 69.4812469482422 67.3812484741211 62.6812515258789 60.2374992370605 60.1500015258789 60.5625 65.0187530517578 69.75 74.3937530517578 81.5374984741211 89.0437469482422 96.6937484741211 96.8937530517578 95.3874969482422 92.7125015258789 89.4250030517578 85.8812484741211 83.28125 84.5187530517578 86.6999969482422 88.6125030517578 91.1999969482422 93.5875015258789 94.9937515258789 96.1374969482422 97.71875 98.6437530517578 99.3812484741211 100.318748474121 99.9250030517578 95.0437469482422 89.4124984741211 84.6937484741211 82.7874984741211 
82.6125030517578 82.2249984741211 80.6437530517578 79.0062484741211 77.4437484741211 73.5500030517578 69.1624984741211 65.25 63.3125 63.2562484741211 64.9375 69.5625 74.4499969482422 77.5374984741211 75.3687515258789 72.3249969482422 69.0124969482422 65.3562469482422 61.2000007629395 56.6500015258789 54.6375007629395 54.4812507629395 55.1437492370605 59.90625 64.1062469482422 68.3000030517578 75.1374969482422 82.5625 89.5 90.2562484741211 89.4000015258789 87.8125 85.0124969482422 81.8625030517578 79.5187530517578 80.9124984741211 83.2687530517578 85.7874984741211 88.8937530517578 91.9437484741211 94.6687545776367 96.2062530517578 97.7624969482422 98.4124984741211 99.6374969482422 101.59375 100.443748474121 94.90625 88.84375 84.0875015258789 81.0562515258789 
91.84375 91.2937469482422 88.96875 86.8562469482422 84.7750015258789 81.2874984741211 77.4937515258789 74.7062530517578 73.875 74.4187469482422 76.625 81.2249984741211 85.1437530517578 87.1125030517578 80.9437484741211 73.3687515258789 65.8125 60.3375015258789 54.96875 50.0499992370605 48.6687507629395 48.4000015258789 49.5187492370605 53.6062507629395 58.3187484741211 61.9562492370605 68.2375030517578 75.3125 81.8375015258789 82.625 82.6750030517578 82.3625030517578 80.1312484741211 77.4124984741211 75.2312469482422 77.3062515258789 79.9749984741211 82.5687484741211 86.5562515258789 90.5250015258789 93.8874969482422 95.1999969482422 96.875 97.84375 99.1937484741211 102.287498474121 99.9375 92.6374969482422 86.8812484741211 82.5062484741211 79.75 
100.650001525879 99.4499969482422 97.0625 95.2624969482422 93.28125 90.0562515258789 87.1999969482422 85.96875 86.3625030517578 87.6125030517578 90.375 93.6125030517578 93.8687515258789 92.3062515258789 84.5062484741211 75.2125015258789 66.5562515258789 59.6875 53.7000007629395 48.0812492370605 46.0250015258789 45.4500007629395 46.6062507629395 51.1375007629395 55.03125 57.5687484741211 63.34375 69.875 76.2375030517578 78.0999984741211 78.9375 79.1500015258789 77.2249984741211 74.6624984741211 72.7062530517578 74.9875030517578 77.8687515258789 80.6500015258789 85.03125 89.7125015258789 93.5749969482422 94.8874969482422 95.4000015258789 95.6875 96.1875 96.1125030517578 93.2125015258789 88.7312469482422 84.1999969482422 81.6500015258789 78.7624969482422 
110.356246948242 108.78125 106.34375 104.168746948242 102.131248474121 100.243751525879 98.2874984741211 97.4312515258789 98.9250030517578 101.400001525879 104.462501525879 104.9375 101.643753051758 95.4437484741211 86.5437469482422 76.8562469482422 67.4812469482422 60.3875007629395 53.7000007629395 47.4437484741211 43.7874984741211 42.9437484741211 43.90625 47.3125 49.5999984741211 51.9437484741211 58.1187515258789 64.9312515258789 71.1062469482422 73.71875 75.4187469482422 76.2375030517578 74.2750015258789 71.8062515258789 69.9937515258789 72.3874969482422 75.25 78.1624984741211 82.7687530517578 87.8312530517578 92.5500030517578 93.5250015258789 92.1312484741211 90.7375030517578 90.5062484741211 91.1312484741211 89.5250015258789 84.5187530517578 81.0750045776367 79.5124969482422 78.8687515258789 
119.25 117.525001525879 115.006248474121 112.862503051758 111.137496948242 109.337501525879 108.387496948242 109.150001525879 111.506248474121 114.818748474121 117.143753051758 113.787498474121 106.53125 98.0812530517578 87.9875030517578 78.4437484741211 68.7062530517578 61.4312515258789 54.2937507629395 47.8937492370605 44.1749992370605 42.3250007629395 41.5499992370605 43.8562507629395 45.5812492370605 47.9437484741211 53.6749992370605 60.0062484741211 66.2874984741211 69.4250030517578 71.90625 73.46875 71.4875030517578 68.8375015258789 67.21875 69.5500030517578 72.5750045776367 75.8499984741211 80.3312530517578 85.0374984741211 88.9312515258789 87.6124954223633 86.6750030517578 86.7562484741211 87.5374984741211 87.3312530517578 86.5999984741211 83.8187484741211 80.1999969482422 78.4749984741211 78.9499969482422 
125.318748474121 123.599998474121 121.625 119.8125 118.9375 118.056251525879 118.275001525879 119.231246948242 121.5 124.162498474121 126.243751525879 120.900001525879 112.550003051758 103.137496948242 92.8375015258789 83.0687484741211 73.3000030517578 65.4187469482422 58.1937484741211 51.8875007629395 47.6500015258789 44.3250007629395 42.2937507629395 43.5 45.1437492370605 47.2000007629395 52.2937507629395 58.2750015258789 64.0687484741211 67.8812484741211 70.8312530517578 72.5374984741211 70.78125 67.75 65.7312469482422 67.5875015258789 70.5562515258789 73.8687515258789 77.5374984741211 79.3625030517578 79.8187484741211 80.3562469482422 82.2937469482422 84.0625 84.3687515258789 84.6437530517578 84.1374969482422 82.4749984741211 80.7999954223633 78.2937469482422 77.5687484741211 
130.475006103516 128.649993896484 127.1875 125.893753051758 125.675003051758 125.668746948242 126.800003051758 128.231246948242 130.018753051758 132.774993896484 134.475006103516 128.09375 118.84375 108.543746948242 98.5124969482422 87.7874984741211 78.3187484741211 70.3000030517578 62.7125015258789 56.2000007629395 51.5687484741211 47.2562484741211 43.9249992370605 44.2437515258789 45.1749992370605 46.65625 51.09375 56.8125 62.5187492370605 67.0124969482422 70.6374969482422 72.6125030517578 69.75 66.34375 63.8125 65.9812469482422 68.7874984741211 71.4499969482422 73.9000015258789 74.125 72.7937545776367 74.4937515258789 77.9937515258789 80.3812484741211 81.2750015258789 82.0062484741211 82.2125015258789 80.7437515258789 78.6750030517578 77.0187530517578 75.9625015258789 
134.381256103516 132.850006103516 131.393753051758 130.818756103516 131.443756103516 132.206253051758 134.1875 136.112503051758 138.025009155273 140.28125 142.050003051758 135.356246948242 125.3125 114.300003051758 104.393753051758 93.9937515258789 82.7874984741211 74.4812469482422 67.3062515258789 61.1375007629395 55.5125007629395 50.2374992370605 45.6937484741211 45.0562515258789 45.4375 46.0625 49.8812484741211 55.1500015258789 60.9749984741211 66.3687515258789 71.0250015258789 73.4499969482422 69.7312469482422 65.3000030517578 62.9562492370605 64.9124984741211 67.1999969482422 69.9250030517578 72.7624969482422 71.5062484741211 69.90625 71.6812515258789 74.53125 77.34375 78.5437469482422 79.59375 79.90625 78.6687469482422 77.375 75.8187484741211 75.2375030517578 
136.887496948242 135.462493896484 134.050003051758 133.918746948242 134.274993896484 135.487503051758 137.462493896484 139.387496948242 141.443756103516 144.206253051758 145.568756103516 140.681243896484 132.018753051758 121.824996948242 111.849998474121 100.856246948242 89.40625 79.90625 73.8062515258789 67.71875 61.1437492370605 54.2374992370605 48.1062507629395 46.625 46.1937484741211 46.3499984741211 49.6500015258789 55.1124992370605 61.4562492370605 68.0250015258789 73.2249984741211 74.46875 70.125 65.625 62.4500007629395 63.9562492370605 66.6999969482422 69.1999969482422 71.2125015258789 71.4875030517578 70.1187515258789 70.9250030517578 72.90625 75.2624969482422 76.5500030517578 77.7249984741211 78.4187469482422 77.59375 76.8249969482422 75.0187530517578 74.9187469482422 
137.53125 136.456253051758 135.40625 135.737503051758 136.543746948242 137.78125 138.887496948242 141.149993896484 143.837493896484 147 148.712493896484 143.868743896484 137.375 130.024993896484 119.543746948242 107.293746948242 95.1875 85.53125 78.6125030517578 73.3687515258789 66.3812484741211 58.3500022888184 49.7437515258789 47.8937492370605 46.9124984741211 46.7625007629395 50.4625015258789 55.4749984741211 61.9249992370605 69.5187530517578 75.9187469482422 76.84375 71.0749969482422 64.5625 60.4000015258789 62.3187484741211 65.2687530517578 67.4937515258789 70.2312469482422 71.0437469482422 70.4437484741211 70.4812469482422 71.6062469482422 73.5437469482422 74.7937469482422 75.9375 77.1500015258789 77.0500030517578 76.3812484741211 74.0749969482422 75.09375 
138.050003051758 137.112503051758 136.293746948242 136.100006103516 137.306243896484 139.368743896484 140.71875 142.268753051758 145.09375 148.40625 150.118743896484 146.568756103516 142.90625 138.706253051758 126.474998474121 111.681251525879 98.6875 90.5062484741211 84 78.4562530517578 69.75 59.7999992370605 51.1812515258789 48.7125015258789 47.3562507629395 47.0437507629395 50.7249984741211 55.7874984741211 61.3687515258789 68.6374969482422 75.1187515258789 77.2937469482422 70.5812530517578 62.7125015258789 57.6437492370605 59.7562484741211 63.8687515258789 67.3499984741211 70.3562469482422 71.6312484741211 71.1437530517578 70.1312484741211 71.0124969482422 72.4000015258789 73.5062484741211 74.8625030517578 76.0437469482422 75.9749984741211 75.6312484741211 74.1687469482422 75.3562469482422 
139.050003051758 138.762496948242 138.668746948242 139.381256103516 140.225006103516 142.225006103516 144.512496948242 145.818756103516 148.056243896484 149.449996948242 149.612503051758 145.625 142.081253051758 138.487503051758 127.324996948242 112.793746948242 101.09375 92.3499984741211 86.0374984741211 79.3125 71.0062484741211 61.84375 53.3187484741211 50.6749992370605 49.1062507629395 48.2999992370605 51.9187507629395 56.4749984741211 61.4187507629395 68.9499969482422 75.3812484741211 78.8000030517578 71.8499984741211 63.7625007629395 57.1500015258789 60.2125015258789 65.9625015258789 70.3000030517578 73.3000030517578 73.9499969482422 72.8562469482422 71.6875 71.3937530517578 71.5437469482422 72.2562484741211 73.3874969482422 74.53125 75.0187530517578 74.375 74.3312530517578 75.8312530517578 
140.856246948242 139.9375 139.737503051758 141.056243896484 143.018753051758 145.118743896484 147.112503051758 149.15625 151.118743896484 150.043746948242 147.293746948242 140.46875 134.806243896484 130.518753051758 122.6875 112.381248474121 103.368751525879 95.1687469482422 87.9437484741211 80.8812484741211 71.8312530517578 62.875 54.90625 51.9375 49.9249992370605 48.8624992370605 53.15625 57.6187515258789 62.3125 69.9562530517578 76.4312515258789 80.3687515258789 74.4312515258789 67.9625015258789 63.0687484741211 65.4937515258789 71.0062484741211 75.6750030517578 78.0812530517578 77.3812484741211 75.03125 72.9562530517578 71.75 71.0812530517578 71.2062454223633 71.9625015258789 72.7750015258789 73.7062530517578 73.7062530517578 75.0812530517578 76.84375 
142.931243896484 142.074996948242 140.831253051758 141.962493896484 144.75 147.850006103516 149.912506103516 152.125 154.899993896484 151.024993896484 143.943756103516 133.887496948242 126.099998474121 122.568748474121 118.337501525879 112.012496948242 104.506248474121 96.7750015258789 89.2125015258789 81.6062469482422 72.8375015258789 63.90625 55.8687515258789 52.5437507629395 50.4874992370605 49.5250015258789 54.21875 58.8687515258789 63.4749984741211 71.03125 77.9562530517578 82.90625 78.9562530517578 73.6062469482422 69.8125 71.4937515258789 76.4812469482422 82.4187469482422 83.6187515258789 80.1374969482422 76.3499984741211 73.7312469482422 71.3562469482422 70.0374984741211 69.8812484741211 70.46875 71.4937515258789 72.53125 73.6062469482422 75.6875 78.15625 
146.375 144.4375 142.34375 143.875 147.699996948242 150.618743896484 153.037506103516 154.893753051758 156.212493896484 150.481246948242 141.581253051758 131.306243896484 120.493743896484 119.143753051758 117.487503051758 112.53125 105.724998474121 98.1187515258789 90.3687515258789 82.5749969482422 73.6125030517578 64.8125 56.9749984741211 53.6500015258789 51.8687515258789 51.0875015258789 56.5625 61.5625 66.5999984741211 75.1062469482422 83.3062515258789 89.7249984741211 86.03125 80.8562469482422 76.7874984741211 77.0374984741211 79.4375 82.7375030517578 83.1312484741211 79.4437484741211 75.375 72.6062469482422 70.3812484741211 69.0875015258789 69.3499984741211 70.3187484741211 71.46875 72.1937484741211 74.625 76.4562530517578 79.1999969482422 
150.75 148.125 144.931243896484 147.956253051758 153.518753051758 155.46875 156.318756103516 156.512496948242 155.318756103516 150.262496948242 142.462509155273 134.018753051758 126.824996948242 124.400001525879 120.268753051758 114.875 108.106246948242 100.550003051758 92.1812515258789 83.3687515258789 74.3874969482422 65.4124984741211 57.6500015258789 54.34375 52.6375007629395 52.4000015258789 58.0875015258789 64.4437484741211 70.5687484741211 80.5374984741211 90.5437469482422 98.8812484741211 94.5 88.6812515258789 83.6312484741211 81.25 80.3687515258789 78.8312530517578 78.4312515258789 76.1875 72.75 70.5250015258789 68.7937469482422 68.1624984741211 68.1125030517578 69.7125015258789 70.7249984741211 73.4250030517578 75.3249969482422 77.7312469482422 80.2937469482422 
158.993743896484 158.09375 155.537506103516 157.956253051758 160.96875 161.59375 160.606246948242 158.231246948242 155.574996948242 150.725006103516 144.831253051758 139.681243896484 135.0625 132.225006103516 125.818748474121 119.074996948242 111.875 103.824996948242 94.875 85.2437515258789 76.1937484741211 66.6312484741211 58.6500015258789 55 53.7000007629395 54.1187515258789 60.9000015258789 68.1750030517578 75.7249984741211 86.3499984741211 98.5687484741211 108.53125 103.806251525879 96.2437515258789 89.6312484741211 84.6437530517578 80.3499984741211 75.7062530517578 74.4625015258789 72.4437484741211 69.7062530517578 67.9625015258789 66.4250030517578 66.3000030517578 67.3249969482422 68.84375 73.1187515258789 76.03125 77.1624984741211 78.9437484741211 81.1062469482422 
170.931243896484 171.556243896484 170.5625 171.143753051758 171.462493896484 170.09375 167.524993896484 162.899993896484 159.15625 155.181243896484 150.4375 147.300003051758 144.568756103516 142.193756103516 134.612503051758 126.943748474121 119.012496948242 110.337501525879 101.137496948242 90.625 80.6624984741211 71.1999969482422 62.3250007629395 58.6624984741211 58.5187492370605 59.59375 67.2062530517578 75.6624984741211 84.4375 95.6687469482422 108.5625 118.668746948242 112.474998474121 102.275001525879 92.4499969482422 86.0437469482422 80.0625 73.7687454223633 71.6937484741211 69.8562469482422 67.2874984741211 65.6750030517578 64.6374969482422 64.9499969482422 67.9875030517578 72.6187515258789 77.1750030517578 79 80.2562484741211 80.5062484741211 82.4124984741211 
185.193756103516 186.712493896484 186.350006103516 185.606246948242 184.206253051758 180.131256103516 175.199996948242 169.043746948242 164.868743896484 160.431243896484 156.231246948242 154.824996948242 153.375 151.662506103516 143.65625 135.34375 126.731246948242 118.443748474121 108 97.3812484741211 87.5687484741211 77.34375 69.3000030517578 66.1437530517578 65.6374969482422 66.71875 74.9812469482422 84.1750030517578 93.9375 105.862503051758 118.293746948242 127.956245422363 119.393753051758 106.368751525879 94.1875 86.5250015258789 79.1999969482422 72.3249969482422 70.1624984741211 68.0124969482422 65.7562484741211 64.6437530517578 63.5750007629395 64.5 70.4812469482422 76.7249984741211 81.4812469482422 82.6687469482422 82.9437484741211 82.6500015258789 83.8125 
198.949996948242 202.237503051758 201.612503051758 200.568756103516 197.837493896484 191.175003051758 182.993743896484 175.962493896484 170.806243896484 166.318756103516 162.600006103516 162.037506103516 161.9375 161.912506103516 154.012496948242 145.712493896484 137.8125 128.21875 117.5 106.293746948242 95.9187469482422 85.5500030517578 77.5062484741211 74.9437484741211 74.28125 75.3062515258789 84.1375045776367 94.125 104.849998474121 116.4375 127.849998474121 136.362503051758 125.53125 110.675003051758 96.53125 87.5562515258789 79.59375 71.9875030517578 69.65625 67.3062515258789 64.5187530517578 63.8875007629395 64.0999984741211 66.9000015258789 73.3812484741211 79.5500030517578 84.5749969482422 85.2562484741211 85.3312530517578 84.9312515258789 85.3874969482422 
212.300003051758 216.268753051758 216.75 216.331253051758 212.649993896484 202.912506103516 192.274993896484 183.918746948242 178.225006103516 173.149993896484 169.96875 170.725006103516 171.756256103516 172.475006103516 166.449996948242 159.125 151.662506103516 142.40625 131.981246948242 119.793746948242 108.893753051758 98.9187469482422 90.4812469482422 88.1875 88.0187530517578 89.53125 98.5437469482422 108.831253051758 119.587501525879 128.787506103516 137.956253051758 144.043746948242 131.84375 116.8125 101.849998474121 92.0062484741211 82.9187469482422 74.7874984741211 71.4187469482422 68.5 65.7312469482422 65.5875015258789 66.4937515258789 69.3249969482422 73.7375030517578 79.7624969482422 84.3562469482422 86.53125 87.1374969482422 87.03125 88.0812530517578 
223.975006103516 228.59375 227.975006103516 227.574996948242 224.649993896484 211.875 200.46875 190.712493896484 184.831253051758 180.300003051758 177.762496948242 179.34375 181.443756103516 182.475006103516 178.4375 172.75 166.962493896484 158.15625 147.506256103516 134.975006103516 123.393753051758 112.849998474121 104.693748474121 102.712501525879 102.75 105.143753051758 114.493751525879 124.918746948242 135.800003051758 142.175003051758 148.425003051758 151.912506103516 138.699996948242 123.1875 107.793746948242 97.0625 86.90625 78.1437530517578 74.1312484741211 70.4250030517578 67.3874969482422 67.3874969482422 68.4562530517578 70.1999969482422 74.0749969482422 80.0625 84.8499984741211 87.8812484741211 89.03125 89.09375 90.6937484741211 
233.574996948242 237.850006103516 236.34375 234.256256103516 229.637496948242 217.975006103516 207.6875 197.150009155273 191.46875 187.212493896484 184.987503051758 187.28125 190.399993896484 193.168746948242 191.068756103516 187.100006103516 181.8125 172.737503051758 161.28125 149.206253051758 137.550003051758 127.0625 119.206253051758 117.712501525879 118.837501525879 121.581253051758 130.893753051758 141.768753051758 151.875 156.331253051758 159.481246948242 160.137496948242 146.381256103516 130.431243896484 114.699996948242 102.856246948242 92.25 82.0500030517578 76.8375015258789 72.53125 69.5187530517578 69.5062484741211 70.4124984741211 72.4124984741211 76.2562484741211 82.6062469482422 87.4437484741211 90.15625 91.1187515258789 91.6500015258789 93.8062515258789 
241.431243896484 244.756256103516 243.606246948242 241.149993896484 235.78125 225.649993896484 215.556243896484 206.274993896484 199.643753051758 196.481246948242 195.768753051758 198.768753051758 203.78125 208.350006103516 207.137496948242 204.362503051758 199.837493896484 189.756256103516 177.881256103516 166.237503051758 155.231246948242 145.225006103516 137.518753051758 137.356246948242 138.925003051758 142.387496948242 151.662506103516 161.65625 171.381256103516 174.125 174.131256103516 171.4375 157.5625 141.868743896484 125.675003051758 113.3125 101.581253051758 90.4312515258789 83.6187515258789 78.9749984741211 74.75 74.1062469482422 74.5749969482422 76.2437515258789 81.3312530517578 88.5124969482422 92.2687530517578 93.4000015258789 94.03125 94.5374984741211 97.40625 
248.243743896484 250.675003051758 249.28125 246.949996948242 241.199996948242 232.543746948242 223.787506103516 215.037506103516 208.418746948242 204.274993896484 204.212493896484 210.675003051758 218.074996948242 223.199996948242 223.481246948242 221.668746948242 218.899993896484 208.774993896484 195.837493896484 183.53125 173.318756103516 164.125 157.050003051758 157.393753051758 159.675003051758 163.337493896484 172.318756103516 182.756256103516 192.587493896484 192.024993896484 189.581253051758 184.418746948242 169.84375 154.3125 138.074996948242 124.724998474121 111.693748474121 99.0999984741211 91.6062469482422 85.5812530517578 79.9000015258789 78.5562515258789 78.34375 79.3187484741211 84.3937530517578 90.8687515258789 94.0625 95.28125 96.1687469482422 97.125 101.050003051758 
256.200012207031 256.850006103516 255.274993896484 252.012496948242 247.131256103516 239.649993896484 230.868743896484 222.574996948242 214.087493896484 210.518753051758 213 222.237503051758 233.706253051758 241.09375 242.081253051758 240.46875 237.9375 226.831253051758 213.668746948242 200.256256103516 191.287506103516 182.949996948242 176.5625 177.331253051758 180.368743896484 183.824996948242 193.318756103516 204.162506103516 213.512496948242 210.0625 204.837493896484 197.96875 183.3125 167.175003051758 150.681243896484 136.350006103516 121.931251525879 109.275001525879 100.599998474121 92.7562484741211 85.8562469482422 83.21875 82.0437469482422 81.8000030517578 85.7437515258789 89.7687530517578 92.8062515258789 95.4875030517578 97.3000030517578 99.5562515258789 104.949996948242 
264.831237792969 264.206237792969 261.831237792969 258.018737792969 253.081253051758 244.893753051758 236.856246948242 227.793746948242 218.681243896484 214.918746948242 220.524993896484 234.737503051758 249.931243896484 259.174987792969 261.137512207031 260.081237792969 256.681243896484 245.443756103516 232.256256103516 218.956253051758 210.143753051758 203.043746948242 196.96875 197.743743896484 201.006256103516 205.443756103516 214.34375 224.800003051758 233.824996948242 228.806243896484 222.40625 213.925003051758 199.981246948242 184.412506103516 167.931243896484 152.425003051758 138.518753051758 124.724998474121 114.525001525879 105.837501525879 98.2062530517578 94.875 92.5374984741211 91.3562469482422 93.8499984741211 96.2125015258789 98.3937530517578 101.506248474121 104.462501525879 107.224998474121 113.425003051758 
273.506256103516 272.162506103516 268.475006103516 264.243743896484 259.075012207031 251.737503051758 244.881256103516 235.46875 224.350006103516 216.506256103516 227.962493896484 252.037506103516 268.762512207031 276.106262207031 279.299987792969 279.043762207031 275.65625 264.3125 251.037506103516 237.5625 229.59375 222.106246948242 216.881256103516 218.006256103516 221.875 227.137496948242 235.768753051758 246.268753051758 254.675003051758 248.556243896484 240.456253051758 230.774993896484 217.574996948242 202.731246948242 186.425003051758 170.506256103516 155.331253051758 140.324996948242 129.431243896484 119.518753051758 110.487503051758 106.231246948242 103.400001525879 101.131248474121 102.293746948242 103.537498474121 105.349998474121 108.693748474121 111.96875 115.206253051758 122.112503051758 
282.21875 280.043762207031 275.693756103516 271.774993896484 267.081237792969 261.856262207031 255.65625 247.806243896484 238.387496948242 229.318756103516 255.043746948242 281.181243896484 291.743743896484 295.450012207031 298.193756103516 297.762512207031 293.649993896484 283.056243896484 270.375 256.981262207031 248.581253051758 240.643753051758 235.368743896484 236.918746948242 241.287506103516 247.481246948242 255.362503051758 265.306243896484 273.5 267.225006103516 257.662506103516 246.375 233.793746948242 220.175003051758 204.337509155273 188.037506103516 171.418746948242 156 144.40625 133.362503051758 123.137496948242 118.362503051758 114.206253051758 110.5 111.056251525879 111.831253051758 113.256248474121 117.443748474121 120.537498474121 124.8125 132.731246948242 
292.40625 287.543762207031 283.5 279.318756103516 275.137512207031 270.743743896484 265.774993896484 263.037506103516 264.106262207031 277.0625 309.46875 314.46875 314.075012207031 314.487487792969 315.325012207031 313.237487792969 309.274993896484 298.118743896484 285.387512207031 272.71875 262.793762207031 254.868743896484 249.981246948242 251.387496948242 255.25 261.006256103516 268.506256103516 277.637512207031 285.600006103516 281.4375 272.993743896484 262.6875 250.237503051758 236.193756103516 222.850006103516 206.706253051758 189.762496948242 174.556243896484 162.262496948242 150.206253051758 139.837493896484 134.612503051758 130.012496948242 126.737503051758 127.324996948242 128.331253051758 129.393753051758 133.862503051758 138.118743896484 143.137496948242 151.4375 
303.325012207031 297.5 292.350006103516 286.868743896484 284.237487792969 281.6875 279.431243896484 281.674987792969 289.549987792969 305.306243896484 323.899993896484 332.5625 333.350006103516 333.493743896484 332.306243896484 329.743743896484 324.962493896484 314.481262207031 300.606262207031 287.3125 274.899993896484 267.225006103516 262.631256103516 263.681243896484 267.768768310547 273 280.037506103516 288.956237792969 296.037506103516 292.96875 286.024993896484 278.731262207031 268.181243896484 254.625 240.068756103516 224.193756103516 207.568756103516 192.225006103516 179.40625 166.774993896484 156.34375 150.893753051758 145.868743896484 142.4375 143.337493896484 144.887496948242 146.587493896484 151.568756103516 157.431243896484 163.3125 172.0625 
314.712493896484 307.993743896484 301.293762207031 295.868743896484 292.65625 291.543762207031 292.806243896484 297.987487792969 308.375 321.068756103516 334.337493896484 344.637512207031 349.375 350.65625 349.912506103516 347.418762207031 341.5625 330.806243896484 316.087493896484 300.774993896484 286.15625 276.081268310547 270.893768310547 272.293762207031 278.018737792969 283.868743896484 290.53125 299.0625 305.274993896484 303.8125 300.606262207031 295.712493896484 285.21875 272.612487792969 257.756256103516 241.275009155273 224.824996948242 209.53125 196.59375 183.356246948242 172.493743896484 165.875 160.475006103516 157.543746948242 159.587493896484 161.53125 163.46875 169.4375 176.212493896484 183.175003051758 192.925003051758 
328.725006103516 319.450012207031 311.181243896484 305.5 302.712493896484 302.662506103516 305.743743896484 312.518737792969 322.993743896484 334.631256103516 344.987487792969 354.350006103516 361.112487792969 364.012512207031 362.993743896484 360.212493896484 354.993743896484 344.662506103516 329.174987792969 309.456237792969 289.84375 275.837493896484 269.393737792969 272.075012207031 279.712493896484 286.53125 293.725006103516 302.993743896484 310.518737792969 312.899993896484 310.8125 309.018737792969 300.393737792969 288.787506103516 274.756256103516 256.681243896484 241.237503051758 226.78125 213.84375 200.875 189.568756103516 180.875 175.050003051758 174.168746948242 177.118743896484 179.925003051758 182.125 187.868743896484 195.662506103516 202.918746948242 214.774993896484 
342.556243896484 330 320.318756103516 313.950012207031 311.700012207031 314 317.818756103516 325.0625 334.368743896484 345.850006103516 356.368743896484 365.125 371.893737792969 375.787506103516 375.581237792969 371.875 365.924987792969 358.600006103516 344.149993896484 318.737487792969 291.393737792969 270.225006103516 266.262512207031 272.612487792969 281.606262207031 288.668762207031 296.71875 306.337493896484 315.012512207031 319.4375 322.137512207031 322.225006103516 314.743743896484 302.693756103516 289.393737792969 273.049987792969 256.549987792969 243.193756103516 230.806243896484 219.356246948242 208.375 200.443756103516 195.1875 193.112503051758 195.512496948242 197.681243896484 199.862503051758 205.662506103516 213.543746948242 222.462493896484 236.287506103516 
355.331268310547 339.774993896484 327.481262207031 320.106262207031 319.787506103516 323.100006103516 327.881256103516 335.506256103516 345.3125 355.787506103516 366.881256103516 376.899993896484 383.037506103516 387.181243896484 387.825012207031 384.225006103516 378.9375 370.850006103516 359.287506103516 330.950012207031 299.024993896484 272.924987792969 269.831237792969 276.362487792969 285.200012207031 293.3125 300.956237792969 309.787506103516 319.887512207031 325.9375 331.1875 335.712493896484 329.543762207031 316.837493896484 303.424987792969 288.931243896484 273.143737792969 260.662506103516 249.168746948242 238.637496948242 228.831253051758 222.274993896484 216.925003051758 214.106246948242 215.350006103516 216.018753051758 218.212493896484 222.487503051758 228.524993896484 238.28125 254.949996948242 
366.668762207031 348.9375 333.106262207031 325.1875 328.868743896484 332.987487792969 337.356262207031 345.606262207031 354.975006103516 365.75 376.90625 386.924987792969 394.1875 398.543762207031 397.96875 392.674987792969 385.137512207031 374.03125 359.506256103516 334.4375 308.65625 289.96875 280.587493896484 282.6875 289.8125 296.5 302.9375 311.875 320.668731689453 327.174987792969 333.587493896484 339.612487792969 334.40625 323.225006103516 312.274993896484 298.431243896484 283.581237792969 272.65625 263.700012207031 254.712493896484 246.28125 240.481246948242 235.875 232.793746948242 233.737503051758 233.800003051758 234.456253051758 236.568756103516 238.837493896484 246.65625 266.143737792969 
