ncols        51
nrows        45
xllcorner    -63.500000000000
yllcorner    -7.500000000000
cellsize     0.166666666667
NODATA_value -99
125.368751525879 123.800003051758 119.993751525879 117.912498474121 114.887496948242 110.556251525879 104.668746948242 99.2249984741211 94.8687515258789 91.7249984741211 90.0437469482422 89.3687515258789 88.5 86.7249984741211 86.6374969482422 86.6750030517578 86.6374969482422 85.8562469482422 85.6062469482422 85.0875015258789 83.8062515258789 82.0437469482422 80.6624984741211 79.8937530517578 79.5124969482422 79.5999984741211 80.8562469482422 82.5562515258789 84.2249984741211 83.5187530517578 82.6812515258789 81.8812484741211 80.7937469482422 79.875 79.1687469482422 78.2312469482422 77.1500015258789 75.9875030517578 75.1750030517578 74.2624969482422 73.4499969482422 73.2437515258789 72.5250015258789 71.1937484741211 69.6624984741211 67.4562530517578 65.0687484741211 61.2999992370605 57.5499992370605 53.59375 50.7687492370605 
123.143753051758 122.550003051758 121.756248474121 122.699996948242 123.456253051758 118.824996948242 113.381248474121 109.099998474121 105.818748474121 102.512496948242 99.6875 97.7062530517578 95.6374969482422 93.3312530517578 92.3125 91.7562484741211 90.5875015258789 90.6312484741211 91.0999984741211 91.4749984741211 89.9124984741211 88.3499984741211 86.9562530517578 85.9499969482422 85.0500030517578 84.1812515258789 85.09375 86.1937484741211 86.8625030517578 84.7062530517578 83.375 82.3874969482422 81.2937545776367 80.5687484741211 79.3375015258789 77.7562484741211 76.5437469482422 74.9312515258789 73.9499969482422 72.7249984741211 71.78125 71.5999984741211 70.9562530517578 69.5812530517578 67.8249969482422 65.3249969482422 62.5374984741211 58.1062507629395 53.3624992370605 48.65625 45.3687515258789 
117.131248474121 117.474998474121 117.743751525879 120.231246948242 122.462501525879 120.612503051758 118.612503051758 117.5 116.175003051758 113.59375 110.181251525879 106.9375 103.712501525879 100.331253051758 98.4749984741211 97.0187530517578 95.6437530517578 95.0999984741211 94.84375 94.6187515258789 92.6750030517578 91.2249984741211 89.5999984741211 88.03125 86.6437530517578 85.6687469482422 86.0687484741211 86.78125 86.4312515258789 84.4250030517578 83.125 81.59375 80.2624969482422 79.4499969482422 78.25 76.4499969482422 74.625 72.9250030517578 71.875 70.4625015258789 69.2874984741211 69.0437469482422 68.5250015258789 67.6062469482422 65.78125 62.7750015258789 59.9625015258789 55.5750007629395 50.40625 45.4500007629395 41.8375015258789 
109.949996948242 110.318748474121 112.53125 114.756248474121 118.15625 119.34375 121.412498474121 124.162498474121 126.21875 125.268753051758 120.900001525879 115.90625 111.131248474121 106.925003051758 104.887496948242 102.650001525879 100.59375 99.5187454223633 98.6125030517578 97.8125 95.6500015258789 93.28125 90.8125 89.0500030517578 87.2249984741211 85.65625 85.6500015258789 85.7249984741211 85.21875 83.0875015258789 81.5999984741211 80.2937469482422 78.3312530517578 76.8312530517578 75.0625 73.7750015258789 72.0562515258789 70.0812530517578 68.9562530517578 67.4875030517578 65.6437530517578 65.53125 65.2125015258789 64.7125015258789 62.5999984741211 60.125 56.7874984741211 52.1937484741211 47.125 42.09375 38.3875007629395 
107.856246948242 105.818748474121 105.6875 108.09375 112.875 117.043746948242 121.9375 127.762504577637 134.074996948242 136.693756103516 130.46875 122.631248474121 117.050003051758 112.900001525879 110.181251525879 107.387496948242 105.168746948242 102.793746948242 100.912498474121 99.3562469482422 97.3249969482422 94.3937530517578 91.5062484741211 89.5374984741211 87.3000030517578 85.3812484741211 84.5124969482422 84.5437469482422 84.1937484741211 81.40625 79.6062469482422 77.9499969482422 76.1500015258789 74.375 72.6812515258789 70.8937530517578 68.9875030517578 67.0250015258789 65.4875030517578 63.71875 61.6687507629395 61.2125015258789 61.2249984741211 60.9124984741211 59.3562507629395 56.5750007629395 52.9375 48.25 43.15625 38.7125015258789 34.7374992370605 
105.743751525879 103.737503051758 101.443748474121 100.606246948242 106.081253051758 112.28125 117.818748474121 123.96875 130.987503051758 136.28125 129.262496948242 121.862503051758 117.65625 114.099998474121 111.581253051758 109.706253051758 107.28125 104.506248474121 102.412498474121 100.3125 97.9562530517578 95.0749969482422 92.1624984741211 89.1500015258789 86.5124969482422 84.09375 82.7375030517578 81.9625015258789 81.6500015258789 78.8062515258789 76.9499969482422 75.8187484741211 73.7312469482422 71.9812469482422 70.25 68.6062469482422 66.6875 65.0187530517578 63.84375 61.3687515258789 58.1437492370605 57.6624984741211 57.4187507629395 57.4000015258789 57.2312507629395 54.0250015258789 49.7687492370605 44.7562484741211 40.4437484741211 36.25 32.7312507629395 
106 103.631248474121 101.099998474121 99.4375 102.762496948242 107.037498474121 111.300003051758 115.0625 118.224998474121 119.46875 118.806251525879 116.925003051758 115.493751525879 113.949996948242 112.243751525879 111 109.175003051758 105.8125 102.925003051758 100.8125 98.4875030517578 95.6437530517578 92.3687515258789 89.0124969482422 85.8874969482422 82.8937530517578 81.3499984741211 79.9124984741211 78.5374984741211 76.1875 74.4124984741211 72.9499969482422 70.8062515258789 69.1500015258789 67.5875015258789 65.5812530517578 63.65625 61.9375 61.2625007629395 57.8125 54.0999984741211 52.9000015258789 52.6500015258789 52.8687515258789 53.2249984741211 50.59375 46.15625 40.9625015258789 37.0062484741211 33.4500007629395 30.5562496185303 
107.137496948242 104.21875 102.643753051758 102.456253051758 103.681251525879 105.9375 106.512496948242 105.112503051758 102.356246948242 102.849998474121 107.262496948242 110.21875 112.306251525879 112.900001525879 112.862503051758 112.09375 110.668746948242 107.0625 103.856246948242 101.6875 99.3937530517578 96.2624969482422 92.78125 89.1062469482422 85.4250030517578 81.59375 79.3187484741211 77.0562515258789 75.125 72.3499984741211 70.8125 69.6624984741211 67.7062530517578 66.1062469482422 64.21875 62.0062484741211 59.4187507629395 57.21875 55.2062492370605 51.875 48.1687507629395 46.6749992370605 45.90625 45.6500015258789 45.8187484741211 43.9937515258789 40.9124984741211 36.6875 33.1749992370605 30.4187507629395 28.0499992370605 
109.15625 106.96875 106.337501525879 106.03125 106.65625 107.081253051758 105.931251525879 101.631248474121 94.6500015258789 92.6687469482422 99.6437530517578 105.262496948242 109.512496948242 111.381248474121 111.949996948242 111.818748474121 110.71875 108.324996948242 106.15625 103.75 100.9375 97.7750015258789 93.2562484741211 89.5687484741211 84.9312515258789 80.2125015258789 76.9625015258789 75.0250015258789 72.9625015258789 69.8874969482422 68.3937530517578 67.1750030517578 64.8812484741211 62.8562507629395 60.6500015258789 58.53125 56.0625 53.1500015258789 50.2625007629395 46.8937492370605 43.1749992370605 41.15625 39.9874992370605 38.8062515258789 38.0250015258789 37.0187492370605 35.3125 32.1687507629395 29.5874996185303 27.7250003814697 26.4874992370605 
111.712501525879 109.887496948242 109.256248474121 109.550003051758 110.40625 110.400001525879 108.537498474121 103.849998474121 98.3249969482422 96.5187530517578 99.7375030517578 103.831253051758 108.275001525879 110.900001525879 111.706253051758 111.800003051758 110.868751525879 109.643753051758 108.368751525879 107.262496948242 103.75 99.6624984741211 94.2687530517578 89.1999969482422 83.2562484741211 78.0562515258789 75.0250015258789 72.4437484741211 70.3937530517578 67.5687484741211 65.5187530517578 64.28125 61.9500007629395 59.9312515258789 57.8812484741211 55.5374984741211 52.6812515258789 49.4562492370605 46.2687492370605 42.4312515258789 38.5750007629395 36.2062492370605 34.1875 32.46875 31.4624996185303 30.4437503814697 29.4750003814697 27.6812496185303 25.9437503814697 24.6687507629395 23.4187507629395 
114.525001525879 112.787498474121 112.099998474121 112.493751525879 113.537498474121 115.243751525879 113.943748474121 108.756248474121 104.099998474121 102.262496948242 103.331253051758 105.787498474121 108.518745422363 111.287498474121 111.912498474121 111.543746948242 111.087501525879 110.706253051758 110.543746948242 110.381248474121 107.762496948242 102.387496948242 95.59375 88.2249984741211 82.3000030517578 77.2562484741211 74.2125015258789 71.5062484741211 68.6624984741211 65.875 63.8499984741211 62.3812484741211 60.0187492370605 57.78125 55.2937507629395 52.5625 49.5125007629395 45.8499984741211 42.3499984741211 38.3312492370605 34.3375015258789 31.7250003814697 29.5750007629395 27.3062496185303 26.0375003814697 25.2250003814697 24.5 23.3687496185303 22.1000003814697 20.9187507629395 19.5249996185303 
117.368751525879 115.5 115.018753051758 115.824996948242 117.268753051758 119.537498474121 119.518753051758 113.756248474121 109.637496948242 107.331253051758 107.006248474121 108.206253051758 109.4375 111.34375 112.287498474121 111.856246948242 111.650001525879 111.606246948242 111.893753051758 112.800003051758 111.606246948242 105.65625 97.6062469482422 89.1750030517578 81.8812484741211 75.8187484741211 72.21875 69.9499969482422 67.6750030517578 65.2312469482422 62.7999992370605 61.0687484741211 58.3375015258789 55.90625 53.4500007629395 50.5062484741211 47.21875 43.6812515258789 39.75 35.5875015258789 31.2687492370605 28.5062503814697 26.2437496185303 24.15625 22.4874992370605 21.1812496185303 20.6687507629395 19.7749996185303 18.9937496185303 18.1499996185303 16.6749992370605 
119.606246948242 117.931251525879 117.493751525879 117.881248474121 119.074996948242 120.506248474121 119.331245422363 115.974998474121 112.856246948242 111.493751525879 110.9375 110.568748474121 110.962501525879 110.837501525879 111.518745422363 111.881248474121 111.431251525879 111.831253051758 112.4375 113.056251525879 112.887496948242 107.28125 98.6374969482422 89.90625 79.8874969482422 73.1437530517578 71.2750015258789 69.0749969482422 67.1624984741211 64.6624984741211 62.0875015258789 59.71875 57 54.1500015258789 51.5999984741211 48.75 45.46875 42.1812515258789 38.3187484741211 33.4874992370605 29.1062507629395 26.5437507629395 24.0625 20.8062496185303 18.8624992370605 18.7312507629395 18.5 17.6625003814697 16.7749996185303 15.9187498092651 14.6875 
120.831253051758 119.043746948242 118.668746948242 118.775001525879 119.150001525879 119.837501525879 118.824996948242 117.112503051758 115.506248474121 114.150001525879 113.28125 112.068748474121 111.231246948242 110.743751525879 110.137496948242 110.631248474121 110.081253051758 110.118751525879 110.1875 110.243751525879 109.206253051758 104.318748474121 97.8375015258789 90.2874984741211 81.7624969482422 75.3625030517578 72.4312515258789 69.5875015258789 67.0062484741211 63.78125 60.7937507629395 58.40625 55.4562492370605 52.5812492370605 50.0499992370605 47.4187507629395 44.4812507629395 41.6500015258789 37.8562507629395 33.28125 28.375 24.9249992370605 22.2999992370605 19.8937492370605 18.2562503814697 17.8687496185303 17.9249992370605 17.21875 16 14.84375 13.4312496185303 
120.118751525879 118.731246948242 117.981246948242 118.125 118.375 118.681251525879 118.912498474121 118.074996948242 116.456253051758 115.393753051758 114.587501525879 112.731246948242 111.131248474121 110.137496948242 109.081253051758 109.306251525879 108.268753051758 107.293746948242 106.474998474121 106.393753051758 105.224998474121 102.0625 97.8937530517578 93.1374969482422 87.3687515258789 81.3187484741211 76.4562530517578 71.9000015258789 67.8187484741211 63.53125 59.8687477111816 57.0374984741211 54.0875015258789 51.6375007629395 49.1749992370605 46.5374984741211 44.2374992370605 42.5437507629395 40.0750007629395 35.59375 30.3250007629395 26.4624996185303 23.5625 21.0437507629395 19.2687492370605 18.2999992370605 17.6125011444092 16.7562503814697 15.6500005722046 14.2937498092651 12.7875003814697 
118.262496948242 116.925003051758 116.59375 116.925003051758 117.199996948242 118.037498474121 118.425003051758 117.862503051758 116.856246948242 116.099998474121 114.6875 111.724998474121 109.650001525879 108.40625 107.706253051758 107.068748474121 104.900001525879 103.400001525879 102.224998474121 101.599998474121 100.375 99.1937484741211 97.9187469482422 96.7249984741211 92.84375 86.7437515258789 80.8312530517578 74.7874984741211 69.0875015258789 63.4249992370605 59.0562515258789 55.4937515258789 52.3375015258789 49.9625015258789 47.3187484741211 44.5750007629395 43.7000007629395 42.8624992370605 41.8624992370605 38.3062515258789 33.8937492370605 29.5562496185303 25.7625007629395 22.4500007629395 20.6312503814697 19.3125 18.3812503814697 17.0249996185303 15.6125001907349 14.2624998092651 12.9312496185303 
115 114.162498474121 114.78125 115.693748474121 116.137496948242 117.168746948242 117.912498474121 117.831253051758 117.074996948242 115.712501525879 113.887496948242 110.3125 107.137496948242 104.993751525879 103.793746948242 102.487503051758 99.3687515258789 97.4812469482422 96.4562530517578 96.1125030517578 95.3062515258789 95.46875 96.9562530517578 99.1374969482422 97.9937515258789 90.5187530517578 83.9000015258789 76.2937469482422 69.0562515258789 62.6812515258789 58.1124992370605 54.9562492370605 50.6624984741211 47.0187492370605 44.09375 42.8875007629395 42.8125 44.65625 46.4562492370605 42.4749984741211 37.8062515258789 32.8125 27.9624996185303 24.2562503814697 22.21875 20.6750011444092 19.1937503814697 17.7062492370605 16.4312496185303 14.8062496185303 13.5249996185303 
110.368751525879 110.231246948242 111.650001525879 112.943748474121 113.881248474121 115.456253051758 116.5 116.449996948242 115.724998474121 114.618751525879 112.856254577637 108.400001525879 104.268753051758 100.787498474121 98.6312484741211 96.3499984741211 93.1687469482422 90.84375 90.3187484741211 89.90625 89.6437530517578 90.5062484741211 92.96875 96.4000015258789 96.5374984741211 91.125 85.7750015258789 77.4812469482422 68.9562454223633 61.4749984741211 56.4000015258789 53.125 50.1062507629395 47.4312515258789 43.3187484741211 39.3312492370605 41.6187515258789 44.6437492370605 45.7374992370605 43.6375007629395 39.3812522888184 34.7312507629395 30.0562496185303 26.34375 24 22.2687511444092 20.6062507629395 18.8875007629395 17.5125007629395 15.7687501907349 14.5249996185303 
104.824996948242 106.012496948242 108.137496948242 110.143753051758 111.900001525879 113.512496948242 114.618751525879 114.956253051758 114.987503051758 113.587501525879 110.912498474121 106.112503051758 100.881248474121 96.2249984741211 93.3812484741211 91.2125015258789 88.0625 85.3625030517578 84.7375030517578 84.1062469482422 83.9375 86.40625 87.5062484741211 90.75 91.4625015258789 89.2125015258789 84.3187484741211 76.8937530517578 69.1374969482422 60.8687515258789 54.6437492370605 53.34375 53.0187492370605 49.90625 45.9749984741211 42.78125 43.25 44.4000015258789 44.7000007629395 43.1437492370605 39.9312515258789 36.7625007629395 32.2125015258789 28.5812492370605 26.0375003814697 23.8999996185303 22.2124996185303 20.5375003814697 18.9312496185303 16.65625 15.7875003814697 
99.0124969482422 101.46875 104.15625 106.868751525879 109.4375 111.837501525879 113.556251525879 114.349998474121 114.3125 113.181251525879 110.143753051758 104.224998474121 98.125 92.4875030517578 89.1750030517578 86.7437515258789 83.2937469482422 81.9437484741211 81.34375 81.4375 80.5 81.3562469482422 84.2937469482422 86.9250030517578 87.5062484741211 85.3562469482422 81.4937515258789 76.5187530517578 69.2249984741211 61.9749984741211 57.1937484741211 57.7374992370605 56.9375 55.625 53.4812507629395 49.8499984741211 47.5062484741211 46.3062515258789 45.1187515258789 43.2000007629395 40.7562484741211 38.1062507629395 34.2999992370605 30.7562503814697 28.1062507629395 25.8687496185303 23.9437503814697 22.0874996185303 20.1187496185303 18.0499992370605 17.0812492370605 
93.1687469482422 97.0437469482422 101.162498474121 105 108.487503051758 111.193748474121 113.599998474121 114.881248474121 115.125 113.481246948242 110.256248474121 104.037498474121 97.7562484741211 91.4562530517578 87.84375 84.75 81.53125 79.9312515258789 80.40625 80.4437484741211 80.9124984741211 82.1374969482422 83.5187530517578 84.9875030517578 85.71875 84.625 81.5374984741211 76.1500015258789 70.8562469482422 67.2937469482422 65.0250015258789 64.8874969482422 63.5125007629395 62.5437507629395 61.6937484741211 57.1875 52.5750007629395 49.5625 47.0499992370605 44.6062507629395 41.9749984741211 39.2687492370605 35.9000015258789 32.7062492370605 30 27.59375 25.59375 23.5812492370605 21.3250007629395 19.6687507629395 18.6187496185303 
87.8312530517578 93.1437530517578 98.2375030517578 102.943748474121 107.431251525879 110.881248474121 113.662498474121 115.712501525879 116.737503051758 114.806251525879 110.787498474121 104.449996948242 98.2624969482422 92.9625015258789 88.8562469482422 85.6999969482422 83.1312484741211 81.7562484741211 81.6187515258789 81.8125 81.2687530517578 81.9625015258789 83.4124984741211 84.0499954223633 83.8062515258789 82.7562484741211 81.1125030517578 77.7125015258789 74.6312484741211 72.9312515258789 71.9124984741211 71.8062515258789 69.7874984741211 68.1687469482422 65.7125015258789 61.6312484741211 56.6500015258789 52.3937492370605 49.09375 46.2874984741211 43.3875007629395 40.6062507629395 37.6062507629395 34.4375 31.8312492370605 29.3374996185303 27.28125 25.2062492370605 23.0499992370605 21.5187492370605 20.4187507629395 
84.03125 90.78125 96.6750030517578 101.962501525879 106.412498474121 110.112503051758 113.474998474121 116.599998474121 119.143753051758 116.287498474121 111.581253051758 104.875 99.4875030517578 95.2125015258789 90.96875 87.5 84.84375 83.9499969482422 83.5500030517578 83.3125 83.0812530517578 82.9562454223633 83.4250030517578 83.6312484741211 82.9437484741211 81.0500030517578 80.375 79.4250030517578 77.4875030517578 77.3312530517578 78.0187530517578 78.7062530517578 75.8312530517578 73.15625 69.7937469482422 65.2375030517578 60.0625 54.9500007629395 51.1937484741211 48.65625 45.78125 42.9124984741211 39.8624992370605 36.5499992370605 33.7062492370605 31.28125 29.1687507629395 27.0874996185303 24.8687496185303 23.2250003814697 22.5562496185303 
81.9187469482422 89.4375 96.3562545776367 101.231246948242 105.53125 109.212501525879 112.34375 115.75 118.03125 115.737503051758 111.025001525879 105.712501525879 101.3125 97.6687469482422 93.9000015258789 90.4562454223633 87.9749984741211 86.9625015258789 86.34375 85.8375015258789 85.5875015258789 85.625 85.1687469482422 84.6374969482422 83.2375030517578 80.5749969482422 79.2687530517578 79.84375 80.2874984741211 81.6312484741211 83.25 84.34375 81.3000030517578 77.8000030517578 74 69.4437484741211 64.0500030517578 58.3937492370605 54.59375 51.53125 48.46875 45.6062507629395 42.4500007629395 38.96875 36.3562507629395 33.8812484741211 31.53125 29.1499996185303 27.3937492370605 24.96875 24.2124996185303 
82.5250015258789 89.53125 96.6750030517578 100.724998474121 104.643753051758 107.887496948242 110.481246948242 112.8125 114.356246948242 113.5 110.806251525879 106.974998474121 103.8125 100.993751525879 97.3000030517578 94.1624984741211 91.5625 90.53125 89.7937469482422 89.25 88.7562484741211 87.9562530517578 87.6500015258789 86.53125 85.0062484741211 83.4312515258789 82.4375 82.8625030517578 83.6999969482422 85.6437530517578 87.6750030517578 88.6187515258789 85.9312515258789 82.0437469482422 78.1437530517578 73.0562515258789 67.9562530517578 62.9312515258789 58.7374992370605 55.4312515258789 52.0437507629395 48.96875 45.65625 42.3312492370605 38.7437515258789 36.0125007629395 33.3687515258789 32.46875 30.6312503814697 27.3062496185303 26.3624992370605 
84.1687469482422 89.875 94.90625 99.4812469482422 103.018753051758 105.762496948242 107.949996948242 109.775001525879 111.462501525879 111.824996948242 109.775001525879 107.931251525879 105.9375 104.056251525879 101.050003051758 97.96875 95.6125030517578 94.3562469482422 93.6500015258789 92.9625015258789 92.375 91.34375 90.7562484741211 89.6187515258789 88.2937469482422 87.1500015258789 86.8375015258789 86.8874969482422 87.5500030517578 89.7687530517578 91.3874969482422 93.0500030517578 90.4312515258789 86.2562484741211 82.4250030517578 77.2062530517578 72.0250015258789 67.3062515258789 63.25 59.6937484741211 56.15625 53.0125007629395 49.53125 46.1937484741211 42.1749992370605 38.1062507629395 37.6187515258789 36.9124984741211 34.59375 31.5812492370605 29.8500003814697 
86.9312515258789 89.9625015258789 93.8625030517578 97.5124969482422 100.550003051758 103.412498474121 105.506248474121 107.368751525879 108.900001525879 109.393753051758 109.506248474121 109.275001525879 108.893753051758 108.237503051758 105.368751525879 102.737503051758 100.0625 99.0875015258789 98.15625 97.2624969482422 96.6999969482422 95.6375045776367 94.8062515258789 94.4250030517578 92.9250030517578 91.90625 91.5625 91.625 92.3562469482422 94.1875 96.2937469482422 97.15625 94.3687515258789 90.1374969482422 85.6750030517578 80.8249969482422 75.9875030517578 71.4625015258789 67.8375015258789 64.7062530517578 61.25 58.25 54.8062515258789 51.25 47.9000015258789 46.1312522888184 45.2750015258789 42.6124992370605 39.40625 35.7249984741211 33.5250015258789 
89.3937530517578 90.6624984741211 93.3249969482422 96.0812530517578 98.40625 101.0625 103.487503051758 105.1875 106.856246948242 108.243751525879 109.012496948242 110.287498474121 111.800003051758 112.056251525879 109.837501525879 107.425003051758 105.268753051758 103.762496948242 102.918746948242 102.34375 101.40625 100.293746948242 99.9250030517578 99.0562515258789 97.6812515258789 96.8812484741211 96.9000015258789 97.125 97.2312469482422 98.7562484741211 100.256248474121 101.181251525879 97.9625015258789 93.3625030517578 89.15625 84.2562484741211 79.4437484741211 75.6624984741211 72.2687530517578 69.6999969482422 67.21875 64.0437469482422 59.9874992370605 56.7312507629395 55.5999984741211 55.1812515258789 53.375 49.0562515258789 44.46875 40.0499992370605 37.1812515258789 
91.8375015258789 91.78125 93.0500030517578 95.0500030517578 96.7687530517578 98.8625030517578 100.931251525879 102.949996948242 105.15625 107.431251525879 109.362503051758 111.9375 114.550003051758 115.987503051758 114.5 112.356246948242 110.643753051758 109.125 108.018753051758 107.34375 106.21875 105.331253051758 104.849998474121 103.862503051758 102.525001525879 101.993751525879 102.09375 102.275001525879 102.962501525879 103.793746948242 104.443748474121 104.956253051758 101.368751525879 96.5374984741211 92.1062469482422 87.5812530517578 83.0374984741211 79.15625 75.8125 73.4375 71.625 68.4499969482422 64.5 62.1687507629395 62.25 62.21875 60.0625 54.7125015258789 49.6687507629395 44.9249992370605 40.84375 
94.71875 93.6437530517578 94.0250015258789 94.6875 95.8375015258789 97.40625 99.5875015258789 102.056251525879 105.099998474121 107.631248474121 110.675003051758 113.849998474121 117.662498474121 120.212501525879 119.349998474121 118.262496948242 116.618751525879 115.59375 114.150001525879 112.625 111.875 111.150001525879 110.412498474121 109.09375 108.118751525879 108.125 108.137496948242 108.118751525879 108.206253051758 108.418746948242 108.8125 108.662498474121 104.743751525879 100.200004577637 95.5875015258789 91.1125030517578 86.6125030517578 83.0062484741211 78.8812484741211 75.8874969482422 73.8375015258789 72.3625030517578 69.7312469482422 68.5687484741211 68.1624984741211 67.90625 65.8625030517578 61.78125 56.65625 51.5812492370605 46.8375015258789 
97.3812484741211 95.25 95 94.4250030517578 95.03125 97.1187515258789 99.2312469482422 101.787498474121 105.03125 108.099998474121 112.056251525879 116.431251525879 121.481246948242 125.012504577637 124.568748474121 124.28125 123.762496948242 122.1875 120.4375 118.925003051758 117.762496948242 117.09375 116.412498474121 115.056251525879 114.1875 113.912498474121 113.925003051758 113.824996948242 113.599998474121 113.087501525879 113.074996948242 112.337501525879 108.25 103.900001525879 99.3562469482422 94.5250015258789 90.25 86.7249984741211 82.0062484741211 76.8812484741211 75.0625 75.3125 74.7750015258789 73.9375 73.6624984741211 73.9625015258789 72.2874984741211 68.78125 63.9125022888184 58.4749984741211 53.9937515258789 
99.5250015258789 96.5875015258789 95.2874984741211 94.7375030517578 95.4937515258789 96.7874984741211 98.8499984741211 101.506248474121 105.125 108.90625 113.318748474121 118.881248474121 124.443748474121 129.293746948242 130.456253051758 130.9375 130.475006103516 128.243743896484 126.949996948242 125.212501525879 123.918746948242 123.081253051758 122.443748474121 120.925003051758 120.193748474121 119.699996948242 119.599998474121 119.543746948242 119.068748474121 118.199996948242 117.418746948242 115.775001525879 111.768753051758 107.712501525879 102.856246948242 98.2249984741211 94.1125030517578 90.5124969482422 85.15625 80.5687484741211 79.1875 80.1812515258789 80.1875 80.2937469482422 80.4499969482422 81.7312469482422 80.6687469482422 77.21875 71.8187484741211 66.3812484741211 61.7999992370605 
102.875 99.46875 97.8312530517578 97.1937484741211 97.0749969482422 98.0999984741211 99.71875 101.900001525879 105.537498474121 109.912498474121 116.4375 122.349998474121 129.306243896484 135.78125 137.59375 138.306243896484 137.818756103516 135.675003051758 133.837493896484 131.931243896484 130.375 129.274993896484 128.1875 127.043746948242 126.175003051758 125.574996948242 125.512496948242 125.212501525879 124.793746948242 124.025001525879 122.693748474121 120.75 115.8125 111.893753051758 108.018753051758 104.231246948242 99.8562545776367 95.5562515258789 91.1062469482422 88.6687469482422 87.6687469482422 88.4000015258789 88.9124984741211 89.2750015258789 91.0625 93.75 93.0374984741211 88.0124969482422 83.0062484741211 77.40625 72.6312484741211 
105.650001525879 102.356246948242 100.775001525879 99.8562469482422 98.7062530517578 99.5374984741211 100.737503051758 102.581253051758 105.8125 110.662498474121 117.074996948242 125.587501525879 135.03125 141.5625 144.600006103516 145.706253051758 145.737503051758 143.643753051758 140.800003051758 139.03125 137.081253051758 135.53125 134.206253051758 132.475006103516 131.975006103516 131.462493896484 131.043746948242 130.774993896484 130.631256103516 129.4375 128.081253051758 126.118751525879 121.71875 117.0625 113.712501525879 109.918746948242 105.425003051758 101.212501525879 98.2562484741211 96.9000015258789 95.7437515258789 96.6437530517578 98.0875015258789 99.1125030517578 101.581253051758 104.256248474121 102.824996948242 98.25 93.34375 88.6374969482422 84.0562515258789 
108.618751525879 105.637496948242 103.462501525879 102.268753051758 100.699996948242 101.162498474121 101.856246948242 103.456253051758 105.912498474121 110.800003051758 118.199996948242 128.487503051758 139.96875 148.975006103516 151.387496948242 152.993743896484 153.662506103516 151.268753051758 148.324996948242 145.637496948242 143.675003051758 141.518753051758 139.875 137.850006103516 137.268753051758 136.78125 136.699996948242 136.943756103516 136.831253051758 135.0625 133.125 131.256256103516 126.987503051758 123.03125 119.199996948242 114.90625 110.493751525879 107.462501525879 105.431251525879 104.324996948242 103.612503051758 104.3125 106.099998474121 107.431251525879 109.712501525879 110.762496948242 109.949996948242 107.25 103.537498474121 99.3000030517578 95.6312484741211 
112.849998474121 109.893753051758 108.106246948242 106.293746948242 104.675003051758 104.893753051758 104.831253051758 105.493751525879 107.293746948242 111.206253051758 119.331253051758 130.868743896484 144.050003051758 153.837493896484 157.587493896484 159.662506103516 160.512496948242 158.350006103516 155.387496948242 152.274993896484 150.1875 148.024993896484 145.206253051758 143.287506103516 142.393753051758 141.493743896484 141.350006103516 141.787506103516 141.800003051758 140.324996948242 138.199996948242 136.225006103516 132.287506103516 129.137496948242 125.025001525879 120.568748474121 117.84375 114.681251525879 113.006248474121 111.925003051758 111.65625 112.59375 113.199996948242 114.918746948242 117.393753051758 117.8125 117.293746948242 116.493751525879 114.143753051758 110.631248474121 107.40625 
117.331253051758 114.537498474121 112.737503051758 110.96875 109.324996948242 108.887496948242 108.193748474121 107.9375 108.712501525879 110.512496948242 119.71875 134.956253051758 147.556243896484 156.8125 162.243743896484 165.6875 166.949996948242 165.012496948242 161.637496948242 158.125 155.649993896484 152.981246948242 150.431243896484 148.100006103516 146.737503051758 145.925003051758 145.762496948242 146.425003051758 147.018753051758 145.431243896484 143.600006103516 141.024993896484 138.350006103516 135.574996948242 131.118743896484 127.96875 125.262496948242 122.893753051758 121.231246948242 119.881248474121 119.400001525879 119.393753051758 120.393753051758 122.40625 124.918746948242 125.362503051758 126.150001525879 126.168746948242 124.293746948242 121.868751525879 119.824996948242 
121.987503051758 119.418746948242 117.543746948242 115.875 114.375 113.543746948242 113.175003051758 112.599998474121 113.337501525879 113.6875 126.743751525879 142.362503051758 152.949996948242 161.737503051758 167.331253051758 171.375 172.962493896484 170.912506103516 167.693756103516 163.712493896484 160.550003051758 156.881256103516 154.018753051758 151.449996948242 150.59375 149.925003051758 149.65625 150.600006103516 151.418746948242 150.21875 147.78125 145.868743896484 143.8125 141.074996948242 137.78125 134.443756103516 132.637496948242 130.175003051758 129.287506103516 128.3125 126.512496948242 126.84375 126.881248474121 128 130.256256103516 131.443756103516 133.287506103516 134.981246948242 133.581253051758 131.949996948242 131.274993896484 
127.824996948242 125.15625 123.693748474121 122.193748474121 120.712501525879 120.087501525879 119.925003051758 120.987503051758 123.743751525879 130.918746948242 144.993743896484 153.537506103516 160.112503051758 166.943756103516 172.425003051758 176.412506103516 177.956253051758 175.637496948242 171.643753051758 168.012496948242 163.449996948242 159.162506103516 156.125 153.699996948242 152.274993896484 152.193756103516 152.631256103516 153.987503051758 154.756256103516 153.712493896484 152.65625 151.012496948242 148.756256103516 146.243743896484 144.46875 142.362503051758 139.668746948242 137.5625 136.543746948242 133.800003051758 132.331253051758 132.300003051758 131.631256103516 132.28125 134.350006103516 135.65625 136.037506103516 138.181243896484 138.125 138.443756103516 137.850006103516 
134.112503051758 131.462493896484 130.350006103516 129.225006103516 127.737503051758 127.9375 128.068756103516 130.412506103516 134.856246948242 142.743743896484 152.418746948242 160.931243896484 167.618743896484 173.131256103516 178.268753051758 181.387496948242 182.949996948242 180.550003051758 175.975006103516 171.225006103516 165.9375 160.84375 156.96875 154.699996948242 154.28125 154.199996948242 154.918746948242 156.8125 158.043746948242 157.600006103516 156.631256103516 156.268753051758 155.787490844727 153.731246948242 152.693756103516 150.018753051758 146.881256103516 144.662506103516 143.550003051758 139.618759155273 137.231246948242 137.100006103516 136 136.006256103516 137.237503051758 138.350006103516 139.600006103516 141.949996948242 143.168746948242 144 144.006256103516 
140.524993896484 138.28125 137.237503051758 136.100006103516 135.393753051758 135.212493896484 136.537506103516 138.987503051758 143.949996948242 150.993743896484 159.037506103516 166.768753051758 174.356246948242 179.662506103516 184.512496948242 187.324996948242 187.90625 185.350006103516 180.193756103516 174.199996948242 167.524993896484 161.087493896484 156.912506103516 155.175003051758 155.956253051758 156 156.862503051758 158.949996948242 160.556243896484 160.699996948242 161.762496948242 163.618743896484 163.21875 162.056243896484 160.981246948242 158.168746948242 155.324996948242 152.475006103516 150.324996948242 146.193756103516 142.862503051758 141.587493896484 139.787506103516 139.512496948242 140.956253051758 143.143753051758 144.350006103516 145.350006103516 148.40625 149.631256103516 150.287506103516 
147.125 146.237503051758 145.131256103516 143.774993896484 142.84375 142.518753051758 143.912506103516 146.25 151.462493896484 157.6875 165.1875 172.487503051758 180.21875 185.768753051758 189.706253051758 192.112503051758 192.800003051758 189.15625 184.037506103516 175.737503051758 166.712493896484 160.256256103516 155.53125 154.074996948242 155.893753051758 156.225006103516 156.975006103516 159.175003051758 162.268753051758 165.100006103516 165.662506103516 168.512496948242 169.15625 170.449996948242 170.074996948242 166.024993896484 162.518753051758 159.71875 156.462493896484 151.768753051758 148.199996948242 144.612503051758 142.306243896484 143.074996948242 145.09375 147.693756103516 148.300003051758 149.243743896484 153.1875 154.006256103516 154.712493896484 
154.631256103516 153.681243896484 153.712493896484 152.149993896484 149.806243896484 148.993743896484 150.068756103516 151.962509155273 156.449996948242 163.03125 170.706253051758 178.512496948242 186.34375 191.65625 195.649993896484 197.350006103516 197.162506103516 195.0625 189.118743896484 177.84375 166.256256103516 157.100006103516 153.162506103516 154.100006103516 155.668746948242 156.800003051758 157.887496948242 160.231246948242 163.962493896484 167.243743896484 169.743743896484 171.75 173.206253051758 175.300003051758 177.90625 176.399993896484 170.787506103516 167.125 162.856246948242 158.131256103516 153.868743896484 150.543746948242 147.987503051758 148 149.975006103516 151.024993896484 152.768753051758 154.331253051758 158.212493896484 159.443756103516 159.887496948242 
161.46875 161.456253051758 161.787506103516 159.912506103516 156.518753051758 154.556243896484 154.231246948242 156.431243896484 160.512496948242 167.274993896484 176.050003051758 184.762496948242 191.925003051758 197.856246948242 201.693756103516 202.5625 201.668746948242 198.931243896484 194.706253051758 182.293746948242 168.337493896484 156.837493896484 152.962493896484 154.168746948242 155.800003051758 157.800003051758 158.862503051758 161.800003051758 165.337493896484 169.25 171.800003051758 174.199996948242 176.212493896484 179.631256103516 184.012496948242 186.787506103516 180.800003051758 174.887496948242 170.024993896484 164.574996948242 160.28125 157.006256103516 154.425003051758 154.6875 155.487503051758 155.425003051758 157.050003051758 159.5 161.274993896484 164.237503051758 165.043746948242 
166.537506103516 168.037506103516 169.737503051758 166.681243896484 161.84375 158.787506103516 156.1875 156.993743896484 161.606246948242 169.449996948242 179.03125 188.693756103516 197.050003051758 202.962493896484 206.706253051758 206.412506103516 204.368743896484 200.100006103516 193.893753051758 183.912506103516 170.899993896484 162.25 156.125 155.1875 157.0625 158.625 160.3125 162.75 166.725006103516 170.706253051758 173.143753051758 176.137496948242 178.5625 181.399993896484 185.706253051758 189.331253051758 185.762496948242 179.925003051758 174.743743896484 170.518753051758 166.431243896484 163.056243896484 161 159.637496948242 160.181243896484 160.368743896484 161.4375 163.962493896484 164.956253051758 168.318756103516 169.3125 
