ncols        51
nrows        45
xllcorner    -63.500000000000
yllcorner    -7.500000000000
cellsize     0.166666666667
NODATA_value -99
132.618743896484 128.425003051758 127.743751525879 129.949996948242 130.612503051758 135.28125 138.887496948242 140.012496948242 140.118743896484 142.612503051758 148.399993896484 151.581253051758 153.762496948242 150.637496948242 147.862503051758 145.21875 143.581253051758 138.912506103516 138.106246948242 138.162506103516 139.987503051758 142.143753051758 145.90625 149.131256103516 153.118759155273 157.643753051758 161.84375 166.162506103516 172.087493896484 183.643753051758 197.681243896484 212.774993896484 226.574996948242 241.431243896484 257.231262207031 268.899993896484 277.668762207031 285.1875 289.774993896484 291.231262207031 294.131256103516 295.274993896484 293.887512207031 296.393737792969 294.575012207031 294.274993896484 294.056243896484 295.581237792969 297.03125 302.581237792969 307.056243896484 
136.237503051758 130.96875 131.081253051758 131.543746948242 132.90625 139.050003051758 143.537506103516 148.506256103516 152.6875 156.262496948242 160.381256103516 160.987503051758 160.681243896484 158.40625 154.806243896484 150.956253051758 148.024993896484 143.987503051758 142.012496948242 140.712493896484 141.793746948242 144.256256103516 147.743743896484 151.34375 155.068756103516 160.28125 165.118743896484 171.0625 177.75 188.887496948242 200.806243896484 215.881256103516 230.168746948242 246.262496948242 261.318756103516 272.143737792969 280.693756103516 287.131256103516 290.65625 291.456237792969 293.206237792969 293.581237792969 291.549987792969 292.65625 290.600006103516 290.768737792969 290.918762207031 291.762512207031 296.106262207031 302.924987792969 307.068756103516 
141.868743896484 136.568756103516 135.893753051758 136.143753051758 137.6875 143.21875 149.631256103516 157.112503051758 163.78125 167.862503051758 170.043746948242 169 166.862503051758 163.175003051758 158.381256103516 153.693756103516 149.625 146.481246948242 144.34375 143.306243896484 144.75 148.475006103516 151.662506103516 155.581253051758 161.15625 165.9375 171.712493896484 178.875 185.475006103516 196.318756103516 209.850006103516 224.75 240.481246948242 255.8125 272.762512207031 282.774993896484 292.681243896484 301.75 304.200012207031 305.112487792969 306.174987792969 304.543762207031 301.256256103516 298.368743896484 297.225006103516 297.450012207031 298.274993896484 298.793762207031 302.899993896484 309.306243896484 313.90625 
146.28125 141.293746948242 141.050003051758 141.081253051758 143.993743896484 148.318756103516 155.21875 163.987503051758 172.65625 178.056243896484 178.493743896484 174.550003051758 169.268753051758 163.893753051758 158.975006103516 154.056243896484 149.831253051758 145.918746948242 144.731246948242 145.96875 148.706253051758 152.100006103516 154.9375 159.71875 165.362503051758 170.949996948242 178.493743896484 186.149993896484 193.487503051758 205.71875 219.056243896484 236 251.368743896484 268.0625 284.462493896484 296.975006103516 308.231262207031 317.893737792969 322.087493896484 323.606262207031 322.462493896484 318.793762207031 313.625 307.856262207031 305.956237792969 304.081237792969 305.493743896484 306.681243896484 308.818756103516 315.306243896484 321.274993896484 
154.006256103516 147.175003051758 144.643753051758 144.962493896484 147.887496948242 152.543746948242 158.418746948242 168.15625 179.925003051758 187.75 183.375 175.53125 169.743743896484 164.09375 158.237503051758 153.356246948242 149.381256103516 145.199996948242 145.306259155273 147.731246948242 151.524993896484 154.243743896484 157.862503051758 163.618743896484 169.625 176.331253051758 183.21875 191.1875 201.725006103516 215.118743896484 229.662506103516 245.381256103516 262.668731689453 280.225006103516 296.993743896484 310.743743896484 324.431243896484 336.149993896484 341.012512207031 341.256256103516 340.549987792969 333.40625 324.743743896484 317.075012207031 312.431243896484 311.881256103516 312.762512207031 314.96875 316.375 321.637512207031 327.924987792969 
159.381256103516 153.90625 150.568756103516 149.737503051758 152.212493896484 157.824996948242 164.706253051758 174.100006103516 186.53125 196.381256103516 188.90625 180.018753051758 174.15625 168.956253051758 163.618743896484 159.75 155.118743896484 151 151.350006103516 153.756256103516 157.006256103516 160.4375 164.5625 170.643753051758 176.975006103516 185.050003051758 193.131256103516 201.300003051758 211.387496948242 224.368743896484 238.506256103516 253.712493896484 268.637512207031 287.34375 304.431243896484 318.65625 333.643737792969 346.65625 354.181243896484 355.787506103516 353.212493896484 344.987487792969 335.649993896484 326.881256103516 318.262512207031 317.237487792969 320.200012207031 323.106262207031 322.737487792969 324.081237792969 323.662506103516 
165.100006103516 160.131256103516 157.46875 155.512496948242 157.199996948242 161.537506103516 167.518753051758 173.993743896484 182.356246948242 186.387496948242 184.731246948242 180.487503051758 176.331253051758 172.53125 169.012496948242 166.056243896484 163.462493896484 161.274993896484 160.643753051758 160.274993896484 162.162506103516 166.006256103516 169.693756103516 176.5 185.75 194.3125 203.118743896484 212.618759155273 221.337493896484 232.931243896484 247.393753051758 261.806243896484 276.487487792969 290.65625 306.399993896484 323.318756103516 338.825012207031 353.993743896484 365.4375 368.443756103516 364.181243896484 356.03125 347.068756103516 337.512512207031 326.799987792969 324.168762207031 326.943756103516 329.237487792969 325.3125 323.568756103516 323.600006103516 
170.375 164.912506103516 162.3125 161.943756103516 163.206253051758 165.456253051758 168.043746948242 170.243743896484 172.59375 175.012496948242 178 179.074996948242 178.112503051758 175.28125 172.975006103516 171.462493896484 170.112503051758 169.612503051758 169.418746948242 165.806243896484 166.456253051758 170.074996948242 174.318756103516 182.831253051758 193.449996948242 203.300003051758 212.762496948242 222.050003051758 232.006256103516 242.693756103516 254.512496948242 268.637512207031 281.6875 295.068756103516 308.8125 324.6875 341 356.53125 368.037506103516 373.793762207031 373.4375 367.299987792969 359.262512207031 348.868743896484 339.631256103516 336.381256103516 334.350006103516 330.068756103516 329.387512207031 323.381256103516 319.5 
176.100006103516 171.143753051758 168.431243896484 168.043746948242 168.412506103516 168.693756103516 170.0625 170.100006103516 169.274993896484 171.100006103516 176.456253051758 181.050003051758 182.537506103516 181.53125 178.931243896484 177.537506103516 175.824996948242 174.806243896484 174.831253051758 170.712493896484 170.975006103516 175.106246948242 180.481246948242 191.587509155273 203.050003051758 213.431243896484 222.168746948242 231.237503051758 241.449996948242 250.768753051758 261.806243896484 274.543762207031 285.825012207031 296.943756103516 308.981262207031 324.818756103516 340.756256103516 355.9375 369.606262207031 378.125 380.756256103516 377.575012207031 373.0625 365.881256103516 359.1875 353.662506103516 348.443756103516 340.549987792969 331.700012207031 321.34375 313.393737792969 
181.643753051758 177.231246948242 174.90625 173.699996948242 173.118743896484 172.668746948242 173.831253051758 173.725006103516 175.043746948242 177.449996948242 182.368743896484 185.881256103516 188.96875 188.293746948242 185.518753051758 182.131256103516 178.899993896484 177 174.300003051758 171.40625 173.756256103516 179.543746948242 187.125 200.768753051758 213.09375 223.706253051758 232.762496948242 240.668746948242 251.137496948242 259.456237792969 267.6875 278.131256103516 288.181243896484 299.012512207031 310.268737792969 324.818756103516 340.018737792969 353.631256103516 368.393737792969 380.71875 388.518737792969 389.293762207031 386.78125 380.825012207031 377.618743896484 375.137512207031 367.418762207031 354.993743896484 341.087493896484 325.3125 310.362487792969 
186.462509155273 182.431243896484 180.087493896484 178.543746948242 177.274993896484 176.793746948242 177.668746948242 178.9375 181.668746948242 185.225006103516 190.412506103516 194.21875 196.300003051758 195.399993896484 191.300003051758 186.25 180.899993896484 177.25 173.475006103516 171.212493896484 174.537506103516 181.84375 192.768753051758 206.487503051758 222.574996948242 233.518753051758 241.475006103516 250.074996948242 258.893768310547 265.256256103516 272.71875 281.243743896484 289.40625 298.862487792969 310.28125 324.606262207031 337.424987792969 351.731262207031 367.756256103516 381.481262207031 392.524993896484 395.850006103516 396.774993896484 394.168731689453 391.59375 391.737487792969 381.731262207031 362.981262207031 346.575012207031 331.481262207031 312.524993896484 
191.756256103516 187.737503051758 184.943756103516 183.556243896484 182.618743896484 182.40625 183.524993896484 186.350006103516 189.737503051758 194.03125 199.862503051758 203.756256103516 203.681243896484 201.0625 196.362503051758 189.925003051758 183.831253051758 178.943756103516 174.043746948242 170.887496948242 174.368743896484 183.324996948242 197.75 215.3125 231.512496948242 241.181259155273 247.824996948242 255.524993896484 263.975006103516 270.293762207031 276.524993896484 282.918762207031 290.493743896484 298.825012207031 309.137512207031 323.306243896484 337.862487792969 352.487487792969 369.799987792969 385.606262207031 399.28125 403.518737792969 402.768737792969 398.174987792969 393.387512207031 386.262512207031 374.668762207031 364.268737792969 349.868743896484 334.931243896484 316.006256103516 
194.912506103516 191.5625 189.431243896484 187.975006103516 187.925003051758 188.512496948242 190.606246948242 193.462493896484 197.199996948242 202.868743896484 208.706253051758 211.96875 210.581253051758 205.418746948242 199.725006103516 192.412506103516 185.793746948242 181.206253051758 176.837493896484 173.043746948242 175.100006103516 185.53125 202.043746948242 219.587509155273 233.71875 243.800003051758 252.050003051758 259.862487792969 267.612487792969 273.181243896484 278.506256103516 283.737487792969 289.237487792969 297.174987792969 307.049987792969 320.306243896484 334.493743896484 351.174987792969 370.612487792969 388.612487792969 405.731262207031 409.5625 404.681243896484 397.368743896484 388.931243896484 382.25 372.112487792969 358.756256103516 347.081237792969 337.443756103516 328.331237792969 
197.012496948242 194.1875 192.506256103516 191.612503051758 192.28125 193.456253051758 196.662506103516 200.168746948242 204.643753051758 210.050003051758 215.131256103516 216.087493896484 213.631256103516 208.993743896484 201.743743896484 194.787506103516 187.506256103516 183.862503051758 179.993743896484 177.9375 183.300003051758 193.793746948242 208.143753051758 222.456253051758 235.375 245.931243896484 254.793746948242 262.5 270.424987792969 273.956237792969 278.212493896484 281.899993896484 286.368743896484 293.668731689453 302.462493896484 316.012512207031 331.931243896484 349.693756103516 372.056243896484 391.75 406.918762207031 405.850006103516 402.918762207031 398.8125 391.287506103516 381.668762207031 372.381256103516 363.112487792969 349.818756103516 343.287506103516 342.762512207031 
198.693756103516 195.787506103516 194.800003051758 195.3125 195.800003051758 198.137496948242 202.40625 206.081253051758 211.018753051758 216.193740844727 220.068756103516 220.518753051758 217.668746948242 212.806243896484 205.850006103516 198.3125 191.550003051758 188.081253051758 185.28125 184.90625 192.268753051758 202.5625 215.606246948242 227.881256103516 239 250.012496948242 258.4375 265.193756103516 272.09375 275.3125 277.100006103516 278.612487792969 282.5 287.850006103516 296.03125 309.018737792969 327.081237792969 347.725006103516 371.018737792969 389.618743896484 399.299987792969 401.806243896484 402.706237792969 399.40625 390.762512207031 381.081237792969 372.831237792969 364.168762207031 355.53125 346.881256103516 345.962493896484 
199.175003051758 196.393753051758 196.181243896484 197.368743896484 199.037506103516 202.131256103516 206.84375 210.612503051758 216.056243896484 222 226.012496948242 226.1875 223.25 217.65625 210.412506103516 201.418746948242 195.65625 193.581253051758 191.993743896484 192.625 200.506256103516 211.012496948242 223.237503051758 234.831253051758 243.912506103516 252.868759155273 259.8125 266.799987792969 273.943756103516 276.524993896484 277.712493896484 276.506256103516 276.1875 278.793762207031 284.03125 297.912506103516 317.962493896484 342.1875 369.100006103516 387.818756103516 396.462493896484 398.15625 398.65625 396.137512207031 385.793762207031 376.193756103516 366.837493896484 357.618743896484 349.762512207031 342.299987792969 338.943756103516 
197.643753051758 196.125 196.481246948242 198.350006103516 201.024993896484 204.850006103516 209.975006103516 214.768753051758 220.618743896484 227.137496948242 232.393753051758 233.012496948242 230.493743896484 224.981246948242 217.068756103516 207.675003051758 200.243743896484 197.887496948242 196.806243896484 198.412506103516 207.931243896484 219.125 230.637496948242 240.881256103516 249.387496948242 255.193756103516 259.962493896484 267.3125 275.1875 278.712493896484 278.581237792969 275.28125 271.100006103516 267.21875 270.225006103516 283.668762207031 304.537506103516 334.84375 369.987487792969 383.818756103516 387.731262207031 389.518737792969 388.924987792969 386.856262207031 378.443756103516 369.581237792969 359.387512207031 351.243743896484 345.825012207031 336.262512207031 330.637481689453 
194.03125 193.518753051758 195.318756103516 198.293746948242 201.449996948242 205.75 211.350006103516 216.649993896484 223 229.762496948242 236.34375 239.418746948242 239.481246948242 234.762496948242 226.893737792969 217.3125 207 201.206253051758 200.899993896484 202.3125 213.96875 225.368743896484 235.287506103516 242.875 249.893753051758 255.268753051758 258.712493896484 266.893737792969 275.912506103516 280.3125 279.118743896484 269.700012207031 262.28125 255.625 254.568756103516 264.337493896484 289.71875 320.450012207031 352.768737792969 369.618743896484 374.09375 375.600006103516 376.100006103516 375.606262207031 368.712493896484 359.600006103516 352.137512207031 344.787506103516 338.5 328.84375 324.668762207031 
189.612503051758 190.268753051758 192.818756103516 195.850006103516 199.862503051758 205.550003051758 211.006256103516 217.300003051758 224.756256103516 231.8125 239.731246948242 244.231246948242 247.106246948242 246.381240844727 237.237503051758 224.625 212.649993896484 204.4375 201.875 203.725006103516 216.96875 229.481246948242 236.268753051758 242.46875 248.662506103516 254.8125 259.931243896484 267.712493896484 277.362487792969 283.206237792969 282.556243896484 270.262512207031 257.381256103516 243.881256103516 237.131256103516 248.012496948242 273.431243896484 302.34375 331.018737792969 348.65625 357.40625 358.96875 361.368743896484 362.893737792969 357.612487792969 351.131256103516 344.59375 337.649993896484 331.393737792969 318.700012207031 318.399993896484 
185.524993896484 186.237503051758 189.28125 192.899993896484 198.037506103516 204.493743896484 211.100006103516 217.0625 224.831253051758 232.487503051758 240.3125 246.350006103516 252.850006103516 257.34375 245.78125 228 213.112503051758 205.537506103516 202.181243896484 203.418746948242 213.931243896484 224.65625 234.949996948242 240.568756103516 246.274993896484 252.268753051758 259.181243896484 268.25 276.075012207031 280.756256103516 278.212493896484 268.899993896484 251.943756103516 232.837493896484 219.899993896484 233.412506103516 262.387512207031 291.274993896484 316.375 333.8125 341.981231689453 343.137512207031 348.831237792969 352.649993896484 349.137512207031 343.600006103516 336.725006103516 329.262512207031 321.799987792969 310.112487792969 310.143737792969 
180.262496948242 182.612503051758 186.293746948242 190.493743896484 196.731246948242 203.006256103516 209.868743896484 216.918746948242 224.518753051758 231.443756103516 237.15625 242.71875 248.831253051758 253.824996948242 243.612503051758 226.824996948242 212.850006103516 204 201 200.193756103516 210 220.537506103516 229.387496948242 235.862503051758 242.387496948242 249.537506103516 257.037506103516 264.53125 272.71875 278.293762207031 277.375 269.9375 252.681243896484 230.731246948242 211.118743896484 229.024993896484 261.299987792969 289.293762207031 311.787506103516 327.399993896484 335.993743896484 339.493743896484 343.15625 345.412506103516 342.112487792969 337.28125 330.71875 323.375 313.012512207031 304.65625 301.149993896484 
174.350006103516 178.03125 182.550003051758 188.512496948242 194.65625 201.568756103516 208.743743896484 216.081253051758 223.512496948242 228.556243896484 231.524993896484 233.324996948242 235.212493896484 235.693756103516 231.068756103516 221.34375 211.425003051758 204.518753051758 200.274993896484 198.762496948242 204.675003051758 212.606246948242 221.568756103516 227.6875 234.725006103516 243.206253051758 252.268753051758 260.899993896484 270.693756103516 278.299987792969 281.25 275.712493896484 261.762512207031 246.706253051758 237.537506103516 250.693756103516 275.306243896484 297.356262207031 314.368743896484 326.393737792969 334.625 338.368743896484 340.818756103516 341.65625 338.612487792969 333.625 326.743743896484 318.5 307.462493896484 300.881256103516 293.424987792969 
171.050003051758 176.106246948242 180.443756103516 186.612503051758 192.774993896484 200.581253051758 206.993743896484 214.6875 222.425003051758 224.600006103516 223.96875 221.837493896484 219.693756103516 219.556243896484 219.068756103516 214.574996948242 207.96875 202.875 198.206253051758 194.949996948242 199.262496948242 204.643753051758 210.96875 216.818756103516 225.03125 235.024993896484 244.875 255 266.84375 277.074981689453 284.21875 285.737487792969 275.006256103516 266.237487792969 266.731262207031 280.787506103516 297.799987792969 311.799987792969 322.21875 328.200012207031 333.762512207031 336.549987792969 338.049987792969 338.4375 335.625 330.9375 323.693756103516 314.600006103516 304.543762207031 298.181243896484 290.143737792969 
170.175003051758 174.987503051758 179.393753051758 184.293746948242 190.387496948242 198.162506103516 205.449996948242 212.0625 218.824996948242 219.3125 217.581253051758 214.268753051758 208.512496948242 210.399993896484 212.012496948242 209.587493896484 204.956253051758 201.131256103516 196.324996948242 192.056243896484 193.943756103516 196.875 200.768753051758 206.40625 214.943756103516 224.006256103516 235.875 248.181243896484 260.737487792969 272.950012207031 282.825012207031 287.59375 282.825012207031 280.212493896484 285.924987792969 302.375 315.631256103516 321.337493896484 326.237487792969 329.587493896484 333.84375 335.375 337.162506103516 338.706237792969 337.462493896484 331.71875 322.456237792969 310.075012207031 305.143737792969 297.5 289.668762207031 
172.568756103516 175.887496948242 179.431243896484 184.162506103516 190.425003051758 196.59375 203.143753051758 208.768753051758 212.962493896484 214.212493896484 213.243759155273 211.137496948242 209.162506103516 209.806243896484 209.199996948242 207.481246948242 204.40625 200.393753051758 195.212493896484 190.018753051758 190.037506103516 189.962493896484 190.762496948242 195.162506103516 202.956253051758 215.050003051758 227.068740844727 241 254.193756103516 266.381256103516 276.15625 282.21875 283.568756103516 285.825012207031 292.725006103516 304.487487792969 314.950012207031 319.743743896484 323.893737792969 327.450012207031 331.612487792969 333.287506103516 336.193756103516 340.21875 337.762512207031 331.912506103516 319.856262207031 312.606262207031 305.975006103516 301.518737792969 295.012512207031 
179.368743896484 181.550003051758 183.081253051758 186.581253051758 191.46875 196.850006103516 201.518753051758 205.949996948242 209.262496948242 210.806243896484 210.774993896484 210.793746948242 211.46875 211.649993896484 210.606246948242 208.1875 205.168746948242 200.793746948242 195.762496948242 189.806243896484 187.393753051758 184.074996948242 181.418746948242 183.431243896484 193.168746948242 206.399993896484 221.074996948242 234.4375 248.106246948242 259.174987792969 268.512481689453 275.90625 280.112487792969 284.806243896484 291.625 300.774993896484 309.131256103516 314.674987792969 317.899993896484 322.268737792969 327.100006103516 329.793762207031 332.818756103516 337.774993896484 338.256256103516 332.806243896484 326.3125 319.96875 312.162506103516 310.606262207031 305.40625 
187.893753051758 188.681243896484 188.987503051758 191.743743896484 194.612503051758 197.9375 201.737503051758 204.1875 207.199996948242 209.649993896484 211.106246948242 212.568756103516 214.725006103516 216.25 214.793746948242 212.96875 209.737503051758 205.256256103516 199.487503051758 192.6875 188.125 182.956253051758 177.15625 177.381256103516 189.018753051758 202.5 216.78125 230.300003051758 242.9375 253.625 263.356262207031 270.131256103516 275.225006103516 282.456237792969 287.71875 295.875 303.243743896484 307.712493896484 312.049987792969 316.274993896484 320.731262207031 323.350006103516 326.53125 331.59375 336.65625 337.924987792969 335.331237792969 330.743743896484 326.412506103516 319.106262207031 316.012512207031 
197.125 195.962493896484 195.8125 196.824996948242 197.90625 199.287506103516 202.125 204.787506103516 207.425003051758 210.337493896484 212.018753051758 214.631256103516 217.643753051758 220.068756103516 219.337493896484 218.03125 214.943756103516 211.243743896484 204.956253051758 198.206253051758 192.762496948242 186.412506103516 181.949996948242 183.074996948242 190.850006103516 202.306243896484 215.331253051758 228.168746948242 239.96875 250.3125 259.643737792969 267.387512207031 274.0625 278.975006103516 283.59375 290.987487792969 296.293762207031 301.53125 305.487487792969 309.0625 313.356262207031 317.181243896484 320.912506103516 327.831237792969 337.068756103516 342.03125 343.975006103516 341.537506103516 337.293762207031 329.0625 324.575012207031 
205.300003051758 203.40625 201.8125 201.568756103516 201.71875 201.949996948242 203.631256103516 205.293746948242 208.25 211.393753051758 213.568756103516 216.893753051758 220.4375 224.568756103516 224.768753051758 224.681243896484 223.018753051758 218.512496948242 213.237503051758 205.96875 199.893753051758 192.706253051758 188.893753051758 190.556243896484 195.606246948242 204.100006103516 216.068756103516 227.862503051758 239.893753051758 249.612503051758 257.5625 265.762512207031 271.131256103516 275.65625 280.524993896484 285.993743896484 291.693756103516 296.65625 301.84375 304.143737792969 305.575012207031 308.837493896484 315.956237792969 327.15625 339.518737792969 346.75 349.962493896484 350.487487792969 345.9375 339.5 332.331237792969 
213 209.800003051758 207.568756103516 206.125 206.081253051758 205.925003051758 206.362503051758 207.375 209.649993896484 213.03125 215.899993896484 220.556243896484 225.25 230.425003051758 232.131256103516 232.112503051758 232.012496948242 229.59375 224.787506103516 217.024993896484 209.581253051758 202.675003051758 198.456253051758 199.25 202.681243896484 209.331253051758 219.6875 230.09375 240.881256103516 249.181259155273 257.481262207031 265.231262207031 269.412506103516 273.768737792969 277.53125 283.068756103516 287.4375 292.65625 295.737518310547 297.487487792969 302.075012207031 307.212493896484 313.53125 325.225006103516 332.168762207031 343.168762207031 351.118743896484 352.600006103516 349.575012207031 345.068756103516 338.200012207031 
218.806243896484 215.274993896484 211.706253051758 210.018753051758 208.956253051758 208.831253051758 208.850006103516 209.637496948242 211.868743896484 214.850006103516 219.287506103516 225.28125 231.612503051758 236.587493896484 238.706253051758 240.599990844727 241.925003051758 240.612503051758 237.1875 229.168746948242 220.568756103516 212.393753051758 206.962493896484 206.893753051758 209.231246948242 214.581253051758 223.537506103516 233.193756103516 242.8125 250.137496948242 257.549987792969 264.868743896484 269.700012207031 273.899993896484 277.618743896484 281.024993896484 285.243743896484 290.637512207031 292.625 293.03125 298.049987792969 305.506256103516 312.450012207031 319.837493896484 326.862487792969 342.418762207031 353.012512207031 355.818756103516 353.037506103516 347.0625 341.393737792969 
221.550003051758 218.137496948242 214.806243896484 213.118743896484 211.418746948242 210.668746948242 210.793746948242 210.631256103516 212.787506103516 216.756256103516 221.46875 228.75 236.4375 243.168746948242 246.337493896484 249.837493896484 250.212493896484 248.456253051758 244.956253051758 238.550003051758 229.975006103516 221.850006103516 215.043746948242 214.475006103516 216.337493896484 220.125 227.743759155273 236.475006103516 245.300003051758 252.574996948242 259.3125 265.5 270.043762207031 273.668762207031 277.34375 280.475006103516 284.418762207031 288.325012207031 289.15625 292.112487792969 299.137512207031 306.162506103516 312.293762207031 319.756256103516 328.450012207031 347.306243896484 359.181243896484 360.631256103516 355.181243896484 348.443756103516 341.137512207031 
222.512496948242 219.774993896484 217.262496948242 215.356246948242 213.175003051758 212.356246948242 211.693756103516 211.806243896484 214.574996948242 219.100006103516 225.587493896484 233.837493896484 243.75 252.425003051758 256.475006103516 258.96875 259.350006103516 257.956237792969 253.318756103516 247.537506103516 240.375 232.399993896484 225.850006103516 224.443756103516 225.662506103516 228.537506103516 234.90625 243.15625 250.981246948242 256.4375 262.325012207031 266.975006103516 270.25 274.043762207031 277.825012207031 281.40625 284.549987792969 286.4375 286.78125 292.293762207031 298.443756103516 304.462493896484 311.075012207031 319.331237792969 333.34375 353.606262207031 362.306243896484 357.393737792969 349.862487792969 342.618743896484 334.1875 
223.743743896484 220.837493896484 218.512496948242 217.118743896484 214.893753051758 213.387496948242 212.649993896484 212.9375 214.668746948242 219.512496948242 227.087493896484 238.324996948242 251.206253051758 261.318756103516 266.043762207031 268.6875 269.100006103516 266.893737792969 262.181243896484 256.631256103516 249.518753051758 241.800003051758 236.006256103516 233.962493896484 234.59375 236.612503051758 242.21875 249.106246948242 256.368743896484 261.168762207031 265.71875 269.256256103516 272.743743896484 275.668762207031 277.90625 281.368743896484 283.71875 285.231262207031 286.068756103516 290.231262207031 294.393737792969 299.9375 308.075012207031 316.6875 330.931243896484 347.524993896484 353.087493896484 347 339.231262207031 331.693756103516 325.081237792969 
224.768753051758 222.637496948242 220.5625 218.25 216.543746948242 214.96875 213.181243896484 212.612503051758 213.512496948242 217.96875 227.59375 242.956253051758 259.424987792969 271.6875 276.174987792969 278.549987792969 278.149993896484 275.049987792969 271.012512207031 264.949981689453 258.912506103516 251.006256103516 244.987503051758 242.018753051758 242.462493896484 243.381256103516 248.800003051758 255.462493896484 261.950012207031 265.931243896484 268.581237792969 272.174987792969 274.837493896484 277.506256103516 279.043762207031 280.799987792969 281.806243896484 285 285.793762207031 286.581237792969 289.231262207031 292.637512207031 299.056243896484 306.581237792969 317.731262207031 327.612487792969 331.893737792969 330.087493896484 324.737487792969 319.0625 314.524993896484 
226.918746948242 225.274993896484 223.012496948242 220.162506103516 217.806243896484 216.65625 214.550003051758 212.9375 212.756256103516 216.75 228.21875 246.3125 265.606262207031 279.65625 284.637512207031 287.106262207031 287.581237792969 284.112487792969 278.412506103516 273.181243896484 266.84375 260.081237792969 253.487503051758 251.225006103516 250.712493896484 251.612503051758 256.668762207031 263.993743896484 269.9375 272.137512207031 274.0625 276.318756103516 278.706237792969 280.762512207031 280.46875 280.100006103516 282.162506103516 282.568756103516 281.725006103516 282.725006103516 285.193756103516 286.637512207031 289.981262207031 296.225006103516 303.168762207031 308.512512207031 311.731262207031 312.493743896484 310.268737792969 306.549987792969 303.706237792969 
230.268753051758 228.668746948242 225.693756103516 224.037506103516 221.324996948242 219.862503051758 217.618743896484 215.212493896484 213.256256103516 212.381256103516 228.425003051758 253.399993896484 272.356262207031 284.931243896484 291.5 294.456237792969 295.456237792969 291.768737792969 286.96875 280.762512207031 273.931243896484 266.756256103516 260.556243896484 258.443756103516 257.825012207031 259.25 264.206237792969 270.881256103516 277.237487792969 278.231262207031 278.78125 279.59375 281.918762207031 283.1875 282.706268310547 282.450012207031 281.256256103516 279.9375 278.225006103516 277.356262207031 277.356262207031 278.143737792969 280.25 284.162506103516 288.46875 290.712493896484 293.899993896484 295.725006103516 294.200012207031 292.393737792969 292.700012207031 
233.506256103516 232.143753051758 229.556243896484 227.574996948242 225.65625 224.256256103516 222.71875 221.0625 220.925003051758 218.837493896484 244.318756103516 270.825012207031 284.018737792969 292.481262207031 298.625 301.768737792969 301.568756103516 298.149993896484 292.262512207031 285.256256103516 278.662506103516 271.168762207031 265.743743896484 263.799987792969 263.881256103516 265.6875 270.318756103516 277.212493896484 283.475006103516 284.5 282.931243896484 282.881256103516 284.424987792969 285.631256103516 284.200012207031 283.012512207031 280.431243896484 277.881256103516 275.037506103516 272.337493896484 270.068756103516 269.868743896484 269.762512207031 271.162506103516 273.918762207031 276.299987792969 278.512512207031 281.112487792969 280.931243896484 280.84375 283.068756103516 
236.775009155273 234.774993896484 232.237503051758 231.550003051758 229.84375 229.725006103516 230.668746948242 232.53125 238.237503051758 253.574996948242 283.09375 292.643737792969 297.481262207031 302.768737792969 307.237487792969 308.068756103516 307.399993896484 302.568756103516 295.293762207031 287.837493896484 279.943756103516 272.443756103516 268.1875 266.068756103516 266.431243896484 269.481262207031 274.118743896484 280.743743896484 287.274993896484 288.537506103516 288.899993896484 288.662506103516 289.293762207031 289.987487792969 290.475006103516 288.1875 284.049987792969 281.262512207031 277.049987792969 271.875 269.006256103516 267.625 267.3125 268.006256103516 270.399993896484 273.362487792969 275.475006103516 277.981262207031 279.018737792969 281.543762207031 284.424987792969 
240.175003051758 237.987503051758 236.125 235.0625 234.268753051758 235.887496948242 238.231246948242 243.987503051758 253.831253051758 270.768737792969 290.049987792969 301.268737792969 308.268737792969 312.90625 315.475006103516 315.831237792969 313.931243896484 307.731262207031 298.875 290.856262207031 280.399993896484 272.393737792969 267.506256103516 265.924987792969 268.299987792969 271.768737792969 276.924987792969 283.581237792969 290.443756103516 292.393737792969 292.862487792969 295.181243896484 297.693756103516 297.587493896484 296.049987792969 293.149993896484 287.893768310547 283.081268310547 278.53125 271.981262207031 267.787506103516 266.393737792969 265.462493896484 264.756256103516 267.631256103516 271.168762207031 274.450012207031 278.924987792969 281.399993896484 285.581237792969 289.362487792969 
243.550003051758 240.918746948242 240.037506103516 238.887496948242 238.837493896484 240.331253051758 244.918746948242 252.899993896484 263.700012207031 278.9375 294.043762207031 304.862487792969 314.950012207031 320.674987792969 323.325012207031 323.762512207031 320.868743896484 314.200012207031 304.206237792969 292.568756103516 279.518737792969 269.706237792969 264.568756103516 264.700012207031 268.837493896484 273.418762207031 278.875 286.356262207031 292.950012207031 296.28125 299.350006103516 303.9375 305.431243896484 305.15625 302.018737792969 297.637512207031 291.956237792969 285.456237792969 280.212493896484 271.793762207031 266.787506103516 263.981262207031 261.731262207031 262.431243896484 265.850006103516 270.056243896484 273.912506103516 278.549987792969 283.762512207031 289.518737792969 295.018737792969 
246.15625 242.956253051758 241.743743896484 240.481246948242 240.5 243.100006103516 247.649993896484 255.793746948242 266.318756103516 279.606262207031 293.600006103516 305.456237792969 315.649993896484 323.643737792969 326.887512207031 327.649993896484 325.762512207031 319.587493896484 309.231262207031 292.943756103516 275.287506103516 262.075012207031 257.387512207031 259.46875 265.512512207031 271.924987792969 278.331237792969 285.625 294.206237792969 299.700012207031 302.662506103516 309.75 311.481262207031 312.225006103516 310.612487792969 304.112487792969 298.012512207031 291.9375 284.975006103516 276.587493896484 270.112487792969 264.818756103516 261.431243896484 264.075012207031 268.018737792969 272.225006103516 275.75 280.462493896484 286.46875 292.643737792969 299.875 
248.606246948242 244.78125 243.050003051758 241 241.106246948242 243.587493896484 248.3125 255.481246948242 265.581237792969 278.056243896484 293.243743896484 305.318756103516 316.293762207031 324.918762207031 329.818756103516 332.237487792969 331.424987792969 326.162506103516 315.575012207031 294.993743896484 271.149993896484 251.100006103516 248.675003051758 254.818756103516 262.918762207031 271.287506103516 278.21875 284.962493896484 293.875 301.612487792969 308.143737792969 313.556243896484 316.600006103516 317.450012207031 316.875 313.912506103516 305.6875 298.112487792969 289.475006103516 281.506256103516 275.087493896484 269.918762207031 266.4375 267.162506103516 271.206237792969 274.568756103516 278.381256103516 283.006256103516 289.024993896484 295.806243896484 304.556243896484 
250.612503051758 246.456253051758 242.762496948242 240.5625 240.71875 242.618743896484 246.46875 253.5 264.21875 276.043762207031 290.90625 305.225006103516 316.737487792969 326.649993896484 333.956237792969 336.71875 336.03125 331.09375 323.318756103516 301.493743896484 273.40625 249.393753051758 247.662506103516 253.625 261.831268310547 270.893737792969 278.318756103516 285.543731689453 293.737487792969 302.625 310.78125 318.65625 321.787506103516 322.193756103516 322.350006103516 321.556243896484 313.337493896484 304.143737792969 295.1875 287.274993896484 280.537506103516 276.306243896484 273.462493896484 273.174987792969 275.518737792969 277.918762207031 281.431243896484 284.700012207031 288.706237792969 296.537506103516 307.625 
253.350006103516 248.375 242.981246948242 240.637496948242 239.743743896484 241.274993896484 243.837509155273 249.850006103516 260.600006103516 273.762512207031 288.962493896484 304.456237792969 317.137512207031 328.568756103516 335.84375 338.056243896484 337.1875 330.818756103516 321.306243896484 302.681243896484 279.893737792969 263.681243896484 256.368743896484 258.137512207031 264.65625 271.668731689453 278.737487792969 285.299987792969 293.337493896484 301.9375 310.256256103516 318.125 321.71875 322.149993896484 321.662506103516 322.3125 315.381256103516 306.268737792969 298.34375 292.137512207031 285.725006103516 282.200012207031 279.4375 277.46875 279.362487792969 281.424987792969 282.931243896484 284.912506103516 285.956237792969 292.662506103516 305.450012207031 
