ncols        51
nrows        45
xllcorner    -63.500000000000
yllcorner    -7.500000000000
cellsize     0.166666666667
NODATA_value -99
152.256256103516 148.993743896484 145.431243896484 144.212493896484 140.887496948242 136.25 128.318756103516 119.681251525879 114.525001525879 110.15625 107.681251525879 107.90625 108.393753051758 107.712501525879 108.775001525879 109.275001525879 110.71875 109.762496948242 109.59375 108.368751525879 106.931251525879 103.6875 101.3125 98.53125 95.3125 93.7125015258789 93.1500015258789 92.5999984741211 90.2562484741211 85.0749969482422 78.75 73.4625015258789 69.8499984741211 65.0875015258789 61.1124992370605 58.8375015258789 57.4312515258789 56.0187492370605 55.2999992370605 54.8875007629395 54.6312484741211 54.3312492370605 53.46875 52.9500007629395 53.8812484741211 54.2125015258789 55.5499992370605 56.5374984741211 58.0250015258789 58.7312507629395 60.6875 
146.543746948242 143.899993896484 144.293746948242 146.9375 149.831253051758 142.918746948242 134.137496948242 128.449996948242 123.625 119.212501525879 116.525001525879 116.025001525879 115.96875 114.300003051758 114.525001525879 115.28125 115.237503051758 115.331253051758 115.474998474121 115.125 112.887496948242 111.118751525879 108.318748474121 105.275001525879 100.349998474121 97.3937530517578 96.2624969482422 94.9250030517578 91.0562515258789 85.9000015258789 80.25 75.8312530517578 71.5500030517578 67.7062530517578 63.90625 61.71875 60.3812484741211 59.3624992370605 58.75 58.5812492370605 58.6624984741211 58.5062484741211 58.0999984741211 57.0187492370605 57.8687515258789 58.3187484741211 59.4562492370605 60.0062484741211 60.96875 60.9437484741211 62.2062492370605 
136.643753051758 136.587493896484 138.887496948242 143.893753051758 148.0625 145.481246948242 139.8125 135.262496948242 132.100006103516 128.806243896484 126.537498474121 125.53125 124.974998474121 122.637496948242 121.5 121.868751525879 120.9375 120.474998474121 119.9375 119.25 116.606246948242 113.800003051758 111.112503051758 107.387496948242 101.956253051758 97.4312515258789 96.6624984741211 93.8499984741211 89.65625 83.9625015258789 77.75 72.9499969482422 69.4187469482422 65.3062515258789 61.3375015258789 58.5687484741211 56.7437515258789 55.4937515258789 55.09375 55.1312484741211 55.375 55.2750015258789 55.5875015258789 55.2062492370605 55.7249984741211 56.2125015258789 57.1187515258789 57.6749992370605 57.6624984741211 57.4500007629395 58.9375 
124.375 125.506248474121 133.1875 138.118743896484 143.043746948242 143.5 142.449996948242 142.649993896484 141.662506103516 140.043746948242 137.600006103516 136.0625 133.125 131.050003051758 129.225006103516 128.362503051758 127.268753051758 126.025001525879 125.8125 125.112503051758 121.756248474121 116.987503051758 112.612503051758 108.050003051758 101.506248474121 96.6750030517578 94.2687530517578 89.7624969482422 85.8000030517578 80.4625015258789 74.7750015258789 69.1125030517578 64.78125 60.5125007629395 56.0687484741211 54.1624984741211 52.40625 50.6124992370605 50.3562507629395 49.9625015258789 49.7874984741211 50.0999984741211 50.7687492370605 51.2437515258789 52.1687507629395 52.4749984741211 52.96875 53.7874984741211 53.4874992370605 52.6937484741211 53.6624984741211 
125.375 123.21875 124.712501525879 130.193756103516 138.693756103516 142.381256103516 144.006256103516 147.118743896484 149.181243896484 148.949996948242 147.193756103516 143.625 141.225006103516 140.068756103516 137.743743896484 135.787506103516 133.53125 131.425003051758 130.287506103516 128.106246948242 125.268753051758 118.393753051758 113.881248474121 108.331253051758 101.106246948242 95.3375015258789 90.6500015258789 86.5687484741211 82.0500030517578 76.0875015258789 70.6500015258789 64.5749969482422 59.8312492370605 55.8062515258789 51.8125 49.2062492370605 46.9812507629395 45.2312507629395 44.9312515258789 44.5437507629395 44.2062492370605 44.6812515258789 45.40625 46.5875015258789 47.6124992370605 48.1187515258789 48.3312492370605 48.6062507629395 48.3375015258789 47.8375015258789 48.5250015258789 
126.893753051758 124.306251525879 123.699996948242 122.756248474121 131.324996948242 140.225006103516 144.712493896484 147.556243896484 150.0625 151.943740844727 150.318756103516 146.793746948242 144.850006103516 144.125 141.262496948242 140.03125 137.850006103516 134.987503051758 133.350006103516 131.587493896484 125.987503051758 119.068748474121 113.09375 105.71875 98.7750015258789 91.9250030517578 86.7249984741211 82.7562484741211 77.8249969482422 71.8000030517578 66.4562530517578 62.28125 57.5687484741211 53.2437515258789 48.9437484741211 46.5125007629395 43.8875007629395 41.9937515258789 41.5125007629395 40.5687484741211 38.71875 39.0374984741211 39.6749992370605 40.9562492370605 42.8687515258789 43.4500007629395 43.2874984741211 43.1124992370605 43.5437507629395 43.4312477111816 44.6749992370605 
130.475006103516 128.46875 127.487503051758 126.381248474121 130.287506103516 134.943756103516 141.1875 146.262496948242 148.006256103516 148.706253051758 149.337493896484 147.824996948242 147.243743896484 146.431243896484 144.481246948242 143.425003051758 141.837493896484 140.162506103516 137.668746948242 134.356246948242 126.849998474121 118.993751525879 110.712501525879 102.493751525879 95.4812469482422 88.6875 83.4000015258789 79.0437469482422 73.5500030517578 67.5500030517578 62.7687492370605 58.2249984741211 54.1437492370605 50.34375 46.3812484741211 43.1375007629395 40.28125 38.4375 38.1124992370605 35.8624992370605 33.4749984741211 33.1937484741211 33.6624984741211 34.8937492370605 37.0812492370605 38.0250015258789 37.96875 37.4625015258789 37.9937515258789 39.2625007629395 41.4500007629395 
134.662506103516 132.6875 131.84375 133.231246948242 136.962493896484 142.068756103516 144.112503051758 142.893753051758 141.850006103516 143.84375 147.487503051758 148.024993896484 148.5625 148.068756103516 147.862503051758 145.6875 144.368743896484 143.587493896484 141.46875 135.5625 127.53125 118.199996948242 109.0625 99.5999984741211 91.7125015258789 84.5812530517578 78.7624969482422 73.6937484741211 68.8937530517578 63.3624992370605 58.8624992370605 54.5499992370605 50.5875015258789 47.2312507629395 43.0187492370605 39.4562492370605 36.2437515258789 33.65625 32.0499992370605 29.7937507629395 27.28125 26.8125 27.1187496185303 27.8500003814697 29.8062496185303 31.0562496185303 31.7062492370605 31.9187507629395 32.6500015258789 34.2374992370605 36.7374992370605 
139.868743896484 138.90625 139.256256103516 140.59375 143.862503051758 147.3125 149.199996948242 147.981246948242 144.350006103516 142.162506103516 145.418746948242 146.287506103516 148.668746948242 147.993743896484 147.712493896484 146.181243896484 144.90625 143.731246948242 142.206253051758 135.725006103516 125.425003051758 116.306251525879 105.118751525879 96.84375 88.0500030517578 80.1062469482422 74.4437484741211 70.0187530517578 65.9812469482422 60.625 56.84375 51.5875015258789 46.9000015258789 42.6437492370605 38.8562507629395 35.9937515258789 33.0437507629395 30.03125 27.7250003814697 25.2875003814697 22.7937507629395 22.0375003814697 22.0187492370605 22.3687496185303 23.6000003814697 24.8875007629395 25.9874992370605 26.3250007629395 27.25 29.2562503814697 32.84375 
143.668746948242 143.568756103516 144.587493896484 146.162506103516 150.25 153.706253051758 155.375 153.524993896484 150.693756103516 149.024993896484 149.043746948242 147.637496948242 148.4375 148.818756103516 147.168746948242 146.587493896484 144.081253051758 142.212493896484 140.137496948242 135.449996948242 124.893753051758 113.300003051758 101.356246948242 92.2437515258789 82.7125015258789 75.0687484741211 69.9749984741211 65.7937469482422 62.0187492370605 57.7312507629395 53.0374984741211 47.9562492370605 43.2249984741211 39.4187507629395 35.7874984741211 32.7249984741211 29.8687496185303 26.8062496185303 24.0375003814697 21.4624996185303 18.96875 18.1625003814697 17.34375 17.2625007629395 18.3812503814697 19.7437496185303 20.6499996185303 21.0499992370605 21.7374992370605 23.1437492370605 25.9249992370605 
149.46875 149.59375 150.856246948242 152.3125 155.787506103516 160.512496948242 162.387496948242 158.412506103516 154.393753051758 152.693756103516 152.693756103516 151.699996948242 149.693756103516 147.949996948242 145.475006103516 143.981246948242 140.800003051758 138.612503051758 136.287506103516 132.75 124.356246948242 112.425003051758 99.3874969482422 86.1687469482422 77.8937530517578 72.46875 67.6812515258789 62.7000007629395 58.1437492370605 53.8812484741211 49.6500015258789 44.8499984741211 40.3125 36.2874984741211 32.6875 29.5625 26.6687507629395 23.6437492370605 21.0750007629395 18.2250003814697 15.5812501907349 14.5187501907349 13.8812503814697 13.25 13.96875 15.4812498092651 15.96875 16.1124992370605 16.5187492370605 17.21875 17.9375 
152.818756103516 153.056243896484 154.493743896484 157.1875 160.481246948242 164.556243896484 167.3125 163.59375 158.018753051758 154.4375 153.956253051758 153.25 148.712493896484 144.78125 143.8125 141.21875 138.462493896484 134.59375 132.106246948242 130.725006103516 124.21875 112.09375 98.0812530517578 83.9499969482422 74.7374954223633 68.3000030517578 63.1875 58.4937515258789 53.6937484741211 49.75 45.625 41.28125 37.0437507629395 33.53125 30.53125 27.5249996185303 24.6187496185303 21.7937507629395 18.7625007629395 15.75 13.1999998092651 11.9937496185303 11.2875003814697 10.5812501907349 10.71875 11.2124996185303 11.7624998092651 12.1062498092651 12.5500001907349 12.78125 12.5625 
154.9375 155.137496948242 156.137496948242 157.512496948242 159.75 162.993743896484 164.100006103516 161.181243896484 157.774993896484 154.90625 152.868743896484 152.074996948242 148.399993896484 140.943756103516 137.699996948242 136.368743896484 133.537490844727 130.15625 127.831253051758 125.881248474121 120.243751525879 109.606246948242 95.8249969482422 82.5500030517578 71.1124954223633 63.9187507629395 59.5187492370605 55.2374992370605 50.7937507629395 46.5875015258789 42.0812492370605 37.8562507629395 34.1062507629395 30.4874992370605 27.6437511444092 25.2562503814697 23.1375007629395 20.7625007629395 18.0249996185303 14.4875001907349 11.4750003814697 10.4375 9.55000019073486 8.10000038146973 7.94374990463257 8.78750038146973 9.35000038146973 9.48124980926514 9.41250038146973 9.6875 9.48750019073486 
155.743743896484 155.412506103516 155.149993896484 155.818756103516 157.800003051758 158.793746948242 158.793746948242 157.806243896484 154.862503051758 152.899993896484 149.618743896484 145.956253051758 142.350006103516 136.25 130.287506103516 129.512496948242 127.081253051758 123.231246948242 119.856246948242 117.800003051758 111.949996948242 101.775001525879 90.6812515258789 80.625 70.4625015258789 62.3687515258789 57.1937484741211 52.2999992370605 47.4625015258789 43.3812484741211 39.7000007629395 35.3624992370605 31.4562492370605 27.9750003814697 25.4312496185303 23.8500003814697 22.5125007629395 21.0562496185303 18.5125007629395 15.1125001907349 11.1000003814697 9.13749980926514 8.25625038146973 7.46875 7.46875 7.82499980926514 8.42500019073486 8.60624980926514 8.46249961853027 8.55624961853027 8.4375 
154.824996948242 153.34375 152.512496948242 152.9375 154.556243896484 152.899993896484 153.712493896484 152.268753051758 149.4375 148.418746948242 144.143753051758 139.925003051758 135.350006103516 129.543746948242 122.506248474121 119.5 117.9375 115.412498474121 111.550003051758 109.543746948242 104.331253051758 96.4187469482422 87.6812515258789 80.0500030517578 72.5749969482422 64.8187484741211 58.3624992370605 51.84375 46.0374984741211 41.9187507629395 37.1812515258789 32.96875 29.5125007629395 26.0687503814697 23.0562496185303 22.2749996185303 22.4312496185303 22.5249996185303 20.71875 16.7749996185303 12.75 10.375 9.06875038146973 7.94999980926514 7.66249990463257 7.80000019073486 8.01875019073486 8.31875038146973 8.45625019073486 8.16874980926514 8.00625038146973 
152.168746948242 150.043746948242 149.787506103516 149.649993896484 149.368743896484 149.162506103516 148.631256103516 146.78125 144.96875 144.006256103516 139.618743896484 134.100006103516 128.6875 123.181251525879 116.543746948242 110.518753051758 108.612503051758 107.556251525879 104.256248474121 102.737503051758 97.3375015258789 91.8625030517578 86.2874984741211 81.2062530517578 74.7937469482422 66.5250015258789 58.8187484741211 52.0250015258789 46.0625 41.1749992370605 37.1812515258789 32.4249992370605 28.3062496185303 25.1499996185303 21.8187503814697 22.1375007629395 23.53125 23.8500003814697 22.7687492370605 19.0687503814697 15.1625003814697 12.1750001907349 9.89375019073486 8.20625019073486 7.86250019073486 7.78125 8.00625038146973 8.10000038146973 8.04374980926514 7.93125009536743 8.08125019073486 
147.512496948242 145.981246948242 146.350006103516 146.34375 145.618743896484 145.524993896484 144.668746948242 143.462493896484 141.512496948242 139.324996948242 135.806243896484 129.831253051758 122.993751525879 116.806251525879 112.206245422363 107.125 101.231246948242 99.3249969482422 98.1750030517578 96.4875030517578 91.2750015258789 87.0374984741211 84.2687530517578 82.1187515258789 77.2062530517578 67.53125 59.2937507629395 52.2562484741211 46.2562484741211 41.6062507629395 38.1749992370605 34.7437515258789 30.0874996185303 26.3000011444092 24.71875 24.3687496185303 25 26.7437496185303 26.875 21.3812503814697 15.9750003814697 12.6999998092651 10.0124998092651 8.41874980926514 7.95625019073486 7.86875009536743 7.90625 8.125 8.32499980926514 8.10624980926514 8.38125038146973 
143.012496948242 142.043746948242 141.393753051758 141.581253051758 142.274993896484 142.475006103516 141.175003051758 139.387496948242 138.106246948242 135.037506103516 131.21875 125.3125 118.425003051758 112.275001525879 107.581253051758 103.425003051758 98.2624969482422 92.0749969482422 92.5875015258789 90.6875 86.4875030517578 81.9312515258789 79.9000015258789 79.2562484741211 75.7937469482422 67.1437530517578 59.8312492370605 52.9249992370605 46.4375 41.2625007629395 37.4562492370605 34.1124992370605 32.7687492370605 31.2624988555908 28.1875 25.7374992370605 26.7562503814697 27.6499996185303 25.8250007629395 21.1187496185303 15.4125003814697 12.2375001907349 9.875 8.58749961853027 8.1875 8.10624980926514 8.26249980926514 8.29374980926514 8.5 8.21875 8.68124961853027 
138.175003051758 136.793746948242 136.149993896484 137.256256103516 137.831253051758 138.418746948242 137.387496948242 137.100006103516 135.243743896484 132.131256103516 127.949996948242 121.400001525879 114.150001525879 108.28125 103.012496948242 100.087501525879 96.2312469482422 89.6374969482422 86.7562484741211 85.1687469482422 82.8187484741211 82.75 74.4499969482422 73.4937515258789 71.5437469482422 66.9937515258789 60.9625015258789 53.8375015258789 48.3875007629395 42.5625 37.9749984741211 37.09375 38.25 36.4249992370605 33.4249992370605 30.4437503814697 28.6124992370605 26.59375 23.5625 19.0375003814697 14.3312501907349 11.6312503814697 9.67500019073486 8.5625 8.35624980926514 8.44375038146973 8.57499980926514 8.71875 8.73750019073486 8.05625057220459 8.85000038146973 
132.350006103516 132.212493896484 131.643753051758 132.431243896484 133.543746948242 135.306243896484 135.574996948242 134.587493896484 134.193756103516 131.399993896484 127.481246948242 121.824996948242 115.043746948242 108.237503051758 101.949996948242 97.2937469482422 91.25 89.3249969482422 85.8375015258789 85.5999984741211 80.03125 75.1937484741211 73.59375 72.0562515258789 69.1999969482422 64.2750015258789 59.5125007629395 55.1187515258789 48.8999977111816 43.7937507629395 40.5750007629395 42.6437492370605 42.78125 43.3062515258789 41.9437484741211 36.5999984741211 31.1375007629395 26.4437503814697 22.1937503814697 17.7062492370605 13.5 10.8187503814697 9.60000038146973 8.91874980926514 8.76875019073486 8.91250038146973 9.05624961853027 9.08125019073486 8.875 8.32499980926514 9.07499980926514 
125.25 126.381248474121 127.5625 129.081253051758 130.556243896484 131.637496948242 132.975006103516 133.3125 134.112503051758 132.925003051758 129.34375 124.918746948242 118.15625 109.962501525879 104.381248474121 97.6500015258789 91.7312469482422 87.5999984741211 86.9499969482422 84.125 81.5562515258789 78.9124984741211 75.9312515258789 73.9437484741211 71.6999969482422 67.15625 61.6437492370605 55.8875007629395 50.7249984741211 48.5499992370605 47.1124992370605 48.3250007629395 48.3499984741211 48.9874992370605 49.3062515258789 41.59375 32.8375015258789 26.5125007629395 21.6062507629395 17.2999992370605 13.6687498092651 11.4624996185303 10.0749998092651 9.19375038146973 9.10000038146973 9.23750019073486 9.28125 9.29374980926514 8.78750038146973 8.88749980926514 9.44375038146973 
119.893753051758 119.668746948242 121.318748474121 123.581253051758 126.737503051758 129.425003051758 131.006256103516 133.056243896484 134.5625 134.318756103516 131.931259155273 128.506256103516 123.824996948242 116.818748474121 110.4375 102.443748474121 96.3687515258789 91.6812515258789 90.4187469482422 87.6312484741211 82.4124984741211 79.4812469482422 76.6937484741211 74.2125015258789 71 67.0625 63.8062515258789 58.5750007629395 55.03125 53.5687484741211 52.4375 52.40625 51.3875007629395 50.59375 47.2625007629395 40.5125007629395 32.375 26.2437496185303 21.3187503814697 17.3500003814697 14.1312503814697 12.2062501907349 10.9312496185303 9.90625 9.68124961853027 9.76249980926514 9.66250038146973 9.52499961853027 9.125 9.46249961853027 9.91250038146973 
115.375 116.512496948242 117.537498474121 120.349998474121 123.675003051758 126.681251525879 129.699996948242 132.649993896484 135.956253051758 135.78125 136.100006103516 134.118743896484 132.34375 126.46875 117.224998474121 108.556251525879 100.981246948242 96.7062530517578 93.40625 90.3812484741211 85.3625030517578 81.9312515258789 78.25 74.2125015258789 71.2750015258789 67.3312530517578 63.9625015258789 61.1187515258789 57.7249984741211 56.0812492370605 55.7125015258789 55.8125 53.1500015258789 49.78125 44.6812515258789 37.3687515258789 30.8250007629395 25.25 20.9624996185303 17.6375007629395 14.8812503814697 13.03125 11.6750001907349 10.53125 10.2375001907349 10.3187503814697 10.1625003814697 9.98750019073486 9.77499961853027 9.98124980926514 10.7124996185303 
113.181251525879 112.787498474121 114.75 117.025001525879 119.587501525879 124.037498474121 127.731246948242 130.675003051758 133.962493896484 134.849990844727 135.143753051758 136.350006103516 137.918746948242 131.868743896484 121.481246948242 112.206253051758 104.912498474121 100.587501525879 97.3312530517578 93.5812530517578 88.6312484741211 84.1937484741211 81.0562515258789 76.8937530517578 72.9000015258789 67.9937515258789 64.4749984741211 61.6124992370605 59.7062492370605 58.5999984741211 58.0562515258789 57.9937515258789 54.0062484741211 49.3499984741211 43.8312492370605 36.2249984741211 30.2000007629395 25.2999992370605 21.3312492370605 18.2999992370605 15.46875 13.7375001907349 12.4562501907349 11.375 11.3687496185303 11.3374996185303 11.1687498092651 10.5500001907349 10.6374998092651 10.4624996185303 11.3125 
112.506248474121 111.175003051758 112.237503051758 114.125 119.824996948242 123.412498474121 126.368751525879 129.3125 131.90625 133.75 134.875 134.600006103516 134.256256103516 130.1875 122.474998474121 114.224998474121 107.875 103.199996948242 99.6812515258789 96.75 92.1687469482422 87.3562469482422 84.8062515258789 80.3874969482422 74.4812469482422 70.1624984741211 66.5062484741211 63.7125015258789 61.6312484741211 60.9562492370605 60.2000007629395 59.4500007629395 55.53125 50.1937484741211 44 36.8062515258789 31.21875 26.2250003814697 22.1875 18.9375 15.9750003814697 14.4250001907349 13.2375001907349 12.4625005722046 12.6437501907349 12.8000001907349 11.7312498092651 11.7124996185303 11.3999996185303 10.9624996185303 11.9562501907349 
114.262496948242 114.018753051758 113.34375 116.037498474121 119.400001525879 122.293746948242 125.449996948242 127.900001525879 130 132.149993896484 131.96875 131.606246948242 130.306259155273 126.481246948242 121.025001525879 114.875 109.0625 105.46875 102.068748474121 99.0999984741211 94.8000030517578 90.125 87.8562469482422 83.3312530517578 77.40625 71.9749984741211 69.1750030517578 66.9312515258789 64.28125 63.5499992370605 62.6937522888184 62.0062484741211 56.6749992370605 50.8562507629395 45.03125 38.8875007629395 32.7437515258789 27.4312496185303 23.5437507629395 19.8875007629395 16.8500003814697 15.2375001907349 14.0562496185303 13.3812503814697 14.0062503814697 13.3000001907349 13.1875 12.9124994277954 12.3874998092651 12.1812496185303 12.8187503814697 
118.231246948242 116.487503051758 116.087501525879 118.037498474121 119.743751525879 122.306251525879 124.356246948242 125.650001525879 126.243751525879 128.081253051758 129.168746948242 128.774993896484 126.712501525879 123.712501525879 119.53125 114.575004577637 110.693748474121 106.6875 103.71875 100.962501525879 97.4875030517578 93.2687530517578 90.7312469482422 87.5875015258789 81.2624969482422 75.9875030517578 73.0500030517578 69.9124984741211 67.1999969482422 66.0875015258789 65.0250015258789 63.3937492370605 58.625 52.5250015258789 46.0499992370605 40.0687484741211 34.1312522888184 28.4874992370605 24.4375 20.7062492370605 17.3312492370605 15.8874998092651 14.8937501907349 14.0500001907349 14.2312498092651 14.7250003814697 14.7562503814697 14.0062503814697 13.5749998092651 13.0500001907349 13.3625001907349 
122.199996948242 120.368751525879 120.006248474121 119.650001525879 120.849998474121 122.03125 123.568748474121 124.418746948242 124.150001525879 125.8125 126.318748474121 125.5 123.618751525879 121.956253051758 118.112503051758 114.143745422363 110.612503051758 107.349998474121 104.737503051758 103.018753051758 99.8375015258789 96.59375 94.3499984741211 90.7437515258789 85.6937484741211 80.1062469482422 76.6687469482422 73.3625030517578 70.4187469482422 69.4375 67.5500030517578 65.6687469482422 60.71875 54.0499992370605 47.46875 41.2125015258789 35.5875015258789 29.9249992370605 25.6187496185303 21.6124992370605 18.0499992370605 16.7250003814697 15.4937496185303 14.8500003814697 15.2875003814697 15.8562498092651 15.8249998092651 15.3187503814697 14.625 13.84375 14.0375003814697 
126.806251525879 124.375 122.237503051758 120.75 120.493751525879 120.606246948242 121.237503051758 122.168746948242 122.3125 122.987503051758 123.043746948242 121.743751525879 121.318748474121 119.099998474121 115.837501525879 114.3125 112.887496948242 107.699996948242 105.162498474121 103.981246948242 102 99.9812469482422 98.5374984741211 95.1062469482422 89.2375030517578 84.3000030517578 80.6312484741211 77.5687484741211 75.0875015258789 72.7624969482422 70.1687469482422 67.7562484741211 61.96875 55.4249992370605 49.2750015258789 42.6875 37.0875015258789 31.4312496185303 27 22.6749992370605 18.3812503814697 16.8187503814697 16.0125007629395 15.6625003814697 16.3687496185303 16.6749992370605 16.7687492370605 16.34375 15.5749998092651 14.84375 14.5062503814697 
131.962493896484 128.675003051758 124.268753051758 121.443748474121 119.875 119.818748474121 120.125 120.487503051758 120.306251525879 120.193748474121 119.84375 119.712501525879 119.131248474121 117.606246948242 116.150001525879 113.900001525879 111.574996948242 108.518753051758 105.400001525879 104.237503051758 103.537498474121 103.09375 101.525001525879 97.6937484741211 93.4312515258789 89.625 85.4250030517578 81.6125030517578 78.0374984741211 75.7375030517578 73.5500030517578 70.8312530517578 64.3312530517578 57.4437484741211 51.1687507629395 44.6375007629395 38.78125 33.2000007629395 27.9874992370605 23.8125 19.5874996185303 17.9187507629395 16.8875007629395 16.5062503814697 16.8500003814697 17.2687492370605 17.5625 17.3500003814697 16.6375007629395 16.0625 15.6999998092651 
134.75 130.975006103516 127.150001525879 122.375 120.287498474121 120.09375 118.868751525879 118.449996948242 118.462501525879 118.5625 117.993751525879 117.625 119.175003051758 117.5625 115.65625 113.46875 112.518753051758 109.956245422363 106.981246948242 106.681251525879 106.381248474121 107.0625 106.512496948242 102.449996948242 97.9500045776367 94.5124969482422 90.0812530517578 85.8062515258789 81.9812469482422 78.1937484741211 76.1624984741211 73.3375015258789 66.4250030517578 60.2000007629395 53.5999984741211 46.2750015258789 40.1187515258789 34.4375 29.5687503814697 25.0187492370605 20.4812507629395 18.7250003814697 17.7062511444092 17.2124996185303 17.3687496185303 17.8937492370605 18.1937503814697 18.1749992370605 17.7999992370605 17.4312496185303 17.3687496185303 
138.475006103516 132.5 127.599998474121 123.387496948242 121.806251525879 120.018753051758 118.599998474121 117.743751525879 117.868751525879 117.362503051758 117.074996948242 116.618751525879 116.224998474121 116.449996948242 116.118751525879 116.081253051758 114.5 112.46875 111.09375 111.78125 112.300003051758 111.331253051758 111.34375 106.875 104.099998474121 99.0999984741211 93.9000015258789 90.40625 86.25 82.1812515258789 79.4562530517578 75.3499984741211 68.6437530517578 62.0374984741211 55.0750007629395 47.5812492370605 41.0499992370605 34.7125015258789 29.9375 25.4375 21.1187496185303 19.4874992370605 18.6187496185303 18.0437507629395 18.3937492370605 19.1875 19.5 19.6937503814697 19.3374996185303 19 19.2625007629395 
139.181243896484 134.337493896484 128.918746948242 125.074996948242 123.006248474121 121.237503051758 120.087501525879 118.106246948242 117.556251525879 116.224998474121 118.5625 116.862503051758 116.84375 119.018753051758 118.84375 119.706245422363 119.162498474121 119.150001525879 118.256248474121 118.881248474121 118.275001525879 117.037498474121 115.087501525879 111.087501525879 108.118751525879 102.981246948242 97.9499969482422 94.1500015258789 90.1062469482422 86.8687515258789 82.9937515258789 78.6999969482422 71.2312469482422 64.3000030517578 57.4562492370605 49.7437515258789 42.5875015258789 35.53125 31.0812492370605 27.1625003814697 23.1812496185303 21.5874996185303 20.7000007629395 19.9125003814697 20.4437503814697 21.5125007629395 22.125 21.9375 21.8249988555908 21.7062492370605 22.1499996185303 
138.350006103516 134.987503051758 131.043746948242 127.324996948242 124.40625 122.456253051758 121.331253051758 119.337501525879 117.5625 116.981246948242 117.150001525879 118.53125 118.574996948242 118.625 120.5 121.974998474121 124.074996948242 125.143753051758 125.775001525879 126.46875 125.224998474121 122.581253051758 119.693748474121 114.800003051758 110.6875 105.943748474121 101.150001525879 97.4375 93.2249984741211 89.6624984741211 86.0500030517578 81.65625 74.1187515258789 66.5625 59.4625015258789 52.4249992370605 44.3312492370605 36.9437484741211 32.8250007629395 28.9125003814697 25.1812496185303 23.9437503814697 23.1062507629395 22.21875 22.7687492370605 23.6000003814697 23.9750003814697 24.15625 24.2000007629395 24.1687507629395 25.0562496185303 
138.40625 135.612503051758 132.399993896484 129.787506103516 127.150001525879 124.199996948242 123.112503051758 120.931251525879 117.881248474121 117.087501525879 118.131248474121 120.5 120.90625 121.356246948242 123.606246948242 126.3125 128.681243896484 129.787506103516 132.993743896484 133.568756103516 132.412506103516 128.818756103516 123.712501525879 118 112.46875 108.900001525879 104.900001525879 100.643753051758 96.4937515258789 92.3874969482422 88.4625015258789 83.4312515258789 76.0562515258789 68.5749969482422 61.0062484741211 53.2937507629395 45.7625007629395 39.0625 34.875 31.3500003814697 27.4874992370605 25.96875 25.2999992370605 24.2312507629395 24.7625007629395 25.3999996185303 25.7937507629395 26.2999992370605 26.8062496185303 26.9624996185303 27.9437503814697 
137.199996948242 134.324996948242 132.175003051758 130.081253051758 127.78125 125.587501525879 123.068748474121 121.96875 119.5 118.012496948242 119.418746948242 121.556251525879 123.768753051758 125.400001525879 127.449996948242 130.274993896484 132.231246948242 134.78125 138.199996948242 140.706253051758 137.381256103516 132.8125 125.931251525879 119.237503051758 114.224998474121 110.268753051758 106.03125 102.537498474121 98.9937515258789 94.4000015258789 90.3937530517578 85.5875015258789 77.8562469482422 70.6437530517578 63.3125 55.9000015258789 49.8562507629395 43.4937515258789 39.5 36.0437507629395 32.7125015258789 30.8875007629395 29.6124992370605 28.46875 28.7937507629395 28.9937496185303 29.1749992370605 30.4249992370605 30.9500007629395 31.03125 32.4124984741211 
135.78125 133.6875 131.581253051758 129.274993896484 128.493743896484 126.46875 124.693748474121 123.168746948242 121.387496948242 118.84375 121.474998474121 127.606246948242 129.9375 131.006256103516 133 134.25 136.206253051758 137.53125 139.837493896484 141.556243896484 139.393753051758 132.618743896484 125.831253051758 118.862503051758 114.037498474121 110.618751525879 106.474998474121 103.074996948242 100.112503051758 95.9437484741211 91.5687484741211 86.9749984741211 80.0374984741211 73.1312484741211 66.1437530517578 59.8312492370605 54.1437492370605 48.75 44.65625 41.0062484741211 37.7000007629395 35.5499992370605 34.2062492370605 33.0125007629395 33.4437484741211 33.1312484741211 33.5125007629395 34.9625015258789 34.9312515258789 35.3624992370605 36.5562515258789 
134.387496948242 133.399993896484 131.824996948242 129.425003051758 129.131256103516 128.112503051758 126.987503051758 126.306251525879 125.46875 123.150001525879 132.881256103516 137.925003051758 137.868743896484 137.324996948242 138.03125 138.862503051758 137.774993896484 138.71875 138.6875 138.050003051758 136.300003051758 130.15625 124.106246948242 117.506248474121 112.637496948242 109.15625 106.431251525879 104.025001525879 101.550003051758 97.5812530517578 91.8375015258789 87.125 80.9812469482422 75.5374984741211 69.4000015258789 62.8062515258789 57.8624992370605 53.0687484741211 49.9937515258789 46.7125015258789 42.8187484741211 41.1375007629395 38.8250007629395 37.1312484741211 37.2874984741211 37.1437492370605 37.8187484741211 39.5812492370605 38.9124984741211 39.3562507629395 40.9937515258789 
136.550003051758 134.837493896484 133.056243896484 131.543746948242 129.96875 129.024993896484 129.225006103516 129.987503051758 131.762496948242 137.743743896484 148.818756103516 147.625 143.550003051758 142.868759155273 142.237503051758 141.53125 139.84375 138.806243896484 136.274993896484 134.28125 131 125.362503051758 120.256248474121 114.574996948242 110.143753051758 106.537498474121 104.212501525879 103.074996948242 101.637496948242 98.59375 94.4812469482422 89.6750030517578 84.2375030517578 78.2062530517578 73 67.6812515258789 63.2999992370605 58.9437484741211 56.1812515258789 52.3125 48.7687492370605 47.2750015258789 44.9124984741211 43.1875 43.2937507629395 43.0812492370605 42.5 44.6375007629395 45.0250015258789 46.1687507629395 46.9874992370605 
137.074996948242 134.887496948242 133.625 132.024993896484 130.962493896484 130.912506103516 130.28125 132.5 135.875 142.649993896484 148.024993896484 148.649993896484 147.381256103516 146.493743896484 146.256256103516 143.868743896484 141.462493896484 138.387496948242 135.387496948242 130.875 125.681251525879 120.199996948242 114.381248474121 109.512496948242 106.206253051758 103.518753051758 101.724998474121 101.837501525879 100.543746948242 98.9250030517578 94.15625 91.0187530517578 87.5437469482422 82.46875 77.90625 73.4625015258789 68.9250030517578 65.4250030517578 62.4500007629395 57.6124992370605 54.4312515258789 53.34375 51.0499992370605 48.8937492370605 48.71875 48.125 48.4500007629395 50.3937492370605 51.5812492370605 53.0687484741211 54.2374992370605 
138.1875 136.293746948242 135.106246948242 133.71875 132.037506103516 131.618743896484 132.850006103516 135.168746948242 138.050003051758 142.449996948242 145.487503051758 147.668746948242 149.600006103516 148.40625 147.768753051758 145.706253051758 142.65625 140.125 134.637496948242 127.349998474121 121.650001525879 114.118751525879 108.137496948242 103.5625 101.856254577637 100.324996948242 100.212501525879 100.175003051758 100.018753051758 98.2312469482422 95.9250030517578 94.8125 92.0999984741211 88.3937530517578 84.5187530517578 79.9812469482422 75.5124969482422 71.6374969482422 68.8562469482422 63.7625007629395 60.5 58.8687515258789 56.5437507629395 54.1875 53.9562492370605 54.1500015258789 54.71875 55.9874992370605 58.5187492370605 59.5750007629395 61.96875 
141.337493896484 139.487503051758 138.356246948242 136.637496948242 135.59375 134.725006103516 135.793746948242 137.800003051758 140.850006103516 143.90625 147.09375 149.725006103516 151.96875 151.831253051758 149.949996948242 148.1875 145 141.65625 135.268753051758 125.40625 115.931251525879 109.28125 101.675003051758 97.625 98.4187469482422 97.6312484741211 97.1750030517578 97.59375 99.4375 99.9875030517578 97.0062484741211 97.6437530517578 95.1750030517578 95.1812515258789 92.4312515258789 86.1374969482422 81.625 77.9625015258789 74.3874969482422 69.7249984741211 66.4499969482422 63.9625015258789 61.0499992370605 59.65625 59.59375 60.4437484741211 60.0812492370605 61.3125 65.5999984741211 66.1312484741211 67.6999969482422 
143.868743896484 142.081253051758 141.962493896484 140.28125 138.875 137.925003051758 138.46875 140.237503051758 142.300003051758 145.699996948242 149.362503051758 151.268753051758 152.5 152.981246948242 152.9375 150.918746948242 148.074996948242 144.475006103516 137.34375 123.393753051758 111.050003051758 101.424995422363 96.1499938964844 95.5625 95.1749954223633 94.9437484741211 94.75 95.5250015258789 97.3812484741211 98.6812515258789 97.6999969482422 97.875 97.4812469482422 97.4812469482422 98.8562469482422 94.9625015258789 87.8000030517578 84.0250015258789 79.9937515258789 75.8187484741211 72.1687469482422 69.9250030517578 67.3375015258789 65.3000030517578 65.5 65.34375 66.1312484741211 67.4124984741211 71.4124984741211 72.4124984741211 73.53125 
146.149993896484 144.362503051758 144.037506103516 141.612503051758 139.337493896484 139.243759155273 138.399993896484 139.462493896484 142.5 146.493743896484 150.037506103516 152.693756103516 155.256256103516 154.181243896484 154.487503051758 152.09375 148.793746948242 145.362503051758 139.993743896484 124.025001525879 109.268745422363 98.2750015258789 92.1437530517578 91.5625 92.4375 92.875 93.3625030517578 93.9625015258789 95.3312530517578 97.65625 98 98.8125 98.4499969482422 99.1624984741211 103.099998474121 104.46875 95.5250015258789 89.7750015258789 87.0562515258789 81.7874984741211 78.0749969482422 75.5562515258789 73.0812530517578 71.6187515258789 71.7062530517578 70.71875 70.9625015258789 72.6125030517578 74.6624984741211 78.1062469482422 79.0374984741211 
146.337493896484 146.012496948242 147.631256103516 143.074996948242 141.793746948242 140.212493896484 138.081253051758 138.65625 141.800003051758 146.362503051758 150.556243896484 153.756256103516 156.762496948242 157.106246948242 156.28125 152.425003051758 147.768753051758 142.581253051758 135.331253051758 122.8125 107.450004577637 98.09375 91.0749969482422 89.3125 90.3125 91.3125 91.4375 92.4375 94.8125 97.0374984741211 96.9499969482422 98.4000015258789 98.7125015258789 98.6750030517578 100.84375 103.856246948242 98.5625 93.4250030517578 90.1750030517578 86.7375030517578 83.6062469482422 81.0625 78.3874969482422 76.1062469482422 75.5875015258789 74.9499969482422 75.5687484741211 77.0812530517578 77.3000030517578 81.40625 82.8125 
