ncols        51
nrows        45
xllcorner    -63.500000000000
yllcorner    -7.500000000000
cellsize     0.166666666667
NODATA_value -99
304.587493896484 298.143737792969 289.862487792969 287.112487792969 280.181243896484 273.774993896484 267.1875 258.318756103516 255.149993896484 254.112503051758 248.612503051758 243.331253051758 236.956253051758 234.231246948242 232.65625 228.581253051758 224.231246948242 215.693756103516 209.162506103516 205.800003051758 204.09375 197.331253051758 192.231246948242 188.537506103516 187.193756103516 182.625 181.456253051758 180.793746948242 177.818756103516 177.043746948242 168.962493896484 165.356246948242 167.100006103516 165.46875 163.5625 160.606246948242 154.681243896484 156.943756103516 152.024993896484 148.412506103516 150.231246948242 152.806243896484 150.637496948242 150.731246948242 151.806243896484 155.006256103516 155.768753051758 154.34375 155.199996948242 160.037506103516 163.443756103516 
290.543762207031 284.368743896484 277.4375 276.556243896484 273.631256103516 268.168762207031 261.375 254.737503051758 251.662506103516 247.574996948242 241.456253051758 234.481246948242 227.943756103516 222.875 217.618759155273 212.943756103516 207.199996948242 199.987503051758 195.012496948242 190.762496948242 183.949996948242 181.162506103516 178.043746948242 178.518753051758 173.375 170.53125 170.53125 171.03125 167.274993896484 163.068756103516 159.149993896484 160.149993896484 160.768753051758 162.462493896484 161.631256103516 156.475006103516 151.28125 151.262496948242 146.100006103516 144.449996948242 147.8125 147.568756103516 146.6875 144.212493896484 147.237503051758 151.081253051758 152.449996948242 152.675003051758 151.574996948242 157.493743896484 159.643753051758 
257.412506103516 259.068756103516 259.293762207031 256.912506103516 252.78125 246.743743896484 242.824996948242 241.6875 239.556243896484 234.831253051758 228.268753051758 218.943756103516 213.831253051758 204.493743896484 197.456253051758 191 185.550003051758 178.574996948242 172.618743896484 169.78125 164.243743896484 162.887496948242 161.793746948242 161.824996948242 159.512496948242 155.412506103516 160.28125 160.412506103516 158.618743896484 156.1875 153.043746948242 148.793746948242 150.556243896484 154.875 149.537506103516 143.987503051758 142.887496948242 145.100006103516 139.96875 139.268753051758 141.893753051758 142.806243896484 140.693756103516 139.918746948242 144.056259155273 144.731246948242 144.981246948242 147.824996948242 145.637496948242 150.287506103516 156.462493896484 
227.96875 226.8125 232.287506103516 236.28125 232.268753051758 225.643753051758 221.824996948242 224.8125 225.981246948242 222.649993896484 211.862503051758 202.087493896484 194.862503051758 189.081253051758 179.475006103516 170.368743896484 162.837493896484 157.043746948242 153.449996948242 154.087493896484 150.643753051758 146 144.943756103516 147.012496948242 146.78125 145.012496948242 147.287506103516 145.162506103516 146.84375 149.237503051758 146.949996948242 142.512496948242 140.118743896484 138.831253051758 135.550003051758 137.9375 139.493743896484 136.293746948242 133.887496948242 132.84375 137.668746948242 140.668746948242 138.925003051758 137.574996948242 138.856246948242 137.881256103516 138.918746948242 141.043746948242 141.925003051758 144.524993896484 150.137496948242 
222.981246948242 213.53125 204.074996948242 208.662506103516 213.274993896484 207.193756103516 206.831253051758 209.675003051758 209.224990844727 204.231246948242 198.618743896484 187.475006103516 179.568756103516 172.0625 161.949996948242 152.96875 144.606246948242 140.287506103516 134.400009155273 133.90625 133.524993896484 129.899993896484 128.46875 134.40625 134.356246948242 132.956253051758 133.649993896484 136.96875 138.381256103516 137.175003051758 136.943756103516 135.493743896484 135.6875 133.518753051758 130.512496948242 128.418746948242 129.987503051758 130.318756103516 127.53125 128.581253051758 132.556243896484 132.293746948242 134 134.931243896484 133.993743896484 132.918746948242 134.206253051758 134.300003051758 133.274993896484 136.618743896484 141.212493896484 
201.46875 198.462493896484 192.4375 176.649993896484 184.331253051758 192.918746948242 193.03125 193.868743896484 194.524993896484 188.21875 180.106246948242 170.65625 163.493743896484 152.53125 145.756256103516 137.84375 128.625 122.737503051758 119.925003051758 120.637496948242 120.400001525879 119.1875 120.099998474121 121.462501525879 124.025001525879 124.506248474121 125.606246948242 128.137496948242 128.581253051758 127.931251525879 127.943748474121 130.024993896484 128.668746948242 129.199996948242 125.443748474121 125.137496948242 121.731246948242 122.525001525879 124.525001525879 128.212493896484 127.393753051758 129.481246948242 129.381256103516 128.71875 130.550003051758 129.818756103516 126.875 127.862503051758 126.65625 129.137496948242 133.193756103516 
183.350006103516 180.893753051758 177.018753051758 171.118743896484 166.862503051758 164.600006103516 171.074996948242 176.412506103516 172.981246948242 168.356246948242 162.34375 150.875 145.856246948242 137.25 129.068756103516 123.393753051758 117.262496948242 109.856246948242 104.712501525879 107.893753051758 108.043746948242 107.381248474121 107.75 111.625 113.943748474121 116.974998474121 120.831253051758 119.84375 118.824996948242 121.849998474121 121.387496948242 119.793746948242 118.887496948242 121.568748474121 121.993751525879 120.193748474121 116.818748474121 116.237503051758 119.762496948242 124.625 123.675003051758 123.037498474121 124.474998474121 123.587501525879 125.362503051758 126.912498474121 125.099998474121 120.431251525879 117.5 121.150001525879 127.193756103516 
168.731246948242 163.34375 161.949996948242 160.300003051758 159.606246948242 163.931243896484 160.993743896484 152.737503051758 146.475006103516 142.71875 138.350006103516 132.46875 127.356254577637 119.599998474121 114.606246948242 109.637496948242 103.625 98.2312469482422 94.5250015258789 93.1500015258789 97.1937484741211 99.3125 99.53125 103.21875 107.556251525879 107.912498474121 111.181251525879 109.537498474121 111.706253051758 111.806251525879 115.112503051758 114.175003051758 114.706253051758 114.724998474121 114 110.962501525879 108.756248474121 108.856246948242 109.856246948242 111.618751525879 112.5625 114.206253051758 115.081253051758 113.699996948242 114.162498474121 112.5625 110.793746948242 106.59375 106.900001525879 110.181251525879 118.675003051758 
153.675003051758 149.037506103516 146.893753051758 148.112503051758 149.768753051758 151.131256103516 150.943756103516 148.368743896484 138.043746948242 126.881248474121 120.775001525879 113.824996948242 113.131248474121 106.3125 101.974998474121 97.6437530517578 94.3312530517578 92.6187515258789 92.9562530517578 88.4437484741211 88.84375 93.75 94.7937469482422 99.8812484741211 103.449996948242 101.493751525879 101.9375 105.762496948242 108.512496948242 108.112503051758 112.199996948242 109.018753051758 105.206253051758 103.643753051758 104.243751525879 106.293746948242 107.081253051758 108.53125 107.5625 106.712501525879 106.493751525879 106.974998474121 108.4375 106.106246948242 104.462501525879 102.237503051758 101.381248474121 97.1500015258789 97.2437515258789 100.375 106.9375 
137.125 133.65625 133.649993896484 135.393753051758 137.337493896484 141.350006103516 141.78125 140.356246948242 132.699996948242 124.931251525879 114.962501525879 104.068748474121 100.918746948242 96.0124969482422 92.7562484741211 90.1374969482422 85.96875 87.53125 88.96875 88.1500015258789 88.40625 88.1312484741211 87.8687515258789 92.78125 95.3375015258789 97.3499984741211 97.7125015258789 100.356246948242 101.431251525879 102.125 104.525001525879 101.84375 100.618751525879 98.9124984741211 98.15625 101.106246948242 103.131248474121 105.106246948242 104.681251525879 106.543746948242 108.150001525879 106.743751525879 103.768753051758 99.0437469482422 95.1312484741211 96.1687469482422 96.0750045776367 90.6187515258789 88.9875030517578 89.5437469482422 91.7125015258789 
123.987503051758 120.875 120.631248474121 123.456253051758 125.243751525879 129.71875 131.818756103516 128.368743896484 119.368751525879 112.800003051758 106.75 98.4875030517578 89.5875015258789 86.1374969482422 81.9625015258789 79.5999984741211 78.6374969482422 80.8687515258789 82.9187469482422 86.5124969482422 89.9562530517578 88.96875 85.5437469482422 83.2937469482422 89.8812484741211 97.0500030517578 98.0499954223633 98.40625 95.9187469482422 96.6687469482422 97.7562484741211 98.3187484741211 98.1437530517578 95.8312530517578 96.5374984741211 98.125 100.300003051758 99.7874984741211 104.237503051758 104.706253051758 103.568748474121 101.34375 100.962501525879 93.9437484741211 88.2249984741211 88.7249984741211 87.7937469482422 85.6624984741211 84.7312469482422 81.6374969482422 81.4625015258789 
111.931251525879 108.256248474121 108.793746948242 111.993751525879 114.787498474121 119.150001525879 122.40625 120.006248474121 110.712501525879 102.143753051758 96.1812515258789 91.2375030517578 81.6750030517578 76.8312530517578 76.1062469482422 72.8062515258789 72.125 74.59375 77.4437484741211 82.6437530517578 89.3937530517578 90.4749984741211 90.4937515258789 86.6374969482422 87.6750030517578 87.2249984741211 88.6500015258789 91.28125 91.125 91.34375 90.0687484741211 90.7750015258789 92.0187454223633 92.1687469482422 94.3937530517578 97.4437484741211 98.1187515258789 100.8125 99 99.5437469482422 97.71875 97.6875 92.9875030517578 84.9937515258789 78.3312530517578 74.2312469482422 71.4187469482422 75.3562469482422 77.0062484741211 74.9562530517578 69.0875015258789 
97.28125 95.9937515258789 97.8499984741211 99.625 101.337501525879 105.650001525879 107.481246948242 104.881248474121 98.0062484741211 93.3375015258789 89.4375 83.2249984741211 77.84375 68.53125 65.8312530517578 66.1125030517578 65.7624969482422 69.1125030517578 72.53125 76.4937515258789 81.8874969482422 83.9875030517578 86.4375 84.5625 81.1812515258789 80.8375015258789 83.125 86.1875 86.8375015258789 86.28125 85 83.2562484741211 86.2687530517578 87.5437469482422 89.53125 93.3499984741211 97.6437530517578 102.650001525879 105.162498474121 100.849998474121 95.0187530517578 92.3625030517578 84.71875 79.5875015258789 79.2562484741211 76.9437484741211 71.2624969482422 68.7437515258789 68.9562530517578 70.1812515258789 68.4375 
84.9375 83.875 85.9375 87.2937469482422 88.4312515258789 90.9625015258789 92.1875 90.9312515258789 88.6125030517578 84.0250015258789 80.8125 76.0062484741211 69.5250015258789 62.90625 56.8125 58.4124984741211 57.8624992370605 61.7687492370605 64.5812530517578 68.9499969482422 73.5500030517578 77.625 80.8249969482422 80.7249984741211 78.03125 76.7624969482422 77.5999984741211 78.0875015258789 78.625 78.5999984741211 80.8687515258789 80.75 80.9937515258789 82.375 84.9749984741211 92.0124969482422 100.262496948242 108.818748474121 113.474998474121 108.037498474121 93.2437515258789 84.8375015258789 84.5625 90.4250030517578 93.6999969482422 86.7062530517578 81.6750030517578 80.2062454223633 75.5437469482422 77.125 73.9250030517578 
76.6125030517578 74.8125 75.8812484741211 77.6374969482422 77.875 79.3125 82.1999969482422 81.25 79.0187530517578 75.8687515258789 73.3812484741211 68.3375015258789 63.4500007629395 58.4937515258789 51.09375 50.8062515258789 50.8937492370605 54.09375 57.1312484741211 61.6812515258789 67.6312484741211 71.8062515258789 75.5749969482422 77.9875030517578 78.2625045776367 78.2562484741211 78.6125030517578 77.7312469482422 78.71875 79.5500030517578 77.9124984741211 78.7687454223633 82.2249984741211 82.1999969482422 80.78125 86.5 100.09375 114.71875 121.206253051758 115.168746948242 105.981246948242 99.1812515258789 103.599998474121 100.831253051758 97.8000030517578 94.3625030517578 95.6125030517578 95.2125015258789 94.4749984741211 83.2624969482422 77.4187469482422 
67.4500045776367 66.1624984741211 67.4812469482422 68.1999969482422 68.875 71.4875030517578 71.7249984741211 71.28125 70.3812484741211 69.6624984741211 67.2249984741211 62.9562492370605 58.6812515258789 54.1812515258789 48.6437492370605 42.1937484741211 43.5687484741211 47.3375015258789 49.90625 54.46875 59.8125 65.8249969482422 71.21875 77.4812469482422 79.53125 79.4437484741211 78.0562515258789 75.3937530517578 76.5437469482422 77.8562469482422 81.1875 78.84375 77.9000015258789 76.8625030517578 76.6624984741211 89.8625030517578 101.868751525879 115.318748474121 125.78125 129.71875 126.837501525879 119.78125 114.275001525879 105.675003051758 97.34375 93.4937515258789 90.6812515258789 90.8937530517578 91.9187469482422 87.1437530517578 80.9250030517578 
59.3875007629395 58.4874992370605 59.9874992370605 61.3187484741211 62.4375 63.0062484741211 64.1312484741211 64 63.9874992370605 64.0625 62.7937507629395 58.25 53.5562515258789 50.2312507629395 48.2374992370605 43.8624992370605 39.5812492370605 40.8937492370605 45.4874992370605 49.4124984741211 54.4562492370605 60.9000015258789 68.7437515258789 77.0124969482422 81.9749984741211 77.09375 72.8000030517578 70.7624969482422 73.5250015258789 77.1687469482422 80.9812469482422 83.8125 82.4250030517578 82.125 90.7375030517578 99.6062469482422 114.587501525879 133.600006103516 148.71875 142.162506103516 136.112503051758 125.206253051758 113.131248474121 106.512496948242 98.5062484741211 91.6687469482422 90.875 94.0625 94.3812484741211 86 84.1500015258789 
53.5499992370605 53.6500015258789 54.5374984741211 56.3624992370605 57.3375015258789 57.1749992370605 57.6625022888184 58.1749992370605 58.5250015258789 57.3937492370605 56.7374992370605 54.3125 50.40625 47.46875 46.6437492370605 44.6937484741211 41.1500015258789 37.3125 42.2562484741211 45.3937492370605 50.2374992370605 56.2374992370605 65.9812469482422 73.4812469482422 77.6312484741211 73.0374984741211 68.5187530517578 68.2249984741211 71.8062515258789 73.8499984741211 73.7937469482422 75.625 88.4187469482422 94.5374984741211 96.2750015258789 110.03125 128.381256103516 141.75 150.481246948242 146.275009155273 132.318756103516 121.493751525879 110.275001525879 103.818748474121 96.3499984741211 91.4499969482422 93.3000030517578 92.1812515258789 91.1312484741211 82.9875030517578 83.7624969482422 
48.5 48.7312507629395 49.1437492370605 50.375 51.96875 52.4187507629395 52.1437492370605 53.0687484741211 54.1062507629395 53.65625 53.1937484741211 49.8875007629395 47.1187515258789 45.4625015258789 43.3250007629395 42.7312507629395 41.1062507629395 38.7000007629395 37.6312484741211 39.6375007629395 46.4500007629395 56.0812492370605 55.7750015258789 63.7937507629395 68.5625 70.0062484741211 68.3562469482422 67.0062484741211 70.9000015258789 74.0500030517578 75.7625045776367 79.4812469482422 89.2874984741211 93.21875 98.0625 109.768753051758 120.537498474121 129.762496948242 137.8125 131.399993896484 124.168746948242 112.856246948242 104.956253051758 99.25 94.2687530517578 90.1500015258789 92.5562515258789 93.0374984741211 87.5124969482422 77.2750015258789 82.8812484741211 
42.7625007629395 43.7625007629395 44.625 45.5812492370605 46.2562484741211 48.4312515258789 48.2125015258789 49.1500015258789 50.6937484741211 50.7687492370605 50.7999992370605 50.0812492370605 47.5250015258789 45.09375 41.84375 38.1749992370605 36.0875015258789 39.6624984741211 38.1812515258789 38.2374992370605 38.8562507629395 44.6500015258789 52.6687507629395 58.2750015258789 61.3812484741211 61.0812492370605 62.2999992370605 66.2937469482422 67.8249969482422 68.6437530517578 74.0187530517578 84.5562515258789 89.2687530517578 93.6062469482422 99.5374984741211 108.956253051758 115.6875 119.931251525879 122.418754577637 119.506248474121 110.818748474121 102.006248474121 99.0124969482422 94.1875 90.09375 88.5999984741211 90.03125 89 83.125 76.7062530517578 82.28125 
37.3562507629395 40.53125 43.1312484741211 43.21875 43.1624984741211 45.1062507629395 45.6500015258789 46.7125015258789 47.7562484741211 48.4312515258789 48.0062484741211 47.5812492370605 46.2000007629395 43.7249984741211 40.65625 37.7937507629395 36.2874984741211 36.9312515258789 38.5125007629395 37.3062515258789 41.9874992370605 47.6124992370605 54.21875 60.6812515258789 63.8562507629395 63.0187492370605 60.75 64.0187530517578 68.1187515258789 70.9437484741211 78.0749969482422 85.625 86.5999984741211 91.4312515258789 97.3187484741211 104.712501525879 111.199996948242 112.849998474121 112.150001525879 108.75 103.731246948242 99.4875030517578 94.7249984741211 91.0625 88.0374984741211 86.5187530517578 85.90625 84.9937515258789 77.8312530517578 77.59375 78.8187484741211 
35.0437507629395 35.8875007629395 38.8499984741211 40.4000015258789 41.2999992370605 41.5062484741211 42.2562484741211 43.25 44.7437515258789 45.5187492370605 46.0625 44.6312484741211 43.2062492370605 43.1375007629395 41.8937492370605 39.0750007629395 38.6812515258789 38.5062484741211 39.2625007629395 39.7000007629395 42.0562515258789 47.15625 53.4312515258789 57 58.7062492370605 59.4000015258789 62.84375 63.6624984741211 69.9562530517578 75.6750030517578 79.7937469482422 83.6062469482422 85.0999984741211 88.0124969482422 90.9000015258789 98.71875 104.331253051758 106.318748474121 105.925003051758 103.706253051758 100.099998474121 97.03125 93.6187515258789 89.9499969482422 86.5749969482422 84.7062530517578 82.6125030517578 79.0062484741211 73.65625 77.3937530517578 75.625 
32.78125 35.1749992370605 37.2562484741211 38.2374992370605 38.8624992370605 39.5812492370605 38.3375015258789 39.1937484741211 41.2062492370605 43.78125 45.0062484741211 44.0687484741211 44.1375007629395 43.7000007629395 43.3062515258789 42.0812492370605 39.9375 38.8499984741211 38.9874992370605 40.375 44.9437484741211 48.2125015258789 52.3187484741211 55.5999984741211 59.375 59.4874992370605 60.5562515258789 64.2375030517578 68.0625 71.9187469482422 75.8125 80.59375 81.2874984741211 81.75 85.46875 89.2750015258789 95.5562515258789 96.4499969482422 98.7062530517578 99 96.9000015258789 92.5062484741211 89.9124984741211 86.5250015258789 81.6125030517578 81.1999969482422 77.6187515258789 75.7687530517578 74.9312515258789 76.75 74.4812469482422 
29.65625 32.7000007629395 35.6312484741211 36.40625 36.96875 36.9874992370605 37.8687515258789 38.0625 38.8937492370605 40.03125 41.7750015258789 44.1437492370605 44.75 45.4625015258789 43.8250007629395 42.4874992370605 40.0187492370605 40.34375 40.2062492370605 42.28125 45.0687484741211 49.6875 53.2562484741211 58.2374992370605 61.4437484741211 61.1375007629395 63.5499992370605 63.5125007629395 65.7624969482422 68.7624969482422 72.4937515258789 76.0625 75.1500015258789 74.1812515258789 79.2249984741211 80.7062530517578 86.9562530517578 90.8249969482422 92.9625015258789 92.9250030517578 92.1937484741211 88.6687469482422 86.875 83.3000030517578 80.4562530517578 77.1437530517578 72.8062515258789 70.15625 72.1937484741211 73.7874984741211 70.6687469482422 
27.59375 30.7250003814697 34.0374984741211 35.2374992370605 36.0750007629395 35.6187515258789 36.2125015258789 36.5999984741211 37.5187492370605 39.5499992370605 41.4249992370605 41.8687515258789 44.6187515258789 45.3875007629395 43.5750007629395 41.2562484741211 39.9187507629395 40.6875 41.3624992370605 42.6687507629395 46.1875 49.9312477111816 55.6375007629395 59.1812515258789 60.5250015258789 63.5187492370605 62.3687515258789 62.1624984741211 62.78125 65.2125015258789 65.59375 66.6500015258789 68.1437530517578 68.1062469482422 69.7687530517578 73.5562515258789 79.8562469482422 82.6937484741211 85.9000015258789 87.3499984741211 85.9499969482422 84.59375 83.5625 79.9812469482422 74.0062484741211 72.1624984741211 66.21875 68.59375 69.2937469482422 69.8499984741211 68.7750015258789 
27.15625 30.03125 31.6062507629395 33.2750015258789 34.0687484741211 34.1437492370605 34.625 34.9625015258789 35.53125 36.0625 39.6812515258789 41.4562492370605 42.5374984741211 44.0687484741211 42.9500007629395 41.3499984741211 39.7125015258789 40.4625015258789 41.5750007629395 42.4625015258789 47.0250015258789 51.0687484741211 56.3562507629395 60.0187492370605 61.0250015258789 61.8062515258789 61.7000007629395 60.2999992370605 59.0875015258789 59.125 58.9562492370605 58.65625 58.7562484741211 60.0812492370605 63.71875 67.71875 72.9312515258789 77.2874984741211 80.09375 81.6812515258789 83.0124969482422 80.25 78.5875015258789 75.1624984741211 71.2000045776367 65.1750030517578 65.1062469482422 65.6500015258789 67.09375 68.5687484741211 67.09375 
25.4750003814697 27.0125007629395 29.2062492370605 30.9812488555908 31.7312507629395 32.3812484741211 33.2687492370605 33.5374984741211 33.6187515258789 36.21875 39.1812515258789 41.375 43.1875 44.0374984741211 42.6312484741211 42.1062507629395 40.6375007629395 40.5125007629395 41.90625 43.4249992370605 46.4000015258789 50.3937492370605 55.96875 60.9249992370605 60.5875015258789 59.1187515258789 58.5687484741211 57.7937507629395 56.7562484741211 54.34375 54.4187507629395 51.9124984741211 51.3937492370605 55.4187507629395 58.0062484741211 62.9312515258789 65.8687515258789 69.9937515258789 73.4749984741211 76.2687530517578 79.2125015258789 77.75 75.21875 71.53125 66.1624984741211 62.8812484741211 63.1812515258789 61.2999992370605 62.5437507629395 61.5499992370605 60.0999984741211 
23.9812507629395 24.3500003814697 26.2437496185303 28.4125003814697 29.3250007629395 30.3187503814697 31.3562507629395 31.7875003814697 33.0187492370605 35.2249984741211 37.6437492370605 39.59375 42 43.5750007629395 42.1062507629395 41.09375 40.25 40.5499992370605 40.6312484741211 42.4812507629395 46.4124984741211 49.4500007629395 52.3937492370605 56.6749992370605 57.9124984741211 56.9187507629395 56.1812515258789 55.3125 54.1812515258789 52.96875 51.6687507629395 50.4437484741211 49.9124984741211 50.9187507629395 53.5999984741211 57.6687507629395 60.2687492370605 64.4124984741211 68.3375015258789 72.9000015258789 75.5812530517578 76.8499984741211 72.8562469482422 70.1125030517578 63.1375007629395 59.2874984741211 57.65625 57.6312484741211 56.46875 53.5625 52.53125 
22.3125 22.5562496185303 24.5187492370605 25.3500003814697 26.7124996185303 27.4125003814697 28.3624992370605 29.7562503814697 31.125 33.6875 35.8687515258789 38.1749992370605 41.0625 43.4874992370605 42.375 41.2312507629395 40.9562492370605 40.0499992370605 40.5999984741211 42.1500015258789 44.9625015258789 47.4812507629395 50.5 53.1437492370605 54.4874992370605 54.2562484741211 53.5875015258789 52.7999992370605 53.1875 51.96875 49.9749984741211 48.8687477111816 47.8250007629395 47.9000015258789 49.875 53.3187484741211 55.9625015258789 59.5874977111816 63.1124992370605 65.6750030517578 70.0187530517578 69.3499984741211 67.7125015258789 65.46875 60.0187492370605 54.0062484741211 53.2625007629395 52.9812507629395 50.0062484741211 48.0687484741211 43.9874992370605 
20.9874992370605 21.6625003814697 23.0437507629395 23.84375 24.5062503814697 25.59375 26.3999996185303 28.3687496185303 30.4624996185303 32.5125007629395 34.8062515258789 38.0125007629395 40.9312515258789 42.7562484741211 42.1875 41.5062484741211 40.75 40.7374992370605 40.5125007629395 41.25 44.0499992370605 45.9625015258789 48.5062484741211 49.7562484741211 51.1312484741211 51.4625015258789 50.6500015258789 50.3562507629395 50.8062515258789 49.3875007629395 47.9874992370605 46.53125 45.3375015258789 45.53125 46.4625015258789 48.7999992370605 52.6124992370605 54.6437492370605 56.0812492370605 58.6062507629395 62.7937507629395 63.0187492370605 61.6937484741211 59.1062507629395 55.09375 52.8375015258789 51.0562515258789 48.3687515258789 45.1937484741211 44.1312484741211 40.7374992370605 
20.1937503814697 20.5625 20.8812503814697 22.2749996185303 23.2937507629395 24.6437492370605 25.5437507629395 26.9812507629395 29.2062492370605 31.5499992370605 34.2062492370605 37.0562515258789 40.9812507629395 42.0499992370605 41.4562492370605 41.53125 42.1749992370605 40.7000007629395 39.4749984741211 40.9749984741211 43.5499992370605 45.0562515258789 46.5125007629395 46.625 47.1187515258789 48.8812484741211 48.3250007629395 47.3125 46.6812515258789 46.2625007629395 45.28125 44.6812515258789 43.9375 44.2000007629395 44.6187515258789 45.5750007629395 47.9000015258789 50.78125 50.7687492370605 50.875 53.5187492370605 55.3812484741211 54.6937484741211 52.1812515258789 50.1312484741211 49.4187507629395 46.6749992370605 43.84375 41.4124984741211 40.1500015258789 38.125 
19.5249996185303 18.9437503814697 19.1812496185303 20.0375003814697 21.3125 22.9562492370605 24.5249996185303 25.8562507629395 28.3500003814697 30.3125 33.1500015258789 36.8375015258789 39.8125 42.6124992370605 42.6312484741211 42.6375007629395 42.7000007629395 41.1500015258789 39.375 40.7312507629395 41.8624992370605 43.2687492370605 43.8187484741211 43.6812515258789 44.9000015258789 45.2374992370605 45.0499992370605 45.1312522888184 43.6812515258789 43.4249992370605 43.4437484741211 42.8250007629395 41.7999992370605 41.9249992370605 42.5999984741211 42.78125 44.7874984741211 44.6687507629395 44.7312507629395 46.0812492370605 47.9375 48.25 47.6062507629395 47.3125 46.09375 45.9625015258789 45.3062515258789 42.3250007629395 38.40625 36.4312515258789 34.625 
19.6625003814697 18.8187503814697 18.6437492370605 19.1062507629395 20.21875 21.71875 23.4500007629395 25.0249996185303 26.8125 29.8000011444092 33.3125 36.125 39.5562515258789 43.1687507629395 43.8937492370605 43.3250007629395 42.5812492370605 42.5125007629395 41.5374984741211 42.1687507629395 42.4625015258789 42.4562492370605 41.9812507629395 42.2000007629395 43.4375 43.2125015258789 43.6124992370605 42.84375 42.4749984741211 41.5437507629395 41.1812515258789 40.3312492370605 38.8562507629395 39.03125 40.2125015258789 41.1749992370605 40.8374977111816 40.5187492370605 40.65625 42.71875 44.03125 44.5625 42.6124992370605 42.7374992370605 42.0374984741211 42.2625007629395 43.625 40.1062507629395 37.4749984741211 34.3250007629395 32.9812507629395 
19.8312492370605 18.9812507629395 18.9500007629395 19.2437496185303 19.6687507629395 20.4500007629395 21.9562492370605 22.96875 25.7062492370605 28.0749988555908 31.59375 35.4437484741211 39.5499992370605 42.5687484741211 43.5750007629395 43.0687484741211 43.2750015258789 42.8062515258789 41.84375 41.9375 42.4812507629395 41.2562484741211 41.40625 41.5625 41.2437515258789 40.6625022888184 40.8687515258789 41.0687484741211 40.5999984741211 39.9000015258789 39.3624992370605 38.15625 36.7562484741211 37.28125 37.9812507629395 38.0374984741211 36.9500007629395 36.8812484741211 37.9000015258789 38.875 40.1312484741211 41.0750007629395 40.96875 40.1624984741211 40.125 39.0062484741211 38.2062492370605 35.9000015258789 33.7625007629395 32.3875007629395 30.375 
20.2374992370605 18.8125 19.1062507629395 19.1000003814697 19.5499992370605 20.2437496185303 21.0687503814697 21.9562492370605 23.625 26.0687503814697 29.8500003814697 34.6687507629395 40.28125 44.125 44.1875 44.0437507629395 44.0187492370605 43.0625 42.7000007629395 41.78125 41.90625 41.7062492370605 40.9249992370605 40.5499992370605 39.8125 38.7312507629395 38.9187507629395 39.0562515258789 38.5062484741211 36.09375 35.59375 35.7437515258789 35.0812492370605 35.1812515258789 34.8624992370605 34.71875 34.40625 34.96875 35.1312484741211 35.1312484741211 35.5687484741211 35.6062507629395 37.1124992370605 36.9437484741211 36.4500007629395 36 34.9625015258789 33.4124984741211 31.3812503814697 29.4937496185303 27.59375 
21.1062507629395 20.0625 20.5187492370605 20.03125 20.2437496185303 20.5750007629395 21.2374992370605 21.8187503814697 23.1375007629395 24.875 28.2625007629395 33.5750007629395 40.15625 42.9500007629395 44.28125 44.5999984741211 44.9874992370605 43.5374984741211 42.1312484741211 41.3812484741211 39.65625 40.2999992370605 39.0250015258789 38.1500015258789 36.7000007629395 36.8937492370605 36.9812507629395 37.0125007629395 36.3312492370605 34.25 33.59375 33.9562492370605 33.1500015258789 33.28125 33.0375022888184 32.2249984741211 32.2374992370605 32.3125 33.1500015258789 33.1437492370605 32.5687484741211 32.9187507629395 32.71875 32.8687515258789 32.7687492370605 32.0499992370605 30.8624992370605 30.2374992370605 28.90625 26.5812492370605 24.9562492370605 
21.5687503814697 21.0687503814697 21.2374992370605 20.6187496185303 20.6749992370605 21.2625007629395 21.6687507629395 21.9437503814697 22.6625003814697 23.2000007629395 26.6625003814697 32.3937492370605 38.0125007629395 41.0437507629395 43.2687492370605 44.3125 44.5374984741211 42.5874977111816 41.0062484741211 40.3125 38.375 37.4625015258789 36.4812507629395 36.15625 34.7437515258789 34.4437484741211 34.53125 34.1812515258789 33.59375 32.71875 31.8125 31.3125 30.4750003814697 30.6000003814697 30.3999996185303 29.2999992370605 29.0874996185303 30.1687507629395 31.1812496185303 30.6749992370605 29.7437496185303 29.9562492370605 29.5812492370605 30.4187507629395 30.3624992370605 28.7062492370605 28.6687507629395 27.40625 26.3812503814697 24.7000007629395 22.7687492370605 
21.5125007629395 21.4562492370605 21.1062507629395 21.1875 21.2562503814697 21.6187496185303 21.9312496185303 22.0499992370605 22.6687507629395 22.6749992370605 27.6875 32.9312515258789 36.7562484741211 39.8062515258789 42.46875 43.8125 42.9249992370605 42.3125 40.0812492370605 39.0687484741211 37.65625 36.2000007629395 34.4375 34.1187515258789 33.3375015258789 32.7625007629395 32.3937492370605 32.0625 31.5562496185303 30.3125 28.28125 28.28125 27.59375 27.8875007629395 27.0625 25.8500003814697 26.7875003814697 27.4437503814697 28.2374992370605 28.0437507629395 27.3562507629395 28.2000007629395 27.6187496185303 26.0874996185303 26.0874996185303 25.3562507629395 25.2437496185303 25.2562503814697 23.0125007629395 21.6812496185303 21.0499992370605 
22.2687492370605 21.6499996185303 21.0437507629395 21.6625003814697 21.7749996185303 21.9874992370605 21.65625 22.8187503814697 24.4437503814697 27.1312503814697 32.0374984741211 34.5750007629395 36.7437515258789 39.7000007629395 41.8499984741211 41.9437484741211 41.375 40.2874984741211 37.7937507629395 36.8187484741211 35.3937492370605 33.6624984741211 32.7249984741211 32.2625007629395 30.9125003814697 30.28125 30.2562503814697 29.4500007629395 29.1124992370605 28.46875 26.9312496185303 25.6937503814697 25.0750007629395 25.2625007629395 24.9249992370605 24.4624996185303 25.2937507629395 26.2250003814697 26.3562507629395 25.0062503814697 25.4437503814697 26.6749992370605 25.1625003814697 24.2250003814697 23.7562503814697 23.0812492370605 22.0562496185303 21.3875007629395 20.4249992370605 20.0625 19.2937507629395 
22.9500007629395 22.4812507629395 21.6625003814697 22.4312496185303 22.2250003814697 22.8250007629395 22.9437503814697 23.9375 25.8125 28.2312507629395 31.5375003814697 34.3375015258789 36.2125015258789 37.8375015258789 39.8562507629395 41 39.6312484741211 39.1062507629395 36.9437484741211 34.96875 32.28125 31.09375 29.875 29.3687496185303 28.34375 27.6687507629395 27.2687492370605 26.8312492370605 26.0874996185303 26.0437507629395 25.5562496185303 24.4812507629395 23.7250003814697 23.5499992370605 24.0812492370605 23.4249992370605 23.28125 23.90625 25.0812492370605 24.3312492370605 24.4874992370605 25.0812492370605 23.78125 22.3937492370605 21.1625003814697 20.2124996185303 19.9249992370605 19.1062507629395 18.6812496185303 18.3500003814697 17.5562496185303 
22.5062503814697 22.3062496185303 22.4812507629395 22.7312507629395 22.7999992370605 23.0687503814697 23.7250003814697 25.1375007629395 25.7999992370605 28.75 31.6187496185303 34.25 36.0250015258789 36.2312507629395 37.0687484741211 37.9749984741211 37.9000015258789 36.6812515258789 34.46875 32.5562515258789 30 28.7625007629395 27.2250003814697 26.59375 26.6437492370605 25.84375 25.2937507629395 25.0437507629395 24.6375007629395 23.4937496185303 23.1000003814697 23.7312507629395 23.0249996185303 22.8500003814697 22.7312507629395 22.3687496185303 22.34375 22.5750007629395 23.4125003814697 23.6437492370605 23.0812492370605 23 22.2687492370605 20.9750003814697 19.8999996185303 18.8312492370605 17.9937496185303 16.9249992370605 17.09375 16.4874992370605 15.9937496185303 
22.7625007629395 22.7562503814697 23.1499996185303 23.3250007629395 23.8999996185303 24.28125 25.2875003814697 25.6687507629395 26.4125003814697 28.5812492370605 30.9375 33.5374984741211 34.7874984741211 34.0499992370605 34.4187507629395 35.5687484741211 35.5125007629395 34.5812492370605 32.2937507629395 30.6187496185303 28.0812492370605 26.4437503814697 24.7375011444092 23.4000015258789 23.5062503814697 22.9187507629395 22.8125 22.6499996185303 22.7374992370605 22.5187511444092 20.8687496185303 21.1124992370605 21.2562503814697 22.3624992370605 22.1812496185303 20.8312492370605 20.96875 21.6875 22.375 22.6062507629395 21.7937507629395 21.2312507629395 20.0437507629395 19.1375007629395 18.2312507629395 17.5562496185303 16.2312507629395 14.8374996185303 15.2250003814697 14.7062501907349 13.9875001907349 
22.3875007629395 22.8812503814697 23.1375007629395 23.1937503814697 22.9562492370605 23.9249992370605 24.5687503814697 24.8062496185303 26.0375003814697 27.8250007629395 29.5249996185303 31.1000003814697 31.6687507629395 31.75 32.2937507629395 32.9874992370605 32.71875 32.2374992370605 30.34375 27.6749992370605 25.2250003814697 23.2374992370605 22.1999988555908 22.0374984741211 22.0999984741211 20.9375 20.9375 20.6499996185303 20.15625 19.96875 19.2625007629395 18.3187503814697 18.0750007629395 19.46875 21.6687507629395 21.5375003814697 20.0687503814697 20.4562492370605 20.8312492370605 19.9562492370605 19.40625 19.2749996185303 18.7875003814697 17.6499996185303 17.5187492370605 16.0375003814697 14.4812498092651 13.6937503814697 14.4750003814697 13.5749998092651 12.2437496185303 
22.2000007629395 22.3875007629395 22.5562496185303 22.5375003814697 22.84375 23.46875 23.5437507629395 23.9437503814697 24.8999996185303 26.4249992370605 27.6062507629395 28.8687496185303 29.21875 29.9624996185303 30.1625003814697 29.78125 30.3374996185303 30.2749996185303 28.2437496185303 26.15625 23.7250003814697 21.6625003814697 19.8500003814697 19.9125003814697 19.5499992370605 18.875 18.5 18.25 17.8687496185303 17.9312496185303 17.1374988555908 16.59375 16.5625 17.3312511444092 20.0874996185303 21.6812496185303 19.6937503814697 19.3937511444092 19.40625 18.125 17.6062507629395 17.5062503814697 16.65625 15.9937496185303 15.6312494277954 14.5749998092651 13.8249998092651 12.5625 11.9624996185303 12.25 10.9499998092651 
20.96875 20.9437503814697 21.5750007629395 21.6812496185303 22.7250003814697 23.3187503814697 22.9812507629395 22.65625 23.6625003814697 24.6875 25.2687492370605 25.75 26.6749992370605 27.6812496185303 28.0375003814697 26.9187507629395 26.7999992370605 27.1999988555908 25.8999996185303 23.6875 21.375 19.875 17.75 17.4375 17.375 17.125 16.1875 16.125 15.9375 15.9937496185303 15.3562498092651 14.9624996185303 15.1125001907349 16.4562492370605 17.9250011444092 19.875 18.6187496185303 18.0437488555908 17.6124992370605 17.3312492370605 16.3250007629395 15.9750003814697 15.7687501907349 14.8999996185303 14.3062496185303 13.3625001907349 12.7624998092651 11.5375003814697 10.5062503814697 10.75 10.3125 
