ncols        51
nrows        45
xllcorner    -63.500000000000
yllcorner    -7.500000000000
cellsize     0.166666666667
NODATA_value -99
120.731246948242 110.9375 105.050003051758 102.487503051758 100.1875 101.393753051758 102.324996948242 103.381248474121 105.637496948242 107.456253051758 109.356246948242 110.762496948242 112.375 112.21875 113.162498474121 113.699996948242 114.275001525879 112.949996948242 111.762496948242 110.962501525879 109.231246948242 107.275001525879 105.881248474121 103.8125 102.306251525879 101.362503051758 101.474998474121 101.706253051758 101.699996948242 102.443748474121 103.693748474121 105.775001525879 108.118751525879 111.349998474121 114.293746948242 117.474998474121 120.981254577637 123.837501525879 125.150001525879 126.362503051758 126.418746948242 126.537498474121 125.137496948242 123.59375 120.868751525879 117.150001525879 112.243751525879 106.724998474121 101.862503051758 95.8812484741211 91.0999984741211 
126.650001525879 114.856246948242 109.0625 105.6875 103.6875 104.768753051758 105.599998474121 107.800003051758 110.318748474121 112.137496948242 113.956253051758 114.731246948242 115.162498474121 115.324996948242 115.418746948242 116.400001525879 116.243751525879 115.787498474121 114.987503051758 114.587501525879 112.550003051758 110.356246948242 108.9375 107.699996948242 105.337501525879 103.868751525879 103.887496948242 103.525001525879 103.431251525879 104.418746948242 106.15625 108.693748474121 110.65625 115.074996948242 119.018753051758 122.9375 127.293746948242 131.100006103516 132.462493896484 133.875 134.862503051758 134.481246948242 133.587493896484 130.737503051758 127.724998474121 123.375 118.75 112.306251525879 106.481246948242 99.8312454223633 94.4937515258789 
134.125 122.431251525879 115.449996948242 110.293746948242 107.387496948242 108.243751525879 110.75 113.1875 116.568748474121 118.668746948242 119.65625 119.618751525879 119.581253051758 119 118.618751525879 118.606246948242 118.662498474121 118.275001525879 117.056251525879 116.443748474121 114.525001525879 112.362503051758 110.931251525879 110.043746948242 108.324996948242 106.675003051758 106.337501525879 105.96875 105.224998474121 105.800003051758 108.137496948242 110.375 114.387496948242 118.768753051758 123.699996948242 127.881248474121 132.768753051758 138.631256103516 140.96875 143.456253051758 144.850006103516 143.693756103516 142.368743896484 139.925003051758 135.581253051758 130.425003051758 125.081253051758 118.6875 111.03125 103.293746948242 97.5500030517578 
139.068756103516 127.268745422363 120.800003051758 114.243751525879 110.412498474121 111.493751525879 114.068748474121 117.837501525879 122.59375 125.543746948242 125.78125 124.543746948242 123.512496948242 122.181251525879 121.556251525879 121.331253051758 121.40625 120.287498474121 119.168754577637 118.96875 117.275001525879 114.974998474121 112.775001525879 111.668746948242 110.393753051758 109.206253051758 108.650001525879 106.981246948242 106.40625 107.631248474121 109.637496948242 112.4375 115.993751525879 120.893753051758 126.231246948242 132.862503051758 139.537506103516 146.050003051758 149.756256103516 152.868743896484 153.78125 153.518753051758 150.856246948242 147.793746948242 142.975006103516 138.09375 131.050003051758 124.400001525879 116.237503051758 107.75 100.800003051758 
147.231246948242 133.300003051758 121.949996948242 115.587501525879 112.300003051758 113.900001525879 116.868751525879 121.550003051758 127.981246948242 132.543746948242 130.837493896484 127.462501525879 125.706253051758 124.606246948242 123.943748474121 123.993751525879 123.650001525879 122.806251525879 121.400001525879 120.025001525879 119.356246948242 117.131248474121 115.068748474121 114.699996948242 112.612503051758 111.25 108.925003051758 107.993751525879 107.756248474121 108.068748474121 109.925003051758 112.793754577637 117.106246948242 122.84375 129.21875 136.800003051758 144.912506103516 153.125 158.65625 161.0625 163.137496948242 161.456253051758 158.956253051758 155.8125 150.975006103516 144.59375 137.149993896484 128.806243896484 120.881248474121 112.931251525879 104.46875 
149.625 136.143753051758 124.731246948242 114.581253051758 112.118751525879 115.800003051758 119.5 123.456253051758 129.475006103516 134.693756103516 132.256256103516 128.925003051758 127.706253051758 126.756248474121 125.831253051758 125.368751525879 125.287498474121 124.362503051758 123.493751525879 121.662498474121 120.75 119.493751525879 117.800003051758 116.443748474121 115.212501525879 113.231246948242 110.837501525879 109.0625 108.193748474121 108.15625 109.012496948242 112.837501525879 117.168746948242 123.574996948242 130.131256103516 138.975006103516 148.056243896484 157.550003051758 164.818756103516 168.6875 168.175003051758 166.75 164.137496948242 161.5 158.168746948242 150.356246948242 140.881256103516 131.893753051758 124.512496948242 116.043746948242 107.4375 
152.8125 140.762496948242 129.412506103516 119.118751525879 114.043746948242 115.668746948242 118.918746948242 122.012496948242 125.137496948242 126.606246948242 127.743751525879 127.306251525879 127.800003051758 127.731246948242 127.59375 127.606246948242 127.375 126.143753051758 124.256248474121 123.806251525879 123.168746948242 122.081253051758 120.756248474121 119.09375 117.537498474121 116.037498474121 112.84375 110 107.318748474121 107.1875 108.431251525879 111.356254577637 116.425003051758 123.28125 130.918746948242 139.53125 148.637496948242 159.25 169.912506103516 173.6875 172.431243896484 170.393753051758 167.962493896484 165.09375 161.46875 154.418746948242 145.28125 135.081253051758 126.900001525879 119.268753051758 111.974998474121 
157.543746948242 145.099990844727 134.649993896484 126.3125 120.712501525879 120.162498474121 119.268753051758 117.381248474121 116.356246948242 117.65625 122.043746948242 124.9375 127.068748474121 128.143753051758 128.675003051758 129.356246948242 129.100006103516 127.59375 126.09375 125.081253051758 126.074996948242 125.856246948242 124.118751525879 122.318748474121 121.25 117.887496948242 113.724998474121 109.650001525879 106.818748474121 105.65625 106.387496948242 109.806251525879 115.21875 121.981246948242 129.862503051758 138.068756103516 147.881256103516 157.475006103516 165.512496948242 169.837493896484 170.462493896484 169.125 166.925003051758 164.018753051758 159.949996948242 155.1875 147.074996948242 137.212493896484 129.037506103516 122.087501525879 114.137496948242 
160.800003051758 149.618743896484 140.806243896484 133.012496948242 126.918746948242 125.15625 122.962501525879 119.375 114.387496948242 112.974998474121 118.643753051758 123.09375 126.650001525879 128.59375 129.5625 129.981246948242 129.856246948242 129.525009155273 130.387496948242 129.893753051758 129.743743896484 129.981246948242 127.949996948242 127.131248474121 124.65625 120.331253051758 114.762496948242 110.362503051758 106.84375 104.150001525879 104.893753051758 108.668746948242 113.081253051758 118.893753051758 125.731254577637 134.081253051758 142.981246948242 151.524993896484 158.268753051758 163.662506103516 165.399993896484 164.068756103516 163.21875 161.131256103516 156.975006103516 152.481246948242 146.712493896484 138.087493896484 129.981246948242 123.21875 117.331253051758 
164.4375 153.318756103516 145.368743896484 138.550003051758 133.100006103516 131.425003051758 128.1875 123.5625 120.087501525879 119.34375 121.706253051758 123.875 127.543746948242 129.543746948242 130.106246948242 130.5 130.574996948242 132.081253051758 133.875 135.681243896484 136.074996948242 135.762496948242 133.09375 131.1875 127.143753051758 122.574996948242 117.212501525879 111.518753051758 106.862503051758 102.956253051758 103.09375 106.28125 110.481254577637 116.068748474121 122.5 130.34375 138.887496948242 145.931243896484 152.350006103516 157.675003051758 160.856246948242 160.487503051758 159.043746948242 156.300003051758 153.724990844727 150.65625 145.34375 138.9375 131.53125 125.443748474121 117.331253051758 
168.5625 157.993743896484 150.25 143.918746948242 138.800003051758 138.243743896484 135.225006103516 129.587493896484 126.25 125.025001525879 126.34375 127.481246948242 129.318756103516 130.643753051758 130.362503051758 130.100006103516 130.581253051758 133.537506103516 137.118743896484 141.237503051758 145.175003051758 144.25 139.875 133.931243896484 130.15625 126.549995422363 120.868751525879 114.925003051758 108.831253051758 104.25 103.787498474121 105.925003051758 110 114.8125 119.931251525879 126.349998474121 133.356246948242 140.106246948242 147.631256103516 153.287506103516 156.506256103516 156.887496948242 156.212493896484 154.137496948242 150.449996948242 149.21875 144 137.46875 131.53125 124.462501525879 115.568748474121 
172.375 162.1875 154.725006103516 149.381256103516 144.587493896484 144.012496948242 141.737503051758 135.78125 132.300003051758 130.675003051758 130.487503051758 130.631256103516 129.731246948242 129.743743896484 129.481246948242 129.425003051758 130.506256103516 134.168746948242 139.5 146.393753051758 153.043746948242 152.899993896484 147.331253051758 139.274993896484 133.4375 128.862503051758 122.775001525879 117.037498474121 112.287498474121 107.71875 105.59375 105.84375 108.506248474121 112.168746948242 116.912498474121 122.800003051758 128.856246948242 135.543746948242 142.40625 148.543746948242 153.118743896484 153.606246948242 153.181243896484 151.668746948242 146.306243896484 139.887496948242 134.800003051758 132.368743896484 127.431251525879 122.387496948242 113.181251525879 
175.84375 166.643753051758 159.574996948242 153.518753051758 148.181243896484 146.975006103516 144.043746948242 139.306243896484 136.331253051758 135.024993896484 134.050003051758 133.15625 131.106246948242 127.625 126.675003051758 127.087501525879 128.768753051758 134.293746948242 140.78125 148.387496948242 157.199996948242 158.143753051758 152.25 144.800003051758 136.800003051758 130.5 125.743751525879 120.112503051758 115.537498474121 110.96875 107.862503051758 106.481246948242 107.212501525879 109.506248474121 113.356246948242 118.631248474121 124.331253051758 130.449996948242 138.056243896484 143.481246948242 149.268753051758 150.893753051758 148.96875 141.587493896484 136.53125 135.53125 131.993743896484 127.59375 121.65625 118.006248474121 110.962501525879 
178.90625 169.15625 162.268753051758 156.043746948242 150.71875 148.112503051758 145.212493896484 141.600006103516 139.918746948242 138.268753051758 136.712493896484 133.143753051758 129.8125 125.737503051758 122.525001525879 123.037498474121 125.474998474121 131.274993896484 137.993743896484 145.125 152.899993896484 155.431243896484 152.881256103516 146.75 140.300003051758 134.625 130.306243896484 124.868751525879 119.5 114.025001525879 110.168746948242 107.375 106.481246948242 107.181251525879 110.556251525879 115.800003051758 121.137496948242 128.262496948242 134.831253051758 141.668746948242 145.956253051758 143.387496948242 139.699996948242 137.918746948242 135.824996948242 134.431259155273 134.268753051758 130.6875 123.831253051758 117.4375 108.993751525879 
180.050003051758 170.337493896484 163.637496948242 157.518753051758 152.006256103516 149.125 146.743743896484 143.600006103516 141.65625 139.71875 137.475006103516 133.149993896484 128.5 123.581253051758 118.612503051758 118.512496948242 121.537498474121 127.6875 134.550003051758 141.393753051758 148.456253051758 152.356246948242 152.662506103516 149.268753051758 145.59375 141.462493896484 136.46875 130.475006103516 124.456253051758 117.574996948242 112.175003051758 107.887496948242 106.46875 106.4375 108.293746948242 112.987503051758 119.556251525879 128.043746948242 135.568756103516 139.912506103516 140.512496948242 139.875 140.1875 140.4375 136.012496948242 133.362503051758 131.449996948242 129.5 125.643753051758 118.875 109.018753051758 
180 170.324996948242 164.368743896484 158.350006103516 153.018753051758 150.568756103516 147.71875 144.78125 143.5 142.193756103516 139.199996948242 134.0625 128.625 122.275001525879 116.46875 113.4375 118 125.518753051758 132.21875 138.6875 146.368743896484 151.662506103516 153.600006103516 152.074996948242 150.268753051758 148.662506103516 144.456253051758 137.868743896484 129.725006103516 120.918746948242 114.118751525879 108.993751525879 106.474998474121 106.331253051758 106.46875 112.34375 120.181251525879 125.681251525879 131.956253051758 135.787506103516 139.03125 140.506256103516 141.050003051758 138.212493896484 136.449996948242 134.71875 133.387496948242 129.78125 124.993751525879 119.981246948242 111.050003051758 
179.5 170.806243896484 164.550003051758 158.75 153.96875 151.550003051758 149.524993896484 146.637496948242 145.625 144.056243896484 141.443756103516 136.112503051758 129.899993896484 123.356246948242 118.043746948242 115.324996948242 116.699996948242 123.199996948242 130.568756103516 137.556243896484 145.631240844727 151.768753051758 155.012496948242 154.050003051758 153.975006103516 155.399993896484 153.518753051758 144.824996948242 133.600006103516 123.612503051758 116.243751525879 111.912498474121 108.375 107.056251525879 110.456253051758 118.40625 123.46875 129.762496948242 136.4375 138.643753051758 142.262496948242 143.731246948242 141.050003051758 139.931243896484 138.25 136.131256103516 134.168746948242 131.587493896484 128.53125 123.368751525879 115.931251525879 
177.931243896484 169.231246948242 163.668746948242 158.381256103516 153.381256103516 152.206253051758 150.831253051758 148.393753051758 147.668746948242 146.256256103516 143.806243896484 138.693756103516 131.893753051758 126.168746948242 122.262496948242 119.681251525879 119.481246948242 121.900001525879 129.90625 137.125 146.399993896484 152.006256103516 155.481246948242 156.199996948242 157.831253051758 160.162506103516 161.637496948242 150.556243896484 136.081253051758 123.275001525879 114.768753051758 110.143753051758 110.381248474121 114.025001525879 118.612503051758 121.431251525879 127.5 133.806243896484 137.018753051758 142.706253051758 145.337493896484 145.487503051758 143.824996948242 142.574996948242 140.78125 138.518753051758 136.643753051758 134.206253051758 132.206253051758 126.756248474121 122.362503051758 
175.725006103516 167.793746948242 162.412506103516 157.512496948242 153.193756103516 152.387496948242 151.300003051758 150.006256103516 150.162506103516 149.850006103516 147.337493896484 142.043746948242 135.550003051758 130.256256103516 126.043746948242 123.731246948242 123.087501525879 123.824996948242 128.800003051758 135.987503051758 147.212493896484 155.818756103516 155.75 157.375 159.899993896484 161.987503051758 160.5625 151.012496948242 137.762496948242 123.53125 112.956253051758 111.262496948242 116.78125 120.293746948242 122.743751525879 127.912498474121 132.699996948242 137.418746948242 142.181243896484 146.481246948242 148.949996948242 150.850006103516 148.018753051758 145.868743896484 144.181243896484 142.425003051758 140.125 138.456253051758 135.681243896484 129.399993896484 129.506256103516 
173.050003051758 165.631256103516 160.362503051758 156.018753051758 152.149993896484 152.287506103516 152.25 151.693756103516 152.96875 153.75 152.668746948242 148.012496948242 141.887496948242 135.606246948242 131.324996948242 127.84375 124.768753051758 126.887496948242 130.475006103516 136.350006103516 145.100006103516 151.287506103516 156.068756103516 158.018753051758 159.4375 158.868743896484 155.175003051758 149.375 138.0625 124.731246948242 116.300003051758 117.868751525879 121.862503051758 126.537498474121 130.3125 134.4375 139.28125 144.34375 147.881256103516 150.699996948242 152.875 153.893753051758 151.668746948242 150.1875 148.550003051758 147.225006103516 144.118743896484 142.137496948242 139.724990844727 134.75 134.78125 
169.612503051758 163.356246948242 159.268753051758 155.34375 151.425003051758 152.537506103516 154.162506103516 155.175003051758 157.631256103516 158.881256103516 158.65625 155.225006103516 150.262496948242 143.625 138.774993896484 133.731246948242 129.681243896484 129.418746948242 132.587493896484 135.84375 143.78125 150.693756103516 155.256256103516 157.737503051758 159.75 159.587493896484 155.693756103516 148.206253051758 139.425003051758 132.78125 127.762496948242 127.90625 130.40625 134.181243896484 138.21875 143.574996948242 147.543746948242 151.649993896484 154.181243896484 156.662506103516 157.787506103516 157.899993896484 156.537506103516 154.425003051758 152.84375 150.768753051758 148.399993896484 147.106246948242 143.600006103516 141.600006103516 140.149993896484 
167.21875 160.09375 156.793746948242 153.59375 150.756256103516 152.637496948242 155.725006103516 158.043746948242 162.175003051758 164.793746948242 165.600006103516 164.09375 160.4375 154.125 147.96875 141.831253051758 137.587493896484 135.675003051758 136.018753051758 137.987503051758 142.331253051758 147.425003051758 152.274993896484 154.768753051758 156.425003051758 156.975006103516 155.618743896484 150.475006103516 145.262496948242 140.949996948242 136.425003051758 136.081253051758 138.243743896484 143.081253051758 148.431243896484 153.5 157.387496948242 160.668746948242 161.46875 163.106246948242 163.368743896484 162.743743896484 161.412506103516 160.018753051758 158.743743896484 155.706253051758 153.168746948242 151.568756103516 150.081253051758 149.237503051758 146.649993896484 
165.181243896484 159.287506103516 155.868743896484 152.8125 150.40625 152.762496948242 156.043746948242 160.393753051758 166.068756103516 169.568756103516 172.256256103516 172.487503051758 172.837493896484 167.574996948242 158.293746948242 149.96875 144.199996948242 141.212493896484 139.524993896484 139.350006103516 142.256256103516 145.556243896484 148.731246948242 151.175003051758 154.112503051758 155.993743896484 155.125 152.956253051758 149.300003051758 146.21875 143.96875 143.96875 147.449996948242 152.787506103516 157.993743896484 163.487503051758 167.431243896484 168.856246948242 168.53125 169.087493896484 169.393753051758 168.012496948242 166.3125 164.668746948242 163.024993896484 161.412506103516 158.912506103516 157.28125 155.831253051758 155.893753051758 153.962493896484 
164.493743896484 159.662506103516 155.90625 151.5625 148.818756103516 152.193756103516 156.331253051758 161.443756103516 166.762496948242 171.081253051758 174.743743896484 178.912506103516 182.287506103516 176.712493896484 165.699996948242 156.375 149.587493896484 145.693756103516 142.512496948242 140.318756103516 142.0625 144.162506103516 145.78125 148.300003051758 151.550003051758 153.737503051758 155.981246948242 153.918746948242 152.71875 151.137496948242 151.212493896484 152.418746948242 155.962493896484 160.793746948242 166.393753051758 173.006256103516 176.962493896484 176.487503051758 175.78125 175.493743896484 174.962493896484 173.34375 171.537506103516 169.631256103516 171.306243896484 169.518753051758 166.431259155273 162.949996948242 164.012496948242 161.743743896484 160.212493896484 
166.443756103516 161.600006103516 156.993743896484 151.774993896484 148.71875 151.574996948242 155.556243896484 160.431243896484 166.006256103516 170.600006103516 175.106246948242 178.112503051758 180.625 177.399993896484 168.699996948242 160.09375 153.225006103516 148.206253051758 144.34375 141.243743896484 141.543746948242 141.743743896484 143.118743896484 145.331253051758 148.175003051758 152.350006103516 154.875 155.550003051758 155.3125 156.324996948242 157.118743896484 159.1875 162.756256103516 167.368743896484 171.96875 177.056243896484 180.949996948242 180.868743896484 180.643753051758 180.943756103516 180.012496948242 178.256256103516 177.368743896484 176.71875 177.537506103516 176.856246948242 171.106246948242 171.6875 171.274993896484 169.850006103516 168.368743896484 
170.168746948242 165.881256103516 158.193756103516 152.493743896484 147.649993896484 149.96875 153.53125 158.012496948242 163.15625 167.850006103516 172.018753051758 175.15625 176.556243896484 174.856246948242 168.699996948242 161.862503051758 155.90625 150.699996948242 146.331253051758 142.768753051758 141.824996948242 140.987503051758 140.643753051758 141.743743896484 145.568756103516 150.84375 154.981246948242 157.456253051758 159.056243896484 161.175003051758 162.65625 165.100006103516 168.681243896484 171.837493896484 175.712493896484 179.693756103516 182.643753051758 183.925003051758 185.3125 185.793746948242 185.59375 183.84375 181.431243896484 181.78125 183.899993896484 181.074996948242 181.431243896484 181.856246948242 180.5 180.512496948242 178.043746948242 
168.699996948242 162.225006103516 155.40625 149.712493896484 145.0625 146.931243896484 151.1875 155.024993896484 158.806243896484 163.387496948242 168.318756103516 171.731246948242 173.481246948242 173.09375 168.431243896484 162.206253051758 157.149993896484 152.606246948242 148.487503051758 144.393753051758 142.768753051758 141.175003051758 139.787506103516 141.043746948242 145.975006103516 151.337493896484 155.712493896484 159.131256103516 162.34375 164.1875 166.706253051758 169.412506103516 173.193756103516 176.149993896484 178.475006103516 181.756256103516 184.350006103516 185.462493896484 188.106246948242 189.6875 190.212493896484 188.074996948242 185.631256103516 184.693756103516 187.056243896484 190.081253051758 191.78125 190.887496948242 190.931243896484 188.587493896484 186.03125 
165.993743896484 157.375 151.25 146.056259155273 142.412506103516 143.837493896484 147.462493896484 151.418746948242 155.46875 159.837493896484 163.768753051758 167.618743896484 170.050003051758 170.618743896484 167.449996948242 162.5 157.806243896484 154.262496948242 150.362503051758 146.681243896484 145.09375 143 142.756256103516 144.962493896484 148.975006103516 153.393753051758 157.375 161.449996948242 164.84375 166.949996948242 168.925003051758 171.856246948242 175.449996948242 177.556243896484 180.449996948242 183.3125 185.524993896484 187.737503051758 189.762496948242 193.681243896484 196.356246948242 194.5 188.574996948242 186.475006103516 192.78125 198.131256103516 200.962509155273 202.600006103516 201.712493896484 198.274993896484 193.800003051758 
163.087493896484 152.725006103516 146.381256103516 142.087493896484 139.256256103516 140.4375 143.518753051758 147.21875 151.943756103516 156.0625 160.056243896484 163.818756103516 167.21875 168.543746948242 166.118743896484 163.056243896484 159.96875 156.199996948242 152.693756103516 149.46875 148.181243896484 146.425003051758 146.518753051758 149.475006103516 152.925003051758 156.506256103516 160.71875 164.137496948242 167.774993896484 169.162506103516 171.074996948242 173.40625 175.912506103516 178.118743896484 181.456253051758 184.112503051758 186.475006103516 188.274993896484 190.631256103516 193.774993896484 198.237503051758 195.5625 191.425003051758 192.893753051758 201.431243896484 206.9375 211.300003051758 214.118743896484 212.862503051758 208.706253051758 200.987503051758 
161.412506103516 150.787506103516 144.425003051758 138.881256103516 136.443756103516 137.806243896484 140.600006103516 144.149993896484 148.681243896484 152.324996948242 156.393753051758 160.8125 164.912506103516 167.75 166.524993896484 164.631256103516 161.587493896484 159.225006103516 155.856246948242 153.024993896484 151.975006103516 151.75 152.193756103516 154.3125 157.306243896484 160.8125 164.487503051758 167.287506103516 170.068756103516 171.912506103516 173.493743896484 175.418746948242 177.600006103516 180.256256103516 183.056259155273 184.681243896484 186.118743896484 188.712493896484 189.050003051758 190.96875 194.587493896484 197.84375 197.837509155273 201.625 206.024993896484 215.506256103516 222.368743896484 226.106246948242 224.15625 218.431243896484 209.181243896484 
158.818756103516 148.699996948242 142.574996948242 137.3125 134.293746948242 136.112503051758 138.668746948242 141.606246948242 145.231246948242 149.481246948242 153.862503051758 158.78125 163.956253051758 166.743743896484 166.943756103516 166.368743896484 165.34375 162.875 159.350006103516 158.21875 157.981246948242 158.0625 158.662506103516 160.306243896484 162.162506103516 165.3125 167.949996948242 170.537506103516 172.612503051758 173.96875 175.65625 177.743743896484 179.431259155273 182.637496948242 184.456253051758 185.493743896484 187.074996948242 190.431243896484 189.606246948242 186.131256103516 190.712493896484 198.518753051758 203.087493896484 207.350006103516 212.431243896484 227.806243896484 237.912506103516 240.28125 236.40625 227.787506103516 218.399993896484 
156.087493896484 147.118743896484 141.53125 137.46875 135.262496948242 135.40625 137.274993896484 139.331253051758 142.756256103516 146.699996948242 151.25 156.975006103516 162.449996948242 166.787506103516 168.9375 169.856246948242 169.856246948242 167.856246948242 165.643753051758 165.112503051758 165.175003051758 164.987503051758 165.149993896484 166.081253051758 167.975006103516 169.837493896484 171.487503051758 173.381256103516 174.662506103516 176.40625 178.0625 179.524993896484 181.368743896484 183.71875 186.543746948242 187.675003051758 189.256256103516 191.293746948242 189.168746948242 188.149993896484 195.306243896484 205.125 212.193756103516 221.068756103516 229.800003051758 251.118743896484 261.912506103516 260.287506103516 250 237.881256103516 225.556243896484 
156.162506103516 148.706253051758 143.493743896484 139.762496948242 137.231246948242 136.34375 137.074996948242 138.368743896484 141.100006103516 144.793746948242 150.393753051758 156.15625 162.800003051758 169.568756103516 172.568756103516 174.975006103516 175.737503051758 175.806243896484 174.881256103516 174.618743896484 174.668746948242 173.712493896484 172.756256103516 172.993743896484 174.175003051758 175.050003051758 176 176.912506103516 178.293746948242 179.631256103516 181.006256103516 182.256256103516 183.824996948242 185.774993896484 189.137496948242 190.943756103516 193.5625 195.100006103516 193.662506103516 198.106246948242 205.568740844727 215.137496948242 225.175003051758 237.943756103516 257.149993896484 285.287506103516 292.78125 277.774993896484 261.212493896484 244.143753051758 230.543746948242 
156.256256103516 150.4375 145.618743896484 142.256256103516 139.09375 137.574996948242 136.737503051758 137.34375 139.71875 142.887496948242 148.118743896484 155.743743896484 164.112503051758 171.387496948242 175.931243896484 180 183.106246948242 184.193756103516 184.324996948242 184.756256103516 184.231246948242 182.84375 181.337493896484 180.381256103516 180.443756103516 180.0625 180.699996948242 180.693756103516 181.4375 182.40625 183.625 185.362503051758 186.912506103516 188.806243896484 192.300003051758 195.112503051758 197.256256103516 198.087493896484 200.631256103516 207.362503051758 214.537506103516 224.625 237.956253051758 253.581253051758 275.368743896484 300.712493896484 303.568756103516 284.387512207031 265.15625 246.581253051758 231.912506103516 
157.3125 152.837493896484 148.425003051758 144.543746948242 141.324996948242 138.943756103516 136.9375 136.637496948242 137.443756103516 140.737503051758 146.606246948242 155.931243896484 165.71875 175.225006103516 181.731246948242 186.1875 190.993743896484 193.0625 193.962493896484 194.681243896484 194.225006103516 192.331253051758 189.912506103516 187.268753051758 185.487503051758 184.6875 184.112503051758 184.168746948242 184.068756103516 184.90625 186.506256103516 187.993743896484 189.306243896484 191.975006103516 194.362503051758 196.462493896484 198.668746948242 203.787506103516 207.949996948242 213.78125 221.712493896484 231.012496948242 243.912506103516 258.625 275.875 289.068756103516 291.762512207031 278.84375 261.368743896484 244.631256103516 230.768753051758 
160.893753051758 156.637496948242 152.524993896484 148.481246948242 145.125 142.456253051758 139.96875 137.75 137.181243896484 139.087493896484 145.706253051758 156.256256103516 168.368743896484 179.931243896484 186.956253051758 193.743743896484 198.518753051758 201.512496948242 203.675003051758 205.725006103516 204.612503051758 200.78125 197.15625 193.899993896484 191.350006103516 189.487503051758 188.712493896484 188.649993896484 188.481246948242 188.162506103516 189.949996948242 190.90625 192.53125 194.793746948242 195.856246948242 197.399993896484 203.243743896484 208.168746948242 211.774993896484 218.212493896484 226.462493896484 234.243743896484 244.387496948242 256.818756103516 268.206268310547 274.96875 276.856262207031 268.274993896484 254.893753051758 241.125 228.375 
164.875 161.149993896484 157.481246948242 153.8125 150.225006103516 147.274993896484 143.856246948242 140.543746948242 138.175003051758 136.84375 144.918746948242 160.612503051758 173.725006103516 184.4375 192.568756103516 200.012496948242 205.787506103516 209.037506103516 211.768753051758 213.606246948242 211.65625 207.243743896484 203.131256103516 199.1875 195.90625 194.137496948242 192.324996948242 192.59375 191.756256103516 191.824996948242 192.774993896484 194.65625 195.668746948242 197.737503051758 198.550003051758 201.300003051758 206.84375 212.300003051758 216.637496948242 220.862503051758 227.225006103516 233.256256103516 241.356246948242 251.831253051758 259.737487792969 262.112487792969 263.487487792969 257.768737792969 247.756256103516 235.856246948242 223.875 
170.274993896484 166.493743896484 162.837493896484 159.556243896484 155.987503051758 152.987503051758 149.737503051758 146.243743896484 143.568756103516 140.800003051758 154 171.212493896484 181.681243896484 190.943756103516 198.949996948242 206.53125 212.756256103516 215.662506103516 217.637496948242 217.574996948242 215.899993896484 212.125 208.175003051758 203.21875 199.887496948242 197.824996948242 195.831253051758 195.881256103516 195.362503051758 195.856246948242 194.524993896484 195.71875 197.28125 199.262496948242 200.475006103516 204.462493896484 210.256256103516 215.106246948242 220.668746948242 225.3125 228.074996948242 233.318756103516 237.725006103516 244.087493896484 249.212493896484 250.875 251.274993896484 248.106246948242 238.768753051758 229.34375 219.331253051758 
173.056243896484 169.712493896484 167.050003051758 164.231246948242 160.975006103516 158.581253051758 156.537506103516 154.662506103516 155.850006103516 162.5 178.137496948242 185.612503051758 191.956253051758 199.631256103516 206.225006103516 212.574996948242 218.1875 220.475006103516 221.024993896484 220.918746948242 218.274993896484 214.168746948242 210.862503051758 206.6875 202.493743896484 200.5 198.774993896484 198.5 198.3125 198.418746948242 198.037506103516 198.699996948242 200.024993896484 201.756256103516 205.818756103516 210.393753051758 214.449996948242 220.274993896484 224.543746948242 225.293746948242 226.71875 231.131256103516 232.487503051758 237.237503051758 240.925003051758 241.381256103516 238.231246948242 235.837493896484 228.899993896484 222.024993896484 213.800003051758 
175.381256103516 172.868743896484 170.78125 168.431243896484 166.699996948242 165.875 164.818756103516 165.537506103516 169.518753051758 176.818756103516 186.993743896484 195.225006103516 201.399993896484 208.09375 213.868743896484 218.962493896484 224.231246948242 225.443756103516 225.231246948242 224.625 220.78125 216.443756103516 212.206253051758 207.881256103516 205.043746948242 202.600006103516 200.931243896484 200.993743896484 200.756256103516 200.506256103516 199.987503051758 203.350006103516 206.743743896484 208.875 213.262496948242 216.743759155273 219.606246948242 223.375 227.100006103516 225.574996948242 225.550003051758 228.074996948242 228.306243896484 229.418746948242 231.09375 230.756256103516 229.350006103516 227.350006103516 222.431243896484 216.1875 208.725006103516 
177.8125 175.806243896484 174.518753051758 173.412506103516 172.212493896484 171.743743896484 172.25 175.243743896484 179.512496948242 185.837509155273 193.581253051758 201.443756103516 209.431243896484 215.237503051758 220.649993896484 225.012496948242 229.3125 230.612503051758 229.643753051758 227.862503051758 223.274993896484 217.993743896484 213.03125 209.25 208.037506103516 204.949996948242 203.112503051758 202.756256103516 202.300003051758 202.175003051758 204.024993896484 209.743743896484 212.587493896484 216.243743896484 220.850006103516 224.518753051758 226.475006103516 228.024993896484 229.268753051758 226.149993896484 224.081253051758 223.956253051758 221.75 222.506256103516 223.293746948242 224.03125 222.037506103516 218.399993896484 215.53125 211.131256103516 204.425003051758 
179.475006103516 178.106246948242 177.081253051758 176.03125 175.412506103516 175.162506103516 176.6875 179.46875 184.5 189.506256103516 196.693756103516 204.162506103516 211.956253051758 218.256256103516 223.306243896484 228.899993896484 233.1875 234.518753051758 234.087493896484 230.300003051758 223.337493896484 218.737503051758 213.393753051758 209.637496948242 208.225006103516 205.912506103516 203.550003051758 202.631256103516 203.524993896484 205.643753051758 204.743743896484 211.53125 216.112503051758 223.887496948242 230.893753051758 232.5625 234.118743896484 234.449996948242 232.362503051758 227.412506103516 223.225006103516 218.59375 215.131256103516 216.981246948242 218.387496948242 218.9375 215.962493896484 211.625 209.581253051758 204.693756103516 198.706253051758 
181.550003051758 180.237503051758 179.456253051758 178.337509155273 177.137496948242 177.850006103516 179.59375 182.387496948242 187.125 191.956253051758 198.287506103516 205.587493896484 213.693756103516 219.806243896484 225.800003051758 231.637496948242 235.993743896484 238.743743896484 238.53125 232.143753051758 223.681243896484 216.818756103516 211.893753051758 210.487503051758 209 206.800003051758 203.956253051758 202.8125 203.725006103516 205.268753051758 206.881256103516 208.925003051758 215.399993896484 226.9375 238.731246948242 246.012496948242 243.675003051758 241.443756103516 235.987503051758 228.837509155273 223.225006103516 218.125 214.756256103516 214.0625 214.931243896484 213.487503051758 210.612503051758 206.818756103516 204.387496948242 200.006256103516 194.606246948242 
184.03125 183.237503051758 182.181243896484 180.425003051758 179.925003051758 180.09375 181.181243896484 183.962493896484 187.987503051758 193.393753051758 199.806243896484 207.481246948242 213.956253051758 221.46875 227.875 233.756256103516 238.524993896484 241.28125 243.287506103516 236.5625 226.243743896484 217.5 212.300003051758 210.362503051758 209.774993896484 207.787506103516 204.856246948242 204.375 204.112503051758 205.956253051758 206.631256103516 208.068756103516 213.318756103516 226.818756103516 244.375 258.774993896484 255.662506103516 248.300003051758 239.956253051758 231.574996948242 225.018753051758 219.475006103516 214.981246948242 213.875 213.106246948242 210.400009155273 208.006256103516 203.362503051758 199.149993896484 196.456253051758 191.90625 
187.899993896484 187.256256103516 186.274993896484 184 183.1875 183.25 183.168746948242 185.393753051758 189.012496948242 194.475006103516 200.668746948242 207.762496948242 214.387496948242 221.425003051758 227.725006103516 233.375 237.556243896484 239.256256103516 240.34375 235.731246948242 226.943756103516 219.96875 213.550003051758 210.9375 210.8125 208.75 206.25 205.3125 205.712493896484 207.993743896484 208.75 209.162506103516 215.574996948242 227.162506103516 242.743743896484 258.856262207031 259.46875 250.231246948242 241.356246948242 234.462493896484 227.162506103516 221.899993896484 217.831253051758 213.712493896484 212.931259155273 210.762496948242 207.175003051758 202.550003051758 196.731246948242 194.25 191.206253051758 
