ncols        51
nrows        45
xllcorner    -63.500000000000
yllcorner    -7.500000000000
cellsize     0.166666666667
NODATA_value -99
297.262512207031 303.193756103516 297.293762207031 298.225006103516 295.243743896484 287.206237792969 273.543762207031 259.668762207031 245.431243896484 235.824996948242 230.9375 227.425003051758 224.037506103516 217.662506103516 213.193756103516 208.637496948242 206.65625 202.09375 200.368743896484 198.337493896484 198.3125 197.4375 197.537506103516 197.806243896484 200.306243896484 203.34375 210.168746948242 220.800003051758 230.631256103516 236.600006103516 246.337493896484 253.681259155273 262.700012207031 274.1875 285.100006103516 295.125 303.868743896484 313.137512207031 322.59375 330.387512207031 338.524993896484 345.668762207031 350.981262207031 357.21875 358.268737792969 361.693756103516 363.325012207031 363.768737792969 364.09375 367.237487792969 366.243743896484 
311.462493896484 320.037506103516 323.96875 328.368743896484 330.34375 321.043762207031 306.225006103516 292.950012207031 281.018737792969 270.350006103516 263.074981689453 256.318756103516 249.837493896484 241.912506103516 235.162506103516 229.162506103516 224.881256103516 221.5 218.337493896484 215.574996948242 214.65625 213.59375 213.568756103516 213.225006103516 213.474990844727 214.949996948242 220.587493896484 230.375 238.506240844727 243.987503051758 251.081253051758 259.643737792969 267.068756103516 279.368743896484 288.131256103516 298.725006103516 309.106262207031 318.293762207031 327.137512207031 334.043731689453 342.450012207031 348.731262207031 353.25 358.206237792969 359.575012207031 362.118743896484 362.3125 361.899993896484 363.387512207031 366.168762207031 364.950012207031 
319.293762207031 330.4375 338.024993896484 344.862487792969 347.493743896484 339.53125 330.431243896484 321.850006103516 311.34375 301.918762207031 291.043762207031 281.087493896484 272.893737792969 263.931243896484 255.962493896484 249.987503051758 244.425003051758 240.875 236.65625 232.993743896484 231.293746948242 229.725006103516 227.268753051758 225.787506103516 224.59375 222.96875 227.662506103516 235.662506103516 241.475006103516 245.375 252.09375 259.387512207031 267.931243896484 277.743743896484 289.575012207031 298.643768310547 310.206237792969 322.268737792969 330.84375 339.200012207031 347.356262207031 352.149993896484 355.475006103516 358.337493896484 360.862487792969 361.756256103516 362.162506103516 360.756256103516 361.206237792969 363.149993896484 362.212493896484 
322.768737792969 337.287506103516 350.412506103516 358.162506103516 362.637512207031 356.112487792969 350.768737792969 346.662506103516 340.643737792969 332.1875 319.4375 305.543762207031 293.674987792969 283.0625 275.09375 268.318756103516 263.84375 260.568756103516 256.418762207031 251.731246948242 249.587493896484 245.506256103516 239.962493896484 236.368743896484 233.0625 229.5 232.768753051758 237.074996948242 241.181243896484 244.981246948242 249.074996948242 256.837493896484 265.100006103516 274.84375 286.181243896484 298.331237792969 311.59375 325.100006103516 335.762512207031 343.875 350.274993896484 354.96875 357.618743896484 358.59375 360.600006103516 360.200012207031 360.537506103516 359.475006103516 356.612487792969 357.75 357.331237792969 
335.53125 348.149993896484 357.512512207031 368.112487792969 374.393737792969 370.181243896484 365.462493896484 364.606262207031 363.612487792969 359.1875 344.112487792969 325.78125 312.168762207031 302.606262207031 293.225006103516 287.118743896484 282.006256103516 279.725006103516 274.231262207031 268.0625 264.868743896484 258.387512207031 252.149993896484 246.987503051758 241.149993896484 235.743743896484 235.8125 238.149993896484 242.681243896484 243.537506103516 247.512496948242 252.231246948242 262.306243896484 273.037506103516 284.524993896484 298.0625 312.15625 326.1875 338.049987792969 345.787506103516 353.481262207031 355.693756103516 356.725006103516 357.887512207031 357.943756103516 357.018737792969 356.8125 353.868743896484 350.418762207031 349.793762207031 350.700012207031 
347.018737792969 360.4375 371.6875 377.643737792969 378.612487792969 374.681243896484 369.756256103516 367.306243896484 367.537506103516 366.03125 348.306243896484 330.456237792969 319.53125 309.875 302.450012207031 297.137512207031 293.137512207031 290.662506103516 286.5 279.924987792969 274.618743896484 267.918762207031 260.787506103516 253.537506103516 246.199996948242 240.431243896484 239.699996948242 240.131256103516 241.806243896484 242.800003051758 244.587493896484 248.543746948242 256.393737792969 268.8125 281.262512207031 294.131256103516 309.918731689453 324.350006103516 336.375 345.931243896484 351.662506103516 353.799987792969 354.362487792969 354.46875 353.325012207031 350.65625 348.912506103516 345.331237792969 341.549987792969 337.787506103516 334.081237792969 
355.893737792969 368.09375 377.21875 379.356262207031 376.46875 369.950012207031 363.299987792969 356.075012207031 349.399993896484 342.625 335.075012207031 325.450012207031 318.643737792969 312.243743896484 307.337493896484 303.368743896484 300.40625 297.049987792969 292.768737792969 289.362487792969 282.368743896484 275.625 267.193756103516 259.006256103516 250.9375 243.318756103516 241.899993896484 241.03125 239.981246948242 238.787506103516 241.387496948242 243.762496948242 251.037506103516 260.987518310547 273.131256103516 287.274993896484 302.206237792969 317.137512207031 332.399993896484 340.71875 343.612487792969 345.893737792969 346.200012207031 346.274993896484 347.225006103516 342.137512207031 338.40625 333.96875 325.712493896484 322.6875 320.631256103516 
359.5625 369.924987792969 375.049987792969 376.625 374.893737792969 366.443756103516 353.549987792969 337.606262207031 322.575012207031 316.299987792969 317.6875 316.71875 315.90625 313.637512207031 310.59375 308.274993896484 304.518737792969 300.293762207031 297 294.424987792969 288.337493896484 281.162506103516 272.674987792969 263.1875 255.462493896484 245.78125 242.268753051758 240.206253051758 237.162506103516 234.912506103516 235.106246948242 238.581253051758 244.543746948242 253.481246948242 264.506256103516 278.043762207031 292.868743896484 307.381256103516 321.256256103516 329.024993896484 332.950012207031 334.90625 335.237487792969 335.049987792969 334.975006103516 330.293762207031 322.506256103516 314.21875 309.393737792969 304.212493896484 301.643737792969 
362.181243896484 370.5 375.21875 376.456237792969 373.4375 363.825012207031 349.581237792969 330.90625 308.606262207031 298.5625 305.875 310.181243896484 313.393737792969 311.899993896484 310.90625 310.21875 307.393737792969 302.806243896484 300.493743896484 297.375 288.475006103516 282.125 273.350006103516 267.868743896484 259.774993896484 248.699996948242 242.643753051758 238.568756103516 236.09375 233.012496948242 233.387496948242 236.600006103516 242.024993896484 249.443756103516 258.443756103516 271.649993896484 286.881256103516 300.200012207031 312.787506103516 319.887512207031 323.912506103516 325.387512207031 326.0625 325.53125 322.850006103516 317.975006103516 310.443756103516 300.393737792969 292.568756103516 285.981262207031 283.299987792969 
364.606262207031 371.012512207031 374.106262207031 374.637512207031 372.481262207031 363.393737792969 350.774993896484 334.225006103516 316.399993896484 307.243743896484 308.481262207031 309.131256103516 311.818756103516 311.600006103516 311.306243896484 311.78125 310.712493896484 305.618743896484 301.681243896484 297.506256103516 288.206237792969 281.693756103516 275.306243896484 272.299987792969 262.412506103516 250.581253051758 243.881256103516 238.537506103516 234.199996948242 230.3125 229.925003051758 234.175003051758 239.862503051758 247.168746948242 254.925003051758 266.475006103516 279.818756103516 292.743743896484 304.631256103516 312.412506103516 317.056243896484 318.743743896484 317.081237792969 312.493743896484 310.193756103516 307.318756103516 300.412506103516 289.625 278.59375 270.893737792969 266.78125 
366.393737792969 371.681243896484 372.912506103516 373.368743896484 372.462493896484 365.518737792969 354.9375 340.162506103516 326.643737792969 318.75 315.399993896484 314.174987792969 313.668731689453 313.831237792969 313.962493896484 314.131256103516 313.168762207031 307.543762207031 301.34375 295.9375 288.087493896484 281.424987792969 277.293762207031 272.799987792969 266.268737792969 251.850006103516 244.0625 239.581253051758 234.018753051758 228.84375 229.012496948242 232.21875 236.925003051758 243.287506103516 250.581253051758 260.612487792969 272.200012207031 284.075012207031 295.4375 304.5 309.375 309.34375 305.681243896484 299.950012207031 296.725006103516 293.668762207031 285.475006103516 272.3125 262.149993896484 257.743743896484 251.862503051758 
366.268737792969 371.237487792969 372.268737792969 373.625 371.96875 367.524993896484 360.100006103516 348.225006103516 336.862487792969 328.293762207031 323.0625 320.331237792969 318.268737792969 317.75 319.712493896484 319.443756103516 315.693756103516 308.25 301.143737792969 294.149993896484 283.637512207031 277.306243896484 275.087493896484 275.6875 267.881256103516 249.550003051758 241.024993896484 236.606246948242 233.537506103516 231.293746948242 229.449996948242 230.993743896484 234.631256103516 239.925003051758 246.0625 257.024993896484 269.081237792969 280.756256103516 291.46875 301.712493896484 307.649993896484 305.512512207031 297.9375 286.568756103516 279.399993896484 272.762512207031 262.893737792969 254.074996948242 248.90625 247.1875 241.449996948242 
365.625 369.793762207031 371.356262207031 371.59375 371.100006103516 368.412506103516 362.012512207031 353.337493896484 343.15625 336.143737792969 331.931243896484 328.762512207031 327.399993896484 324.387512207031 324.806243896484 323.443756103516 318.393737792969 310.524993896484 303.225006103516 293.71875 279.100006103516 271.381256103516 267.856262207031 266.575012207031 254.668746948242 239.449996948242 236.481246948242 234.75 233.46875 232.5 231.21875 230.481246948242 232.324996948242 236.581253051758 242.050003051758 251.912506103516 263.956237792969 275.918762207031 287.899993896484 299.737487792969 307.556243896484 302.987487792969 287.918762207031 273.03125 262.668762207031 258.787506103516 252.037506103516 243.668746948242 239.331253051758 239.324996948242 240.587493896484 
363.162506103516 367.600006103516 368.84375 369.131256103516 369.731262207031 365.90625 361.987487792969 357.143737792969 350.518737792969 344.193756103516 339.368743896484 336.962493896484 334.9375 333.700012207031 329.25 327.131256103516 321.237487792969 312.037506103516 303.456237792969 294.287506103516 280.831237792969 269.46875 260.575012207031 254.962493896484 244.612503051758 234.168746948242 232.75 232.268753051758 231.818756103516 231.6875 231.887496948242 231.03125 230.337493896484 232.006256103516 236.34375 246.668746948242 259.337493896484 270.868743896484 282.125 292.887512207031 299.84375 290.350006103516 276.881256103516 265.149993896484 256.331237792969 251.106246948242 246.09375 241.6875 237.362503051758 238.524993896484 243.481246948242 
360.162506103516 363.0625 364.612487792969 366.868743896484 368.268737792969 365.09375 363.293762207031 360.712493896484 354.924987792969 349.456268310547 345.831237792969 343.450012207031 341.412506103516 339.381256103516 332.174987792969 328.375 321.662506103516 313.537506103516 304.149993896484 294.587493896484 281.362487792969 267.850006103516 255.706253051758 249.212493896484 241.756256103516 235.037506103516 233.893753051758 233.518753051758 233.793746948242 234.287506103516 232.75 230.918746948242 229.862503051758 227.768753051758 229.243743896484 240.537506103516 254.106246948242 265.337493896484 272.225006103516 276.5 276.237487792969 272.237487792969 267.681243896484 259.71875 253.262496948242 248.912506103516 245.987503051758 242.125 240.3125 239.106246948242 241.943756103516 
354.337493896484 357.768737792969 360.375 363.206237792969 365.556243896484 365.456237792969 363.825012207031 361.537506103516 358.912506103516 355.631256103516 351.493743896484 350.106262207031 348.34375 345.350006103516 337.793762207031 330.112487792969 322.09375 314.03125 304.543762207031 295.443756103516 280.737487792969 265.299987792969 251.618743896484 245.231246948242 239.206253051758 234.668746948242 234.475006103516 235.168746948242 236.850006103516 237.400009155273 236.731246948242 234.112503051758 230.425003051758 227.524993896484 227.137496948242 241.912506103516 253.550003051758 258.631256103516 260.206237792969 260.71875 258.800018310547 258.399993896484 257.268737792969 253.350006103516 248.487503051758 245.225006103516 241.887496948242 238.131256103516 236.237503051758 234.706253051758 235.53125 
349.037506103516 353.450012207031 355.40625 359.243743896484 363.15625 363.84375 364.793762207031 363.799987792969 361.956237792969 359.918762207031 356.193756103516 355.90625 354.912506103516 350.600006103516 343.725006103516 333.668762207031 321.606262207031 311.674987792969 303.537506103516 294.09375 278.700012207031 262.799987792969 248.875 242.943756103516 238.449996948242 233.743743896484 234.306243896484 236.306243896484 237.949996948242 240.143753051758 240.512496948242 238.337493896484 234.899993896484 234.375 242.1875 253.8125 257.987487792969 256.59375 252.399993896484 248.59375 247.043746948242 248.118759155273 247.543746948242 245.856246948242 243.306243896484 240.743743896484 237.574996948242 235.125 234.162506103516 230.831253051758 230.493743896484 
341.731262207031 347.168762207031 351.393737792969 356.856262207031 361.675018310547 363.037506103516 363.950012207031 364.59375 363.975006103516 362.299987792969 359.918762207031 361.056243896484 358.681243896484 355.106262207031 346.737487792969 334.618743896484 321.71875 305.325012207031 299.649993896484 290.21875 276.856262207031 261.475006103516 247.381240844727 241.524993896484 237.237503051758 234.612503051758 234.431243896484 237.412506103516 240.668746948242 243.318756103516 243.1875 237.574996948242 235.206253051758 238.231246948242 249.731246948242 267.149993896484 262.356262207031 254.100006103516 247.118743896484 243.737503051758 240.399993896484 240.862503051758 240.9375 239.512496948242 237.3125 236.231246948242 234.318756103516 232.78125 232.393753051758 228.331253051758 228.206253051758 
333.587493896484 340.268737792969 345.256256103516 351.875 358.856262207031 362.4375 364.65625 366.018737792969 365.4375 364.274993896484 362.318756103516 360.674987792969 360.518737792969 358.174987792969 346.956237792969 332.918762207031 318.193756103516 301.149993896484 290.587493896484 282.212493896484 271.850006103516 259.431243896484 243.012496948242 238.100006103516 235.1875 233.75 234.9375 236.962493896484 240.856246948242 245.074996948242 246.318756103516 238.293746948242 231.506256103516 228.25 234.350006103516 248.393753051758 247.981246948242 243.987503051758 241.293746948242 238.162506103516 236 235.318756103516 235.300003051758 234.393753051758 232.612503051758 232.024993896484 231.600006103516 230.975006103516 230.456253051758 223.743743896484 226.293746948242 
322.137512207031 331.162506103516 337.331237792969 345.225006103516 353.950012207031 360.131256103516 364.15625 366.712493896484 366.681243896484 364.931243896484 362.40625 360.056243896484 360.649993896484 359.975006103516 345.112518310547 325.850006103516 307.493743896484 295.268737792969 283.350006103516 274.21875 262.625 249.731246948242 238.706253051758 233.8125 231.274993896484 229.725006103516 231.618743896484 234.90625 237.456253051758 239.962493896484 239.46875 233.893753051758 221.71875 209.962493896484 203.931243896484 214.168746948242 226.462493896484 231.381256103516 233.493743896484 233.581253051758 231.981246948242 230.987503051758 231.112503051758 230.556243896484 229.6875 229.731246948242 229.78125 228.96875 227.081253051758 220.137496948242 224.3125 
308.481262207031 320.8125 329.774993896484 338.581237792969 347.731262207031 355.918762207031 362.612487792969 366.568756103516 367.518737792969 364.024993896484 357.725006103516 353.475006103516 350.125 348.262512207031 334.950012207031 315.862487792969 298.625 284.700012207031 274.712493896484 264.8125 255.256256103516 245.643753051758 235.962493896484 232.199996948242 229.762496948242 228.15625 229.681243896484 231.475006103516 233.243743896484 235.649993896484 234.40625 228.875 214.868743896484 197.787506103516 182.168746948242 194.837493896484 213.581253051758 223.800003051758 228.762496948242 229.806243896484 228.943756103516 228.543746948242 227.1875 226.506256103516 226.774993896484 227.09375 227.643753051758 227.175003051758 222.6875 219.756256103516 223.15625 
295.862487792969 308.987487792969 320.268737792969 330.168762207031 340.606262207031 351.024993896484 359.84375 366.443756103516 368.143737792969 361.606262207031 349.862487792969 340.043762207031 331.643737792969 326.049987792969 316.143737792969 303.625 291.856262207031 279.537506103516 268.962493896484 258.668762207031 247.78125 237.943756103516 231.231246948242 226.831253051758 224.306243896484 223.993743896484 228.181243896484 230 231.425003051758 233.418746948242 231.831253051758 226.731246948242 214.556243896484 201.793746948242 193.90625 200.956253051758 214.756256103516 224.293746948242 228.949996948242 228.881256103516 227.006256103516 226.149993896484 224.881256103516 224.068756103516 224.762496948242 225.462493896484 226.25 225.637496948242 220.856246948242 221.912506103516 222.443756103516 
286.912506103516 301.53125 312.456237792969 323.274993896484 333.737487792969 343.962493896484 353.25 364.03125 369.518737792969 358.306243896484 341.5625 324.587493896484 310.818756103516 304.481262207031 299.418762207031 291.799987792969 282.549987792969 271.84375 261.375 251.287506103516 240.862503051758 230.574996948242 222.787506103516 218.256256103516 217.362503051758 218.675003051758 223.662506103516 226.824996948242 228.293746948242 229.987503051758 229.962493896484 228.612503051758 221.65625 213.543746948242 211.068756103516 216.018753051758 223.881256103516 229.34375 231.199996948242 229.443756103516 226.149993896484 224.512496948242 223.074996948242 221.46875 222.399993896484 224.162506103516 225.725006103516 224.649993896484 222.487503051758 223.543746948242 223.068756103516 
279.71875 292.162506103516 303.481262207031 315.03125 326.100006103516 335.6875 346.299987792969 356.956237792969 360.825012207031 347.899993896484 329.299987792969 312.612487792969 295.200012207031 290.243743896484 288.356262207031 283.575012207031 276.856262207031 267.600006103516 256.387512207031 245.793746948242 234.725006103516 223.737503051758 215.012496948242 210.418746948242 208.675003051758 210.231246948242 216.168746948242 221.675003051758 225.362503051758 229.931243896484 233.662506103516 235.125 230.800003051758 226.162506103516 225.199996948242 229.425003051758 233.518753051758 233.256256103516 231.524993896484 228.449996948242 224.793746948242 222.399993896484 220.71875 218.587493896484 220.949996948242 223.737503051758 226.3125 224.125 226.675003051758 224.368743896484 223.712493896484 
277.875 286.28125 295.168762207031 306.893737792969 319.5625 328.856262207031 336.487487792969 343.3125 343.431243896484 334.674987792969 321.71875 306.262512207031 294.21875 287.662506103516 282.9375 279.081237792969 272.850006103516 264.393737792969 254.118743896484 242 229 216.893753051758 206.487503051758 200.012496948242 199.418746948242 203.918746948242 210.306243896484 218.287490844727 223.943756103516 232.34375 238.418746948242 242.25 240.106246948242 236.831253051758 234.931259155273 234.318756103516 234.981246948242 232.868743896484 229.918746948242 227.362503051758 223.637496948242 220.756256103516 217.681243896484 217.006256103516 217.043746948242 220.493743896484 223.081253051758 228.556243896484 230.981246948242 227.331253051758 224.893753051758 
280.693756103516 286.799987792969 292.162506103516 302.818756103516 312.799987792969 320.125 325.924987792969 330.262512207031 328.662506103516 322.21875 313.100006103516 303.131256103516 294.256256103516 287.118743896484 281.59375 277.618743896484 270.893737792969 263.25 253.806243896484 240.21875 227.056243896484 212.050003051758 198.356246948242 189.324996948242 190.975006103516 198.456253051758 208.3125 216.649993896484 224.487503051758 235.087493896484 244.043746948242 250.918746948242 250.006256103516 245.381256103516 240.925003051758 237.331253051758 234.774993896484 231.125 228.493743896484 225.5 222.125 218.606246948242 213.756256103516 212.337493896484 213.350006103516 217.162490844727 228.712493896484 234.993743896484 235.418746948242 233.324996948242 229.681243896484 
289.75 291.287506103516 295.862487792969 302.331237792969 308.793762207031 314.006256103516 317.225006103516 319.299987792969 317.506256103516 313.962493896484 308.662506103516 301.456237792969 294.600006103516 288.78125 283.90625 279.174987792969 274.299987792969 265.850006103516 255.756256103516 243.78125 228.881256103516 212.893753051758 195.768753051758 185.393753051758 190.543746948242 198.537506103516 209.449996948242 218.162506103516 226.893753051758 238.231246948242 248.875 258.337493896484 257.912506103516 250.3125 242.881256103516 237.887496948242 234.09375 229.300003051758 226.931243896484 224.612503051758 220.587493896484 216.737503051758 211.46875 209.0625 215.274993896484 225.256256103516 237.112503051758 241.212493896484 242.225006103516 237.612503051758 235.024993896484 
300.618743896484 299.362487792969 301.262512207031 304.493743896484 306.4375 308.856262207031 311.912506103516 312.556243896484 310.868743896484 308.518737792969 304.25 298.893737792969 294.212493896484 289.975006103516 285.737487792969 281.299987792969 277.318756103516 271.34375 262.143737792969 250.899993896484 236.65625 220.637496948242 207.699996948242 198.975006103516 199.824996948242 205.356246948242 214.606246948242 223.512496948242 231.774993896484 241.762496948242 251.943756103516 260.337493896484 258.5 249.993743896484 241.712493896484 236.350006103516 230.787506103516 226.393753051758 224.981246948242 224.15625 222.649993896484 218.46875 211.393753051758 208.956253051758 221.59375 233.5 245.181243896484 248.300003051758 248.293746948242 243.087493896484 239.225006103516 
310.206237792969 307.212493896484 306.418762207031 305.643737792969 306.600006103516 306.712493896484 306.368743896484 306.131256103516 305.237487792969 303.162506103516 301.006256103516 297.375 293.818756103516 291.21875 288.787506103516 286.262512207031 284.381256103516 279.393737792969 272.056243896484 262.21875 248.693756103516 233.962493896484 222.868743896484 214.131256103516 212.918746948242 214.887496948242 222.012496948242 229.962493896484 237.53125 246.443756103516 254.318756103516 260.556243896484 257.100006103516 248.762496948242 240.28125 234.331253051758 227.75 222.899993896484 221.887496948242 221.03125 222.256240844727 218.606246948242 212.375 215.59375 230.481246948242 242.837493896484 253.28125 256.549987792969 254.524993896484 249.931243896484 242.449996948242 
318.350006103516 313.712493896484 310.40625 307.424987792969 306.018737792969 303.618743896484 302.65625 301.875 301.299987792969 299.606262207031 298.268737792969 296.868743896484 295.706237792969 294.418762207031 292.893737792969 291.350006103516 290.068756103516 289.831237792969 284.399993896484 272.712493896484 259.268737792969 246.206253051758 235.512496948242 228.100006103516 225.137496948242 226.050003051758 231.90625 238.199996948242 244.149993896484 250.487503051758 256.462493896484 259.9375 255.237503051758 248.368743896484 240.375 233.100006103516 225.631256103516 220.225006103516 216.34375 214.643753051758 215.568756103516 217.612503051758 217.28125 224.081253051758 233.881256103516 248.537506103516 260.331237792969 263.193756103516 260.8125 256.168762207031 248.581253051758 
323.381256103516 317.193756103516 312.0625 308.393737792969 305.6875 301.506256103516 300.475006103516 298.850006103516 297.987487792969 296.90625 296.4375 295.600006103516 295.831237792969 295.018737792969 294.837493896484 295.0625 296.737487792969 297.600006103516 295.793762207031 283.862487792969 270.331237792969 256.912506103516 247.34375 240.268753051758 236.393753051758 237.587493896484 241.462493896484 245.806243896484 251.03125 255.024993896484 258.793762207031 261.212493896484 255.893753051758 248.806243896484 240.949996948242 231.993743896484 223.681243896484 217.568756103516 212.087493896484 205.606246948242 207.162506103516 214.981246948242 221.106246948242 229.018753051758 239.018753051758 257.006256103516 268.549987792969 271.549987792969 268.831237792969 262.793762207031 254.287506103516 
325.331237792969 318.200012207031 311.837493896484 306.887512207031 303.487487792969 298.837493896484 297.356262207031 294.681243896484 293.712493896484 293.081237792969 293.112487792969 292.962493896484 293.200012207031 294.631256103516 296.337493896484 298.237487792969 298.306243896484 298.956237792969 297.274993896484 289.462493896484 276.78125 265.756256103516 255.868743896484 249.206253051758 247.381256103516 247.25 249.331253051758 253.625 256.737487792969 259.581237792969 261.987487792969 262.887512207031 256.362487792969 249.03125 241.074996948242 231.550003051758 223.368743896484 215.78125 208.149993896484 203.412506103516 206.737503051758 217.131256103516 226.168746948242 237.881256103516 250.1875 269.693756103516 281.987487792969 282.837493896484 277.049987792969 268.899993896484 259.462493896484 
322.643737792969 316.181243896484 309.556243896484 304.206237792969 299.418762207031 295.799987792969 292.762512207031 289.368743896484 287.493743896484 287.90625 290.956237792969 290.475006103516 291.762512207031 295.581237792969 297.600006103516 299.050018310547 298.556243896484 299.262512207031 296.493743896484 290.356262207031 281.03125 271.087493896484 261.399993896484 256.518737792969 254.15625 253.243743896484 254.5625 257.75 261.28125 263.4375 265.549987792969 266.306243896484 260.231262207031 252.806243896484 244.087493896484 235.6875 227.181243896484 218.456253051758 211.65625 211.28125 214.287506103516 223.743743896484 234.181243896484 246.393753051758 264.631256103516 288.087493896484 297.96875 291.881256103516 283.137512207031 274.012512207031 263.350006103516 
318.856262207031 312.75 307.6875 302.487487792969 297.493743896484 292.59375 288.181243896484 284.274993896484 281.887512207031 282.15625 285.387512207031 287.931243896484 290.40625 292.825012207031 294.831237792969 297.587493896484 299.100006103516 299.024993896484 295.131256103516 289.743743896484 282.787506103516 273.931243896484 266.081237792969 260.737487792969 258.393737792969 256.625 258.25 260.600006103516 264.931243896484 266.799987792969 268.274993896484 270.15625 264.75 257.018737792969 249.4375 240.75 231.40625 222.068756103516 218.668746948242 218.856246948242 220.418746948242 229.006256103516 240.643753051758 253.162490844727 272.78125 294.46875 301.5625 294.4375 285.6875 276.868743896484 267.125 
315.200012207031 310.262512207031 305.799987792969 300.306243896484 293.65625 288.731262207031 283.049987792969 279.137512207031 275.068756103516 274.174987792969 278.78125 283.931243896484 288.818756103516 291.943756103516 295.456237792969 297.162506103516 298.825012207031 298.162506103516 294.418762207031 289.243743896484 283.649993896484 275.368743896484 267.899993896484 262.762512207031 260.90625 259.731262207031 260.581237792969 263.524993896484 266.612487792969 269.493743896484 272.53125 274.837493896484 269.193756103516 262.09375 253.993743896484 244.456253051758 234.962493896484 228.368743896484 226.162506103516 225.618743896484 226.649993896484 233.131256103516 243.193756103516 254.762496948242 271.075012207031 284.881256103516 290.793762207031 289.3125 283.743743896484 276.693756103516 269.162506103516 
312.350006103516 307.09375 302.100006103516 296.524993896484 290.193756103516 284.206237792969 278.625 272.325012207031 266.1875 264.818756103516 269.568756103516 277.381256103516 286.549987792969 293.118743896484 296.149993896484 297.949981689453 298.03125 296.662506103516 293.818756103516 289.6875 283.831237792969 275.681243896484 267.943756103516 264.056243896484 262.243743896484 261.087493896484 262.056243896484 265.325012207031 268.712493896484 272.337493896484 277.106262207031 280.193756103516 274.131256103516 268.056243896484 260.368743896484 251.106246948242 243.962493896484 237.793746948242 234.625 234.449996948242 235.774993896484 240.800003051758 247.725006103516 257.818756103516 269.625 278.325012207031 283.03125 284 280.799987792969 276.668762207031 269.931243896484 
308.375 303.875 299.206237792969 293.381256103516 287.75 282.049987792969 275.368743896484 268.28125 259.774993896484 253.943756103516 261.506256103516 276.556243896484 288.118743896484 294.606262207031 297.862487792969 298.03125 296.581237792969 294.5625 292.125 286.568756103516 281.3125 273.787506103516 266.84375 262.59375 260.956237792969 260.556243896484 262.100006103516 266.381256103516 270.006256103516 275.362487792969 281.081237792969 285.1875 280.806243896484 275.306243896484 267.71875 260.09375 253.706253051758 248.175003051758 245.193756103516 243.074996948242 242.831253051758 246.368743896484 251.84375 259.4375 268.568756103516 274.006256103516 277.518737792969 279.256256103516 278.087493896484 275.075012207031 271.143737792969 
305.212493896484 301.625 296.581237792969 291.375 286.931243896484 281.799987792969 275.493743896484 267.737487792969 260.543762207031 252.625 267.543762207031 284.256256103516 292.731262207031 298.318756103516 298.943756103516 298.043762207031 294.331237792969 291.375 287.587493896484 281.193756103516 274.918762207031 268.418762207031 263.612487792969 259.868743896484 258.943756103516 259.668762207031 261.662506103516 266.956237792969 271.818756103516 278.200012207031 284.3125 289.306243896484 285.956237792969 281.618743896484 274.418731689453 268.806243896484 263.056243896484 256.668762207031 254.481246948242 252.731246948242 250.193756103516 252.806243896484 255.368743896484 258.137512207031 264.962493896484 269.631256103516 272.993743896484 276.731262207031 276.549987792969 274.15625 273.90625 
302.112487792969 298.868743896484 294.956237792969 290.731262207031 286.96875 281.725006103516 277.662506103516 272.625 270.875 276.837493896484 293.456237792969 297.237487792969 298.162506103516 299.943756103516 299.356262207031 297.03125 292.568756103516 288.131256103516 282.524993896484 275.137512207031 267.868743896484 261.981262207031 257.90625 255.787490844727 256.03125 258.206237792969 261.762481689453 267.181243896484 273.174987792969 280.106262207031 287.581237792969 292.25 289.668762207031 287.106262207031 284.356262207031 278.375 272.306243896484 267.456237792969 263.84375 260.46875 257.512512207031 259.850006103516 261.024993896484 263.274993896484 267.78125 271.637512207031 274.418762207031 277.225006103516 279.075012207031 280.71875 280.075012207031 
299.700012207031 297 293.856262207031 289.862487792969 287.368743896484 285.049987792969 281.443756103516 280.825012207031 282.25 287.606262207031 295.9375 300.693756103516 301.90625 301.431243896484 300.28125 296.731262207031 291.549987792969 285.475006103516 277.612487792969 269.768737792969 261.712493896484 255.8125 251.081253051758 249.90625 252.268753051758 255.912506103516 260.225006103516 267.137512207031 273.931243896484 280.84375 287.524993896484 295.21875 296.762512207031 295.162506103516 293.649993896484 288.956237792969 282.325012207031 277.081237792969 273.950012207031 268.424987792969 264.081237792969 265.59375 266.1875 267.137512207031 270.712493896484 274.893737792969 278.731262207031 283.125 285.462493896484 287.462493896484 288.756256103516 
296.556243896484 295.256256103516 292.831237792969 290.456237792969 287.868743896484 286.049987792969 284.462493896484 286.325012207031 288.774993896484 293.412506103516 297.918762207031 301.8125 303.456237792969 302.53125 301.212493896484 298.03125 292.112487792969 284.46875 275.049987792969 264.71875 255.100006103516 248.175003051758 243.925003051758 243.662506103516 248.456253051758 253.543746948242 258.850006103516 266.637512207031 275.131256103516 283.03125 291.25 301.399993896484 303.637512207031 304.012512207031 303.700012207031 299.274993896484 292.993743896484 288.056243896484 283.549987792969 276.075012207031 271.274993896484 269.875 268.712493896484 270.193756103516 274.681243896484 279.774993896484 283.424987792969 286.837493896484 291.106262207031 294.706237792969 297.487487792969 
292.693756103516 292.393737792969 291.662506103516 291.1875 290.100006103516 289.456237792969 289.418762207031 291.274993896484 294.03125 297.331237792969 300.868743896484 304.84375 306.893737792969 306.137512207031 304.537506103516 300.793762207031 295.59375 286.84375 277.006256103516 263.924987792969 250.018753051758 240.362503051758 236.387496948242 238.368743896484 245.543746948242 251.443756103516 258.056243896484 266.681243896484 277.024993896484 286.818756103516 293.543762207031 305.268737792969 309.34375 312.975006103516 315.706237792969 310.125 303.987487792969 299.3125 294.162506103516 286.131256103516 279.53125 274.5 272.068756103516 275.774993896484 280.787506103516 286.568756103516 289.662506103516 293.106262207031 298.28125 301.299987792969 304.131256103516 
289.25 290.524993896484 291.512512207031 290.950012207031 291.4375 292.71875 293.96875 294.5625 296.774993896484 299.918762207031 303.931243896484 307.6875 309.962493896484 310.056243896484 308.293762207031 305.037506103516 298.587493896484 292.600006103516 282.693756103516 264.59375 244.9375 230.168746948242 228.481246948242 235.168746948242 243.743743896484 251.21875 258.887512207031 266.787506103516 277.875 288.287506103516 297.793762207031 306.212493896484 312.037506103516 319.431243896484 326.037506103516 325.850006103516 317.950012207031 311.887512207031 305.362487792969 296.831237792969 290.6875 285.612487792969 281.850006103516 282.962493896484 289.356262207031 293.174987792969 296.28125 300.262512207031 305.962493896484 309.431243896484 313.287506103516 
286.34375 288.868743896484 290.887512207031 291.21875 293.674987792969 294.975006103516 296.237487792969 298.131256103516 300.243743896484 303.25 307.625 311.743743896484 313.674987792969 313.537506103516 311.96875 308.112487792969 302.768737792969 297.606262207031 290.700012207031 270.568756103516 247.949996948242 229.431243896484 228.831253051758 235.375 243.949996948242 251.956253051758 259.8125 269.081237792969 279.943756103516 290.993743896484 299.506256103516 308.325012207031 315.912506103516 325.487487792969 335.462493896484 341.212493896484 333.987487792969 325.5625 317.28125 309.59375 303.193756103516 299.012512207031 294.606262207031 294.71875 298.612487792969 301.131256103516 304.693756103516 307.59375 310.84375 316.625 321.762512207031 
285.181243896484 288.662506103516 290.693756103516 292.5 295.043762207031 296.931243896484 298.818756103516 301.481262207031 304.65625 308.137512207031 311.34375 316.606231689453 320 320.543762207031 319.431243896484 313.981262207031 307.924987792969 300.28125 291.431243896484 274.762512207031 255.743743896484 242.893753051758 237.550003051758 241.456253051758 249.181243896484 255.824996948242 263.200012207031 272.649993896484 283.174987792969 294.59375 303.075012207031 310.806243896484 318.206237792969 327.081237792969 337.668762207031 345.506256103516 342.15625 333.806243896484 325.862487792969 319.950012207031 313.568756103516 309.606262207031 307.068756103516 304.037506103516 307.768737792969 309.424987792969 310.918762207031 314.03125 315.256256103516 319.100006103516 326.662506103516 
