ncols        51
nrows        45
xllcorner    -63.500000000000
yllcorner    -7.500000000000
cellsize     0.166666666667
NODATA_value -99
150.862503051758 139.512496948242 133.362503051758 130.393753051758 126.837501525879 124.599998474121 120.993751525879 117.793746948242 115.987503051758 115.556251525879 116.712501525879 117.881248474121 118.518753051758 117.587501525879 117.168746948242 116.650001525879 115.862503051758 113.293746948242 111.34375 109.381248474121 108.03125 106.256248474121 104.818748474121 103.224998474121 101.993751525879 101.106246948242 100.087501525879 99.3625030517578 99.1125030517578 98.9000015258789 99.0437469482422 99.2375030517578 99.2874984741211 99.6374969482422 100.425003051758 101.693748474121 103.006248474121 104.237503051758 105.918746948242 107.512496948242 109.03125 109.981246948242 109.900001525879 108.9375 108.018753051758 106.050003051758 103.856246948242 100.087501525879 96.3125 91.7249984741211 87.1624984741211 
150.100006103516 139.381256103516 135.774993896484 135.225006103516 135.106246948242 132.993743896484 130.518753051758 129.34375 129.918746948242 130.449996948242 131.21875 131.324996948242 130.90625 129.737503051758 128.212493896484 127.006248474121 124.668746948242 122.106246948242 119.9375 118.199996948242 116.40625 114.993751525879 113.668746948242 111.987503051758 110.412498474121 108.53125 107.268753051758 105.9375 104.699996948242 103.612503051758 104.131248474121 105.0625 105.518753051758 106.481246948242 106.993751525879 107.9375 109.637496948242 110.900001525879 112.881248474121 114.5625 116.393753051758 117.625 117.731246948242 116.724998474121 115.556251525879 113.0625 110.256248474121 105.631248474121 100.418746948242 94.6812515258789 89.15625 
145.46875 136.5625 134.625 136.337493896484 138.399993896484 139.737503051758 141.537506103516 144.543746948242 147.962493896484 149.862503051758 150.181243896484 148.637496948242 146.637496948242 143.868743896484 140.90625 138.168746948242 135.393753051758 132.65625 130.293746948242 128.46875 126.71875 126.012496948242 124.787498474121 122.412498474121 120.050003051758 117.925003051758 115.525001525879 113.21875 110.275001525879 109.306251525879 110 110.40625 111.03125 112.4375 113.537498474121 114.668746948242 116.081253051758 117.8125 120.131248474121 121.875 123.787498474121 125.081253051758 125.493751525879 125.231246948242 123.387496948242 119.275001525879 115.699996948242 110.65625 104.006248474121 97.0625 90.4437484741211 
139.287506103516 131.399993896484 132.431243896484 134.574996948242 138.662506103516 143.806259155273 150.793746948242 158.9375 167.074996948242 171.375 170.537506103516 166.40625 162.050003051758 157.850006103516 154.25 149.987503051758 146.074996948242 143.693756103516 141.618743896484 140.056243896484 138.774993896484 137.46875 135.59375 132.862503051758 129.75 126.59375 123.0625 119.318748474121 115.606246948242 114.293746948242 114.724998474121 115.462501525879 115.650001525879 116.706253051758 117.625 120.125 122.349998474121 124.34375 127.099998474121 129.175003051758 130.262496948242 132.037506103516 132.956253051758 133.462493896484 130.225006103516 126.181251525879 120.59375 114.1875 106.8125 98.78125 91.25 
139.21875 129.03125 127.818748474121 130.762496948242 137.137496948242 146.175003051758 157 169.5 183.625 193.181243896484 189.668746948242 181.175003051758 175.337493896484 170.96875 166.081253051758 160.693756103516 156.5 153.381256103516 151.206253051758 149.800003051758 149.399993896484 147.881256103516 145.84375 142.78125 138.893753051758 134.956253051758 129.637496948242 125.306251525879 121.324996948242 118.893753051758 118.806251525879 119.125 120.081253051758 121.400001525879 123.193748474121 125.581253051758 128.256256103516 131.199996948242 133.737503051758 135.78125 136.8125 138.068756103516 139.824996948242 140.662506103516 137.793746948242 131.856246948242 124.300003051758 116.618751525879 108.068748474121 100.375 91.375 
137.774993896484 128.34375 124.8125 124.050003051758 131.643753051758 143.693756103516 155.90625 169.425003051758 184.637496948242 197.962493896484 192.931243896484 184.431243896484 180.100006103516 176.287506103516 171.899993896484 168.231246948242 164.175003051758 161.949996948242 161.056243896484 160.162506103516 159.493743896484 157.981246948242 155.862503051758 150.90625 146.131256103516 141.193756103516 134.831253051758 128.975006103516 124.8125 122.081253051758 121.743751525879 122.862503051758 123.943748474121 126.131248474121 128.6875 131.949996948242 135.28125 139.46875 143.318756103516 144.118743896484 142.600006103516 143.756256103516 144.956253051758 146.449996948242 146.118743896484 137.725006103516 127.143753051758 117.40625 109.668746948242 101.581253051758 93.0437469482422 
139.1875 129.975006103516 126.356246948242 124.78125 130.018753051758 140.181243896484 151.231246948242 161.837493896484 171.412506103516 178.318756103516 181.900009155273 181.087493896484 180.493743896484 179.381256103516 176.600006103516 174.368743896484 171.818740844727 170.206253051758 169.75 170.3125 169.850006103516 168.293746948242 165.418746948242 159.662506103516 153.868743896484 147.706253051758 140.6875 133.475006103516 127.443748474121 125.21875 124.793746948242 125.324996948242 126.856246948242 129.987503051758 133.65625 136.75 140.618743896484 145.375 150.831253051758 149.387496948242 146.5 145.856246948242 147.006256103516 149.175003051758 149.46875 141.043746948242 128.231246948242 116.581253051758 108.587501525879 101.224998474121 93.5999984741211 
141.743743896484 132.449996948242 130.362503051758 130.850006103516 133.768753051758 141.887496948242 148.350006103516 151.818756103516 152.268753051758 157.293746948242 168.056243896484 174.25 178.712493896484 180.681243896484 181.143753051758 180.356246948242 179.21875 178.662506103516 179.25 181.131256103516 180.912506103516 178.8125 175.481246948242 168.962493896484 161.868743896484 153.943756103516 145.324996948242 136.443756103516 129.300003051758 125.993751525879 125.775001525879 126.75 129.112503051758 132.956253051758 136.662506103516 139.681243896484 142.356246948242 146.212493896484 148.487503051758 147.043746948242 143.693756103516 141.943756103516 141.53125 142.212493896484 141.362503051758 133.975006103516 123.550003051758 113.106246948242 105.181251525879 99.125 92.4812469482422 
145.15625 137.643753051758 137.043746948242 137.6875 140.074996948242 145.774993896484 149.731246948242 148.75 142.518753051758 143.25 157.525009155273 167.668746948242 175.287506103516 179.28125 182.612503051758 184.962493896484 186.149993896484 188.125 190.850006103516 192.631256103516 191.625 189.462493896484 184.081253051758 177.3125 168.143753051758 158.237503051758 147.693756103516 139.456253051758 131.993743896484 127.987503051758 127.756248474121 128.524993896484 130.393753051758 133.618743896484 136.6875 139.756256103516 142.387496948242 144.081253051758 143.53125 141.287506103516 137.225006103516 133.518753051758 131.675003051758 129.237503051758 125.131248474121 119.943748474121 113.131248474121 104.862503051758 98.7437515258789 94.6500015258789 91.3375015258789 
149.287506103516 143.118743896484 142.887496948242 144.600006103516 147.587493896484 152.643753051758 155.449996948242 153.693756103516 149.462493896484 150.399993896484 158.725006103516 166.237503051758 173.918746948242 179.318756103516 185.081253051758 190.225006103516 193.875 198.306243896484 202.806243896484 207.237503051758 205.03125 201.1875 193.90625 184.106246948242 171.956253051758 160.75 150.612503051758 141.131256103516 133.737503051758 129.925003051758 128.475006103516 129.125 130.918746948242 134.206253051758 137.5625 139.856246948242 141.125 141.287506103516 139.368743896484 134.993743896484 129.618743896484 124.387504577637 119.456253051758 114.893753051758 109.856246948242 104.393753051758 99.71875 94.8874969482422 90.6750030517578 87.8187484741211 84 
153.668746948242 148.543746948242 148.65625 150.774993896484 154.28125 161.668746948242 165.168746948242 162.550003051758 159.537506103516 160.399993896484 165.300003051758 170.212493896484 175.231246948242 181.149993896484 188.53125 195.137496948242 201.587493896484 207.96875 214.800003051758 221.375 221.100006103516 214.743743896484 204.506256103516 189.487503051758 176.975006103516 165.824996948242 155.524993896484 145.75 136.774993896484 132.84375 131.193756103516 131.237503051758 132.981246948242 135.712493896484 138.006256103516 138.96875 139.106246948242 137.262496948242 133.743743896484 128.024993896484 121.3125 114.768753051758 109.050003051758 102.28125 96.0500030517578 91.2687530517578 87.21875 84.0625 80.6812515258789 77.5062484741211 72.5999984741211 
157.574996948242 153.018753051758 153.643753051758 156.568756103516 160.762496948242 168.725006103516 173.850006103516 170.168746948242 167.806243896484 167.731246948242 170.449996948242 174.831253051758 179.118743896484 185.149993896484 193.625 200.556243896484 207.806243896484 214.762496948242 222.456253051758 231.324996948242 234.412506103516 227.175003051758 214.318756103516 196.643753051758 180.837493896484 167.225006103516 156.012496948242 147.537506103516 139.925003051758 136.487503051758 133.699996948242 132.96875 133.65625 135.737503051758 137.706253051758 137.46875 136.15625 133.824996948242 128.337493896484 121.568748474121 112.974998474121 105.568748474121 99.0374984741211 92.5374984741211 85.0250015258789 78.7062530517578 75.6687469482422 73.1687469482422 71.3625030517578 69.0562515258789 63.4625015258789 
160.550003051758 156.96875 157.931243896484 160.462493896484 164.443756103516 170.949996948242 173.987503051758 173.431243896484 172.231246948242 173.3125 175.725006103516 179.368743896484 184.3125 188.8125 197.162506103516 205.46875 212.268753051758 220.081253051758 228.28125 236.481246948242 242.125 235.837493896484 221.75 203.118743896484 180.78125 165.40625 158.412506103516 150.4375 143.912506103516 140.074996948242 136.662506103516 134.212493896484 134.649993896484 135.40625 136.712493896484 136.074996948242 134.006256103516 131.625 125.887496948242 116.3125 106.981246948242 99.96875 92.34375 81.1500015258789 72.7312469482422 71.1187515258789 69.4312515258789 66.9749984741211 64.5625 62.0687484741211 57 
162.3125 159.262496948242 160.550003051758 162.850006103516 165.793746948242 170.862503051758 173.675003051758 175.175003051758 175.881256103516 176.743743896484 178.6875 182.600006103516 187.487503051758 193.112503051758 199.443756103516 207.975006103516 214.431243896484 221.293746948242 228.193756103516 235.012496948242 238.956253051758 234.287506103516 224.949996948242 208.668746948242 189.418746948242 174.581253051758 165.443756103516 156.3125 148.5625 142.806243896484 138.006256103516 135.168746948242 134.75 135.112503051758 136.03125 135.387496948242 133.668746948242 132 126.168746948242 117.162498474121 105.59375 95.0500030517578 86.6875 78.5562515258789 71.5812530517578 69.2062530517578 68.8249969482422 66.8187484741211 63.0875015258789 59.3187484741211 53.3375015258789 
162.40625 160.0625 160.837493896484 163.212493896484 165.912506103516 170.21875 174.556243896484 177.175003051758 177.918746948242 179.28125 181.487503051758 185.25 189.850006103516 195.412506103516 200.931243896484 208.837493896484 214.149993896484 218.725006103516 223.362503051758 229.493743896484 233.012496948242 232.050003051758 227.925003051758 218.193756103516 205.387496948242 191.412506103516 178.068756103516 165.268753051758 154.34375 145.756256103516 138.931243896484 134.537506103516 133.831253051758 134.931243896484 135.756256103516 134.649993896484 134.34375 135.850006103516 133.831253051758 124.556251525879 111.362503051758 99.6437530517578 90.875 82.8687515258789 75.7312469482422 71.46875 68.59375 66.2562484741211 63.1437492370605 58.7062492370605 52.71875 
161.112503051758 158.887496948242 160.199996948242 162.762496948242 165.475006103516 170.3125 174.662506103516 177.487503051758 179.243743896484 181.237503051758 182.65625 185.300003051758 189.856246948242 195.550003051758 201.681243896484 207.743743896484 210.493743896484 213.550003051758 217.018753051758 221.5625 224.71875 228 230.550003051758 229.368743896484 221.149993896484 207.206253051758 191.649993896484 175.693756103516 161.087493896484 148.787506103516 139.725006103516 133.15625 131.581253051758 132.537506103516 132.443756103516 130.543746948242 133.981246948242 137.668746948242 139.768753051758 132.993743896484 122.449996948242 109.737503051758 98.2874984741211 87.9437484741211 81.1125030517578 76 72.5124969482422 68.53125 64.4187469482422 60.2249984741211 55.3875007629395 
157.993743896484 156.524993896484 159.125 162.512496948242 165.431243896484 170.412506103516 175.162506103516 178.574996948242 180.75 181.862503051758 182.774993896484 184.868743896484 187.993743896484 192.481246948242 197.399993896484 201.824996948242 202.199996948242 203.918746948242 207.131256103516 211.793746948242 215.587493896484 221.762496948242 230.693756103516 237.831253051758 236.418746948242 219.268753051758 202.387496948242 182.90625 164.774993896484 150.137496948242 139.987503051758 133.837493896484 129.15625 126.362503051758 124.887496948242 126.862503051758 132.337493896484 144.1875 155.125 146.649993896484 135.012496948242 120.481246948242 105.78125 94.5437469482422 87.4250030517578 81.8499984741211 76.65625 72.5 69.1312484741211 64.0999984741211 59.875 
153.662506103516 153.162506103516 157.125 161.287490844727 165.206253051758 171.324996948242 176.849990844727 180.581253051758 182.587493896484 183.743743896484 184.412506103516 184.581253051758 185.574996948242 187.09375 189.806243896484 191.8125 191.518753051758 191.893753051758 195.681243896484 199.762496948242 204.324996948242 211.762496948242 222.756256103516 233.168746948242 235.225006103516 223.381256103516 209.693756103516 188.574996948242 167.256256103516 149.237503051758 137.125 130.112503051758 128.449996948242 128.212493896484 123.381248474121 116.974998474121 129.262496948242 144.818756103516 153.3125 151.074996948242 140.987503051758 127.693748474121 113.581253051758 102.368751525879 94.5 88.59375 83.0124969482422 78.03125 74.40625 69.0999984741211 65.2125015258789 
148.09375 149.443756103516 154.675003051758 160.199996948242 165.618743896484 172.25 178.306243896484 183.012496948242 185.893753051758 186.199996948242 184.899993896484 183.824996948242 182.118743896484 180.774993896484 181.668746948242 183.462493896484 182.84375 181.96875 185.181243896484 188.324996948242 192.756256103516 203.537506103516 211.006256103516 221.193756103516 224.962493896484 221.15625 208.725006103516 189.856246948242 170.212493896484 149.46875 133.824996948242 131.15625 136.393753051758 135.487503051758 131.550003051758 127.849998474121 134.925003051758 144.587493896484 150.53125 150.112503051758 143.606246948242 135.587509155273 121.806251525879 110.837501525879 102.637496948242 95.5437469482422 90.3125 85.7125015258789 81.2562484741211 73.6999969482422 71.6812515258789 
141.806243896484 145.056243896484 151.381256103516 158.231246948242 165.225006103516 173.512496948242 181.043746948242 186.800003051758 189.356246948242 189.6875 187.331253051758 183.637496948242 179.606246948242 175.693756103516 175.268753051758 176.137496948242 174.512496948242 176.15625 179.193756103516 183.768753051758 186.149993896484 192.774993896484 204.324996948242 213.40625 217.143753051758 213.831253051758 204.181243896484 191.456253051758 172.800003051758 153.743743896484 140.837493896484 142.212493896484 146.768753051758 151.306243896484 153.487503051758 149.300003051758 148.487503051758 151.131256103516 152.225006103516 150.756256103516 147.112503051758 140.875 129.731246948242 119.137496948242 111.006248474121 104.106246948242 98.2750015258789 93.1500015258789 87.3562469482422 80.7874984741211 78.3125 
134.368743896484 139.793746948242 148.59375 157.631256103516 166.512496948242 175.681243896484 184.743743896484 191.693756103516 194.724990844727 194.118743896484 191.1875 185.96875 180.581253051758 174.493743896484 173.306259155273 172.774993896484 171.512496948242 172.587493896484 177.962493896484 182.375 187.762496948242 195.100006103516 202.78125 209.337493896484 214.050003051758 213.768753051758 206.106246948242 192.206253051758 178.3125 167.3125 159.5 158.331253051758 162.056243896484 168.493743896484 175.362503051758 169.625 162.675003051758 160.112503051758 157.393753051758 154.53125 150.706253051758 144.793746948242 135.856246948242 127.206253051758 119.643753051758 112.900001525879 107.587501525879 101.737503051758 94.5687484741211 89.6312484741211 86.0187530517578 
127.412498474121 135.0625 145.699996948242 156.581253051758 167.581253051758 178.362503051758 188.481246948242 197.125 201.581253051758 200.418746948242 195.893753051758 189.387496948242 183.03125 177.925003051758 175.800003051758 175.225006103516 175.412506103516 177.149993896484 181.356246948242 186.225006103516 189.162506103516 194.981246948242 202.581253051758 207.625 210.418746948242 210.6875 206.618743896484 197.6875 189.137496948242 181.53125 175.412506103516 173.225006103516 176 181.537506103516 184.6875 180.743743896484 173.368743896484 167.40625 162.543746948242 158.981246948242 154.699996948242 149.1875 142.412506103516 134.612503051758 128.393753051758 122.275001525879 117.506248474121 111.412498474121 104.543746948242 99.9375 95.0062484741211 
122.618751525879 132.550003051758 144.8125 157.149993896484 168.681243896484 180.243743896484 191.668746948242 202.493743896484 209.681243896484 206.84375 200.837493896484 192.574996948242 186.581253051758 182.5625 180.181243896484 179.1875 179.34375 182.318756103516 186.118743896484 190.175003051758 193.762496948242 197.475006103516 202.600006103516 207 209.149993896484 207.625 206.043746948242 203.212493896484 197.324996948242 192.399993896484 189.056243896484 187.662506103516 188.956253051758 192.600006103516 193.9375 189.262496948242 181.956253051758 173.918746948242 168.143753051758 165.9375 162.350006103516 157.193756103516 150.862503051758 143.268753051758 137.15625 132.449996948242 128.425003051758 122.462501525879 115.168746948242 109.912498474121 105.768753051758 
119.862503051758 131.5625 145.856246948242 157.96875 169.637496948242 181.037506103516 191.84375 202.993743896484 209.59375 207.618743896484 201.25 194.443756103516 189.137496948242 185.524993896484 184.300003051758 183.774993896484 184.725006103516 187.774993896484 191.375 195.006256103516 198.675003051758 202.925003051758 205.96875 208.78125 209.375 205.987503051758 202.506256103516 203.21875 202.96875 200.993743896484 199.024993896484 197.862503051758 199.350006103516 201.606246948242 202.681243896484 199.625 193.356246948242 185.1875 179.787506103516 176.256256103516 172.3125 166.962493896484 160.018753051758 151.699996948242 147.84375 144.53125 140.962493896484 133.862503051758 129.018753051758 120.106246948242 115.650001525879 
121.0625 132.806243896484 147.887496948242 159.181243896484 170.537506103516 180.993743896484 190.59375 199.481246948242 204.568756103516 204.956253051758 201.949996948242 196.743743896484 192.618743896484 189.6875 188.962493896484 189.5625 190.699996948242 194.074996948242 197.712493896484 201.524993896484 204.893753051758 207.375 210.949996948242 212.568756103516 213.068756103516 212.631256103516 209.587493896484 209.462493896484 209.693756103516 208.4375 206.587493896484 204.418746948242 207.287506103516 209.331253051758 210.96875 208.112503051758 204.649993896484 200.243743896484 194.268753051758 190.399993896484 185.768753051758 179.274993896484 171.293746948242 163.550003051758 157.212493896484 154.581253051758 151.118743896484 151.337493896484 146.425003051758 133.456253051758 128.306243896484 
123.356246948242 133.806243896484 146.149993896484 158.5625 169.59375 179.024993896484 187.568756103516 195.237503051758 200.449996948242 202.899993896484 200.731246948242 198.037506103516 194.931243896484 192.824996948242 193.681243896484 194.912506103516 197.068756103516 200.318756103516 204.375 208.243743896484 211.625 213.8125 216.9375 218.731246948242 220 220.787506103516 219.056243896484 217.550003051758 216.787506103516 215.524993896484 211.943756103516 210.949996948242 214.699996948242 217.0625 219.943756103516 218.443756103516 216.675003051758 215.037506103516 210.149993896484 206.024993896484 201.28125 194.306243896484 185.274993896484 177.262496948242 170.793746948242 164.181243896484 172.050003051758 173.875 167.175003051758 156.21875 147.53125 
124.625 131.09375 141.84375 152.981246948242 163.287506103516 172.962493896484 181.368743896484 189.037506103516 193.949996948242 196.568756103516 198.199996948242 197.481246948242 196.1875 195.475006103516 196.768753051758 199.21875 201.0625 205.387496948242 209.431243896484 213.287506103516 217.081253051758 219.449996948242 222.262496948242 225.856246948242 226.668746948242 227.675003051758 225.418746948242 223.34375 222.28125 220.143753051758 217.887496948242 215.462493896484 220.862503051758 225.46875 228.943756103516 229.581253051758 229.8125 229.84375 226.90625 224.756256103516 220.912506103516 214.712493896484 206.181243896484 197.649993896484 193.84375 197.162506103516 204.068756103516 198.050003051758 188.337493896484 175.193756103516 164.612503051758 
124.824996948242 128.537506103516 137.643753051758 147.606246948242 156.949996948242 166.34375 175.381256103516 182.84375 187.975006103516 192.175003051758 194.818756103516 195.774993896484 196.762496948242 196.837493896484 199.381256103516 202.475006103516 205.762496948242 209.487503051758 214.237503051758 219.268753051758 222.631256103516 225.268753051758 229.350006103516 231.78125 232.800003051758 234.168746948242 232.293746948242 230.043746948242 227.006256103516 224.306243896484 221.018753051758 219.381256103516 226.175003051758 232.475006103516 239.087493896484 240.631256103516 241.78125 245.006256103516 243.393753051758 243.668746948242 244 237.600006103516 227.168746948242 220.225006103516 224.793746948242 233.5625 236.3125 224.274993896484 209.681243896484 194.162506103516 180.912506103516 
124.9375 126.606246948242 133.818756103516 142.731246948242 151.162506103516 159.737503051758 168.175003051758 176.175003051758 182.175003051758 187.912506103516 192.481246948242 194.862503051758 196.793746948242 198.024993896484 201.818756103516 205.543746948242 209.818756103516 214.056243896484 218.818756103516 224.112503051758 227.40625 230.887496948242 234.962493896484 237.018753051758 238.018753051758 239.849990844727 237.643753051758 234.71875 232.581253051758 228.856246948242 224.324996948242 222.71875 230.862503051758 239.15625 247.475006103516 251.143753051758 253.962493896484 257.674987792969 256.725006103516 258.34375 261.59375 255.649993896484 245.975006103516 242.824996948242 251.53125 260.893737792969 261.543762207031 245.987503051758 230.543746948242 214.706253051758 196.15625 
126.724998474121 126.806251525879 132.068756103516 138.21875 145.118743896484 152.512496948242 160.893753051758 169.399993896484 176.706253051758 182.806243896484 189.199996948242 192.5 196.362503051758 199.25 203.225006103516 207.850006103516 211.4375 216.893753051758 221.481246948242 225.456253051758 229.662506103516 233.556243896484 237.106246948242 238.137496948242 239.649993896484 242.324996948242 239.625 235.993743896484 232.631256103516 229.862503051758 227.425003051758 226.787506103516 235.737503051758 246.050003051758 255.231246948242 260.21875 264.262512207031 269.987487792969 267.462493896484 267.806243896484 271.168762207031 271.887512207031 267.6875 269.524993896484 275.575012207031 282.787506103516 282.756256103516 272.100006103516 256.081237792969 238.475006103516 216.975006103516 
128.412506103516 126.768753051758 130.387496948242 133.856246948242 139.024993896484 146.90625 154.96875 163.381240844727 170.868743896484 177.706253051758 185.543746948242 190.824996948242 196.712493896484 201.100006103516 204.731246948242 209.456253051758 214.050003051758 218.762496948242 223.231246948242 227.606246948242 231.162506103516 235.25 238.881240844727 239.53125 240.868743896484 242.518753051758 239.618743896484 235.631256103516 231.899993896484 230.206253051758 229.943756103516 230.856246948242 240.875 252.699996948242 263.268737792969 268.493743896484 274.418762207031 281.53125 278.168762207031 272.075012207031 276.9375 284.693756103516 288.881256103516 292.325012207031 297.943756103516 306.268737792969 306.412506103516 297.206237792969 281.5 261.856262207031 241.418746948242 
129.618743896484 126.699996948242 128.006256103516 130.59375 135.106246948242 141.40625 148.987503051758 157.206253051758 165.068756103516 172.90625 181.318756103516 188.53125 195.1875 201.506256103516 206.574996948242 211.300003051758 214.9375 218.699996948242 224.331253051758 228.706253051758 232.100006103516 235.887496948242 239.543746948242 239.524993896484 240.731246948242 241.512496948242 238.199996948242 234.1875 230.268753051758 230.649993896484 231.9375 233.90625 245.3125 259.03125 269.918762207031 276.975006103516 284.575012207031 292.600006103516 288.318756103516 285.225006103516 292.681243896484 303.806243896484 310.756256103516 318.356262207031 324.774993896484 335.893737792969 337.4375 327.181243896484 308.200012207031 287.71875 266.3125 
134.631256103516 130.962493896484 130.774993896484 132.037506103516 134.087493896484 138.90625 144.625 150.987503051758 158.456253051758 166.818756103516 178.112503051758 185.793746948242 194.568756103516 203.143753051758 207.90625 211.543746948242 214.03125 217.975006103516 222.800003051758 227 229.787506103516 232.899993896484 235.493743896484 235.731246948242 236.0625 236.199996948242 233.012496948242 228.712493896484 225.487503051758 228.925003051758 232.5 236.931243896484 247.712493896484 262.59375 276.943756103516 287.799987792969 296.418731689453 303.78125 303.756256103516 309.268737792969 319.356262207031 330.443756103516 340.325012207031 349.693756103516 362.137512207031 378.193756103516 380.293762207031 361.587493896484 342.287506103516 319.612487792969 295.793762207031 
139.199996948242 135.643753051758 134.425003051758 134.012496948242 133.475006103516 136.706253051758 140.524993896484 145.225006103516 151.600006103516 160.256256103516 170.856246948242 182.287506103516 194.524993896484 202.925003051758 208.175003051758 210.931243896484 212.987503051758 216.962493896484 220.350006103516 224.84375 226.837493896484 228.912506103516 230.793746948242 229.493743896484 229.850006103516 229.556243896484 225.868743896484 221.899993896484 219.8125 225.456253051758 232.40625 239.987503051758 253.268753051758 267.612487792969 284.3125 296.762512207031 306.668762207031 315.950012207031 322.200012207031 332.71875 343.399993896484 356.143737792969 370.5 383.262512207031 397.993743896484 413.100006103516 411.456237792969 392.424987792969 371.350006103516 350.256256103516 325.168762207031 
143.774993896484 140.606246948242 137.581253051758 135.706253051758 133.506256103516 134.993743896484 136.956253051758 140.162506103516 144.962493896484 153.100006103516 164.524993896484 178.09375 192.943756103516 204.368743896484 207.5 209.606246948242 211.412506103516 214.84375 218.15625 221.212493896484 222.9375 223.793746948242 224.856246948242 222.568756103516 222.106246948242 221.34375 218.387496948242 215.524993896484 214.100006103516 221.712493896484 230.9375 241.706253051758 256.5625 273.331237792969 289.850006103516 302.456237792969 313.9375 328.181243896484 338.625 351.100006103516 364.487487792969 377.40625 393.881256103516 408.487487792969 421.743743896484 429.65625 429.424987792969 415.6875 397.268737792969 376.162506103516 352.274993896484 
148.649993896484 145.543746948242 142.787506103516 139.818756103516 137.199996948242 137.512496948242 137.481246948242 138.462493896484 141.425003051758 147.199996948242 158.399993896484 172.899993896484 189.231246948242 201.074996948242 204.975006103516 206.762496948242 207.981246948242 211.25 214.199996948242 216.3125 217.556243896484 218.199996948242 217.206253051758 214.581253051758 213.03125 211.15625 208.399993896484 206.206253051758 205.5625 215.618743896484 226.831253051758 239.40625 255.362503051758 273.96875 290.087493896484 302.53125 318.931243896484 333.181243896484 345.5 358.862487792969 374.268737792969 388.368743896484 400.75 416.612487792969 429.46875 434.012512207031 434.03125 426.443756103516 412.299987792969 393.106262207031 368.637512207031 
153.606246948242 150.743743896484 147.862503051758 144.856246948242 141.987503051758 140.59375 138.831253051758 137.743743896484 138.356246948242 140.368743896484 151.631256103516 169.893753051758 184.681243896484 195.081253051758 200.206253051758 202.831253051758 203.756256103516 206.71875 208.643753051758 209.806243896484 210.175003051758 209.800003051758 208.943756103516 205.193756103516 202.356246948242 200.09375 197.618743896484 196.131256103516 196.875 208.612503051758 222.375 235.862503051758 254.5 273.943756103516 289.443756103516 305.381256103516 321.90625 338.668762207031 351.78125 365.056243896484 380.356262207031 391.649993896484 405.674987792969 422.350006103516 434.506256103516 438.4375 442.40625 436.768737792969 423.612487792969 407.375 384.65625 
158.300003051758 155.762496948242 152.731246948242 149.756256103516 146.90625 144.287506103516 142.15625 139.875 139.568756103516 138.856246948242 153.568740844727 171.268753051758 182.774993896484 191.893753051758 196.362503051758 198.850006103516 199.493743896484 201.637496948242 203.149993896484 203.21875 202.293746948242 200.28125 198.631256103516 194.193756103516 191.449996948242 188.974990844727 186.737503051758 186 187.556243896484 201.256256103516 215.725006103516 231.606246948242 251.300003051758 270.581237792969 288.362487792969 303.787506103516 322.418731689453 338.918762207031 354.78125 369.762512207031 381.600006103516 394.399993896484 405.4375 419.024993896484 429.606262207031 435.549987792969 442.487487792969 441.46875 429.262512207031 414.881256103516 394.731262207031 
161.418746948242 158.912506103516 156.550003051758 153.899993896484 151.21875 148.868743896484 147.037506103516 146.731246948242 148.425003051758 155.40625 170.412506103516 178.787506103516 184.824996948242 191.006240844727 195.100006103516 197.387496948242 197.78125 198.574996948242 198.100006103516 197.606246948242 194.393753051758 191.15625 188.90625 184.850006103516 181.643753051758 180.112503051758 179.568756103516 180.149993896484 182.149993896484 194.800003051758 209.668746948242 224.456253051758 241.962493896484 259.631256103516 278.600006103516 295.6875 311.450012207031 327.881256103516 342.850006103516 352.8125 365.137512207031 376.012512207031 384.212493896484 395.299987792969 404.024993896484 409.418762207031 410.856262207031 410.618743896484 402.612487792969 394.4375 375.65625 
164.649993896484 162.324996948242 160.524993896484 158.518753051758 155.962493896484 154.793746948242 153.443756103516 154.675003051758 158.012496948242 165.199996948242 174.350006103516 181.96875 187.425003051758 191.506256103516 195.03125 196.34375 196.600006103516 196.181243896484 193.918746948242 191.125 186.5 181.856246948242 178.212493896484 174.649993896484 172.918746948242 171.712493896484 172.300003051758 174.350006103516 177.393753051758 189.0625 201.925003051758 216.337493896484 234.337493896484 250.84375 269.068756103516 284.131256103516 298.03125 313.106262207031 327.21875 334.131256103516 343.549987792969 353.206237792969 359.4375 367.6875 372.912506103516 376.643737792969 379.737487792969 379.331237792969 374.643737792969 367.862487792969 352.256256103516 
168.081253051758 166.34375 164.762496948242 162.868759155273 161.399993896484 159.887496948242 160.056243896484 161.393753051758 164.96875 170.712493896484 177.425003051758 183.543746948242 189.375 192.693756103516 195.78125 196.731246948242 195.8125 194.206253051758 190.237503051758 185.181243896484 178.574996948242 172.0625 167.806243896484 165.074996948242 164.893753051758 164.125 165.518753051758 168.456253051758 172.243743896484 182.65625 195.731246948242 210.71875 226.637496948242 242.350006103516 258.424987792969 272.162506103516 285.662506103516 298.543762207031 309.856262207031 316.262481689453 323.112487792969 329.256256103516 333.1875 339.756256103516 344.443756103516 349.943756103516 352.100006103516 347.774993896484 347.268737792969 341.3125 328.568756103516 
171.993743896484 171.675003051758 170.074996948242 167.987503051758 166.287506103516 164.693756103516 164.987503051758 166.212493896484 170.09375 174.893753051758 180.975006103516 186.643753051758 192.631256103516 196.243743896484 198.475006103516 199.162506103516 198.368743896484 195.074996948242 190.550003051758 182.574996948242 173.456253051758 166.90625 162.050003051758 159.931243896484 161.15625 160.943756103516 162.137496948242 165.018753051758 169.84375 180.706253051758 190.399993896484 203.612503051758 218.15625 234.612503051758 249.237503051758 259.262512207031 269.881256103516 281.056243896484 288.987487792969 293.462493896484 298.9375 299.46875 301.59375 309.4375 314.9375 320.893737792969 321.53125 317.53125 318.831237792969 312.706237792969 301.831237792969 
177.012496948242 176.393753051758 176.056243896484 173.768753051758 170.512496948242 168.431243896484 168.393753051758 169.199996948242 172.356246948242 177.6875 184.024993896484 190.318756103516 196.512496948242 199.987503051758 202.431243896484 202.518753051758 200.925003051758 198.693756103516 192.737503051758 181.362503051758 169.625 160.393753051758 156.356246948242 157.03125 158.28125 159.15625 160.46875 163.143753051758 167.956253051758 176.625 185.393753051758 194.537506103516 207.024993896484 221.300003051758 236.90625 248.462493896484 254.25 262.193756103516 267.225006103516 270.8125 274.068756103516 274.768737792969 276.125 281.481262207031 286.381256103516 288.943756103516 291.850006103516 289.53125 290.643737792969 286.012512207031 276.274993896484 
181.512496948242 181.71875 181.712493896484 179.118743896484 174.75 171.475006103516 169.949996948242 171.149993896484 173.981246948242 179.606246948242 187.25 194.556243896484 200.125 204.368743896484 206.774993896484 206.137496948242 203.862503051758 200.493743896484 195.743743896484 182.887496948242 168.837493896484 157.268753051758 153.362503051758 154.537506103516 156.131256103516 158.100006103516 159.199996948242 162.181243896484 166.149993896484 172.987503051758 178.962493896484 185.5 195.543746948242 208.162506103516 222.649993896484 237.199996948242 240.824996948242 243.918746948242 246.981246948242 248.581253051758 250.987503051758 251.46875 252.381256103516 257.40625 259.924987792969 260.350006103516 262.9375 262.481262207031 260.118743896484 259 251.443756103516 
185.600006103516 187.34375 188.875 185.018753051758 179.149993896484 174.793746948242 170.899993896484 170.71875 174.300003051758 181.287506103516 189.931243896484 198.418746948242 205.34375 209.662506103516 211.981246948242 210.199996948242 206.737503051758 201.662506103516 194.75 184.168746948242 171.037506103516 162.331253051758 156.125 155.1875 157.0625 158.625 160.3125 162.75 166.96875 172.762496948242 177.331253051758 182.993743896484 191.006256103516 200.118743896484 211.481246948242 224.206253051758 228.756256103516 230.131256103516 231.387496948242 233.481246948242 235.0625 234.96875 236.225006103516 238 239.71875 240.40625 241.856246948242 241.981246948242 239.149993896484 239.268753051758 233.537506103516 
