ncols        51
nrows        45
xllcorner    -63.500000000000
yllcorner    -7.500000000000
cellsize     0.166666666667
NODATA_value -99
148.618743896484 142.168746948242 137.03125 136.149993896484 133.956253051758 132.268753051758 128.40625 124.568748474121 122.056251525879 121.974998474121 124.543746948242 129.287506103516 134.493743896484 138.21875 143.949996948242 149.925003051758 157.712493896484 162.037506103516 168.481246948242 174.46875 179.793746948242 184.03125 188.918746948242 191.53125 195.943756103516 200.34375 205.037506103516 212.75 218.756256103516 216.506256103516 216.524993896484 214.100006103516 213.21875 213.931259155273 214.28125 217.71875 220.706253051758 224.537506103516 232.237503051758 239.443756103516 247.056243896484 254.881256103516 261.549987792969 269.193756103516 274.125 281.106262207031 286.737487792969 291.59375 296.34375 303.575012207031 308.393737792969 
155.268753051758 149.46875 148.318756103516 148.443756103516 148.037506103516 146.287506103516 142.5625 139.731246948242 139.418746948242 139.956253051758 142.393753051758 146.5 151.03125 154.856246948242 159.962493896484 165.774993896484 172.856246948242 179.818756103516 186.987503051758 194.068756103516 199.118759155273 203.524993896484 208.662506103516 210.956253051758 213.506256103516 216.631256103516 219.649993896484 225.918746948242 229.787506103516 227.262496948242 225.293746948242 224.268753051758 222.412506103516 224.206253051758 223.28125 227.856246948242 232.881256103516 237.46875 245.53125 252.806243896484 261.393737792969 268.681243896484 274.681243896484 281.306243896484 286.375 292.618743896484 296.924987792969 300.418762207031 305.362487792969 311.575012207031 315.456237792969 
159.225006103516 154.75 155.731246948242 157.5 157.987503051758 157.75 157.625 157.987503051758 159.300003051758 161.418746948242 162.84375 165.793746948242 169.962493896484 173.681243896484 178.475006103516 184.818756103516 191.4375 198.506256103516 204.925003051758 211.412506103516 216.274993896484 220.862503051758 224.256256103516 226.118743896484 227.90625 228.5 230.543746948242 234.956253051758 236.418746948242 232.243743896484 229.806243896484 227.506256103516 226.262496948242 225.612503051758 226.787506103516 230.168746948242 236.037506103516 242.8125 251.056243896484 259.9375 268.84375 275.818756103516 281.762512207031 287.450012207031 293.637512207031 298.625 303.112487792969 305.75 309.84375 315.40625 319.924987792969 
161.168746948242 158.574996948242 162.8125 165.831253051758 168 169.487503051758 172.225006103516 175.875 180.443756103516 184.012496948242 185.231246948242 186.443756103516 188.762496948242 191.768753051758 196.887496948242 202.981246948242 210.762496948242 217.881256103516 224.162506103516 229.643753051758 234.706253051758 237.606246948242 238.71875 239.225006103516 239.699996948242 238.993743896484 239.65625 240.318756103516 240.09375 235.706253051758 230.675003051758 228.631256103516 226.681243896484 225.5 225.875 231.431243896484 238.456253051758 246.231246948242 256.412506103516 265.524993896484 273.587493896484 281.481262207031 287.918762207031 293.049987792969 299.024993896484 302.993743896484 307.487487792969 310.506256103516 311.8125 316.868743896484 322.40625 
167.487503051758 164.106246948242 167.306243896484 172.431243896484 176.337493896484 180.018753051758 184.199996948242 190.612503051758 198.768753051758 205.5 206.131256103516 205.012496948242 206.5625 210.600006103516 214.96875 221.84375 229.393753051758 237.143753051758 241.975006103516 245.925003051758 250.550003051758 251.787506103516 252.925003051758 252.606246948242 251.25 249.356246948242 246.756256103516 245.393753051758 245.5625 238.324996948242 233.231246948242 228.431243896484 228 227.550003051758 227.887496948242 234.487503051758 242.118743896484 250.318756103516 261.674987792969 270.774993896484 280.237487792969 286.9375 292.981262207031 299 303.456237792969 306.950012207031 310.96875 312.399993896484 313.21875 316.84375 324.0625 
171.612503051758 168.893753051758 173.34375 176.71875 178.65625 183.59375 188.868743896484 195.606246948242 205.168746948242 214.25 213.762496948242 213.074996948242 216.506256103516 220.600006103516 226.256256103516 233.581253051758 241.875 249.418746948242 255.368759155273 258.9375 261.981262207031 263.518737792969 264.262512207031 262.09375 259.462493896484 257.40625 253.837493896484 250.274993896484 247.5625 241.487503051758 235.543746948242 231.443756103516 231.081253051758 234.393753051758 237.774993896484 244.875 254.824996948242 264.100006103516 275.28125 285.174987792969 292.293731689453 298.387512207031 303.46875 308.049987792969 311.09375 312.674987792969 314.975006103516 315.799987792969 316.3125 317.09375 319.962493896484 
174.0625 171.143753051758 174.962493896484 176.956253051758 177.550003051758 182.25 187.712509155273 192.837493896484 198.887496948242 204.956253051758 210.5 214.800003051758 220.887496948242 227.25 234.418746948242 242.462493896484 251.262496948242 257.918762207031 263.606262207031 269.981262207031 271.756256103516 273.737487792969 273.631256103516 270.6875 267.462493896484 263.568756103516 259.100006103516 253.96875 248.431243896484 241.46875 237.925003051758 234.050003051758 235.668746948242 239.631256103516 245.581253051758 255.1875 265.631256103516 276.325012207031 289.862487792969 297.825012207031 301.424987792969 306.71875 310.65625 314.318756103516 318.762512207031 317.518768310547 317.524993896484 317.450012207031 313.662506103516 315.100006103516 319.325012207031 
173.956253051758 170.787506103516 173.168746948242 175.268753051758 176.856246948242 181.537506103516 184.693756103516 185.743743896484 187.012496948242 193.112503051758 204.006256103516 213.662506103516 223.762496948242 233.043746948242 241.181243896484 250.0625 257.725006103516 263.487518310547 269.931274414062 277.018737792969 279.975006103516 282 282.34375 278.181243896484 275.450012207031 269.418762207031 262.512512207031 255.943756103516 248.362503051758 241.637496948242 237.274993896484 236.306243896484 239.21875 245.131256103516 252.925003051758 263.493743896484 275.262512207031 286.762512207031 298.825012207031 305.393737792969 308.818756103516 312.831237792969 315.71875 318.143737792969 320.975006103516 319.40625 314.875 310.725006103516 310.012512207031 309.075012207031 312.475006103516 
174.149993896484 170.881256103516 173.5 175.800003051758 177.125 181.337493896484 183.800003051758 183.350006103516 180.462493896484 184.206253051758 198.774993896484 211.931243896484 224.96875 234.84375 243.856246948242 253.149993896484 260.850006103516 266.787506103516 274.893737792969 282.231262207031 282.962493896484 286.274993896484 286.818756103516 286.799987792969 283.456237792969 275.693756103516 265.787506103516 256.90625 249.925003051758 243.3125 240.387496948242 240.606246948242 245.068756103516 251.90625 260.21875 272.46875 286.643737792969 298.78125 309.931243896484 315.543762207031 318.412506103516 320.674987792969 322.46875 323.168762207031 322.59375 319.881256103516 314.637512207031 307.931243896484 303.431243896484 300.331237792969 302.725006103516 
174.331253051758 171.100006103516 173.425003051758 175.756256103516 177.78125 182.25 185.506256103516 186.243743896484 186.368743896484 191.231246948242 202.556243896484 213.625 226.581253051758 237.524993896484 246.34375 255.587493896484 263.981262207031 270.106262207031 277.612487792969 284.831237792969 285.674987792969 289.356262207031 292.893737792969 295.418731689453 289.881256103516 280.975006103516 270.112487792969 259.612487792969 250.65625 244.112503051758 241.556243896484 244.262496948242 251.074996948242 260.118743896484 269.575012207031 282.21875 296.625 310.350006103516 321.193756103516 327.399993896484 330.399993896484 331.543762207031 329.412506103516 324.506256103516 323.34375 321.756256103516 316.149993896484 307.700012207031 299.024993896484 293.924987792969 293.84375 
174.53125 171.712493896484 173.625 176.28125 179.212493896484 184.743743896484 189.043746948242 190.850006103516 193.981246948242 200.268753051758 209.3125 219.475006103516 230.375 241.637496948242 250.181243896484 258.418762207031 266.243743896484 272.506256103516 278.78125 285.59375 288.418762207031 292.649993896484 299.231262207031 300.056243896484 297.868743896484 285.674987792969 273.375 263.681243896484 253.381256103516 246.34375 245.487503051758 248.368743896484 256.043762207031 266.237487792969 277.393737792969 290.28125 304.84375 319.243743896484 329.987487792969 337.493743896484 340.356262207031 338.40625 332.606262207031 324.943756103516 321.881256103516 319.356262207031 311.393737792969 299.4375 290.831237792969 288.631256103516 285.612487792969 
176.006256103516 173.71875 175.831253051758 179.131256103516 181.90625 188.600006103516 194.512496948242 197.925003051758 202.587493896484 208.850006103516 216.887496948242 225.149993896484 233.818756103516 243.506256103516 253.625 261.887512207031 267.743743896484 272.862487792969 278.756256103516 284.568756103516 285.774993896484 291.556243896484 301.393737792969 307.5625 303.387512207031 286.118743896484 273.131256103516 263.825012207031 256.612487792969 253.362503051758 251.068756103516 252.96875 260.206237792969 269.950012207031 280.625 295.40625 311.287506103516 326.256256103516 336.237487792969 344.837493896484 348.462493896484 343.331237792969 332.25 317.481262207031 309.756256103516 302.993743896484 292.856262207031 285.200012207031 281.756256103516 282.21875 278.5 
177.606246948242 175.568756103516 178.231246948242 181.262496948242 184.75 192.212493896484 198.537506103516 203.668746948242 209.175003051758 216.662506103516 225.487503051758 232.362503051758 240.175003051758 246.793746948242 256.006256103516 263.899993896484 269.21875 274.450012207031 280.612487792969 284.575012207031 282.850006103516 288.443756103516 298.018737792969 301.78125 292.068756103516 277.512512207031 271.181243896484 265.299987792969 260.475006103516 259.268737792969 258.268737792969 258.331237792969 264.056243896484 273.118743896484 283.512512207031 297.600006103516 314.118743896484 329.96875 341.387512207031 351.606262207031 356.975006103516 348.274993896484 327.762512207031 308.243743896484 296.668762207031 292.831237792969 285.950012207031 278.518737792969 275.787506103516 278.018737792969 281.693756103516 
178.149993896484 176.943756103516 179.793746948242 183.125 187.362503051758 194.137496948242 201.643753051758 208.862503051758 216.600006103516 224.737503051758 233.243743896484 239.53125 245.481246948242 252.28125 258.024993896484 265.837493896484 270.924987792969 275.40625 280.756256103516 285.493743896484 286.100006103516 289.25 294.081237792969 292.568756103516 283.956237792969 274.337493896484 270.125 266.131256103516 262.737487792969 263.037506103516 264.3125 264.799987792969 268.012512207031 274.443756103516 283.943756103516 299.056243896484 316.924987792969 332.787506103516 343.462493896484 352.412506103516 356.625 341.331237792969 321.731262207031 304.987487792969 294.893737792969 289.431243896484 284.412506103516 281.356262207031 278.581237792969 282.112487792969 289.706237792969 
177.231246948242 176.03125 179.618743896484 184.506256103516 189.699996948242 196.9375 205.71875 214.362503051758 222.337493896484 230.762496948242 239.743743896484 245.449996948242 250.756256103516 256.412506103516 260.15625 266.868743896484 271.4375 276.725006103516 281.174987792969 285.475006103516 286.762512207031 288.237487792969 289.912506103516 287.712493896484 282.712493896484 277.799987792969 274.618743896484 271.518737792969 269.674987792969 270.943756103516 270.356262207031 269.84375 272.712493896484 274.768737792969 280.84375 297.387512207031 316.700012207031 332.612487792969 338.950012207031 341.21875 337.581237792969 327.887512207031 317.462493896484 303.924987792969 296.418762207031 292.043762207031 289.518737792969 287.306243896484 287.674987792969 288.762512207031 294.387512207031 
174.6875 174.556243896484 179.28125 185.106246948242 191.375 200.4375 209.46875 218.399993896484 227.975006103516 237.449996948242 245.737503051758 251.625 256.5625 261.037506103516 264.668762207031 268.5 272.112487792969 277.231262207031 281.318756103516 285.850006103516 286.037506103516 285.850006103516 286.162506103516 284.506256103516 281.59375 279.75 278.493743896484 277.518737792969 278.043762207031 279.606262207031 280.118743896484 278.71875 278.5 279.612487792969 283.512512207031 304.706237792969 321.887512207031 330.393737792969 331.162506103516 329.981262207031 325.181243896484 318.96875 311.418762207031 301.53125 295.78125 292.762512207031 289.899993896484 287.987487792969 288.556243896484 289.512512207031 293.350006103516 
172.25 173.34375 178.375 185.306243896484 192.975006103516 202.59375 213.262496948242 223.112503051758 232.925003051758 242.862503051758 251.118743896484 257.318756103516 262.350006103516 265.450012207031 269.825012207031 272.012512207031 272.399993896484 275.75 280.774993896484 284.756256103516 284.356262207031 283.806243896484 283.943756103516 283.21875 282.5625 280.975006103516 281.456237792969 282.924987792969 284.225006103516 287.912506103516 289.700012207031 288.881256103516 289.024993896484 293.212493896484 307.700012207031 325.393737792969 333.318756103516 333.65625 327.787506103516 322.037506103516 318.399993896484 313.381256103516 305.6875 297.725006103516 294.674987792969 292.543762207031 289.931243896484 289.787506103516 291.668762207031 290.581237792969 293.543762207031 
168.037506103516 170.074996948242 176.581253051758 184.768753051758 193.324996948242 203.412506103516 214.068756103516 224.975006103516 235.762496948242 246.199996948242 255.649993896484 263.231262207031 267.549987792969 271.549987792969 275.068756103516 275.837493896484 275.75 273.71875 281.318756103516 285.40625 285.956237792969 284.556243896484 283.21875 282.643737792969 282.581237792969 283.90625 284.356262207031 288.012512207031 292.125 296.450012207031 297.512512207031 292.28125 293.674987792969 302.381256103516 321.8125 347.024993896484 343.118743896484 334.149993896484 324.262512207031 318.743743896484 312.674987792969 308.012512207031 302.381256103516 295.8125 293.162506103516 292.649993896484 291.381256103516 292.149993896484 294.649993896484 292.443756103516 295.53125 
163.25 166.300003051758 173.524993896484 182.649993896484 192.693756103516 204.006256103516 215.462493896484 226.912506103516 238.037506103516 249.1875 259.299987792969 265.299987792969 271.71875 277.075012207031 278.618743896484 278 276.512512207031 274.206237792969 277.600006103516 282.681243896484 284.84375 284.768737792969 279.193756103516 279.71875 281.512512207031 284.668762207031 287.706237792969 291.143737792969 296.987487792969 303.237487792969 305.868743896484 297.399993896484 293.143737792969 293.693756103516 306.075012207031 326.6875 327.987487792969 324.143737792969 319.381256103516 313.65625 308.881256103516 304.112487792969 299.9375 295.287506103516 293.149993896484 293.068756103516 293.424987792969 295.15625 297.262512207031 291.337493896484 297.700012207031 
157.28125 161.800003051758 169.887496948242 179.981246948242 191.231246948242 203.987503051758 216.487503051758 228.737503051758 240.425003051758 251.418746948242 261.4375 267.325012207031 274.8125 281.987487792969 280.793762207031 275.825012207031 271.087493896484 273.168762207031 275.399993896484 279.643737792969 278.962493896484 276.456237792969 275.087493896484 275.606262207031 278.106262207031 281.475006103516 286.149993896484 292.09375 297.068756103516 301.200012207031 301.418762207031 295.712493896484 284.350006103516 273.643737792969 269.700012207031 284.993743896484 302.78125 310.356262207031 311.643737792969 309.75 305.556243896484 301.581237792969 299.012512207031 296.043762207031 295.075012207031 295.700012207031 296.575012207031 297.831237792969 297.899993896484 291.306243896484 299.612487792969 
152.3125 158.693756103516 168.375 179.175003051758 190.949996948242 204.75 218.731246948242 231.756256103516 243.875 253.425003051758 260.481262207031 265.493743896484 270.612487792969 277.350006103516 277.112487792969 271.856262207031 267.59375 267.462493896484 270.806243896484 273.493743896484 273.581237792969 273.137481689453 271.987487792969 273.975006103516 277.018737792969 280.756256103516 285.512512207031 290.125 294.568756103516 298.387512207031 297.375 291.368743896484 277.568756103516 259.774993896484 242.956253051758 261.28125 287.53125 302.081237792969 307.225006103516 306.700012207031 303.600006103516 301.143737792969 297.481262207031 295.081237792969 296.037506103516 297.40625 299.225006103516 300.631256103516 296.768737792969 295.012512207031 301.668762207031 
148.137496948242 155.112503051758 166.15625 177.774993896484 190.462493896484 205.475006103516 220.625 235.181243896484 247.537506103516 254.556243896484 257.268737792969 258.5625 260.21875 264.243743896484 266.212493896484 265.887512207031 265.987487792969 266.700012207031 268.806243896484 270.306243896484 267.693756103516 265.556243896484 266.462493896484 267.787506103516 271.0625 276.756256103516 285.21875 290.350006103516 294.731262207031 297.84375 296.024993896484 290.337493896484 278.90625 266.887512207031 260.550018310547 271.350006103516 290.918762207031 304.493743896484 309.325012207031 307.381256103516 303.075012207031 300.706237792969 297.875 295.9375 297.950012207031 300.325012207031 302.84375 303.737487792969 299.012512207031 302.100006103516 304.143737792969 
145.943756103516 153.931243896484 164.918746948242 177.149993896484 189.981246948242 204.75 219.987503051758 237.050003051758 251.606246948242 254.962493896484 253.600006103516 249.75 247.512496948242 251.050003051758 256.518768310547 259.90625 261.731262207031 263.181243896484 264.618743896484 265.399993896484 262.131256103516 258.181243896484 256.649993896484 257.793762207031 263.193756103516 271.106262207031 280.924987792969 288.112487792969 292.831237792969 295.393737792969 295.28125 294.15625 289.674987792969 284.21875 285.581237792969 293.681243896484 305.293762207031 313.325012207031 314.387512207031 310.174987792969 304.075012207031 301.0625 298.518737792969 296.09375 299 303.324981689453 307.331237792969 307.337493896484 305.731262207031 308.481262207031 308.493743896484 
145.993743896484 153.5 164.112503051758 175.856246948242 188.143753051758 202.118743896484 217.75 234.318756103516 247.581253051758 249.4375 246.34375 242.806243896484 237.756256103516 242.462493896484 250.21875 255.59375 259.34375 261.34375 261.15625 260.53125 256.024993896484 250.75 247.587493896484 248.412506103516 252.618743896484 260.612487792969 271.537506103516 281.668762207031 289.200012207031 295.375 299.981262207031 302.481262207031 302.024993896484 301.96875 306.274993896484 314.137512207031 321.293762207031 322.056243896484 318.006256103516 311.649993896484 304.668762207031 300.075012207031 296.631256103516 293.106262207031 298.725006103516 305.399993896484 311.649993896484 310.200012207031 315.087493896484 313.168762207031 313 
149.15625 155.268753051758 163.824996948242 174.662506103516 186.837493896484 200.137496948242 213.481246948242 227.012496948242 237.34375 241.668746948242 242.4375 240.056243896484 239.606246948242 243.3125 248.481246948242 254.425003051758 258.212493896484 260.212493896484 260.131256103516 257.137512207031 250.137496948242 243.181243896484 237.6875 236.03125 241.300003051758 252.625 264.012512207031 277.193756103516 287.243743896484 298.200012207031 305.75 311.293762207031 314.443756103516 317.068756103516 321.024993896484 323.087493896484 326.337493896484 325.168762207031 319.162506103516 313.15625 305.612487792969 299.631256103516 293.524993896484 291.412506103516 294.65625 303.28125 310.375 319.774993896484 324.575012207031 320.818756103516 318.356262207031 
154.4375 159.875 165.899993896484 175.25 184.993743896484 196.649993896484 208.350006103516 219.706253051758 228.456253051758 234.006256103516 237.28125 239.337493896484 241.818756103516 245.362503051758 249.831253051758 255.587493896484 258.71875 260.893737792969 260.950012207031 255.762496948242 248.268753051758 237.824996948242 228.168746948242 223.212493896484 230.806243896484 245.518753051758 261.081237792969 274.643737792969 287.387512207031 301.200012207031 312.375 321.90625 327.537506103516 329.475006103516 331.037506103516 329.799987792969 329.362487792969 326.65625 320.875 313.850006103516 306.356262207031 298.793762207031 289.524993896484 285.924987792969 291 300.831237792969 321.168762207031 332.012512207031 334.256256103516 332.881256103516 328.899993896484 
159.737503051758 162.012496948242 167.637496948242 174.712493896484 182.493743896484 192.668746948242 202.425003051758 211.862503051758 219.875 226.868743896484 232.512496948242 236.800003051758 241.143753051758 246.118759155273 251.662506103516 257.287506103516 262.587493896484 263.943756103516 263.137512207031 259.475006103516 250.012496948242 238.368743896484 224.625 217.768753051758 229.087493896484 244.006256103516 260.568756103516 274.306243896484 287.962493896484 302.806243896484 316.40625 329.712493896484 337.681243896484 337.637512207031 336.924987792969 334.6875 333.28125 329.581237792969 324.006256103516 317.643737792969 308.856262207031 300.256256103516 289.793762207031 284.262512207031 295.737487792969 313.387512207031 333.737487792969 342.356262207031 346.46875 342.356262207031 340.337493896484 
165.381256103516 165.293746948242 169.587493896484 175.168746948242 180.543746948242 188.90625 198.362503051758 206.568756103516 214.131256103516 221.368743896484 227.331253051758 233.0625 239.362503051758 245.925003051758 252.637496948242 259.137512207031 265.850006103516 269.612487792969 269.737487792969 266.862487792969 258.149993896484 246.524993896484 237.65625 232.725006103516 238.850006103516 250.518753051758 264.774993896484 278.462493896484 291.287506103516 304.637512207031 317.962493896484 330.393737792969 338.168762207031 338.825012207031 338.768737792969 336.856262207031 333.6875 331.1875 326.84375 322.356262207031 316.799987792969 307.068756103516 293.418762207031 287.237487792969 306.65625 326.075012207031 345.487487792969 353.668762207031 357.575012207031 353.71875 350.256256103516 
170.793746948242 168.881256103516 171.818756103516 175.375 180.362503051758 187.149993896484 194.149993896484 201.381256103516 208.925003051758 215.787506103516 222.818756103516 229.987503051758 237.4375 245.706253051758 254.59375 263.549987792969 272.931243896484 277.868743896484 279.962493896484 278.731262207031 270.981262207031 260.975006103516 254.337493896484 249.393753051758 252.987503051758 260.137512207031 271.518737792969 283.706237792969 295.393737792969 307.674987792969 318.524993896484 328.90625 336.068756103516 338.625 339.943756103516 338.206237792969 334.450012207031 332 328.325012207031 323.768737792969 322.024993896484 312.587493896484 299.556243896484 300.737487792969 322.59375 341.806243896484 358.768737792969 367.975006103516 369.987487792969 367.84375 359.337493896484 
178.387496948242 174.918746948242 176.100006103516 178.081253051758 181.268753051758 185.600006103516 191.112503051758 196.931243896484 203.899993896484 210.331253051758 217.399993896484 226.675003051758 236.706253051758 246.837493896484 257.200012207031 267.831237792969 278.506256103516 288.412506103516 292.787506103516 289.981262207031 282.424987792969 274.368743896484 268.237487792969 264.368743896484 265.368743896484 270.631256103516 279.850006103516 289.362487792969 298.59375 308.674987792969 318.450012207031 326.637512207031 333.268737792969 338.825012207031 342.037506103516 339.90625 336.40625 334.743743896484 327.981262207031 323.262512207031 322.299987792969 321.762512207031 317.606262207031 324.456237792969 338.931243896484 361.193756103516 379.71875 387.612487792969 388.206237792969 385 375.537506103516 
184.875 179.9375 179.599990844727 180.725006103516 182.59375 184.787506103516 189.081253051758 193.243743896484 199.212493896484 205.306243896484 212.431243896484 222.625 234.449996948242 245.71875 257.893737792969 270.774993896484 284.993743896484 296.3125 304.731262207031 301.950012207031 294.443756103516 286.043731689453 281.174987792969 277.125 276.375 281.200012207031 287.381256103516 293.875 301.743743896484 310.0625 318.549987792969 326.837493896484 333.737487792969 340.024993896484 344.556243896484 341.618743896484 338.543762207031 337.556243896484 329.568756103516 318.774993896484 320.168762207031 329.512512207031 335.8125 345.068756103516 359.818756103516 386.987487792969 404.774993896484 411.825012207031 410.512512207031 403.787506103516 391.825012207031 
190.625 184.556243896484 182.887496948242 182.618743896484 183.381256103516 184.143753051758 186.931243896484 189.25 194.293746948242 199.875 206.737503051758 217.875 230.381256103516 244.181243896484 258.443756103516 273.368743896484 286.575012207031 297.768737792969 306.325012207031 307.950012207031 301.299987792969 295.5 290.15625 286 286.893737792969 289.462493896484 293.006256103516 298.856262207031 303.837493896484 311.681243896484 319.693756103516 327.337493896484 333.668762207031 340.606262207031 346.087493896484 343.9375 342.881256103516 341.262512207031 331.287506103516 324.512512207031 330.237487792969 344.943756103516 356.962493896484 373.231262207031 391.556243896484 421.200012207031 439.793762207031 442.268737792969 434.587493896484 422.956237792969 408.237487792969 
199.300003051758 193.262496948242 190.043746948242 188.056243896484 186.475006103516 186.375 186.743743896484 187.15625 190.350006103516 195.418746948242 203.375 215.043746948242 229.449996948242 246.243743896484 260.59375 274.674987792969 286.893737792969 297.931243896484 305.149993896484 308.34375 304.981262207031 300.081237792969 294.743743896484 292.4375 292.600006103516 294.106262207031 296.831237792969 301.524993896484 307.087493896484 313.84375 321.143737792969 328.4375 336.3125 344.25 349.856262207031 351.256256103516 351.6875 350.356262207031 343.799987792969 346.274993896484 353.881256103516 369.243743896484 385.637512207031 404.912506103516 433.662506103516 470.818756103516 485.725006103516 475.412506103516 460.943756103516 445.587493896484 426.131256103516 
208.131256103516 202.037490844727 198.28125 194.725006103516 191.449996948242 188.987503051758 186.981246948242 185.587493896484 187.181243896484 190.875 197.943756103516 212.5 228.962493896484 245.637496948242 259.524993896484 274.056243896484 287.518737792969 297.481262207031 303.318756103516 306.993743896484 305.774993896484 301.700012207031 298.100006103516 295.206237792969 295.274993896484 295.756256103516 299.068756103516 303.006256103516 309.643737792969 315.637512207031 321.631256103516 329.84375 339.46875 348.200012207031 356.668762207031 359.625 360.887512207031 360.662506103516 362.006256103516 367.981262207031 375.868743896484 392.162506103516 413.15625 435.431243896484 467.975006103516 503.493743896484 513.924987792969 499.806243896484 482.962493896484 465.731262207031 444.731262207031 
217.21875 211.612503051758 206.887496948242 201.606246948242 195.743743896484 191.862503051758 187.637496948242 184.943756103516 184.268753051758 186.043746948242 193.074996948242 209.631256103516 228.449996948242 246.225006103516 261.024993896484 274.024993896484 287.068756103516 296.174987792969 301.931243896484 305.568756103516 305.362487792969 301.46875 297.9375 295.081237792969 295.524993896484 296.5625 299.206237792969 304.15625 309.53125 316.231262207031 323.46875 331.756256103516 342 352.725006103516 361.71875 365.206237792969 368.118743896484 374.381256103516 379.987487792969 387.231262207031 396.762512207031 411.806243896484 432.643737792969 455.806243896484 484.068756103516 507.168762207031 515.825012207031 509.631256103516 496.143737792969 479.793762207031 459.556243896484 
228.662506103516 222.368743896484 216.556259155273 210.40625 203.943756103516 198.737503051758 194.006256103516 189.137496948242 186.362503051758 187.231246948242 193.568756103516 209.443756103516 228.462493896484 246.181243896484 260.037506103516 272.981262207031 284.399993896484 292.725006103516 299.287506103516 303.90625 302.881256103516 298.581237792969 294.15625 292.012512207031 291.762512207031 292.3125 295.581237792969 301.506256103516 307.706237792969 314.674987792969 323.112487792969 331.668731689453 342.043762207031 354.875 365.318756103516 370.412506103516 378.212493896484 386.506256103516 391.837493896484 401.012512207031 412.493743896484 426.612487792969 443.756256103516 466.243743896484 488.068756103516 503.5625 511.306243896484 509.100006103516 499.037506103516 486.768737792969 465.543762207031 
239.518753051758 233.337493896484 227.100006103516 220.087493896484 213.475006103516 207.993743896484 202.03125 196.09375 190.962493896484 188.03125 195.806243896484 214.268753051758 231.712493896484 246.024993896484 259.481262207031 270.90625 280.806243896484 288.399993896484 295.362487792969 298.300018310547 297.318756103516 293.043731689453 288.862487792969 285.537506103516 284.681243896484 285.462493896484 289.868743896484 297.606262207031 304.549987792969 312.875 321.568756103516 330.706237792969 343.681243896484 358.068756103516 369.606262207031 378.262512207031 388.431243896484 399.012512207031 405.806243896484 412.862487792969 422.774993896484 435.868743896484 452.09375 471.868743896484 490.399993896484 501.625 508.512512207031 507.587493896484 500.756256103516 489.681243896484 471.15625 
250.46875 244.75 237.756256103516 230.681243896484 224.493743896484 219.087493896484 212.993743896484 206.112503051758 201.3125 196.231246948242 209.393753051758 226.824996948242 238.675003051758 249.175003051758 259.65625 269.706237792969 277.09375 283.443756103516 288.662506103516 290.393737792969 287.612487792969 283.743743896484 281.200012207031 277.725006103516 276.924987792969 278.350006103516 283.600006103516 292.918762207031 301.600006103516 310.59375 319.131256103516 328.737487792969 343.131256103516 359.331237792969 371.768737792969 384.125 396.231262207031 406.418762207031 415.443756103516 424.112487792969 431.081268310547 443.850006103516 456.237487792969 468.549987792969 484.0625 494.931243896484 502.587493896484 505.225006103516 499.762512207031 489.243743896484 475.450012207031 
258.893737792969 254.243743896484 248.71875 242.837493896484 237.59375 232.225006103516 228.037506103516 223.268753051758 222.53125 228.431243896484 243.40625 249.8125 254.231246948242 260.012512207031 267.081237792969 273.299987792969 277.381256103516 280.606262207031 282.412506103516 281.568756103516 276.84375 272.8125 270.306243896484 268.274993896484 268.5 271.112487792969 277.587493896484 286.487487792969 295.943756103516 305.862487792969 316.337493896484 325.731262207031 339.162506103516 355.106262207031 371.25 382.4375 393.512512207031 405.46875 412.293762207031 418.331237792969 424.587493896484 436.268737792969 445.618743896484 456.318756103516 466.625 475.100006103516 480.831237792969 481.293762207031 479.237487792969 475.731262207031 462.056243896484 
267.462493896484 264.287506103516 260.112487792969 255.0625 251.512496948242 248.912506103516 245.362503051758 244.550003051758 246.506256103516 252.074996948242 260.481262207031 266.84375 270.3125 272.668762207031 276.543762207031 278.524993896484 278.993743896484 278.6875 276.475006103516 273.512512207031 267.09375 262.268737792969 258.399993896484 257.118743896484 259.362487792969 263.225006103516 269.868743896484 279.59375 289.3125 299.637512207031 309.825012207031 322.774993896484 338.756256103516 353.306243896484 368.456237792969 380.424987792969 390.03125 400.662506103516 408.100006103516 410.875 414.8125 424.337493896484 431.9375 439.456237792969 446.918762207031 454.693756103516 461.118743896484 463.643737792969 461.918762207031 458.78125 449.256256103516 
275.4375 274.393737792969 271.512512207031 268.537506103516 265.443756103516 263.674987792969 262.21875 264.068756103516 267.03125 272.149993896484 277.21875 281.943756103516 284.643737792969 285.106262207031 286.112487792969 285.512512207031 282.418762207031 278.637512207031 273.075012207031 266.049987792969 257.256256103516 250.737503051758 246.793746948242 246.293746948242 250.837493896484 255.9375 262.975006103516 272.881256103516 283.768737792969 295.387512207031 307.662506103516 323.325012207031 337.96875 352.25 366.337493896484 377.5625 386.831237792969 397.018737792969 402.318756103516 402.306243896484 405.40625 409.743743896484 413.837493896484 421.331237792969 429.181243896484 437.25 442.387512207031 442.787506103516 443.700012207031 442.762512207031 436.34375 
283.081237792969 282.731262207031 281.506256103516 280.481231689453 278.975006103516 278.431243896484 278.581237792969 280.587493896484 283.862487792969 287.712493896484 291.831237792969 296.137512207031 298.53125 298.28125 297.412506103516 294.450012207031 290.21875 283.3125 275.387512207031 263.899993896484 250.431243896484 241.037506103516 237.256256103516 239.131256103516 246.15625 252.100006103516 259.918762207031 269.987487792969 282.106262207031 295.162506103516 305.368743896484 321.831237792969 336.03125 351.143737792969 365.987487792969 373.674987792969 381.0625 389.5625 393.012512207031 391.737487792969 391.631256103516 390.149993896484 391.712493896484 401.59375 409.668762207031 418.299987792969 422.318756103516 422.862487792969 425.137512207031 423.681243896484 418.412506103516 
291.262512207031 292.03125 292.543762207031 291.462493896484 291.556243896484 293.037506103516 294.587493896484 295.475006103516 298.1875 301.825012207031 306.299987792969 309.943756103516 312.018737792969 311.787506103516 309.231262207031 305.131256103516 297.899993896484 291.668762207031 281.568756103516 263.399993896484 243.962493896484 229.425003051758 227.862503051758 234.5625 243.143753051758 250.693756103516 259.043762207031 267.75 279.956237792969 292.90625 305.318756103516 317.393737792969 330.850006103516 347.068756103516 363.256256103516 374.818756103516 378.024993896484 382.700012207031 383.5 381.006256103516 380.875 379.049987792969 378.475006103516 383.9375 393.46875 398.993743896484 402.96875 404.375 407.399993896484 406.899993896484 403.96875 
300.168762207031 301.793762207031 303.287506103516 303.056243896484 305.149993896484 306.662506103516 308.199981689453 310.456237792969 312.893737792969 316.274993896484 320.956237792969 324.512512207031 325.587493896484 324.356262207031 320.5625 314.256256103516 306.518737792969 299.174987792969 290.15625 268.418762207031 245.806243896484 227.5 226.981246948242 233.625 242.3125 250.4375 258.53125 268.037506103516 279.381256103516 292.325012207031 303.037506103516 314.575012207031 327.456237792969 343.162506103516 360.0625 375.668762207031 377.575012207031 377.587493896484 375.462493896484 373.46875 372.40625 371.518737792969 369.850006103516 373.450012207031 379.274993896484 382.893737792969 387.306243896484 387.506256103516 387.537506103516 390.306243896484 389.831237792969 
311.65625 313.712493896484 314.59375 315.306243896484 316.875 318.087493896484 319.337493896484 321.46875 324.481262207031 327.837493896484 330.75 334.981231689453 337.075012207031 335.90625 331.868743896484 323.1875 313.975006103516 303.487487792969 291.931243896484 273.106231689453 253.8125 240.975006103516 235.59375 239.65625 247.518753051758 254.300003051758 261.831237792969 271.462493896484 282.337493896484 295.037506103516 305.056243896484 314.637481689453 325.6875 338.712493896484 354.181243896484 369.46875 373.381256103516 371.549987792969 368.693756103516 367.737487792969 365.818756103516 364.693756103516 364.893737792969 364.137512207031 369.3125 371.618743896484 373.262512207031 374.181243896484 372.393737792969 373.375 376.768737792969 
