ncols        51
nrows        45
xllcorner    -63.500000000000
yllcorner    -7.500000000000
cellsize     0.166666666667
NODATA_value -99
280.1875 283.793731689453 287.493743896484 296.056243896484 300.212493896484 299.893737792969 291.618743896484 280.137512207031 270.799987792969 262.325012207031 257.21875 251.862503051758 246.050003051758 236.850006103516 227 215.4375 206.350006103516 194.606246948242 185.043746948242 174.756256103516 168.524993896484 160.324996948242 153.600006103516 146.543746948242 139.012496948242 133.962493896484 130.006256103516 126.081253051758 121.556251525879 123.506248474121 125.21875 128.28125 133.581253051758 136.59375 140.649993896484 144.5 150.037506103516 155.118743896484 157.375 159.800003051758 162.587493896484 164.3125 164.118743896484 164.34375 165.512496948242 164.193756103516 165.793746948242 166 167.493743896484 166.137496948242 164.975006103516 
265.700012207031 267.837493896484 276.431243896484 289.868743896484 304.112487792969 297.212493896484 285.731262207031 279.568756103516 270.475006103516 261.40625 255.131256103516 247.856246948242 240.668746948242 229.731246948242 219.399993896484 209.762496948242 198.725006103516 186.725006103516 175.118743896484 164.243743896484 156.800003051758 151.137496948242 144.524993896484 139.34375 132.03125 127.368751525879 125.306251525879 122.974998474121 118.724998474121 120.518753051758 122.743751525879 126.737503051758 130.949996948242 136.068756103516 140.731246948242 144.550003051758 149.78125 155.256256103516 156.981246948242 159.012496948242 161.793746948242 163.71875 165 163.731246948242 164.362503051758 163.3125 164.387496948242 165.162506103516 167.262496948242 166.193756103516 165.956253051758 
244.3125 249.5625 258.118743896484 271.856262207031 284.21875 282.493743896484 274.512512207031 268.03125 261.162506103516 253.524993896484 247.231246948242 239.349990844727 231.731246948242 220.518753051758 209.199996948242 200.324996948242 189.375 178.693756103516 168.125 158.625 151.881256103516 145.881256103516 140.493743896484 135.824996948242 129.28125 124.006248474121 123.837501525879 121.175003051758 117.824996948242 119.506248474121 121.349998474121 125.28125 131.8125 137.59375 143.143753051758 146.918746948242 152.456253051758 158.824996948242 161.662506103516 164.806243896484 168.362503051758 169.09375 170.850006103516 170.106246948242 169.262496948242 168.081253051758 168.4375 169.899993896484 170 168.918746948242 169.237503051758 
219.268753051758 225.268753051758 240.21875 249.762496948242 259.25 259.643737792969 257.112487792969 256.600006103516 252.318756103516 246.6875 239.225006103516 230.856246948242 219.96875 210.25 199.375 189.925003051758 180.456253051758 171.324996948242 163.881256103516 156.612503051758 150.237503051758 142.925003051758 136.512496948242 132.018753051758 125.387496948242 120.875 119.974998474121 116.393753051758 114.474998474121 117.224998474121 120.46875 123.587501525879 129.606246948242 136.043746948242 141.65625 149.168746948242 156.793746948242 163.625 167.993743896484 170.675003051758 173.512496948242 173.768753051758 174.612503051758 174.587493896484 174.600006103516 172.443756103516 171.418746948242 174.256256103516 173.925003051758 171.181243896484 169.293746948242 
217.943756103516 217.1875 218.524993896484 226.037506103516 238.431243896484 241.418746948242 240.768753051758 242.300003051758 241.643753051758 237.131256103516 230.043746948242 219.043746948242 209.8125 202.368743896484 192.074996948242 182.356246948242 172.712509155273 164.768753051758 158.418746948242 151.46875 147.043746948242 138.368743896484 132.875 128.418746948242 122.193748474121 117.6875 115.050003051758 113.143753051758 111.487503051758 113.668746948242 117.456253051758 120.068748474121 125.756248474121 133.381256103516 141.012496948242 148.100006103516 156.1875 165.225006103516 170.893753051758 174.662506103516 177.706253051758 176.899993896484 176.056243896484 176.856246948242 176.8125 174.887496948242 172.506256103516 173.856246948242 173.9375 172.068756103516 168.362503051758 
217.293746948242 215.306243896484 212.543746948242 208.587509155273 220.418746948242 231.131256103516 233.881256103516 233.806243896484 232.856246948242 230.78125 223.268753051758 212.34375 203.84375 197.087493896484 186.762496948242 178.71875 169.925003051758 161.956253051758 155.875 150.300003051758 143.856246948242 136.425003051758 130.4375 125.006248474121 120.243751525879 115.400001525879 112.643753051758 111.331253051758 109.349998474121 110.59375 113.474998474121 118.474998474121 123.662498474121 130.006256103516 136.25 144.818756103516 152.987503051758 163.362503051758 170.78125 174.90625 173.706253051758 173.143753051758 172.649993896484 174.618743896484 177.737503051758 175.018753051758 170.068756103516 168.762496948242 170.412506103516 168.881256103516 166.53125 
220.0625 218.649993896484 215.168746948242 210.800003051758 214.524993896484 217.431243896484 222.231246948242 224.75 221.875 217.387496948242 212.662506103516 204.618743896484 197.943756103516 191.018753051758 182.53125 175.287506103516 167.850006103516 161.899993896484 155.40625 148.78125 141.425003051758 134.206253051758 126.756248474121 121.474998474121 117.699996948242 113.856246948242 111.418746948242 109.900001525879 107.181251525879 107.46875 110 113.037498474121 118.337501525879 124.78125 130.962493896484 137.581253051758 145.856246948242 157.881256103516 168.649993896484 169.743743896484 168.137496948242 166.087493896484 165.96875 169.056243896484 173.331253051758 171.15625 165.362503051758 161.262496948242 162.162506103516 165.193756103516 165.71875 
223.762496948242 222.024993896484 218.587493896484 218.28125 221.331253051758 223.981246948242 221.143753051758 213.337493896484 205.887496948242 202.881256103516 201.96875 196.6875 191.443756103516 184.956253051758 179.175003051758 171.25 164.737503051758 160.381256103516 154.875 146.100006103516 139.306243896484 131.59375 124.268753051758 118.581253051758 114.606246948242 111.09375 108.256248474121 105.90625 104.131248474121 104.012496948242 105.831253051758 107.981246948242 112.412498474121 118.568748474121 122.868751525879 128.537506103516 135.78125 145.162506103516 151.90625 154.350006103516 153.393753051758 151.612503051758 152.162506103516 154.137496948242 157.918746948242 156.862503051758 153.46875 151.350006103516 152.199996948242 156.024993896484 157.8125 
229.225006103516 228.806243896484 227.181243896484 226.556243896484 228.587493896484 228.331253051758 225.081253051758 217.143753051758 205.831253051758 196.806243896484 195.381256103516 190.725006103516 187.96875 181.449996948242 176.243743896484 169.725006103516 163.831253051758 159.393753051758 154.806243896484 145.743743896484 137.199996948242 130.425003051758 121.293746948242 117.212501525879 112.324996948242 107.806251525879 105.068748474121 103.581253051758 102.756248474121 102.068748474121 104.074996948242 103.324996948242 104.806251525879 107.206253051758 110.537498474121 116.743751525879 123.231246948242 129.287506103516 132.931243896484 134.84375 134.387496948242 132.699996948242 133.493743896484 135.493743896484 136.25 136.274993896484 135.793746948242 133.850006103516 135.4375 141.175003051758 148.600006103516 
232.231246948242 232.893753051758 232.143753051758 231.731262207031 234.806243896484 234.412506103516 230.743743896484 221.856246948242 211.568756103516 203.131256103516 197.112503051758 189.506256103516 184.837493896484 179.850006103516 173.59375 168.875 162.21875 157.28125 152.368743896484 145.512496948242 137.268753051758 128.375 118.806251525879 113.731246948242 107.806251525879 103.53125 101.40625 100.112503051758 99.4875030517578 99.5374984741211 98.8187484741211 97.0562515258789 97.0749969482422 98.9375 101.037498474121 105.150001525879 110.237503051758 114.28125 115.4375 116.474998474121 116.025001525879 115.393753051758 112.90625 113.887496948242 115.331253051758 117.050003051758 116.318748474121 114.606246948242 114.893753051758 118.131248474121 123.199996948242 
238.274993896484 238.925003051758 238.368743896484 237.5625 239.462493896484 240.850006103516 237.387496948242 225.425003051758 213.493743896484 204.931243896484 198.774993896484 191.824996948242 183.793746948242 176.487503051758 169.831253051758 164.625 157.793746948242 152.887496948242 147.96875 142.662506103516 137.34375 128.618743896484 118.224998474121 108.168746948242 103.662498474121 102.349998474121 100.599998474121 98.0250015258789 95.90625 95.1125030517578 94.0250015258789 91.6687469482422 90.9124984741211 90.9312515258789 91.6812515258789 94.0749969482422 97.1875 99.4875030517578 101.037498474121 100.275001525879 98.3312530517578 96.9124984741211 96.7125015258789 95.2249984741211 95.1937484741211 99.34375 96.9375 93.8937530517578 92.9437484741211 93.0374984741211 89.7312469482422 
239.949996948242 240.637496948242 240.262496948242 241.256256103516 242.756256103516 243.09375 240.931243896484 229.40625 215.293746948242 204.300003051758 197.681243896484 191.743743896484 181.318756103516 172.043746948242 167.243743896484 160.824996948242 154.481246948242 147.981246948242 143.225006103516 140.537506103516 137.550003051758 128.925003051758 117.612503051758 106.462501525879 100.731246948242 97.8499984741211 95.5250015258789 93.2125015258789 90.40625 89.2249984741211 87.34375 84.8062515258789 83.5875015258789 83.7687530517578 84.9312515258789 86.3937530517578 88.0062484741211 89.4187469482422 88.03125 85.4749984741211 82.6687469482422 80.5437469482422 80.2937469482422 78.625 75.96875 74.9124984741211 74.4312515258789 73.6374969482422 73.5999984741211 71.8625030517578 65.2750015258789 
239.493743896484 240.043746948242 238.956253051758 237.899993896484 237.78125 236.993743896484 232.649993896484 222.600006103516 211.837493896484 201.993743896484 193.65625 188.387496948242 179.862503051758 167.100006103516 159.699996948242 154.699996948242 148.306243896484 142.625 138.368743896484 135.356246948242 133.46875 126.606246948242 115.699996948242 105.65625 96.90625 92.8687515258789 91.4124984741211 89.6062469482422 87.1875 84.8187484741211 81.3187484741211 78.0687484741211 76.9562530517578 75.8312530517578 76.1875 78.1312484741211 81.0374984741211 82.9000015258789 82.5 76.875 71 69.9562530517578 68.5187530517578 61.5499992370605 58.03125 60.71875 61.4500007629395 59.875 57.3562507629395 56.5999984741211 51.3250007629395 
237.237503051758 236.875 233.856246948242 231.756256103516 231.287506103516 227.425003051758 221.762496948242 214.793746948242 204.993743896484 196.637496948242 187.106246948242 179.018753051758 171.487503051758 161.081253051758 150.637496948242 146.293746948242 140.40625 134.524993896484 129.418746948242 126.59375 124.456253051758 118.043746948242 110.231246948242 104.125 97.0749969482422 91.7624969482422 89.1374969482422 86.28125 82.90625 80.0562515258789 77.40625 73.2312469482422 70.9812469482422 69.34375 69.5562515258789 72.8375015258789 77.3312454223633 82.0687484741211 82.9437484741211 78.9875030517578 67.8249969482422 61.21875 59.8875007629395 58.1375007629395 56.1375007629395 55.9312515258789 57.4625015258789 56.4500007629395 53.46875 51.9812507629395 47.3312492370605 
233.981246948242 231.6875 227.681243896484 225.15625 224.012496948242 216.46875 212.15625 204.78125 195.581253051758 188.893753051758 178.5625 170.199996948242 161.912506103516 152.25 140.762496948242 134.056243896484 129.356246948242 125.087501525879 119.650001525879 117.012496948242 115.5625 111.787498474121 106.881248474121 103.856246948242 100.543746948242 96.0187530517578 91.6750030517578 86.2937469482422 81.2125015258789 77.875 72.7437515258789 68.2624969482422 66.5374984741211 64.4625015258789 62.8687515258789 67.7562484741211 76.59375 87.0562515258789 92.5 88.0812530517578 79.1312484741211 70.59375 66.8625030517578 62.71875 58.5250015258789 56.8500022888184 56 55.9625015258789 55.0625 51.1687469482422 46.6312484741211 
228.449996948242 224.975006103516 221.6875 218.1875 214.25 208.887496948242 202.824996948242 195.143753051758 187.681243896484 181.481246948242 171.40625 161.806243896484 152.831253051758 143.837493896484 132.993743896484 123.074996948242 118.181251525879 115.675003051758 111 109 107.362503051758 106.40625 105.443748474121 105.75 104.162498474121 99.1312484741211 93.0250015258789 87.2687530517578 81.9124984741211 76.9187545776367 72.9000015258789 67.0812530517578 63.7562484741211 62.0437507629395 59.2999992370605 67.0187530517578 79.8499984741211 91.6125030517578 101.631248474121 100.962501525879 95.8562469482422 84.2249984741211 73.875 65.4749984741211 61 57.8499984741211 57.0999984741211 55.8687515258789 53.7687492370605 51.2374992370605 49 
220.15625 217.375 214.912506103516 211.493743896484 206.856246948242 201.75 195.368743896484 188.675003051758 181.324996948242 173.90625 165.300003051758 155.399993896484 144.987503051758 135.46875 127.131248474121 118.381248474121 109.287498474121 105.987503051758 103.662498474121 101.543746948242 100.137496948242 100.599998474121 103.099998474121 107.224998474121 107.875 101.087501525879 94.2874984741211 88.21875 82.8062515258789 78.0687484741211 74.9812469482422 71.8125 67.5625 64.7687530517578 67.0999984741211 73.6500015258789 84.6187515258789 102.518753051758 120.212501525879 113.987503051758 102.587501525879 89.1875 75.7375030517578 67.8249969482422 62.5812492370605 59.4375 57.5999984741211 57.3500022888184 57.1312522888184 53.7999992370605 52.6687507629395 
213.112503051758 211.037506103516 207.018753051758 203.806243896484 201.118743896484 196.418746948242 189.512496948242 182.143753051758 175.774993896484 167.368743896484 158.506256103516 148.824996948242 138.462493896484 129.081253051758 120.824996948242 113.337501525879 105.15625 97.1999969482422 96.5374984741211 94.0812530517578 93.7562484741211 93.875 97.2312469482422 103.03125 105.481246948242 100.150001525879 94.90625 89.1875 83.0999984741211 77.2437515258789 73.28125 70.125 73.4124984741211 76.9625015258789 76.5875015258789 78.2624969482422 91.6062469482422 107.625 116.993751525879 113.400001525879 99.0187454223633 86.0187530517578 74.7750015258789 69.4187469482422 64.6937484741211 61.8562507629395 60.9312515258789 59.3562507629395 58.9874992370605 55.34375 55.5 
205.731246948242 203.006256103516 198.918746948242 196.975006103516 194.068756103516 189.96875 183.506256103516 178.137496948242 171.106246948242 162.675003051758 153.431243896484 143.056243896484 132.34375 123.387496948242 114.699996948242 108.724998474121 102.087501525879 93.5749969482422 89.2125015258789 86.9937515258789 88.6500015258789 93.8062515258789 89.96875 94.96875 99.0625 99.4562530517578 96.3125 90.4749984741211 86.4000015258789 79.4749984741211 73.9375 75.875 85.40625 89.5437469482422 91.1374969482422 93.2937469482422 99.2750015258789 105.493751525879 108.3125 103.112503051758 91.9312515258789 81.5 73.1125030517578 69.1187515258789 66.3000030517578 64.8687515258789 63.9624977111816 62.9375 61.2374992370605 54.6749992370605 57.2999992370605 
196.793746948242 195.850006103516 191.800003051758 189.324996948242 187.131256103516 184.6875 180.024993896484 173.787506103516 168.631256103516 160.668746948242 151.774993896484 142.431243896484 132.268753051758 122.25 112.518753051758 104.818748474121 95.9937515258789 92.3062515258789 87.1687469482422 86.2062530517578 84.4937515258789 84.3812484741211 88.1687469482422 92.3874969482422 95.15625 94.8249969482422 93.5875015258789 92.3125 87.0687484741211 81.3874969482422 78.5187530517578 86.5437469482422 94.9875030517578 106.337501525879 114.525001525879 112.606246948242 109.168746948242 106.599998474121 103.231246948242 96.4937515258789 86.4562530517578 75.9124984741211 72.65625 72.2125015258789 70.1124954223633 69.2937469482422 68.4937515258789 66.5124969482422 62.9937515258789 57.1875 59.59375 
185.399993896484 186.274993896484 184.606246948242 182.956253051758 181.037506103516 177.793746948242 174.71875 170.350006103516 166.981246948242 161.225006103516 152.918746948242 145.006256103516 134.793746948242 123.199996948242 114.356246948242 104.487503051758 95.9000015258789 89.90625 87.6312484741211 83.9375 85.0250015258789 87.0562515258789 89.0749969482422 92.9625015258789 96.9499969482422 97.6624984741211 95.7249984741211 92.625 89.4875030517578 89.1812515258789 89.8687515258789 96.4375 105.731246948242 118.78125 133.34375 126.868751525879 114.456253051758 106.537498474121 100.268753051758 94.0562515258789 87.5625 80.7687530517578 77.2937469482422 76.21875 74.78125 74.1999969482422 72.8187484741211 70.4937515258789 64.4000015258789 62.6875 62.9749984741211 
176.556243896484 175.40625 174.287506103516 173.506256103516 173.806243896484 172.831253051758 170.175003051758 168.143753051758 165.893753051758 161.568756103516 154.912506103516 148.09375 140.1875 129.84375 120.112503051758 108.90625 100.181251525879 93.5124969482422 90.5124969482422 86.7249984741211 84.875 86.1624984741211 87.9312515258789 91.3062515258789 94.1687469482422 96.0250015258789 97.7624969482422 95.9812469482422 96.1437530517578 97.2125015258789 98.4749984741211 102.618751525879 110.506248474121 120.931251525879 126.25 122.46875 111.9375 104.737503051758 98.5625 94.1437454223633 90.46875 86.71875 85.2312469482422 84.1812515258789 82.1750030517578 81.4499969482422 79.1875 75.09375 69.3125 68.8937530517578 66.9437484741211 
168.956253051758 169.712493896484 167.524993896484 167.324996948242 167.662506103516 167.225006103516 166.643753051758 165.856246948242 166.081253051758 162.043746948242 158.762496948242 153.53125 148.756256103516 139.493743896484 126.606246948242 114.712501525879 104.4375 98.0562515258789 92.8562469482422 88.7249984741211 86.7874984741211 87.1687469482422 87.6312484741211 89.2874984741211 92.6687469482422 94.7562484741211 96.5500030517578 98.8000030517578 99.6500015258789 100.375 102.875 107.275001525879 112.300003051758 117.199996948242 117.918746948242 111.9375 105.837501525879 100.387496948242 96.7062530517578 95.75 95.7375030517578 93.5562515258789 92.5749969482422 91.75 89.5750045776367 89.1999969482422 86.4625015258789 81.8125 76.9250030517578 75.0124969482422 73.6687469482422 
164.34375 162.681243896484 161.793746948242 160.831253051758 160.1875 162.018753051758 162.65625 162.21875 162.631256103516 160.100006103516 156.925003051758 155.34375 154.243743896484 144.725006103516 130.618743896484 118.118751525879 108.099998474121 101.474998474121 96.0812530517578 90.9937515258789 88.7312469482422 87.5875015258789 88.1812515258789 89.8625030517578 92.15625 93.125 94.9000015258789 97.3937530517578 100.9375 102.693748474121 104.918746948242 109.037498474121 111.768753051758 114.012496948242 113.8125 107.568748474121 103.856254577637 101.768753051758 100.012496948242 101.537498474121 102.349998474121 101.212501525879 101.631248474121 101.5625 101.431251525879 99.5500030517578 96.2125015258789 88.09375 85.9562530517578 81.1500015258789 80.5 
161.956253051758 158.668746948242 156.506256103516 154.981246948242 158.524993896484 159.524993896484 159.581253051758 159.512496948242 159.237503051758 158.018753051758 155.943756103516 152.706253051758 149.456253051758 142.193756103516 131.112503051758 119.824996948242 110.818748474121 103.606246948242 97.71875 93.1624984741211 90.8062515258789 88.8375015258789 89.5875015258789 91.1500015258789 91.4312515258789 93.4375 95.3375015258789 98.2937469482422 101.893753051758 104.449996948242 106.331253051758 109.287498474121 112.512496948242 113.724998474121 112.412498474121 108.493751525879 107.699996948242 107.150001525879 106.3125 107.837501525879 109.206253051758 109.90625 111.175003051758 114.193748474121 115 113.506248474121 101.737503051758 99.1999969482422 94.3249969482422 87.8499984741211 88.59375 
163.21875 161.268753051758 156.5625 156.056243896484 156.431243896484 156.756256103516 157.350006103516 156.987503051758 156.268753051758 155.543746948242 152.068756103516 148.78125 144.5 137.543746948242 129.09375 120.15625 111.724998474121 105.412498474121 99.4437484741211 94.59375 92 89.5875015258789 90.0875015258789 91.6875 92.2062530517578 93.0250015258789 96.4312515258789 100.637496948242 103.743751525879 106.381248474121 108.224998474121 111.431251525879 112.512496948242 113.28125 113.556251525879 113.993751525879 113.456253051758 113.875 115.3125 116.449996948242 119.099998474121 119.606246948242 121.168746948242 125.46875 129.6875 119.275001525879 115.137496948242 110.818748474121 104.800003051758 100.568748474121 98.4499969482422 
168.71875 164.756256103516 160.568756103516 159.25 157.606246948242 157.475006103516 156.625 154.774993896484 152.225006103516 151.162506103516 149.1875 145.787506103516 140.574996948242 134.475006103516 127.40625 119.800003051758 113.412498474121 106.5625 100.84375 95.96875 93.4375 90.6812515258789 90.15625 93.1500015258789 93.3937530517578 94.6062469482422 98.1875 101.474998474121 104.912498474121 107.287498474121 109.150001525879 111.168746948242 114.481246948242 116.118751525879 116.4375 118.5625 120.28125 121.181251525879 123.212501525879 125.4375 127.268753051758 128.71875 131.212493896484 133.362503051758 132.774993896484 133.106246948242 129.574996948242 120.90625 115.318748474121 108.25 103.5625 
174.443756103516 170.443756103516 166.518753051758 162.268753051758 160.15625 158.15625 156.537506103516 154.03125 150.399993896484 149.068756103516 146.375 142.393753051758 137.268753051758 132.543746948242 125.9375 119.412498474121 113.387496948242 107.181251525879 101.706253051758 97.6062469482422 94.5687484741211 91.8499984741211 90.8812484741211 93.2437515258789 94.96875 95.96875 99.2687530517578 102.71875 106.181251525879 109.1875 110.199996948242 112.362503051758 116.6875 118.856246948242 120.762496948242 123.462501525879 127.75 130.762496948242 133.287506103516 135.725006103516 138.137496948242 140.043746948242 139.487503051758 142.5625 143.800003051758 144.268753051758 139.824996948242 132.612503051758 124.28125 114.956253051758 109.287498474121 
180.925003051758 176.268753051758 170.106246948242 164.625 160.856246948242 157.375 154.537506103516 152.087493896484 148.893753051758 146.375 143.106246948242 138.5 134.918746948242 129.5 123.568748474121 119.650001525879 115.806251525879 107.550003051758 102.037498474121 98.25 95.5562515258789 93.1437530517578 92.1312484741211 94.5374984741211 95.3874969482422 97.2062530517578 100.537498474121 104.712501525879 109.3125 110.831253051758 111.3125 113.28125 117.243751525879 121.137496948242 125.875 129.1875 135.425003051758 140.793746948242 144.756256103516 147.34375 146.331253051758 145.425003051758 147.237503051758 151.412506103516 154.774993896484 152.550003051758 148.631256103516 141.78125 132.199996948242 122.724998474121 112.668746948242 
187.256256103516 181.912506103516 173.056243896484 166.237503051758 161.137496948242 157.606246948242 154.443756103516 151.375 147.706253051758 144.137496948242 140.34375 136.949996948242 133.037506103516 128.243743896484 124.15625 119.400001525879 114.5625 108.512496948242 102.431251525879 98.59375 96.46875 94.7874984741211 92.9499969482422 94.5500030517578 96.6875 99.4749984741211 102.324996948242 105.6875 108.962501525879 111.506248474121 113.75 116.393753051758 120.1875 124.5625 130.293746948242 135.28125 142.643753051758 150.875 152.693756103516 158.318756103516 160.074996948242 157.637496948242 156.256256103516 159.199996948242 158.693756103516 157.425003051758 155.149993896484 148.618743896484 138.237503051758 128.850006103516 117.787498474121 
190.043746948242 184.587493896484 177.112503051758 168.131256103516 162.806243896484 159.25 154.199996948242 150.237503051758 146.762496948242 143.349990844727 139.125 135.350006103516 133.6875 128.612503051758 123.918746948242 119.150001525879 115.681251525879 110.099998474121 104.181251525879 101.068748474121 98.6687469482422 97.2624969482422 95.65625 96.6500015258789 98.1999969482422 100.981246948242 103.662498474121 106.606246948242 109.775001525879 111.25 114.918746948242 118.574996948242 122.625 129.40625 135.8125 140.137496948242 148.362503051758 158.399993896484 163.9375 169.618743896484 171.399993896484 167.675003051758 164.793746948242 165.293746948242 162.800003051758 162.40625 159.78125 153.362503051758 144.399993896484 135.293746948242 125.012496948242 
193.675003051758 185.706253051758 177.34375 169.693756103516 165.568756103516 160.081253051758 154.962493896484 150.5625 147.168746948242 142.912506103516 138.981246948242 134.918746948242 130.925003051758 127.78125 124.712501525879 122.106246948242 117.84375 112.762496948242 108.412498474121 106.106246948242 103.8125 100.162498474121 98.3937530517578 98.5875015258789 101.356246948242 102.181251525879 104.050003051758 107.918746948242 110.84375 113.012496948242 116.887496948242 119.787498474121 125.012496948242 131.943756103516 138.481246948242 143.487503051758 151.84375 160.543746948242 167.050003051758 173.65625 177.975006103516 174.318756103516 171.881256103516 170.543746948242 169.625 171.46875 168.606246948242 162.306243896484 151.75 141.65625 132.125 
190.25 184.25 175.918746948242 169.574996948242 165.462493896484 160.581253051758 156.293746948242 150.931243896484 146.949996948242 141.887496948242 141.212493896484 135.675003051758 132.024993896484 130.90625 127.862503051758 126.006248474121 122.637496948242 119.581253051758 115.618751525879 113.168746948242 109.675003051758 105.643753051758 101.949996948242 101.931251525879 103.756248474121 103.762496948242 105.4375 108.581253051758 111.412498474121 115.400001525879 118.637496948242 122.1875 126.724998474121 133.506256103516 140.899993896484 145.987503051758 152.899993896484 158.962493896484 165.168746948242 173.149993896484 177.899993896484 175.824996948242 174.712493896484 173.050003051758 174.387496948242 178.662506103516 178.375 167.631256103516 157.731246948242 147.981246948242 138.181243896484 
184.387496948242 180.643753051758 175.143753051758 169.762496948242 165.256256103516 160.693756103516 157.087493896484 152.1875 146.925003051758 143.037506103516 139.962493896484 138 134.362503051758 130.787506103516 129.824996948242 128.487503051758 127.662498474121 125.681251525879 123.1875 120.756248474121 116.599998474121 111.231246948242 106.581253051758 105.068748474121 104.993751525879 104.525001525879 105.949996948242 108.706253051758 111.006248474121 115.118751525879 119.506248474121 123.768753051758 128.668746948242 134.6875 141.862503051758 149.324996948242 153.987503051758 158.931243896484 165.012496948242 170.34375 174.399993896484 176.050003051758 177.331253051758 176.743743896484 178.712493896484 181.268753051758 179.356246948242 170.381256103516 160.662506103516 150.556243896484 141.887496948242 
179.731246948242 176.987503051758 173.100006103516 169.90625 166.418746948242 161.175003051758 158.125 153.543746948242 146.956253051758 143.087493896484 141.293746948242 140.487503051758 137.199996948242 133.975006103516 133.274993896484 133.068756103516 132.368743896484 130.449996948242 130.512496948242 127.96875 123.868751525879 117.637496948242 110.881248474121 107.9375 105.706253051758 105.543746948242 107.224998474121 108.912498474121 110.900001525879 114.793746948242 119.400001525879 123.393753051758 128.712493896484 134.925003051758 140.993743896484 146.431243896484 152.28125 159.456253051758 163.550003051758 168.725006103516 169.84375 170.568756103516 174.350006103516 173.975006103516 176.268753051758 177.737503051758 176.493743896484 169.25 161.824996948242 152.268753051758 143.100006103516 
172.78125 170 167.71875 165.399993896484 162.637496948242 158.887496948242 154.587493896484 151.925003051758 146.568740844727 142.306243896484 141.387496948242 140.606246948242 139.625 137.918746948242 137.024993896484 136.90625 135.8125 135.481246948242 135.987503051758 135.46875 129.600006103516 122.706253051758 114.487503051758 110.150001525879 107.806251525879 106.699996948242 107.349998474121 109.012496948242 110.925003051758 114.231246948242 118.75 123.050003051758 127.168746948242 132.887496948242 138.287506103516 142.212493896484 149.681243896484 155.181243896484 158.71875 162.5 165.606246948242 165.712493896484 166.837493896484 167.53125 169.03125 168.59375 166.787506103516 164.824996948242 158.456253051758 149.456253051758 142.181243896484 
165.631256103516 163.868743896484 161.731246948242 159.306243896484 158.618743896484 155.631256103516 152.800003051758 150.118743896484 146.143753051758 141.118743896484 142.056243896484 146.199996948242 145.581253051758 143.418746948242 142.493743896484 140.725006103516 139.612503051758 138.268753051758 137.9375 136.987503051758 132.637496948242 124.081253051758 116.212501525879 111.074996948242 108.318748474121 107.150001525879 107.018753051758 107.875 109.599998474121 113.193748474121 117.15625 121.487503051758 126.099998474121 131.318756103516 136.143753051758 140.606246948242 146.3125 152.018753051758 153.987503051758 156.149993896484 158.40625 157.881256103516 159.743743896484 161.1875 163.53125 161.143753051758 161.012496948242 160.34375 152.3125 145.90625 138.056243896484 
158.949996948242 158.524993896484 157.137496948242 154.712493896484 154.693756103516 153.34375 151.762496948242 150.537506103516 148.131256103516 143.800003051758 153.262496948242 156.306243896484 153.168746948242 149.462493896484 147.21875 145.050003051758 140.918746948242 139.46875 137.15625 134.318740844727 130.856246948242 123.318748474121 116.40625 111.137496948242 107.762496948242 105.900001525879 106.34375 107.331253051758 108.818748474121 112.324996948242 114.381248474121 118.125 122.699996948242 129.100006103516 134.181243896484 135.975006103516 140.806243896484 145.412506103516 149.412506103516 151.981246948242 151.649993896484 153.737503051758 152.387496948242 152.306243896484 153.706253051758 152.6875 154.181243896484 154.862503051758 145.381256103516 139.899993896484 133.956253051758 
158.53125 157.100006103516 155.356246948242 153.806243896484 152.131256103516 150.774993896484 150.675003051758 151.081253051758 151.84375 157.181243896484 168.012496948242 164.150009155273 156.962493896484 153.53125 150.231246948242 146.84375 142.512496948242 139.46875 135.112503051758 131.381256103516 126.912498474121 120.362503051758 114.637496948242 109.868751525879 106.46875 104.056251525879 104.206253051758 105.731246948242 107.518753051758 111.112503051758 114.206253051758 116.756248474121 120.606246948242 123.931251525879 128.324996948242 130.893753051758 135.09375 138.887496948242 142.78125 143.149993896484 143.581253051758 145.737503051758 144.518753051758 144.318756103516 145.287506103516 144.449996948242 141.612503051758 143.537506103516 139.231246948242 136.800003051758 129.512496948242 
156.574996948242 154.443756103516 153.074996948242 151.237503051758 149.96875 149.4375 148.175003051758 150.037506103516 152.637496948242 158.806243896484 163.181243896484 161.84375 158.368743896484 155.237503051758 152.8125 148.181243896484 143.625 138.962493896484 134.53125 128.762496948242 122.918746948242 116.949996948242 110.818748474121 106.487503051758 103.793746948242 101.837501525879 101.84375 103.931251525879 105.15625 109.237503051758 110.40625 113.6875 118.237503051758 120.962501525879 124.268753051758 127.050003051758 129.462493896484 133.493743896484 136.15625 134.056243896484 135.006256103516 137.818756103516 136.868743896484 135.53125 135.606246948242 133.837493896484 133.975006103516 135.231246948242 133.762496948242 132.618743896484 127.387504577637 
155.368743896484 153.456253051758 151.949996948242 150.143753051758 148 146.899993896484 147.550003051758 149.34375 151.34375 154.887496948242 156.806243896484 157.606246948242 158.043746948242 155.162506103516 152.824996948242 149.018753051758 144.287506103516 140.625 134.081253051758 125.962501525879 120.03125 112.381248474121 106.356246948242 102.006248474121 100.53125 99.3562469482422 100.431251525879 101.737503051758 103.4375 106.243751525879 109.074996948242 113.599998474121 117.40625 120.293746948242 122.887496948242 124.456253051758 125.887496948242 127.956253051758 130.40625 127.949996948242 128.4375 129.524993896484 128.600006103516 126.862503051758 126.818748474121 127.224998474121 128.012496948242 127.581253051758 129.418746948242 127.474998474121 125.675003051758 
156.425003051758 154.568756103516 153.15625 151.024993896484 149.637496948242 148.087493896484 148.600006103516 150.012496948242 152.293746948242 154.40625 156.568756103516 158.024993896484 158.956253051758 157.375 154.024993896484 150.793746948242 146.256256103516 142.0625 134.943756103516 124.525001525879 114.949996948242 108.25 100.637496948242 96.7312469482422 97.6125030517578 97.0437469482422 97.3375015258789 98.6125030517578 101.724998474121 105.768753051758 106.543746948242 111.581245422363 114.375 120.612495422363 123.587501525879 121.837501525879 122.337501525879 123.743751525879 124.131248474121 122.231246948242 122.21875 121.28125 118.962501525879 119.168746948242 119.518753051758 121.262504577637 120.168746948242 119.856246948242 125.006248474121 122.456253051758 119.856246948242 
156.837493896484 155.106246948242 154.837493896484 152.881256103516 151.137496948242 149.574996948242 149.59375 150.875 152.112503051758 154.643753051758 157.375 158.149993896484 158.137496948242 157.34375 156.125 152.90625 148.962493896484 144.800003051758 137.25 122.974998474121 110.568748474121 100.943748474121 95.6500015258789 95.1125030517578 94.78125 94.6624984741211 94.8249969482422 96.0124969482422 98.5687484741211 102.087501525879 103.59375 106.643753051758 110.449996948242 115.15625 121.84375 122.525001525879 118.875 119.275001525879 118.425003051758 117.037498474121 115.893753051758 115.21875 113.599998474121 112.481246948242 113.287498474121 113.206253051758 114.349998474121 114.237503051758 118.425003051758 117.143753051758 114.525001525879 
156.981246948242 155.324996948242 154.918746948242 152.162506103516 149.550003051758 149.050003051758 147.637496948242 148.25 150.618743896484 153.856246948242 156.524993896484 158.212493896484 159.6875 157.418746948242 156.831253051758 153.512496948242 149.350006103516 145.643753051758 140.09375 123.981246948242 109.224998474121 98.2062530517578 92.0999984741211 91.5374984741211 92.4124984741211 92.8499984741211 93.375 94.0124969482422 95.6062469482422 99.0687484741211 100.724998474121 103.106246948242 105.75 109.875 117.987503051758 124.043746948242 117.793746948242 115.050003051758 115.5 112.324996948242 110.849998474121 109.599998474121 108.125 107.84375 108.425003051758 107.099998474121 107.368751525879 108.050003051758 108.981246948242 111.599998474121 109.40625 
154.71875 154.59375 156.231246948242 151.3125 149.8125 147.793746948242 145.143753051758 145.28125 147.881256103516 151.850006103516 155.381256103516 157.868743896484 160.081253051758 159.568756103516 158.037506103516 153.493743896484 148.193756103516 142.831253051758 135.46875 122.837501525879 107.46875 98.09375 91.0812530517578 89.3125 90.3125 91.3125 91.4375 92.4375 94.9000015258789 97.8125 98.5 100.974998474121 103.275001525879 105.506248474121 110.300003051758 116.849998474121 114.193748474121 111.474998474121 110.612503051758 109.349998474121 108.206253051758 106.775001525879 104.912498474121 103.331253051758 102.9375 102.206253051758 102.956253051758 103.625 102.331253051758 105.943748474121 105.106246948242 
