ncols        51
nrows        45
xllcorner    -63.500000000000
yllcorner    -7.500000000000
cellsize     0.166666666667
NODATA_value -99
121.193748474121 116.449996948242 114.824996948242 117.418746948242 118.612503051758 122.525001525879 124.368751525879 125.775001525879 127.068748474121 133.024993896484 140.706253051758 149.15625 158.350006103516 166.037506103516 175.1875 185.556243896484 193.850006103516 200.40625 206.137496948242 213.25 219.100006103516 217.350006103516 216.737503051758 213.743743896484 212.318756103516 212.137496948242 215.893753051758 221.75 220.6875 215.243743896484 204.6875 199.949996948242 197.762496948242 191.581253051758 186.131256103516 181.84375 177.131256103516 174.0625 168.3125 164.75 163.962493896484 168.0625 166.368743896484 166.600006103516 164.287506103516 164.5625 167.206253051758 165.449996948242 162.600006103516 162.675003051758 166.15625 
117.756248474121 113.574996948242 114.418746948242 116.043746948242 118.893753051758 122.237503051758 123.46875 124.212501525879 128.362503051758 133.75 139.543746948242 146.693756103516 151.462509155273 157.443756103516 164.899993896484 173.412506103516 179.918746948242 186.206253051758 193.412490844727 203.018753051758 207.28125 205.956253051758 206.893753051758 205.643753051758 203.737503051758 202.106246948242 205.518753051758 208.212493896484 207.1875 197.40625 189.75 187.862503051758 183.493743896484 179.012496948242 175.018753051758 168.09375 164.324996948242 160.199996948242 155.137496948242 152.274993896484 153.449996948242 150.506256103516 153.387496948242 153.643753051758 155.368743896484 155.318756103516 157.612503051758 154.662506103516 150.143753051758 150.993743896484 154.59375 
118.731246948242 119.15625 121.074996948242 121.881248474121 125.849998474121 129.381256103516 130.387496948242 133.149993896484 136.506256103516 140.356246948242 143.256256103516 146.800003051758 150.831253051758 151.887496948242 157.112503051758 163.5 167.34375 172.100006103516 177.643753051758 183.693756103516 187.518753051758 190.225006103516 190.237503051758 192.881256103516 189 186.806243896484 193.456253051758 194.425003051758 190.893753051758 186.581253051758 177.587493896484 172.550003051758 167.831253051758 164.774993896484 158.949996948242 149.318756103516 147.375 145.800003051758 141.899993896484 139.975006103516 142.443756103516 141.606246948242 142.387496948242 141.625 144.6875 143.231246948242 147.306243896484 146.96875 141.925003051758 141.637496948242 143.818756103516 
119.712501525879 119.449996948242 124.956253051758 129.381256103516 132.731246948242 135.175003051758 137.231246948242 139.487503051758 143.581253051758 146.943756103516 146.568756103516 146.706253051758 146.65625 145.568756103516 149.90625 154.643753051758 155.293746948242 158.643753051758 162.006256103516 170.881256103516 172.4375 170.487503051758 171.668746948242 176.012496948242 172.931243896484 171.774993896484 175.981246948242 175.356246948242 175.681243896484 172.425003051758 165.875 158.818756103516 153.899993896484 147.087493896484 141.587493896484 139.943756103516 138.34375 134.806243896484 130.9375 129.331253051758 130.643753051758 132.981246948242 133.399993896484 132.125 136.225006103516 133.225006103516 136.737503051758 135.90625 133.587493896484 130.65625 135.149993896484 
130.412506103516 129.949996948242 128.606246948242 134.981246948242 142.774993896484 142.181243896484 143.21875 146.975006103516 152.637496948242 155.149993896484 152.46875 145.987503051758 143.881256103516 141.981246948242 143.106246948242 145.831253051758 146.837493896484 144.956253051758 145.881256103516 150.993743896484 151.856246948242 152.506256103516 154.3125 157.806243896484 155.9375 156.462493896484 158.599990844727 162.887496948242 163.9375 157.637496948242 154.018753051758 149.381256103516 142.96875 137.631256103516 134.456253051758 129.5 127.375 125.912498474121 121.487503051758 118.618751525879 120.21875 122.243751525879 123.768753051758 125.168746948242 126.856254577637 125.787498474121 125.087501525879 123.987503051758 122.256248474121 121.931251525879 124.199996948242 
137.875 141.074996948242 140.537506103516 137.556243896484 147.4375 152.881256103516 151.837493896484 153.28125 160.212493896484 162.574996948242 155.381256103516 147.850006103516 144.625 141.418746948242 139.212493896484 139.699996948242 137.993743896484 134.5 135.268753051758 136.918746948242 139.487503051758 139.856246948242 140.887496948242 141.175003051758 142.831253051758 144.543746948242 145.300003051758 149.399993896484 151.149993896484 146.018753051758 144.731246948242 141.112503051758 137.268753051758 130.956253051758 124.556251525879 124.318748474121 120.068748474121 114.331253051758 113.150001525879 114.493751525879 113.568748474121 116.456253051758 116.456253051758 117.331253051758 122.181251525879 119.587501525879 117.587501525879 116.768753051758 113.25 112.074996948242 115.262496948242 
148.943756103516 151.712493896484 151.862503051758 151.456253051758 151.487503051758 150.21875 149.0625 154.074996948242 155.068756103516 156.100006103516 151.6875 145.487503051758 143.462493896484 140.918746948242 137.456253051758 135.3125 133.362503051758 128.368743896484 124.09375 124.487503051758 123.556251525879 124.78125 125.356254577637 128.050003051758 132.918746948242 134.899993896484 135.287506103516 137.462493896484 139.087493896484 139.956253051758 135.393753051758 130.168746948242 125.518745422363 122.618751525879 120.431251525879 116.75 110.137496948242 106.743751525879 105.181251525879 107.15625 106.3125 107.868751525879 109.631248474121 110.650001525879 112.418746948242 114.84375 111.21875 105.125 104.193748474121 105.006248474121 108.599998474121 
157.800003051758 158.443756103516 159.106246948242 162.981246948242 163.193756103516 163.5625 154.225006103516 146.256256103516 140.524993896484 143.262496948242 143.693756103516 141.9375 141.125 138.118743896484 136.193756103516 132.581253051758 126.856246948242 121.081253051758 115.056251525879 110.28125 115.456253051758 115.125 115.037498474121 117.393753051758 122.087501525879 122.800003051758 124.175003051758 126.262496948242 128.112503051758 126.181251525879 127.681251525879 122.818748474121 119.099998474121 115.181251525879 109.787498474121 105.806251525879 101.900001525879 98.7375030517578 95.2437515258789 94.4250030517578 95.2312469482422 98.7874984741211 98.1062469482422 97.3000030517578 97.9500045776367 97.5250015258789 96.0187530517578 95.0124969482422 94.4499969482422 94.4937515258789 99.8312454223633 
163.612503051758 165.893753051758 164.262496948242 165.831253051758 167.375 163.618743896484 160.481246948242 155.462493896484 143.918746948242 136.581253051758 135.037506103516 135.862503051758 139.375 137.300003051758 134.118743896484 127.893753051758 125.09375 120.4375 115.3125 108.331253051758 105.662498474121 109.837501525879 106.862503051758 112.425003051758 114.03125 115.375 116.743751525879 120.118751525879 124.71875 122.481246948242 124.481246948242 115.237503051758 107.300003051758 102.699996948242 100.925003051758 101.118751525879 99.3312530517578 97.6937484741211 94.2874984741211 91.15625 89.4437484741211 88.7375030517578 91.9749984741211 91.0187530517578 87.6624984741211 86.4187469482422 86.9375 85.2125015258789 83.5437469482422 85.7750015258789 88.8687515258789 
169.106246948242 171.925003051758 170.40625 171.262496948242 171.774993896484 167.243743896484 163.287506103516 155.868743896484 149.918746948242 143.53125 137.287506103516 131.225006103516 135.887496948242 136.03125 132.399993896484 126.831253051758 120.606246948242 119.425003051758 114.762496948242 109.981246948242 105.012496948242 103.512496948242 99.5 102.824996948242 103.456253051758 106.993751525879 108.974998474121 111.0625 113.112503051758 114.525001525879 114.925003051758 109.106246948242 104.53125 100.699996948242 96.4375 95.3874969482422 95.25 95.1687469482422 93.2687530517578 93.3187484741211 92.9937515258789 91.8874969482422 87.875 83.1624984741211 80.3187484741211 80.6312484741211 81.0187530517578 80.5124969482422 80.3000030517578 79.0812530517578 77.78125 
176.199996948242 177.3125 175.206253051758 174.3125 172.649993896484 170.487503051758 162.881256103516 155.993743896484 152.125 147.46875 142.96875 137.112503051758 133.568756103516 133.918746948242 128.712493896484 122.931251525879 116.493751525879 112.393753051758 110.381248474121 109.393753051758 110.381248474121 105.481246948242 97.2375030517578 90.6374969482422 95.0687484741211 103.40625 106.381248474121 106.268753051758 105.824996948242 105.993751525879 106.118751525879 103 100.131248474121 97.2125015258789 94.125 91.2750015258789 91.2874984741211 90.25 92.21875 91.2624969482422 90.2687530517578 87.5250015258789 85.6812515258789 78.40625 73.15625 71.9812469482422 75.71875 76.7062530517578 76.46875 75.75 72.9124984741211 
177.493743896484 178.824996948242 179.037506103516 175.318756103516 174.050003051758 169.3125 166.524993896484 161.493743896484 157.018753051758 148.34375 145.956253051758 141.199996948242 131.024993896484 130.118743896484 128.5625 122.106246948242 115.618751525879 112.40625 111.400001525879 114.28125 115.412498474121 111.050003051758 101.224998474121 91.3625030517578 91.6500015258789 94.6999969482422 95.7624969482422 97.9499969482422 100.375 99.4749984741211 95.8187484741211 95.8812484741211 94.3187484741211 90.3125 89.5812530517578 90.2375030517578 91.8187484741211 91.8249969482422 89.1312484741211 90.6624984741211 90.0749969482422 86.625 78.7937469482422 67.6374969482422 61.25 59.125 61.1124992370605 69.2375030517578 71.2062530517578 69.4937515258789 65.3187484741211 
181.637496948242 181.068756103516 179.412506103516 175.637496948242 175.175003051758 169.206253051758 165.631256103516 161.649993896484 155.387496948242 149.75 146.231246948242 142.40625 135.881256103516 124.943748474121 120.631248474121 117.425003051758 112.599998474121 111.050003051758 106.456253051758 108.175003051758 110.862503051758 106.699996948242 99.4437484741211 91.71875 85.7874984741211 86.6749954223633 89.8312530517578 92.7249984741211 95.9562530517578 96.9562530517578 92.8812484741211 89.6125030517578 90.2312469482422 85.6624984741211 84.8062515258789 87 91.3125 93.34375 96.4625015258789 94.8250045776367 89.7562484741211 84.8187484741211 73.21875 64.1437530517578 61.1812515258789 60.7687492370605 61.6624984741211 62.1375007629395 62.8937492370605 63.4874992370605 63.2999992370605 
183.512496948242 182.618743896484 179.443756103516 176.074996948242 172.34375 168.387496948242 163.53125 161.4375 157.293746948242 150.556243896484 146.237503051758 138.850006103516 133.3125 125.03125 112.912498474121 112.3125 107.349998474121 104.193748474121 101.3125 101.712501525879 102.775001525879 98.90625 93.1187515258789 89.5562515258789 86.1750030517578 83.8499984741211 84.125 85.2937469482422 87.7312469482422 88.2937469482422 88.4499969482422 86.8499984741211 85.6624984741211 84.6312484741211 81.8562469482422 87.7750015258789 94.9000015258789 100.175003051758 103.5625 99.7437515258789 86.4937515258789 77.7125015258789 74.0250015258789 73.6312484741211 73.125 69.0437469482422 67.5374984741211 67.5812530517578 66.7375030517578 68.5875015258789 66.5500030517578 
179.5 178.712493896484 177.693756103516 175.675003051758 171.625 167.649993896484 164.475006103516 160.731246948242 156.168746948242 150.875 145.15625 138.462493896484 132.100006103516 122.53125 109.15625 107.349998474121 103.84375 103.006248474121 97.90625 96.9375 98.1187515258789 94.71875 91.4124984741211 89.6374969482422 89.4375 87.6125030517578 87.7687530517578 87.9124984741211 90.6125030517578 87.9312515258789 84.5250015258789 84.9312515258789 87.3625030517578 83.1624984741211 78.0625 79.96875 92.1374969482422 104.275001525879 106.300003051758 100.300003051758 93.21875 88.1125030517578 86.7624969482422 79.6875 75.6875 74.8375015258789 76.03125 76.96875 75.9812469482422 71.1374969482422 66.1437530517578 
177.350006103516 174.587493896484 173.78125 170.225006103516 169.824996948242 167.012496948242 162.993743896484 158.300003051758 156.212493896484 154.118743896484 148.181243896484 140.537506103516 133.943756103516 124.587501525879 112.724998474121 99.2249984741211 98.5812530517578 100.081253051758 95.3687515258789 93.9250030517578 93.5374984741211 91.21875 89.8125 90.6750030517578 90.5562515258789 88.8499984741211 87.46875 88.4625015258789 89.4187469482422 90.7375030517578 89.03125 86.2687530517578 81.3187484741211 76.2062530517578 72.0749969482422 83.9124984741211 89.75 98.2312469482422 104.637496948242 106.668746948242 105.824996948242 100.800003051758 92.4124984741211 81.53125 75.7062530517578 73.2062530517578 73.2687530517578 71.7375030517578 72.3937454223633 70.28125 66.4187469482422 
173.46875 172.043746948242 169.181243896484 168.925003051758 168.206253051758 166.568756103516 162.806243896484 159.53125 154.050003051758 150.606246948242 147.987503051758 141.925003051758 133.100006103516 124.112503051758 116.90625 104.506248474121 91.1374969482422 91.7562484741211 91.7062530517578 89.5374984741211 87.4812469482422 87.0687484741211 85.90625 89.7375030517578 89.5 84.8812484741211 83.7000045776367 84.2562484741211 88.2375030517578 90.53125 91.5 91.2375030517578 86.3499984741211 84.3499984741211 88.2125015258789 92.6750030517578 100.349998474121 107.006248474121 113.362503051758 109.568748474121 108.993751525879 100.662498474121 89.0749969482422 80.8562469482422 75.5562515258789 72.9812545776367 72.84375 73.1187515258789 71.96875 66.1437530517578 63.0499992370605 
167.84375 167.287506103516 167.800003051758 167.71875 167.712493896484 168.068756103516 163.556243896484 159.649993896484 154.324996948242 148.149993896484 143.512496948242 140.393753051758 131.293746948242 123.737503051758 118.662498474121 109.137496948242 96.125 84.28125 90.1624984741211 85.4250030517578 82.7000045776367 81.5437469482422 82.6812515258789 85.3312530517578 86.8874969482422 82.3312530517578 79.6999969482422 83.7437515258789 87.1687469482422 87.71875 84.84375 82.2874984741211 92.3000030517578 93.4187469482422 94.1187515258789 108.949996948242 114.71875 111.699996948242 112.681251525879 110.324996948242 100.425003051758 90.8312530517578 81.8562469482422 76.2687530517578 72.8187484741211 71.9499969482422 72.3000030517578 71.5437469482422 69.59375 62.4937515258789 62.25 
162.949996948242 164.699996948242 165.4375 166.481246948242 167.574996948242 165.46875 162.09375 157.856246948242 154.275009155273 150.050003051758 144.3125 134.725006103516 127.568748474121 122.349998474121 115.518753051758 108.243751525879 102.275001525879 88.3687515258789 81.6374969482422 79.03125 79.0562515258789 80.2874984741211 72.84375 77.5250015258789 79.03125 81.09375 81.7375030517578 81.5062484741211 86.5999984741211 87.1624984741211 85.96875 88.0437469482422 92.875 92.8000030517578 97.1125030517578 107.518753051758 108.90625 105.081253051758 105.118751525879 99.5187530517578 91.0124969482422 80.4499969482422 75.4499969482422 72.7375030517578 71.28125 71.0062484741211 72.0124969482422 70.8562469482422 66.6062545776367 58.8499984741211 61.90625 
160.643753051758 162.981246948242 162.512496948242 159.993743896484 160.09375 162.46875 160.087493896484 155.418746948242 155.074996948242 152.131256103516 147.462493896484 141.181243896484 132.949996948242 124.21875 115.887496948242 102.574996948242 93.6750030517578 92.5749969482422 85.3625030517578 83.4875030517578 73.75 70.9749984741211 72.7937469482422 74.1437530517578 72.2937469482422 71.125 72.59375 78.8937530517578 79.2312469482422 78.8375015258789 80.9375 91.46875 93.3812484741211 92.5625 93.125 98.8874969482422 102.09375 99.2562484741211 95.4625015258789 90.2062530517578 81.0374984741211 70.8812484741211 70.0124969482422 69.2125015258789 67.90625 68.1374969482422 68.8937530517578 67.2312469482422 63.3125 59.5750007629395 62.7125015258789 
150.231246948242 160.462493896484 164.53125 163.237503051758 158.256256103516 157.512496948242 158.600006103516 156.612503051758 154.699996948242 150.506256103516 147.606246948242 141.212493896484 133.087493896484 122.581253051758 112.243751525879 104.75 95.2062530517578 90.1500015258789 89.7750015258789 85.3874969482422 84.5 81.7437515258789 80.6750030517578 83.4562530517578 82.2375030517578 78.0437469482422 73.5 75.3187484741211 77.6312484741211 81.4375 85.34375 92.5374984741211 88.4250030517578 86.8187484741211 86.3937530517578 91.59375 95.7312469482422 95.3249969482422 89.6500015258789 83.9375 77.7249984741211 69.9437484741211 67.9250030517578 67.7249984741211 66.8562469482422 67.2249984741211 67.90625 65.21875 60.4874992370605 61.8875007629395 62.0374984741211 
149.5 151.71875 158.993743896484 162.787506103516 160.493743896484 157.287506103516 156.831253051758 154.449996948242 151.975006103516 151.100006103516 147.875 139.543746948242 131.237503051758 125.175003051758 118.5625 107.431251525879 106.881248474121 99.2062530517578 98.3874969482422 94.34375 88.0187530517578 88.2375030517578 86.9875030517578 84.59375 80.9375 77.1999969482422 78.5187530517578 77.3125 81.8812484741211 85.96875 86.9625015258789 86.8125 84.875 85.8125 83.9625015258789 85.5437469482422 88.40625 90.1624984741211 86.9812469482422 82.4250030517578 76.3625030517578 70.8375015258789 68.6812515258789 68.7937469482422 67.0500030517578 66.2687530517578 65.9375 63.0812492370605 59 62.8125 62.4124984741211 
149.168746948242 160.256256103516 166.931243896484 169.693756103516 167.568756103516 161.949996948242 152.631256103516 148.59375 151.443756103516 149.806243896484 146 142.399993896484 140.368743896484 136.362503051758 128.762496948242 119.974998474121 111.150001525879 104.331253051758 101.84375 100.106246948242 98.28125 93.2125015258789 87.7750015258789 85.6624984741211 85.3187484741211 81.0999984741211 79.1187515258789 79.65625 82.3687515258789 82.1687469482422 82.7687530517578 84.625 81.6500015258789 79.5250015258789 81.0812530517578 80.0625 80.3874969482422 82.5625 82.9250030517578 80.6875 75.4625015258789 71.3499984741211 68.78125 67.2624969482422 67.0500030517578 66.3187484741211 63.1812515258789 59.8125 59.9749984741211 63.3687515258789 63.3624992370605 
145.737503051758 158.475006103516 171.056243896484 170.449996948242 166.887496948242 160.949996948242 158.850006103516 153.737503051758 149.15625 143.981246948242 146.100006103516 148.53125 143.931243896484 142.256256103516 131.149993896484 122.868751525879 115.512496948242 112.262496948242 108.362503051758 104.625 101.587501525879 98.96875 92.40625 93.1500015258789 88.8812484741211 82.9124984741211 84.1125030517578 79.9000015258789 79.1437530517578 80.1312484741211 80.3312530517578 81.4312515258789 79.8187484741211 76.3562469482422 76.8375015258789 74.9375 76.3499984741211 78.2624969482422 77.6125030517578 75.40625 72.125 69.5999984741211 67.7874984741211 67.0062484741211 67.7624969482422 64.34375 59.2000007629395 56.5812492370605 58.3624992370605 61.3375015258789 61.4562492370605 
140.28125 155.418746948242 166.318756103516 173.237503051758 172.693756103516 166.274993896484 161.181243896484 158.081253051758 152.09375 151.181243896484 148.375 146.668746948242 146.712493896484 139.743743896484 129.462493896484 122.15625 117.224998474121 111.756248474121 109.318748474121 108.137496948242 104.931251525879 100.15625 98.4000015258789 97.34375 89.8687515258789 83.8249969482422 81.8937530517578 79.7687530517578 77.9437484741211 78.8000030517578 76.4499969482422 75.1812515258789 73.5625 72.9749984741211 72.40625 72.0875015258789 72.5687484741211 72.3874969482422 73.3187484741211 72.0187530517578 69.5500030517578 68.3125 67.7687530517578 65.3375015258789 63.7562484741211 59.9249992370605 54.2750015258789 52.8062515258789 52.5125007629395 57.2937507629395 60.2312507629395 
140.949996948242 158.875 162.181243896484 169.618743896484 168.96875 164.524993896484 158.137496948242 155.431243896484 146.100006103516 140.975006103516 143.418746948242 142.081253051758 141.59375 136.881256103516 130.112503051758 120.662498474121 116.237503051758 113.96875 111.875 107.300003051758 105.150001525879 101.84375 99.2437515258789 96.625 91.6875 84.1374969482422 81.8000030517578 79.6125030517578 75.7937469482422 75.2437515258789 72.7125015258789 71.03125 69.4625015258789 68.3000030517578 67.5500030517578 69.0250015258789 69.5812530517578 68.2312469482422 67.65625 68.34375 66.40625 61.9937515258789 61.3062515258789 61.4874992370605 61.0750007629395 58.0250015258789 54.6124992370605 51.0812492370605 52.5750007629395 57.8562507629395 59.0687484741211 
140.481246948242 149.100006103516 157.568756103516 162.100006103516 161.212493896484 157.9375 152.668746948242 143.3125 137.506256103516 139.899993896484 142.487503051758 140.487503051758 136.850006103516 133.887496948242 129.068756103516 123.768753051758 117.231246948242 111.081253051758 110.006248474121 105.8125 101.6875 99.2375030517578 97.9499969482422 99.0250015258789 90.6875 83.6999969482422 81.5500030517578 78.0625 74.4375 72.6437530517578 71.34375 67.5437469482422 65.28125 64.3562469482422 63.9500007629395 64.4499969482422 66.1812515258789 65.1125030517578 63.6062507629395 64.9625015258789 64.59375 61.5625 58.7000007629395 57.6375007629395 57.28125 57.2000007629395 56.6749992370605 51.9562492370605 51.21875 53.4187507629395 53.1624984741211 
140.84375 144.03125 149.649993896484 149.524993896484 148.443756103516 148.012496948242 144.743743896484 137.706253051758 134.487503051758 136.818740844727 136.475006103516 135.412506103516 131.262496948242 127.175003051758 122.5 117.893753051758 112.481246948242 109.381248474121 104.400001525879 102.574996948242 100.03125 95.5374984741211 95.7312469482422 93.7125015258789 87.9437484741211 81.0749969482422 78.9437484741211 75.6312484741211 74.2375030517578 73.3187484741211 70.7687530517578 67.9812469482422 64.4875030517578 60.8875007629395 61.7562484741211 62.0250015258789 63.6624984741211 62.3875007629395 62.1937484741211 62.75 62.6187515258789 61.5250015258789 56.0187492370605 55.8687515258789 54.25 54.5250015258789 53.5374984741211 51.7125015258789 49.7562484741211 46.59375 46.3187484741211 
136.800003051758 143.40625 140.574996948242 137.543746948242 138.018753051758 132.84375 131.762496948242 131.018753051758 131.381256103516 130.537506103516 130.84375 128.806243896484 126.756248474121 123.487503051758 119.087501525879 115.050003051758 111.574996948242 106.443748474121 103.856246948242 101.800003051758 96.8125 91.9937515258789 89.2312469482422 86.9749984741211 82.7750015258789 76.6812515258789 76.6999969482422 75.8937530517578 73.7937469482422 70.8499984741211 67.5749969482422 65.7624969482422 61.9312515258789 60.2687492370605 58.9874992370605 58.9812507629395 61.4312515258789 59.1749992370605 59.2999992370605 59.0562515258789 58.0125007629395 55.90625 53.59375 54.9000015258789 54.0750007629395 51.7625007629395 51.9437484741211 49.2625007629395 46.8187484741211 43.7750015258789 40.7249984741211 
130.381256103516 132.856246948242 130.737503051758 126.731246948242 125.462501525879 124.71875 123.256248474121 126.074996948242 125.1875 125.65625 125.675003051758 125.068748474121 123.668746948242 121.1875 115.743751525879 110.40625 106.181251525879 103.956253051758 97.7937469482422 92.5374984741211 90.78125 87.0250015258789 84.3062515258789 82.5062484741211 77.8625030517578 75.5749969482422 74.7750015258789 73.3937530517578 71.8499984741211 68.2687530517578 65.3312530517578 62.875 60.5750007629395 59.2000007629395 58.875 57.5999984741211 60.7062492370605 58.6624984741211 55.8812484741211 57.9562492370605 56.5062484741211 54.1937484741211 53.4937515258789 51.8624992370605 50.8125 51.1937484741211 48.2437515258789 46.6875 44.6687507629395 41.84375 38.3812484741211 
125.618751525879 125.287498474121 121.681251525879 119.1875 117.987503051758 116.962501525879 117.931251525879 119.118751525879 118.375 120.15625 121.099998474121 118.925003051758 119.587501525879 112.487503051758 109.018753051758 107.962501525879 104.893753051758 99.3874969482422 94.03125 90.0437469482422 86.34375 81.3062515258789 78.8125 78 74.9437484741211 73.3937530517578 72.2125015258789 71.4812469482422 69.6187515258789 66.4625015258789 65.4375 63.0499992370605 59.9000015258789 57.2125015258789 56.5499992370605 55.7062492370605 57.7687492370605 57.2562522888184 54.8187484741211 52.5812492370605 52.6937484741211 50.78125 49.8187484741211 48.9749984741211 49.1062507629395 47.7000007629395 44.7437515258789 43.0250015258789 41.1812515258789 39.7249984741211 37.8937492370605 
119.474998474121 118.4375 113.581253051758 112.762496948242 114.456253051758 113.381248474121 113.074996948242 113.1875 113.706253051758 113.125 111.53125 110.9375 108.193748474121 106.737503051758 105.556251525879 103.206253051758 97.4875030517578 92.375 88.21875 84.9124984741211 81.1437530517578 77.4375 73.1937484741211 72.1187515258789 71.5687484741211 69.8125 69.7937469482422 69.3375015258789 67.5374984741211 67.3812484741211 64.9000015258789 61.9562492370605 59.4249992370605 56.4562492370605 55.0874977111816 53.59375 54.125 52.4249992370605 51.78125 50.5562515258789 50.875 49.4312515258789 47.8125 46.8312492370605 46.5374984741211 45.9937515258789 44.78125 42.1687507629395 39.8499984741211 38.2625007629395 36.3562507629395 
111.006248474121 110.181251525879 108.543746948242 108.349998474121 107.018753051758 106.8125 107.012496948242 108.043746948242 106.881248474121 106.587501525879 108.943748474121 106.918746948242 105.193748474121 105.824996948242 104.724998474121 99.0500030517578 92.9812469482422 90.1624984741211 86.0875015258789 82.2874984741211 76.8937530517578 72.5687484741211 69.8625030517578 69.3625030517578 68.3499984741211 67.5374984741211 67.2687530517578 66.6437530517578 66.1999969482422 65.9250030517578 64.1812515258789 60.2562522888184 58.1687507629395 56.7999992370605 54.5625 52.875 51.5374984741211 49.8062515258789 49.1812515258789 50.0562515258789 50.2000007629395 48.5374984741211 46.1187515258789 44.6437492370605 43.2750015258789 43.4187507629395 44.3999977111816 41.46875 39.8312492370605 36.0374984741211 34.8250007629395 
102.256248474121 103.025001525879 104.556251525879 103.931251525879 102.318748474121 101.462501525879 102.887496948242 101.75 100.21875 99.3125 101.912498474121 103.46875 102.599998474121 100.625 97.90625 95.4937515258789 92.0812530517578 87.1624984741211 81.2750015258789 77.6624984741211 73.7437515258789 69.3187484741211 67.6875 65.9875030517578 66 64.4000015258789 65.46875 65.25 66.0562515258789 65.0687484741211 63.9749984741211 61.6624984741211 57.1812515258789 54.7874984741211 53.5999984741211 51.9812507629395 50.125 48.1875 47.8062515258789 47.8687515258789 46.8375015258789 46.4312515258789 45.0187492370605 41.46875 41.7687492370605 42.3250007629395 41.2312507629395 38.3812484741211 36.71875 35.8062515258789 34.96875 
96.1437530517578 94.9562530517578 98.0687484741211 100.162498474121 99.0875015258789 95.7375030517578 94.4625015258789 94.9625015258789 94.1687469482422 93.3874969482422 98.6937484741211 101.418746948242 101.53125 103.25 100.387496948242 95.1937484741211 89.3625030517578 82.28125 76.5999984741211 70.5 69.4437484741211 64.6999969482422 62.1749992370605 61.2374992370605 63.3499984741211 63.0999984741211 63.5374984741211 62.7562522888184 63.0562477111816 61.90625 61.4500007629395 60.2062492370605 55.5125007629395 52.9625015258789 50.7125015258789 49.7687492370605 47.1062507629395 47.4562492370605 45.7374992370605 45.6624984741211 44.75 43.1812515258789 42.3687515258789 40.1500015258789 39.90625 39.34375 38.3187484741211 37.7000007629395 35.4562492370605 35.2999992370605 33.8062515258789 
90.2562484741211 88.9437484741211 90.4625015258789 92.4812469482422 92.75 90.8062515258789 89.6687469482422 88.375 86.6374969482422 85.8937530517578 88.4749984741211 96.2249984741211 99.9625015258789 100.456253051758 98 93.2562484741211 86.6875 78.0749969482422 71.8937530517578 65.5374984741211 62.9124984741211 61.7312507629395 58.9749984741211 58.2937507629395 60.125 60.0125007629395 60.2749977111816 59.8187484741211 61.0187492370605 59.5625 57.9375 56.9625015258789 53.875 50.75 47.6500015258789 46.8937492370605 46.65625 44.84375 43.9874992370605 44.1875 43.2937507629395 41.3624992370605 40.2999992370605 39.5562515258789 38.3499984741211 36.8062515258789 36.8937492370605 35.5562515258789 34.8562507629395 33.1937484741211 32.53125 
82.0687484741211 84.0500030517578 83.3000030517578 85.40625 87.0374984741211 85.6375045776367 84.40625 84.5749969482422 82.5500030517578 77.9812469482422 83.9124984741211 94.9250030517578 99.7249984741211 97.9187469482422 95.3062515258789 90.3312530517578 84.4562530517578 77.0500030517578 70.4375 62.3999977111816 58.9500007629395 58.7062492370605 56.2437515258789 56.2062492370605 56.2687492370605 56.4937515258789 58.3062515258789 57.8875007629395 57.4124984741211 55.1875 55.3125 53.2562484741211 51.2312507629395 49.0562515258789 46.125 45.1875 44.9500007629395 44.5 42.71875 41.5 40.4874992370605 39.96875 37.9749984741211 39.8687515258789 38.4312515258789 36.0750007629395 37.2249984741211 34.5250015258789 33.5125007629395 32.65625 31.2875003814697 
74.9437484741211 77.0625 78.2125015258789 80.9875030517578 81.7375030517578 81.4375 81.75 81.8874969482422 81.4000015258789 76.6937484741211 88.1374969482422 97.9937515258789 98.7687530517578 97.6312484741211 92.1750030517578 86.8562469482422 80.7249984741211 74.6624984741211 69.1875 62.6187515258789 58.1687507629395 56.28125 53.2937507629395 53.5374984741211 53.1937484741211 54.625 56.1187515258789 55.5374984741211 54.8624992370605 52.0875015258789 50.8062515258789 50.90625 49.5125007629395 46.65625 44.1937484741211 43.5999984741211 42.96875 41.875 42.5750007629395 40.5999984741211 38.9874992370605 38.9500007629395 36.6375007629395 36.03125 35.78125 34.90625 35.4812507629395 33.8937492370605 31.0187492370605 30.7749996185303 30.2062492370605 
71.0875015258789 71.5999984741211 73.2874984741211 75.375 76.9312515258789 78.8312530517578 78.9437484741211 80.7437515258789 83 91.6374969482422 105.862495422363 103.956253051758 97.2312469482422 92.4375 87.125 81.0250015258789 76.7062530517578 71.2624969482422 66.1062469482422 61.4375 56.6062507629395 53.8499984741211 51.34375 51.0374984741211 51.1312484741211 52.9187507629395 53.1312484741211 51.9812507629395 51.2625007629395 50.1812515258789 49.4749984741211 48.1812515258789 46.2937507629395 44.7687492370605 44.1875 42.34375 41.6624984741211 40.4249992370605 38.6749992370605 37.1312484741211 37.3062515258789 37.4937515258789 36.2312507629395 35.6187515258789 34.5499992370605 33.6437492370605 32.6187515258789 30.7312507629395 29.46875 29.5687503814697 29.5125007629395 
65.7624969482422 67.3937530517578 69.5 70.2437515258789 73.7687530517578 76.6750030517578 75.8687515258789 80.4437484741211 84.5562515258789 92.0062484741211 96.2562484741211 97.3312530517578 92.84375 88.2312469482422 83.6687469482422 79.8062515258789 74.1125030517578 68.6125030517578 63.2249984741211 59.2562522888184 55.25 52.7374992370605 48.7999992370605 48.9562492370605 47.9562492370605 48.2874984741211 49.2999992370605 48.5687484741211 47.6437492370605 46.0999984741211 45.0562515258789 44.7937507629395 42.5625 42.4874992370605 40.5374984741211 39.6124992370605 38.8375015258789 38.6812515258789 37.2000007629395 35.9249992370605 36.4749984741211 36.2000007629395 34.2249984741211 33.0999984741211 31.6437492370605 31.7124996185303 30.6687507629395 30.3500003814697 29.6187496185303 29.6312503814697 28.8250007629395 
63.1624984741211 63.5062484741211 65.1875 67.3562469482422 69.3562545776367 70.3812484741211 71.5124969482422 76.5812530517578 80.0437469482422 85.1500015258789 87.6500015258789 87.6187515258789 86.3562469482422 81.2624969482422 79.0250015258789 74.0437469482422 70.8312530517578 66.5187530517578 60.2874984741211 56.21875 53.5750007629395 50.3624992370605 47.84375 47.5687484741211 46.3375015258789 44.7562522888184 45.3812522888184 45.9312515258789 45.5250015258789 42.90625 43.4625015258789 43.3187484741211 39.8687515258789 39.4625015258789 38.4000015258789 37.3562507629395 36.0374984741211 36.6124992370605 35.1937484741211 33.75 34.8499984741211 33.8250007629395 31.9437503814697 30.7687511444092 31.4125003814697 30.8312492370605 29.4624996185303 28.7000007629395 30.4187507629395 30.3062496185303 28.8624992370605 
61.9812507629395 62.9625015258789 62.3499984741211 65.3375015258789 66.1062469482422 68.6624984741211 69.1812515258789 73.0374984741211 76.5999984741211 77.9375 80.0437469482422 79.1062469482422 78.3874969482422 75.1999969482422 72.4812469482422 69.0999984741211 66.6187515258789 61.8875007629395 57.9749984741211 53.7000007629395 49.9749984741211 46.7874984741211 44.3499984741211 43.6812515258789 42.8062515258789 40.8999977111816 40.8875007629395 41.6124992370605 41.9000015258789 39.4249992370605 38.5187492370605 39.40625 38.71875 39.0437507629395 36.6500015258789 34.7249984741211 33.8312492370605 33.5374984741211 32.625 32.4749984741211 32.5187492370605 31.75 31.1937503814697 30.5249996185303 29.6625003814697 28.8999996185303 27.1375007629395 26.0750007629395 26.96875 27.8875007629395 27.6187496185303 
59.9312515258789 60.5875015258789 62.2374992370605 62.1124992370605 64.3874969482422 66.4812469482422 68.9812469482422 70.3937530517578 70.6374969482422 71.2437515258789 72.375 72.9437484741211 70.6750030517578 67.59375 66.0187530517578 63.84375 60.4562492370605 58.5687484741211 55.15625 50.71875 46.0250015258789 41.4749984741211 38.4749984741211 38.9249992370605 39.34375 38.8624992370605 38.2374992370605 38.3624992370605 38.3187484741211 36.3499984741211 35.7125015258789 35.2999992370605 35.3375015258789 36.6937484741211 37.0625 33.8062515258789 31.5750007629395 30.75 30.4750003814697 30.0874996185303 30 30.0437507629395 29.6375007629395 29.0125007629395 27.5187492370605 26.2687492370605 25.1124992370605 24.7062492370605 26.1312503814697 25.0437507629395 25.8312492370605 
57.8687515258789 59.8937492370605 61.6062507629395 61.6875 65.0562515258789 65.5500030517578 66.75 69.0500030517578 69.53125 67.6624984741211 65.9749984741211 65.4875030517578 62.7999992370605 60.9375 59.53125 56.8375015258789 55.5625 54.71875 53.53125 48.5374984741211 42.5999984741211 38.2874984741211 35.2249984741211 36.5374984741211 35.8499984741211 34.8499984741211 34.2874984741211 35.8499984741211 35.8875007629395 33.9937515258789 33.0812492370605 33.1875 33.3187484741211 33.7937507629395 36.1875 33.9000015258789 30.2999992370605 28.9249992370605 28.8125 28.4312496185303 27.6687507629395 27.1749992370605 27.5562496185303 27.0437507629395 25.8187503814697 24.9937496185303 24.0125007629395 22.5187492370605 22.5687503814697 23.8812503814697 24.2374992370605 
55.9625015258789 56.7625007629395 57.8687515258789 59.9874992370605 62.71875 64.9000015258789 64.8625030517578 65.4124984741211 65.9562530517578 64.2062530517578 60.6624984741211 57.6187515258789 56.1749992370605 54.7562484741211 52.4437484741211 52.0437507629395 50.7125015258789 49.7874984741211 49.1062507629395 45.4375 40.5625 37.125 34 33.1875 32.9375 32.5625 31.6875 33.4375 33.875 31.4624996185303 29.875 30.1312503814697 29.84375 29.5375003814697 31.0249996185303 30.3312492370605 28.1000003814697 27.3875007629395 27.7687492370605 27.7437496185303 26.9375 26.5 25.4562492370605 24.9562492370605 24.2999992370605 23.6499996185303 22.7875003814697 20.8812503814697 20.0375003814697 20.8312492370605 22.3937492370605 
