ncols        51
nrows        45
xllcorner    -63.500000000000
yllcorner    -7.500000000000
cellsize     0.166666666667
NODATA_value -99
344.149993896484 332.950012207031 320.543762207031 314.518737792969 304.09375 294.693756103516 285.256256103516 273.631256103516 268.793762207031 266.337493896484 259.28125 253.112503051758 245.899993896484 242.556243896484 241.100006103516 237.125 232.806243896484 224.037506103516 217.318756103516 213.856246948242 211.956253051758 204.787506103516 199.274993896484 194.925003051758 192.975006103516 187.65625 185.59375 184.037506103516 180.09375 177.987503051758 168.550003051758 163.587493896484 163.524993896484 160.1875 156.762496948242 153.149993896484 146.868743896484 148.600006103516 144.600006103516 141.981246948242 144.675003051758 148.681243896484 148.168746948242 149.981246948242 153.475006103516 159.268753051758 162.737503051758 164.512496948242 168.8125 177.587493896484 185.231246948242 
331.975006103516 321.112487792969 310.637512207031 307.181243896484 301.649993896484 294.018737792969 285.0625 276.487487792969 272.331237792969 267.21875 260 252.074996948242 244.681243896484 238.96875 233.5625 228.831253051758 223 215.637496948242 210.631256103516 206.393753051758 199.125 196.21875 192.881256103516 192.831253051758 186.637496948242 182.893753051758 181.40625 180.368759155273 175.050003051758 169.90625 165.268753051758 165.556243896484 164.662506103516 164.662506103516 162.212493896484 156.212493896484 150.337493896484 149.800003051758 145.193756103516 144.243743896484 148.381256103516 149.431243896484 149.931243896484 148.837493896484 154 160.175003051758 163.893753051758 167.162506103516 169.050003051758 179 185.387496948242 
297.100006103516 294.518737792969 292.831237792969 288.568756103516 282.5625 275.356262207031 270.700012207031 269.274993896484 267.5625 263.131256103516 256.518737792969 246.681243896484 241.512496948242 231.574996948242 224.324996948242 217.693756103516 212.168746948242 204.78125 198.506256103516 195.762496948242 189.399993896484 187.774993896484 186.318756103516 185.387496948242 181.743743896484 175.893753051758 179.300003051758 177.231246948242 173.3125 170.137496948242 166.431243896484 161.318756103516 161.824996948242 164.899993896484 157.768753051758 150.837493896484 148.649993896484 149.981246948242 144.65625 144.081253051758 147.03125 148.962493896484 147.806243896484 148.149993896484 154.399993896484 157.137496948242 159.574996948242 165.831253051758 166.574996948242 175.268753051758 186.112503051758 
265.931243896484 259.556243896484 264.537506103516 268.431243896484 263.450012207031 256.59375 253.100006103516 257.475006103516 261.075012207031 259.65625 249.418746948242 239.65625 232.681243896484 227.431243896484 217.137496948242 207.274993896484 199.237503051758 192.925003051758 189.225006103516 190.65625 186.193756103516 180.106246948242 178.287506103516 179.40625 177.600006103516 173.762496948242 173.699996948242 168.393753051758 167.9375 170.168746948242 167.387496948242 162.024993896484 158.106246948242 155.387496948242 150.425003051758 151.556243896484 151.731246948242 146.893753051758 143.71875 142.143753051758 147.012496948242 150.787506103516 149.637496948242 149.081253051758 152.256256103516 153.081253051758 156.337493896484 161.962493896484 166.431243896484 172.881256103516 182.787506103516 
263.274993896484 246.5625 234.981246948242 240.34375 245.987503051758 240.399993896484 241.631256103516 246.893753051758 250.068756103516 248.0625 245.175003051758 234.231246948242 227.074996948242 220.074996948242 208.918746948242 198.962493896484 189.606246948242 184.875 177.90625 177.925003051758 176.912506103516 171.46875 168.725006103516 174.581253051758 172.4375 168.399993896484 165.912506103516 166.600006103516 165.381256103516 163.493743896484 163.199996948242 161.300003051758 160.475006103516 156.681243896484 151.862503051758 147.606246948242 147.537506103516 146.175003051758 141.862503051758 141.975006103516 145.487503051758 145.4375 147.743743896484 149.356246948242 150.018753051758 150.612503051758 154.09375 157.425003051758 159.587493896484 166.899993896484 175.175003051758 
242.637496948242 234.443756103516 226.943756103516 208.543746948242 217.949996948242 229.143753051758 230.412506103516 233.043746948242 238.893753051758 236.75 231.912506103516 223.550003051758 217.699996948242 206.324996948242 199.193756103516 190.231246948242 179.131256103516 171.793746948242 168.600006103516 170.125 168.800003051758 165.918746948242 165.787506103516 165.181243896484 166.100006103516 164.037506103516 161.918746948242 161.550003051758 159.100006103516 157.9375 158.018753051758 160.449996948242 157.75 157.237503051758 151.387496948242 148.9375 142.756256103516 141.668746948242 142.28125 144.831253051758 142.53125 144.774993896484 144.818756103516 144.412506103516 147.925003051758 148.756256103516 147.118743896484 150.850006103516 152.068756103516 157.643753051758 164.65625 
225.943756103516 219.737503051758 214.868743896484 208 203.143753051758 200.662506103516 208.862503051758 216.537506103516 218.387496948242 219.649993896484 218.649993896484 207.737503051758 205.081253051758 196.893753051758 187.337493896484 180.943756103516 173.649993896484 163.481246948242 156.443756103516 161.487503051758 160.168746948242 157.387496948242 155.987503051758 158.618743896484 158.837493896484 159.918746948242 161.399993896484 156.387496948242 152.024993896484 155.600006103516 155.149993896484 153.056243896484 150.931243896484 153.1875 152.431243896484 147.868743896484 141.350006103516 138.381256103516 140.300003051758 143.78125 140.774993896484 139.681243896484 141.212493896484 140.300003051758 143.574996948242 146.793746948242 146.212493896484 142.625 141.024993896484 147.25 156.143753051758 
213.71875 205.09375 203.306243896484 201.5625 200.862503051758 205.956253051758 201.850006103516 192.056243896484 190.606246948242 193.487503051758 195.15625 192.074996948242 189.40625 182.268753051758 176.912506103516 171.074996948242 163.274993896484 155.362503051758 149.918746948242 147.737503051758 152.037506103516 152.943756103516 150.800003051758 152.931243896484 155.868743896484 152.912506103516 153.643753051758 147.743743896484 147.53125 147.34375 151.787506103516 150.512496948242 150.1875 149.050003051758 146.774993896484 140.506256103516 135.256256103516 132.987503051758 131.637496948242 131.199996948242 130.100006103516 131.387496948242 132.068756103516 130.306243896484 131.837493896484 131.137496948242 130.199996948242 126.431251525879 127.943748474121 133.050003051758 144.381256103516 
202.78125 196.3125 193.487503051758 195.212493896484 197.3125 198.037506103516 196.631256103516 193.237503051758 186.068756103516 178.199996948242 176.475006103516 171.356246948242 175.206253051758 169.106246948242 164.387496948242 159.199996948242 155.324996948242 152.53125 152.84375 144.925003051758 143.206253051758 148.431243896484 147.362503051758 151.731246948242 153.606246948242 147.293746948242 144.143753051758 145.762496948242 146.237503051758 144.756256103516 149.643753051758 144.71875 138.512496948242 135.300003051758 134.75 135.087493896484 133.71875 133.137496948242 129.387496948242 125.837501525879 123.412498474121 123.199996948242 124.349998474121 121.306251525879 120.050003051758 118.28125 118.043746948242 113.787498474121 114.518753051758 118.856246948242 127.543746948242 
189.75 186.131256103516 186.162506103516 188.387496948242 190.668746948242 194.350006103516 192.918746948242 190.231246948242 185.800003051758 181.956253051758 174.037506103516 162.59375 162.668746948242 159.300003051758 156.081253051758 153.46875 147.737503051758 149.774993896484 151.3125 148.699996948242 146.381256103516 142.949996948242 139.681243896484 144.118743896484 144.75 144.487503051758 141.181243896484 141.137496948242 139.268753051758 138.59375 140.524993896484 135.631256103516 132.675003051758 129.162506103516 126.800003051758 128.46875 128.793746948242 129.037506103516 126.018753051758 125.743751525879 125.425003051758 122.8125 118.631248474121 112.681251525879 108.574996948242 110.206253051758 110.525001525879 104.518753051758 102.837501525879 103.743751525879 106.881248474121 
181.125 179.100006103516 178.706253051758 182.375 184.237503051758 188.074996948242 188.25 181.831253051758 174.206253051758 170.824996948242 167.675003051758 159.925003051758 150.431243896484 149.199996948242 143.987503051758 141.462493896484 140.943756103516 143.65625 145.649993896484 150.074996948242 152.649993896484 147.625 138.862503051758 132.037506103516 139.268753051758 146.987503051758 144.431243896484 140.962509155273 133.887496948242 132.712493896484 132.262496948242 131.131256103516 129.387496948242 124.925003051758 124.349998474121 124.356246948242 124.981246948242 122.256248474121 125.256248474121 123.412498474121 119.96875 116.262496948242 114.90625 106.206253051758 99.8187484741211 100.606246948242 99.6999969482422 97.1750030517578 95.9812469482422 92.4499969482422 92.7375030517578 
173.993743896484 170.818756103516 171.356246948242 175.600006103516 178.831253051758 182.574996948242 184.21875 178.550003051758 168.606246948242 160.225006103516 155.456253051758 152.399993896484 141.137496948242 136.987503051758 137.581253051758 133.03125 132.737503051758 135.643753051758 138.78125 145.768753051758 153.868743896484 151.931243896484 148.393753051758 138.78125 137.262496948242 133.418746948242 131.568756103516 131.431243896484 127.493751525879 125.224998474121 121.168746948242 119.931251525879 119.912498474121 118.550003051758 119.762496948242 121.506248474121 120.237503051758 121.400001525879 117.118751525879 115.6875 111.71875 110.537498474121 104.324996948242 94.6187515258789 87.09375 82.5374984741211 79.3312530517578 83.4625015258789 84.9937515258789 82.5500030517578 76.5437469482422 
162.09375 162.175003051758 164.681243896484 166.587493896484 168.037506103516 171.787506103516 171.274993896484 164.71875 156.337493896484 151.9375 148.768753051758 142.975006103516 138.300003051758 125.71875 122.318748474121 124.018753051758 124.068748474121 128.443756103516 132.381256103516 136.987503051758 142.706253051758 142.487503051758 142.918746948242 136.550003051758 128.149993896484 124.606246948242 124.0625 124.443748474121 121.512496948242 117.849998474121 113.456253051758 108.71875 110.856246948242 110.818748474121 111.59375 114.21875 117.293746948242 121.106246948242 122.03125 115.199996948242 106.956253051758 102.912498474121 93.4874954223633 87.0749969482422 86.4124984741211 83.6812515258789 77.3187484741211 74.1687469482422 73.9875030517578 75.0062484741211 73.6500015258789 
152.324996948242 152.293746948242 155.087493896484 156.143753051758 156.5 157.449996948242 156.043746948242 151.21875 148.243743896484 141.975006103516 138.262496948242 134.125 126.9375 118.574996948242 108.356246948242 112.349998474121 111.800003051758 117.181251525879 119.949996948242 125.300003051758 129.731246948242 132.9375 134.625 131.287506103516 124.012496948242 119.081253051758 116.287498474121 112.90625 109.849998474121 106.8125 106.981246948242 104.09375 102.512496948242 102.493751525879 103.912498474121 110.293746948242 117.887496948242 125.543746948242 128.831253051758 120.84375 102.84375 92.65625 91.5437469482422 97.0562515258789 100.118751525879 92.21875 86.4124984741211 84.2312469482422 78.7375030517578 79.90625 77.2375030517578 
144.8125 143.056243896484 144.087493896484 145.912506103516 144.675003051758 143.981246948242 145.71875 141.212493896484 136.837493896484 131.28125 127.40625 122.087501525879 117.15625 111.400001525879 98.3624954223633 98.5437469482422 99.0875015258789 103.393753051758 106.943748474121 112.956253051758 119.949996948242 123.400001525879 126.081253051758 126.775001525879 124.068748474121 120.824996948242 117.068748474121 111.449996948242 108.793746948242 106.662498474121 101.400001525879 99.6500015258789 101.993751525879 100.106246948242 96.5437469482422 101.150001525879 114.543746948242 128.512496948242 132.71875 123.293746948242 111.318748474121 103.887496948242 108.606246948242 105.762496948242 102.150001525879 98.09375 98.9124984741211 97.6624984741211 96.0687484741211 84.0875015258789 78.65625 
134.350006103516 133.206253051758 134.699996948242 134.668746948242 134.287506103516 136.056243896484 133.237503051758 129.53125 126.125 123.28125 118.1875 113.625 109.368751525879 103.993751525879 94.2437515258789 82.3249969482422 85.21875 91.0187530517578 94.03125 100.40625 106.550003051758 113.362503051758 118.881248474121 125.71875 125.550003051758 121.875 115.287498474121 107 104.537498474121 102.849998474121 103.824996948242 97.7562484741211 94.5562515258789 91.4937515258789 89.3812484741211 102.337501525879 113.287498474121 125.0625 132.21875 132.137496948242 125.849998474121 119.693748474121 115.662498474121 108.050003051758 99.2874984741211 94.9124984741211 91.5875015258789 90.9437484741211 91.0625 85.6687469482422 79.8874969482422 
124.537498474121 123.818748474121 125.849998474121 127.068748474121 127.612503051758 125.681251525879 124.712501525879 121.506248474121 118.53125 115.849998474121 111.756248474121 106.099998474121 100.550003051758 97.0437469482422 94.0187530517578 85.9312515258789 77.71875 78.9375 86.1750030517578 91.6062469482422 97.3562469482422 105.056251525879 114.768753051758 124.662498474121 128.800003051758 117.443748474121 106.543746948242 99.2874984741211 99.03125 100.318748474121 101.65625 101.768753051758 97.8562469482422 95.4499969482422 103.143753051758 110.40625 123.699996948242 140.262496948242 150.25 138.056243896484 128.043746948242 119.668746948242 110.606246948242 106.068748474121 97.9937515258789 90.8187484741211 89.5562515258789 91.7750015258789 91.1312484741211 82.3249969482422 80.6687469482422 
114.637496948242 115.737503051758 116.493751525879 118.875 119.287498474121 116.181251525879 114.349998474121 112.581253051758 110.006248474121 104.787498474121 101.481246948242 99.0250015258789 94.4124984741211 91.1500015258789 90.2750015258789 86.9375 80.1875 71.65625 79.8125 84.1125030517578 89.6750030517578 96.7937469482422 109.875 118.28125 120.856246948242 109.868751525879 98.8000030517578 94.0875015258789 94.8812484741211 93.96875 90.5062484741211 89.5437469482422 102.193748474121 106.987503051758 106.46875 118.449996948242 134.662506103516 144.693756103516 148.443740844727 139.393753051758 122.587501525879 113.949996948242 105.356246948242 100.6875 93.4187469482422 88.4250030517578 89.8937530517578 87.90625 85.9250030517578 77.5562515258789 78.2874984741211 
105.493751525879 106.543746948242 106.337501525879 107.712501525879 109.568748474121 108.043746948242 104.96875 104.293746948242 102.90625 98.75 95.5437469482422 90.9749984741211 87.8687515258789 86.5437469482422 83.0500030517578 82.3000030517578 79.3375015258789 73.8187484741211 70.7687530517578 73.3125 82.6312484741211 96.40625 92.5812530517578 102.012496948242 105.65625 103.887496948242 96.9375 90.71875 91.7062530517578 92.1062469482422 90.6875 91.7062530517578 100.481246948242 102.5625 105.293746948242 114.818748474121 122.756248474121 128.706253051758 132.993743896484 123.40625 114.056251525879 104.356246948242 98.125 93.6374969482422 89 85.0437469482422 87.1312484741211 86.6999969482422 80.5999984741211 70.5124969482422 75.5250015258789 
94.3499984741211 96.84375 97.71875 98.5374984741211 98.6312484741211 101.068748474121 98.4499969482422 98 97.46875 94.1687469482422 91.5749969482422 91.2687530517578 88.1624984741211 84.9937515258789 79.3562469482422 72.7562484741211 68.9375 75.0687484741211 71.4625015258789 70.5500030517578 69.0500030517578 76.3937530517578 87.2125015258789 92.59375 93.59375 89.3687515258789 86.8937530517578 88.0562515258789 85.8562545776367 83.4187469482422 86.40625 95.0374984741211 97.7624969482422 100.018753051758 103.731246948242 110.606254577637 114.34375 115.5625 115.493751525879 110.525001525879 100.806251525879 92.9187469482422 90.5625 86.4562530517578 82.8187484741211 81.5187530517578 82.7624969482422 81 74.78125 68.3125 73.1437530517578 
82.3312530517578 89.3874969482422 94.03125 93.0562515258789 91.6687469482422 93.8625030517578 93.0562515258789 93.1312484741211 91.9375 90.03125 86.75 86.4749984741211 84.8125 81.0999984741211 75.9312515258789 71.0250015258789 68.5062484741211 69.2312469482422 71.5875015258789 68.46875 74.34375 81.3687515258789 89.5812530517578 95.8125 96.2249984741211 90.6875 83.1624984741211 83.2062530517578 84.2437515258789 84.0749969482422 88.8000030517578 93.6875 92.25 94.96875 98.5437469482422 103.387496948242 107.09375 106.112503051758 103.568748474121 98.75 92.8562469482422 89.0187530517578 84.9187469482422 81.7874984741211 79.1750030517578 77.9124984741211 77.34375 75.7874984741211 68.6750030517578 67.8125 68.6875 
76.8937530517578 78.6062469482422 84.125 86.3375015258789 87.1500015258789 85.8562469482422 85.78125 85.9937515258789 86.0749969482422 84.7249984741211 83.4749984741211 80.7937469482422 78.4625015258789 78.6687469482422 76.9812469482422 72.4000015258789 72.1125030517578 71.4812469482422 72.4625015258789 72.5250015258789 74.2750015258789 80.4437484741211 88.1812515258789 89.4250030517578 87.4000015258789 84.0250015258789 84.3375015258789 81.03125 84.4875030517578 87.5062484741211 88.4312515258789 88.9875030517578 88.1062469482422 88.8312530517578 89.3937530517578 94.8249969482422 97.9375 97.625 95.7437515258789 92.3812484741211 88.0500030517578 85.2312469482422 82.2750015258789 79.0875015258789 76.2062530517578 74.6937484741211 72.8375015258789 69.0500030517578 63.7312507629395 66.375 64.6062469482422 
71.5625 76.5187530517578 80.0687484741211 81.1312484741211 81.3125 81.3375015258789 77.40625 77.6312484741211 79.0812530517578 81.5124969482422 81.6437530517578 79.34375 79.1374969482422 78.1624984741211 78.1812515258789 76.7687530517578 73.5062484741211 71.4000015258789 71.4124984741211 73.3687515258789 79.0749969482422 82.0999984741211 86.2125015258789 86.5875015258789 87.2624969482422 82.6812515258789 79.6062469482422 79.9625015258789 80.2624969482422 81.0749969482422 81.8562469482422 83.5124969482422 81.8687515258789 80.1437530517578 81.5812530517578 83.3375015258789 87.3375015258789 86.4124984741211 87.2249984741211 86.46875 83.7375030517578 79.7750015258789 77.4812469482422 74.5250015258789 70.3874969482422 70.125 67.03125 64.9250030517578 63.6062507629395 64.6437530517578 62.4312515258789 
64.34375 70.7437515258789 75.96875 76.3812484741211 76.3937530517578 75.0687484741211 75.5500030517578 74.5999984741211 74.0124969482422 73.9124984741211 75.1374969482422 78.4124984741211 78.6312484741211 79.28125 77.3000030517578 75.9812469482422 72.4312515258789 73.1624984741211 72.8812484741211 76.3000030517578 78.9250030517578 84.3375015258789 87.4812469482422 89.9875030517578 89.1624984741211 83.5250015258789 81.96875 77.3812484741211 75.7624969482422 75.7375030517578 76.5062484741211 77.0187530517578 73.8562469482422 70.7874984741211 73.4875030517578 73.2375030517578 77.2624969482422 79.1875 80.1875 79.4187469482422 78.1937484741211 75.25 73.8375015258789 70.90625 68.53125 65.7125015258789 61.9562492370605 59.21875 60.3687515258789 61.2125015258789 58.3562507629395 
59.46875 66.0812530517578 71.9437484741211 73.0749969482422 73.4375 71.3000030517578 71.3499984741211 70.8874969482422 70.5875015258789 72.3062515258789 73.8000030517578 73.21875 76.71875 77.1624984741211 75.0124969482422 72.3000030517578 71.0062484741211 72.7624969482422 74.1875 76.46875 80.4250030517578 84.3937530517578 91.0062484741211 90.6875 86.6937484741211 85.3125 78.8687515258789 74.09375 70.6437530517578 70.1937484741211 67.6624984741211 66.0187530517578 65.3562469482422 63.3062515258789 62.8937492370605 64.84375 68.9312515258789 70.0687484741211 72.2249984741211 72.9812469482422 71.5 70.6312484741211 70.1187515258789 67.4000015258789 62.3375015258789 60.7000007629395 55.5499992370605 57.0687484741211 57.125 57.1187515258789 55.9749984741211 
58.0499992370605 64.0124969482422 66.0687484741211 68.0875015258789 68.2687530517578 67.2750015258789 67.2375030517578 66.7562484741211 66.0250015258789 65.2375030517578 69.9000015258789 71.3312530517578 71.5500030517578 72.9312515258789 72.1374969482422 70.8312530517578 69.3062515258789 71.2062530517578 73.6624984741211 75.3499984741211 81.3062515258789 85.84375 91.6875 91.2062530517578 86.2437515258789 81.5812530517578 76.5500030517578 70.3312530517578 64.9499969482422 62.1812515258789 59.4812507629395 56.8187484741211 54.9812507629395 54.3312492370605 55.7249984741211 57.8875007629395 61.0499992370605 63.4874992370605 65.4625015258789 66.5687484741211 67.5687484741211 65.8125 65.0124969482422 62.6124992370605 59.2687492370605 54.1187515258789 53.9187507629395 53.8624992370605 54.5250015258789 55.2562484741211 53.8062515258789 
53.53125 56.3375015258789 59.7625007629395 62.1312484741211 62.4562492370605 62.6875 63.4249992370605 62.9437484741211 61.4124984741211 64.4250030517578 67.9625015258789 69.625 70.6750030517578 70.5875015258789 69.3687515258789 69.9875030517578 68.90625 69.4187469482422 72.4187469482422 75.34375 78.7249984741211 83.4625015258789 89.9749984741211 91.3625030517578 84.40625 76.7562484741211 71.3187484741211 66.0562515258789 61.0812492370605 55.9437484741211 53.7750015258789 49.2874984741211 46.9562492370605 48.7125015258789 49.0750007629395 51.8624992370605 52.9749984741211 55.1437492370605 57.6875 59.8687515258789 62.3187484741211 61.9500007629395 60.8125 58.5625 54.2999992370605 51.65625 51.8624992370605 49.7750015258789 50.1812515258789 48.8624992370605 47.4437484741211 
49.3937492370605 49.4562492370605 52.3562507629395 55.7437515258789 56.5999984741211 57.5875015258789 58.6624984741211 58.5437507629395 59.2437515258789 61.6187515258789 64.1374969482422 65.1624984741211 66.8187484741211 67.65625 66.4124984741211 66.2375030517578 66.21875 67.5437545776367 68.4375 71.9499969482422 77.21875 80.6187515258789 83.1312484741211 83.8375015258789 79.4937515258789 72.7437515258789 67.1937484741211 61.9874992370605 57.0499992370605 53.40625 50.0875015258789 46.9500007629395 44.5499992370605 43.4749984741211 43.7937507629395 45.7125015258789 46.46875 48.4375 51.3562507629395 54.9187507629395 57.2625007629395 59.3500022888184 57.4437484741211 56.3250007629395 51.0437507629395 48.1749992370605 46.9749984741211 46.3125 44.71875 41.8375015258789 40.7999992370605 
44.90625 44.4375 47.5250015258789 48.4874992370605 50.3687515258789 50.9187507629395 51.9625015258789 53.65625 54.7749977111816 57.8312492370605 60.03125 61.4124984741211 63.5625 65.5250015258789 64.8062515258789 64.4375 65.3000030517578 64.7375030517578 66.46875 69.5562515258789 73.1624984741211 76.0250015258789 78.9499969482422 77.4625015258789 73.6500015258789 68.1875 62.9749984741211 58.0250015258789 54.8624992370605 51.3624992370605 47.4749984741211 44.625 41.6687507629395 39.71875 39.3187484741211 40.5687484741211 41.2125015258789 42.6500015258789 45.2062492370605 47.2874984741211 50.8187484741211 51.6312484741211 51.7937507629395 51.2874984741211 47.53125 43.125 42.7374992370605 41.9437484741211 38.9187507629395 36.84375 33.4937515258789 
40.7562484741211 41.0999984741211 43 43.9000015258789 44.5499992370605 45.9874992370605 46.9500007629395 49.8624992370605 52.1937484741211 54.3499984741211 56.7374992370605 59.5625 61.7625007629395 62.75 62.4874992370605 62.4000015258789 62.1687507629395 62.9874992370605 63.5250015258789 65.3000030517578 69.125 71.3000030517578 73.8562469482422 70.875 67.8000030517578 63.5875015258789 58.53125 54.4375 51.53125 47.9437484741211 44.7374992370605 41.6062507629395 38.5062484741211 36.5687484741211 35.25 35.4937515258789 36.7562484741211 36.8312492370605 37.6875 39.46875 42.5750007629395 43.84375 44.1875 43.4375 41.0812492370605 39.8250007629395 38.8312492370605 36.46875 33.6624984741211 32.5499992370605 29.9562492370605 
37.7562484741211 37.40625 37.40625 39.3687515258789 40.7000007629395 42.71875 44.0250015258789 46.1500015258789 48.7249984741211 51.3375015258789 54.2999992370605 56.5625 60.2999992370605 60.1624984741211 59.5 60.0687484741211 61.53125 60.21875 59.2874984741211 62.2062492370605 65.8375015258789 67.6750030517578 68.8812484741211 64.9124984741211 61.2437515258789 59.4124984741211 54.9937515258789 50.3375015258789 46.6187515258789 44.15625 41.4249992370605 39.1062507629395 36.3499984741211 34.3624992370605 32.5562515258789 31.6187496185303 31.6062507629395 32.0687484741211 31.78125 31.8062496185303 33.5250015258789 35.65625 36.25 35.5062484741211 34.7000007629395 34.75 33.2249984741211 31.1625003814697 29.2937507629395 28.2999992370605 26.9249992370605 
34.90625 32.8499984741211 32.75 33.7562484741211 35.5812492370605 38.2062492370605 40.7437515258789 42.7374992370605 45.8250007629395 47.8375015258789 51.1124992370605 54.7000007629395 57.0625 59.4187507629395 59.2999992370605 59.4000015258789 59.7000007629395 58.3062515258789 56.6437492370605 59.3562507629395 60.9812507629395 62.90625 63.0750007629395 59.3624992370605 57.2062492370605 54.09375 50.4437484741211 47.2999992370605 42.96875 40.7937507629395 39.0125007629395 36.6812515258789 33.6812515258789 31.5562496185303 29.875 28.2687492370605 27.8937492370605 26.3312492370605 26.0062503814697 26.59375 27.6000003814697 28.5 28.9624996185303 29.5499992370605 29.3999996185303 29.8500003814697 29.9187507629395 28.1062507629395 25.5812492370605 24.3500003814697 23.3187503814697 
32.25 30.0125007629395 29.3875007629395 29.9125003814697 31.4375 33.71875 36.4187507629395 38.7374992370605 40.8187484741211 44.6312484741211 49 51.4375 54.6437492370605 58.2000007629395 58.7687492370605 57.7562484741211 56.6875 57.2750015258789 56.7999992370605 58.4187507629395 58.9812507629395 58.9937515258789 57.9749984741211 55.4812507629395 54.0062484741211 50.7750015258789 48.1437492370605 44.3875007629395 41.3499984741211 38.5187492370605 36.3937492370605 33.8312492370605 30.4937496185303 28.4562492370605 27.09375 25.9812507629395 24.1187496185303 22.4562492370605 22.0249996185303 22.7687492370605 23.1875 23.8812503814697 23.3624992370605 23.9624996185303 24.0750007629395 24.6875 26 24.1375007629395 22.75 21.0499992370605 20.59375 
29.7749996185303 27.7875003814697 27.5625 27.9187507629395 28.4500007629395 29.5750007629395 31.71875 33.15625 36.7687492370605 39.8062515258789 44.2937507629395 48.4000015258789 52.6500015258789 55.4937515258789 56.1875 55.0187492370605 54.9749984741211 54.9937515258789 54.5562515258789 55.3375015258789 56.3062515258789 54.8562507629395 54.84375 52.8375015258789 50.0499992370605 46.9625015258789 44.5125007629395 42.0687484741211 39.1687507629395 36.5750007629395 34.2437515258789 31.3687496185303 28.1124992370605 26.3062496185303 24.6124992370605 22.9375 20.6749992370605 19.2124996185303 19.0625 19.0249996185303 19.1812496185303 19.7875003814697 19.9624996185303 19.8500003814697 20.2562503814697 20.125 20.1625003814697 19.2374992370605 18.3624992370605 17.9249992370605 17.3187503814697 
27.9187507629395 25.375 25.7374992370605 25.71875 26.34375 27.2749996185303 28.34375 29.5437507629395 31.7437496185303 34.9500007629395 39.8250007629395 45.3250007629395 51.6187515258789 55.5750007629395 54.9000015258789 54.0374984741211 53.5437507629395 52.9312515258789 53.1937484741211 52.7000007629395 53.1624984741211 53.1375007629395 52.1375007629395 49.9124984741211 47.1437492370605 44.03125 41.8499984741211 39.6187515258789 36.8875007629395 32.7437515258789 30.5125007629395 28.84375 26.1937503814697 24.09375 21.7625007629395 20.0375003814697 18.3187503814697 17.1687507629395 16.4812507629395 15.8187503814697 15.4375 15.3625001907349 16.0125007629395 15.9750003814697 16.1062507629395 16.25 16.1687507629395 15.7624998092651 15.1125001907349 14.5437498092651 14.25 
26.6124992370605 24.8312492370605 25.375 24.8562507629395 25.1625003814697 25.6312503814697 26.5062503814697 27.3062496185303 28.9624996185303 31.1437492370605 35.3624992370605 41.4562492370605 48.9437484741211 51.7625007629395 52.6937484741211 52.4375 52.4812507629395 51.2750015258789 50.2125015258789 49.8937492370605 48.0875015258789 49.0812492370605 47.5499992370605 45.2937507629395 42.2750015258789 41.125 39.2750015258789 37.3687515258789 34.8375015258789 31.0375003814697 28.6499996185303 27.1124992370605 24.4375 22.4500007629395 20.2749996185303 18.3250007629395 16.9312496185303 15.65625 15.2875003814697 14.5812501907349 13.7124996185303 13.6437501907349 13.375 13.28125 13.375 13.2749996185303 12.9624996185303 12.96875 12.6499996185303 11.96875 11.8812494277954 
25.1437492370605 24.21875 24.4312496185303 23.7937507629395 23.9624996185303 24.7312507629395 25.2625007629395 25.6812496185303 26.5437507629395 27.2250003814697 31.2999992370605 37.8062515258789 44.0687484741211 47.3125 49.3875007629395 50.0687484741211 49.9500007629395 48.2000007629395 46.9124984741211 46.5875015258789 44.5374984741211 43.6687507629395 42.5687484741211 41.4124984741211 38.9124984741211 37.6312484741211 36.2625007629395 34.3812484741211 32.2750015258789 29.65625 27.0125007629395 24.7749996185303 22.2374992370605 20.4187507629395 18.4187507629395 16.4750003814697 15.1625003814697 14.5437498092651 14.2687501907349 13.3500003814697 12.3249998092651 12.0375003814697 11.5874996185303 11.6374998092651 11.5687503814697 10.9375 10.9812498092651 10.6937503814697 10.53125 10.1187496185303 9.92500019073486 
23.0812492370605 22.8062496185303 22.5125007629395 22.7437496185303 22.9375 23.4812507629395 23.9624996185303 24.1937503814697 24.9624996185303 25.0187492370605 30.6187496185303 36.4500007629395 40.7000007629395 44.0562515258789 46.6312484741211 47.7312507629395 46.5250015258789 46.1937484741211 44.15625 43.40625 42.03125 40.5187492370605 38.5999984741211 37.78125 36.4000015258789 35.1375007629395 33.65625 32.1375007629395 30.40625 27.53125 24.0375003814697 22.3187503814697 20.0687503814697 18.5499992370605 16.3624992370605 14.5500001907349 14.03125 13.34375 12.9812498092651 12.2312498092651 11.3062496185303 11.2124996185303 10.5687503814697 9.61250019073486 9.45625019073486 9.08749961853027 8.98124980926514 9.15625 8.51875019073486 8.26249980926514 8.58125019073486 
20.3500003814697 19.8125 19.5625 20.5125007629395 20.9562492370605 21.5687503814697 21.6437492370605 23.1875 25.1812496185303 28.3125 33.7937507629395 36.6687507629395 39.1624984741211 42.4375 44.5750007629395 44.5 43.7687492370605 42.8687515258789 40.5374984741211 39.7374992370605 38.3250007629395 36.5499992370605 35.5750007629395 34.7687492370605 32.9937515258789 31.90625 31.0687503814697 29.3999996185303 28.1625003814697 26.1187496185303 23.2999992370605 20.8312492370605 18.9312496185303 17.6312503814697 16.0437507629395 14.7562503814697 14.25 13.7937498092651 13.1687498092651 11.8687496185303 11.4437503814697 11.5874996185303 10.5562496185303 9.81875038146973 9.51249980926514 9.15625 8.71249961853027 8.625 8.41874980926514 8.51249980926514 8.67500019073486 
17.75 17.6375007629395 17.5 18.7312507629395 19.1437492370605 20.3374996185303 21.0812492370605 22.6375007629395 25.0437507629395 27.9937496185303 31.8875007629395 35.0625 37.2687492370605 39.2062492370605 41.28125 42.4375 41.0062484741211 40.6500015258789 38.6062507629395 36.7312507629395 34.0062484741211 32.7874984741211 31.5375003814697 30.8624992370605 29.5874996185303 28.65625 27.7250003814697 26.7124996185303 25.3312492370605 24.2062492370605 22.5499992370605 20.4375 18.65625 17.3374996185303 16.5687503814697 15.1937503814697 14.1812496185303 13.6499996185303 13.6312503814697 12.5874996185303 12.0625 11.96875 11.0187501907349 10.09375 9.46249961853027 9 8.875 8.6875 8.69999980926514 8.78750038146973 8.84375 
14.6374998092651 14.9437503814697 15.7437496185303 16.6687507629395 17.5062503814697 18.5499992370605 19.9312496185303 21.9937496185303 23.3687496185303 26.8875007629395 30.3999996185303 33.4249992370605 35.6124992370605 36.2312507629395 37.2249984741211 38.2750015258789 38.3312492370605 37.28125 35.1812515258789 33.4000015258789 30.84375 29.5625 28.03125 27.3187503814697 27.25 26.3374996185303 25.4624996185303 24.8687496185303 24.0562496185303 22.0750007629395 20.7875003814697 20.4312496185303 18.8500003814697 17.7437496185303 16.6749992370605 15.5437498092651 14.6750001907349 13.9937496185303 13.8374996185303 13.34375 12.4187498092651 12.0500001907349 11.3500003814697 10.4562501907349 9.89375019073486 9.36874961853027 8.95625019073486 8.60624980926514 8.88749980926514 8.81875038146973 8.9375 
11.7062501907349 12.1187496185303 13.0187501907349 13.8625001907349 14.96875 16.1499996185303 17.7937507629395 19.0375003814697 20.6124992370605 23.3937492370605 26.375 29.5249996185303 31.5 31.6312503814697 32.59375 34.2999992370605 34.7874984741211 34.3062515258789 32.40625 31.0125007629395 28.5375003814697 26.875 25.1312503814697 23.75 23.8125 23.1749992370605 22.90625 22.5437507629395 22.3624992370605 21.5499992370605 19.3500003814697 18.9375 18.3062496185303 18.4500007629395 17.5062503814697 15.71875 15.09375 14.8937501907349 14.7624998092651 14.3187503814697 13.28125 12.6062498092651 11.6750001907349 10.9375 10.3874998092651 9.98124980926514 9.25625038146973 8.625 9.05624961853027 8.94375038146973 8.80624961853027 
8.78750038146973 9.38125038146973 10.1062498092651 10.84375 11.4187498092651 12.8374996185303 14.1374998092651 15.2375001907349 17.1499996185303 19.5375003814697 21.9125003814697 24.3374996185303 25.9874992370605 27.1749992370605 28.6937503814697 30.3374996185303 30.9750003814697 31.1937503814697 29.9624996185303 27.7625007629395 25.4125003814697 23.4375 22.375 22.1875 22.25 21.0625 20.9874992370605 20.59375 19.9750003814697 19.4437503814697 18.3999996185303 17.1124992370605 16.3687496185303 17.0375003814697 18.3062496185303 17.5750007629395 15.7562503814697 15.4499998092651 15.2124996185303 14.0812501907349 13.2437496185303 12.8874998092651 12.3000001907349 11.3812503814697 11.2749996185303 10.3125 9.32499980926514 8.97500038146973 9.64999961853027 9.25 8.58125019073486 
6.49375009536743 6.91874980926514 7.50624990463257 8.10624980926514 8.85624980926514 10.0124998092651 10.9624996185303 12.1062498092651 13.7687501907349 15.8687505722046 17.8687496185303 20.1187496185303 21.75 23.6749992370605 25.15625 26.1124992370605 27.8187503814697 28.6187496185303 27.4375 25.9812488555908 23.6937503814697 21.6812496185303 19.875 19.9375 19.5625 18.875 18.5 18.2374992370605 17.8187503814697 17.75 16.7937507629395 16.0687503814697 15.6750001907349 15.9875001907349 18.0249996185303 18.9125003814697 16.6375007629395 15.8999996185303 15.4499998092651 14.0249996185303 13.2562503814697 12.9375 12.1062498092651 11.4437503814697 11.1624994277954 10.4312496185303 9.89375019073486 9.125 8.83749961853027 9.1875 8.42500019073486 
4.76875019073486 5.05625009536743 5.6875 6.21875 7.09999990463257 8.14999961853027 8.91874980926514 9.65625 11.2562503814697 12.96875 14.5187501907349 16.2625007629395 18.3562507629395 20.5437507629395 22.28125 22.7562503814697 23.9375 25.2374992370605 24.8500003814697 23.3687496185303 21.2374992370605 19.8125 17.75 17.4375 17.375 17.125 16.1875 16.125 15.9312496185303 15.8812494277954 15.1999998092651 14.6875 14.5812501907349 15.6312503814697 16.6937503814697 18.1062507629395 16.5812492370605 15.6999998092651 14.9750003814697 14.4375 13.28125 12.8125 12.5062503814697 11.6999998092651 11.1937503814697 10.4312496185303 9.98750019073486 9.125 8.41250038146973 8.75 8.57499980926514 
