ncols        51
nrows        45
xllcorner    -63.500000000000
yllcorner    -7.500000000000
cellsize     0.166666666667
NODATA_value -99
427.287506103516 415.443756103516 402.15625 396.825012207031 385.825012207031 376.200012207031 366.475006103516 353.65625 348.787506103516 346.856262207031 338.606231689453 329.612487792969 318.993743896484 313.100006103516 307.674987792969 298.743743896484 289.40625 274.587493896484 262.450012207031 254.699996948242 251.018753051758 241.475006103516 233.725006103516 226.149993896484 221.212509155273 212.462493896484 206.912506103516 201.925003051758 195.193756103516 195.34375 188.100006103516 185.600006103516 188.418746948242 187.318756103516 186.043746948242 184.481246948242 179.581253051758 184.256256103516 181.106246948242 179.46875 184.3125 190.0625 189.800003051758 192.199996948242 194.956253051758 200.243743896484 202.4375 201.681243896484 203.868743896484 211.306243896484 216.662506103516 
412.549987792969 400.46875 388.975006103516 386.299987792969 380.981262207031 373.381256103516 364.125 355.149993896484 351.337493896484 346.149993896484 337.924987792969 326.931243896484 316.306243896484 307.625 297.612487792969 288.206237792969 277.25 263.162506103516 251.918746948242 242.168746948242 231.96875 227.381256103516 222.0625 219.125 209.043746948242 201.887496948242 197.381256103516 193.449996948242 185.524993896484 181.125 177.712493896484 179.649993896484 180.46875 182.350006103516 181.59375 177.193756103516 172.881256103516 174.481246948242 170.824996948242 171.306243896484 177.693756103516 179.6875 180.918746948242 179.931243896484 184.875 190.725006103516 193.568756103516 195.443756103516 195.71875 205.149993896484 209.893753051758 
371.162506103516 369.350006103516 368.53125 364.456237792969 358.143737792969 350.399993896484 345.924987792969 345.5 344.443756103516 339.825012207031 332.131256103516 318.618743896484 310.956237792969 296.899993896484 284.75 273.231262207031 263.09375 250.125 238.574996948242 231.706253051758 222.537506103516 219.300003051758 215.96875 211.268753051758 203.231246948242 193.018753051758 193.387496948242 187.925003051758 181.0625 177.887496948242 174.581253051758 169.96875 171.975006103516 176.837493896484 170.856246948242 165.556243896484 165.4375 169.1875 164.881256103516 165.84375 170.756256103516 173.699996948242 172.943756103516 173.71875 179.912506103516 181.756256103516 183.15625 188.568756103516 187.675003051758 195.618743896484 205.28125 
334.356262207031 327.768737792969 335.087493896484 341.018737792969 335.637512207031 327.65625 323.9375 330.306243896484 335.581237792969 334.493743896484 321.743743896484 308.293762207031 298.34375 290.293762207031 274.481262207031 259.131256103516 246.300003051758 236.018753051758 229.024993896484 228.387496948242 221.5 212.800003051758 208.837493896484 205.774993896484 199 190.212493896484 186.262496948242 176.887496948242 173.168746948242 174.850006103516 171.806243896484 166.318756103516 163.537506103516 162.081253051758 158.381256103516 161.850006103516 164.431243896484 161.4375 159.662506103516 159.512496948242 166.475006103516 171.487503051758 170.737503051758 170.4375 173.056259155273 172.762496948242 175.15625 179.793746948242 183.018753051758 188.350006103516 196.787506103516 
333.350006103516 313.725006103516 299.799987792969 307.287506103516 315.199981689453 308.268737792969 309.975006103516 316.925018310547 321.268737792969 318.981262207031 315.387512207031 300.40625 290.137512207031 279.931243896484 263.237487792969 248.018753051758 233.918746948242 226.71875 216.987503051758 215.725006103516 212.9375 204.8125 199.5 201.449996948242 193.587493896484 183.987503051758 177.012496948242 173.631256103516 168.662506103516 165.425003051758 164.21875 161.681243896484 161.868743896484 159.350006103516 155.856246948242 153.668746948242 155.881240844727 156.637496948242 153.6875 155.387496948242 160.71875 161.287506103516 164.34375 166.449996948242 166.212493896484 165.818756103516 168.487503051758 170.524993896484 171.293746948242 177.487503051758 184.112503051758 
310.100006103516 301.168762207031 292.162506103516 268.924987792969 281.443756103516 295.975006103516 297.674987792969 301.100006103516 308.606231689453 305.78125 299.34375 287.375 278.5625 262.618743896484 251.324996948242 237.731246948242 221.887496948242 212.175003051758 207.824996948242 209.050003051758 205.493743896484 199.862503051758 197.15625 191.399993896484 187.012496948242 179.487503051758 172.8125 168.25 161.887496948242 158.875 157.46875 158.71875 156.837493896484 157.399993896484 152.71875 152.074996948242 147.612503051758 148.256256103516 150.243743896484 154.206253051758 152.912506103516 155.862503051758 156.324996948242 156.131256103516 159.100006103516 158.993743896484 156.21875 158.71875 158.506256103516 162.768753051758 168.193756103516 
291.825012207031 285.256256103516 279.356262207031 270.75 264.637512207031 261.40625 272.012512207031 281.943756103516 284.049987792969 285.306243896484 283.506256103516 267.96875 263 250.975006103516 236.899993896484 226.931243896484 216.181243896484 203.5 194.956253051758 201.106246948242 197.143753051758 191.074996948242 186.40625 184.493743896484 179.393753051758 175.318756103516 172.487503051758 162.931243896484 154.581253051758 155.862503051758 153.375 149.6875 148.118743896484 151.181243896484 151.399993896484 148.243743896484 143.131256103516 141.462493896484 144.425003051758 148.912506103516 146.637496948242 145.887496948242 147.800003051758 147 149.731246948242 152.243743896484 150.6875 145.59375 142.568756103516 147.456253051758 154.893753051758 
278.975006103516 269.118743896484 267.068756103516 264.856231689453 264.012512207031 270.600006103516 265.075012207031 252.037506103516 249.574996948242 252.731246948242 254.149993896484 248.550003051758 243.4375 232.650009155273 224.306243896484 215.46875 204.518753051758 195.037506103516 188.887496948242 186.3125 189.050003051758 187.050003051758 181.006256103516 178.493743896484 176.512496948242 167.96875 164.425003051758 154.012496948242 149.962493896484 147.15625 149.149993896484 145.875 145.856246948242 145.418746948242 143.887496948242 138.693756103516 134.475006103516 133.0625 132.28125 132.362503051758 131.71875 133.256256103516 134.15625 132.481246948242 133.412506103516 132.024993896484 130.318756103516 125.318748474121 125.574996948242 129.331253051758 139.206253051758 
266.943756103516 259.668762207031 256.143737792969 258.462493896484 261.243743896484 261.981262207031 259.856262207031 255.0625 244.862503051758 233.762496948242 230.618743896484 222.28125 225.53125 216.125 209.456253051758 202.393753051758 197.09375 193.868743896484 194.699996948242 184.518753051758 179.350006103516 182.368743896484 177.300003051758 177.387496948242 174.231246948242 162.050003051758 154.506256103516 152.274993896484 149.024993896484 145.081253051758 147.706253051758 140.993743896484 135.03125 132.293746948242 132.199996948242 133.0625 132.243743896484 132.143753051758 128.518753051758 125.068748474121 122.6875 122.462501525879 123.625 120.537498474121 118.8125 116.53125 115.668746948242 110.449996948242 110.068748474121 113.21875 120.681251525879 
251.862503051758 248.162506103516 248.350006103516 251.28125 254.28125 258.850006103516 256.556243896484 252.512496948242 245.662506103516 239.612503051758 228.112503051758 211.399993896484 209.6875 203.850006103516 199.956253051758 197.106246948242 190.143753051758 192.881256103516 194.893753051758 191.081253051758 184.59375 176.362503051758 168.418746948242 168.768753051758 164.387496948242 159.175003051758 151.612503051758 147.818756103516 142.362503051758 139.568740844727 139.581253051758 133.137496948242 130.1875 126.925003051758 124.78125 126.543746948242 127 127.300003051758 123.956253051758 123.25 122.574996948242 119.787498474121 115.506248474121 109.506248474121 105.106246948242 106.300003051758 106.09375 99.3812484741211 96.8874969482422 96.8874969482422 99.3187484741211 
242.293746948242 240.543746948242 240.137496948242 245 247.399993896484 252.081253051758 251.78125 242.612503051758 231.350006103516 225.743743896484 220.381256103516 208.431243896484 194.3125 191.40625 185.625 183.537506103516 183.899993896484 187.306243896484 189.5625 194.4375 193.662506103516 182.800003051758 167.699996948242 154.774993896484 158.3125 162.106246948242 155.375 147.975006103516 137.28125 134.256256103516 132.199996948242 129.675003051758 127.756248474121 123.387496948242 122.806251525879 122.631248474121 122.993751525879 120.025001525879 122.206253051758 119.581253051758 115.481246948242 111.493751525879 109.824996948242 101.150001525879 94.7375030517578 95.1312484741211 93.8687515258789 90.6875 88.7687530517578 84.7624969482422 84.71875 
233.237503051758 229.925003051758 230.774993896484 236.449996948242 240.737503051758 245.175003051758 246.768753051758 238.475006103516 223.987503051758 211.643753051758 204.199996948242 199.193756103516 183.587493896484 177.568756103516 179.293746948242 174.518753051758 175.056243896484 178.481246948242 181.962493896484 189.893753051758 195.856246948242 188.331253051758 179.068756103516 162.668746948242 156.056243896484 147.25 141.731246948242 138.256256103516 131.087509155273 127.206253051758 121.768753051758 119.356246948242 119.175003051758 117.84375 119 120.487503051758 118.918746948242 119.681251525879 114.574996948242 112.224998474121 107.518753051758 105.731246948242 99.2249984741211 89.5062484741211 82.1125030517578 77.5875015258789 74.2750015258789 77.53125 78.2750015258789 75.40625 69.5500030517578 
217.574996948242 218.556243896484 222.09375 224.699996948242 226.581253051758 231.006256103516 229.606246948242 220.074996948242 207.612503051758 200.462493896484 195.1875 187.412506103516 181.287506103516 164.912506103516 161.287506103516 164.518753051758 165.34375 170.475006103516 174.731246948242 179.34375 182.143753051758 176.75 172.262496948242 159.899993896484 145.693756103516 137.556243896484 133.8125 131.175003051758 125.287498474121 120.168746948242 114.612503051758 108.887496948242 110.918754577637 110.887496948242 111.650001525879 114.012496948242 116.775001525879 120.131248474121 119.981254577637 112.143753051758 103.162498474121 98.4437484741211 88.7312545776367 82.0437545776367 81.1187515258789 78.3812484741211 72.1687469482422 68.7249984741211 68.0187530517578 68.4250030517578 66.6999969482422 
204.78125 205.59375 209.53125 210.981246948242 211.40625 212.03125 209.40625 202.149993896484 196.856246948242 187.175003051758 181.306243896484 176.418746948242 167.743759155273 157.375 144.600006103516 150.712493896484 150.524993896484 156.862503051758 159.412506103516 164.90625 166.043746948242 165.012496948242 162.112503051758 153.618743896484 140.956253051758 131.5625 125.587501525879 119.268753051758 113.606246948242 109.34375 108.606246948242 104.887496948242 103.199996948242 103.224998474121 104.637496948242 110.775001525879 118.025001525879 125.181251525879 127.106246948242 117.893753051758 99.2125015258789 88.5 86.5749969482422 91.0062484741211 93.6125030517578 86.0500030517578 80.4250030517578 77.8812484741211 72.2624969482422 72.84375 69.7937469482422 
195.574996948242 193.949996948242 195.393753051758 197.831253051758 195.975006103516 194.350006103516 195.931243896484 189.087493896484 182.0625 173.487503051758 167.59375 161.449996948242 156.024993896484 149.375 132.550003051758 133.412506103516 134.556243896484 139.475006103516 143.100006103516 149.46875 153.962493896484 153.212493896484 151.543746948242 148.181243896484 141.018753051758 133.606246948242 126.675003051758 118.018753051758 112.831253051758 109.53125 103.275001525879 100.6875 102.912498474121 100.987503051758 97.3125 101.625 114.631248474121 127.918746948242 130.262496948242 119.137496948242 105.981246948242 98.125 101.900001525879 98.6812515258789 95.1812515258789 91.3499984741211 91.9749984741211 90.3062515258789 88.2874984741211 76.7937469482422 71.3187484741211 
182.387496948242 181.412506103516 183.425003051758 183.237503051758 182.5 184.15625 179.550003051758 173.78125 168.206253051758 163.443756103516 156.068756103516 151.168746948242 146.856246948242 140.8125 128.243743896484 112.462501525879 116.699996948242 123.712501525879 126.662498474121 133.600006103516 137.212493896484 140.818756103516 142.65625 146.787506103516 142.699996948242 134.893753051758 124.974998474121 113.618751525879 108.756248474121 105.918746948242 106.006248474121 99.0124969482422 95.6125030517578 92.4250030517578 90.1437530517578 102.743751525879 113.168746948242 124.087501525879 128.8125 126.087501525879 117.762496948242 111.481246948242 107.525001525879 100.28125 92.1875 88.1999969482422 85.1187515258789 84.1500015258789 83.8125 78.4562530517578 72.7562484741211 
170.074996948242 169.606246948242 172.262496948242 173.706253051758 174.162506103516 170.762496948242 168.6875 163.581253051758 158.6875 154.25 148.268753051758 142.081253051758 136.162506103516 132.725006103516 129.168746948242 118.493751525879 107.387496948242 108.168746948242 116.956253051758 122.724998474121 125.824996948242 130.606246948242 137.5625 145.481246948242 146.46875 130.193756103516 115.756248474121 105.712501525879 103.368751525879 103.643753051758 104.087501525879 103.3125 99.0812530517578 96.4562530517578 103.974998474121 110.71875 123.293746948242 138.637496948242 145.231246948242 130.050003051758 117.800003051758 109.931251525879 101.868751525879 97.90625 90.6500015258789 84.2312469482422 83.1687469482422 84.9437484741211 84.0250015258789 75.59375 73.7937469482422 
158.137496948242 160.262496948242 161.21875 164.306243896484 164.606246948242 159.712493896484 156.524993896484 153.425003051758 148.981246948242 141.006256103516 135.993743896484 133.850006103516 128.962509155273 125.706245422363 125.074996948242 120.868751525879 111.724998474121 99.09375 109.381248474121 113.831253051758 116.731246948242 120.856246948242 131.975006103516 138.387496948242 137.893753051758 122.25 107.768753051758 100.599998474121 99.4187469482422 97.4000015258789 92.8687515258789 91 103.449996948242 107.949996948242 107.043746948242 118.256248474121 133.381256103516 141.96875 142.600006103516 130.800003051758 112.556251525879 104.412498474121 96.6875 92.5562515258789 86.1812515258789 81.875 83.4625015258789 81.4000015258789 79.3249969482422 71.34375 71.7374954223633 
147.168746948242 149.368743896484 148.993743896484 150.737503051758 153.143753051758 150.475006103516 145.681243896484 144.1875 141.25 134.53125 129.462493896484 124.25 121.15625 120.368751525879 116.025001525879 115.418746948242 111.5 103.099998474121 98.0999984741211 100.375 108.375 121.162498474121 111.556251525879 119.731246948242 121.006248474121 116.081253051758 106.243751525879 97.4187469482422 96.5374984741211 95.7687530517578 93.2562484741211 93.2437515258789 101.65625 103.293746948242 105.493751525879 114.012496948242 120.712501525879 125.15625 126.974998474121 115.487503051758 104.775001525879 95.5562515258789 89.8187484741211 85.7312469482422 81.8562469482422 78.625 80.8687515258789 80.3375015258789 74.4875030517578 64.9749984741211 69.3000030517578 
133.100006103516 137.4375 138.649993896484 139.693756103516 139.618743896484 142.6875 138.568756103516 137.418746948242 135.631256103516 129.893753051758 125.550003051758 125.9375 122.668746948242 119.199996948242 111.762496948242 102.887496948242 97.6937484741211 105.84375 100.106246948242 97.6125030517578 91.4250030517578 96.4000015258789 105.525001525879 109.150001525879 107.693748474121 100.375 95.6687469482422 95 90.7750015258789 87.0374984741211 89.0124969482422 96.6999969482422 98.8312530517578 100.5 103.543746948242 109.212501525879 111.599998474121 111.375 109.550003051758 103.074996948242 92.5749969482422 84.96875 82.6312484741211 78.7937469482422 75.9312515258789 75.21875 76.8000030517578 75.0999984741211 69.2062530517578 63.0562515258789 67.2000045776367 
116.981254577637 128.081253051758 134.793746948242 133.34375 131.237503051758 134.0625 132.506256103516 132.149993896484 129.381256103516 125.643753051758 120.28125 120.400001525879 118.824996948242 114.25 107.474998474121 100.949996948242 97.625 98.1437530517578 100.775001525879 95.2624969482422 99.15625 103.71875 109.625 114.162498474121 111.71875 102.650001525879 92.1875 90.3125 89.5 88.0187530517578 91.6437530517578 95.3499984741211 93.09375 95.1187515258789 97.8499984741211 101.462501525879 103.75 101.443748474121 97.4749984741211 91.46875 84.8000030517578 80.9499969482422 77.0437469482422 74.1374969482422 72.2937469482422 71.7437515258789 71.7249984741211 70.2687530517578 63.5812492370605 62.6812515258789 63.21875 
110.025001525879 113.675003051758 121.856246948242 125.081253051758 126.181251525879 124.012496948242 123.550003051758 123.443748474121 122.59375 119.650001525879 117.087501525879 113.568748474121 110.625 111.268753051758 109.387496948242 103.362503051758 103.256248474121 101.768753051758 102.4375 101.400001525879 99.8312530517578 103.650001525879 109.387496948242 107.818748474121 102.525001525879 95.875 94.15625 88.4625015258789 90.1500015258789 91.8874969482422 91.4250030517578 90.5749969482422 88.78125 88.6125030517578 88.2750015258789 92.3937530517578 94.1374969482422 92.5250015258789 89.375 84.9250030517578 79.8499984741211 76.9937515258789 74.1937484741211 71.3000030517578 69.3187484741211 68.6125030517578 67.4562530517578 64 59.0437507629395 61.4500007629395 59.5999984741211 
103.056251525879 111.650001525879 117.143753051758 118.8125 119.150001525879 118.887496948242 112.806251525879 112.743751525879 113.962501525879 116.46875 115.818748474121 112.487503051758 112.206253051758 110.943748474121 111.449996948242 109.987503051758 105.650001525879 102.03125 101.331253051758 102.962501525879 107.056251525879 106.956253051758 108.324996948242 105.675003051758 103.4375 95.1500015258789 89.5500030517578 87.8812484741211 86.1062469482422 85.4499969482422 84.7750015258789 84.9749984741211 82.34375 79.65625 80.0875015258789 80.6437530517578 83.2750015258789 81.1374969482422 80.6999969482422 78.8249969482422 75.3312530517578 71.5562515258789 69.40625 66.7750015258789 63.7562484741211 64.2562484741211 62.0499992370605 60.2062492370605 58.9749984741211 59.9187507629395 57.6937484741211 
92.8125 103.537498474121 111.849998474121 112.956245422363 113.287498474121 111.012496948242 111.3125 109.40625 107.599998474121 106.481246948242 107.393753051758 111.59375 111.543746948242 112.237503051758 109.912498474121 108.574996948242 103.931251525879 104.46875 103.4375 107.256248474121 107.381248474121 110.787498474121 111.21875 111.050003051758 106.762496948242 97.03125 92.9250030517578 85.5812530517578 81.6750030517578 80.0875015258789 79.3312530517578 78.3499984741211 74.1437530517578 70.125 71.7687530517578 70.4000015258789 73.0500030517578 73.59375 73.40625 71.6312484741211 69.6374969482422 66.8312530517578 65.53125 63.0125007629395 61.7687492370605 60.1375007629395 57.46875 55.0187492370605 56.0875015258789 56.8312492370605 54 
85.8125 96.9625015258789 106.5625 109.112503051758 110.331253051758 106.71875 106.21875 104.956253051758 103.543746948242 105 106.199996948242 104.550003051758 108.793746948242 108.806251525879 106.262496948242 102.962501525879 101.599998474121 103.724998474121 105.262496948242 107.612503051758 109.9375 111.837501525879 117.018753051758 113.237503051758 104.918746948242 100.012496948242 90.1312484741211 82.5062484741211 76.5625 74.4562530517578 70.28125 67.1437530517578 65.5 62.4749984741211 61.09375 61.8499984741211 64.5500030517578 64.4124984741211 65.3625030517578 65.0812530517578 62.9500007629395 62.0687484741211 61.6187515258789 59.375 55.8875007629395 55.5062484741211 51.6500015258789 53.1375007629395 53.1437492370605 53.0750007629395 51.8499984741211 
83.875 94.3000030517578 98.5562515258789 102.731246948242 103.925003051758 101.956253051758 101.224998474121 99.8062515258789 97.6687469482422 95.4375 101.199996948242 102.09375 101.275001525879 102.349998474121 101.681251525879 100.46875 98.8000030517578 101.237503051758 104.331253051758 105.993751525879 111.543746948242 114.574996948242 119.162498474121 115.068748474121 105.387496948242 96.5124969482422 88.1750030517578 78.8249969482422 70.7437515258789 66.1750030517578 61.8875007629395 57.7750015258789 54.9812507629395 53.4187507629395 53.7874984741211 54.7687492370605 56.5999984741211 57.65625 58.5187492370605 58.6500015258789 58.78125 57.1875 56.5750007629395 54.7062492370605 52.8687515258789 49.4375 50.2312507629395 50.2625007629395 50.8187484741211 51.4124984741211 49.90625 
78.0562515258789 84.2312469482422 90.4875030517578 95.0187530517578 96.2125015258789 95.9499969482422 96.3000030517578 94.71875 91.2687530517578 94.5124969482422 98.4250030517578 99.3249969482422 99.2687530517578 97.9875030517578 96.6999969482422 98.15625 97.1062469482422 97.7062530517578 101.693748474121 105.243751525879 107.662498474121 111.493751525879 117.512496948242 115.96875 103.831253051758 91.4187469482422 82.6437530517578 74.3625030517578 66.7125015258789 59.65625 56.0374984741211 50.1375007629395 46.8812484741211 47.7062492370605 47.0499992370605 48.6312484741211 48.5374984741211 49.3187484741211 50.7999992370605 51.9375 53.4124984741211 53.2625007629395 52.5499992370605 50.9749984741211 48.3250007629395 47.0625 48.1937484741211 46.3687515258789 46.7249984741211 45.4500007629395 43.9812507629395 
72.7687530517578 75.3375015258789 80.6937484741211 86.5562515258789 88.2750015258789 89.0562515258789 89.8125 88.6875 88.3937530517578 90.5625 92.8312530517578 92.5187530517578 93.0687484741211 92.8312530517578 91.3874969482422 91.7249984741211 92.1374969482422 93.9812469482422 95.1312484741211 99.6750030517578 105.150001525879 107.75 108.987503051758 106.943748474121 98.375 87.1937484741211 78.28125 70.0500030517578 62.4812507629395 57.0875015258789 52.2374992370605 47.7874984741211 44.3875007629395 42.4124984741211 41.6624984741211 42.4249992370605 41.9625015258789 42.5999984741211 44.4187507629395 46.8250007629395 48.3187484741211 50.4375 49.3187484741211 48.8812484741211 45.3125 43.7687492370605 43.4874992370605 43.0687484741211 41.59375 38.9124984741211 37.8312492370605 
66.84375 68.9250030517578 74.5 76.3375015258789 79.5250015258789 79.5250015258789 80.1437530517578 81.7562484741211 81.9937515258789 85.0687484741211 86.7624969482422 86.7249984741211 87.7624969482422 88.8375015258789 88.0562515258789 88.0374984741211 89.625 88.9562530517578 91.3625030517578 95.4312515258789 99.0749969482422 101.449996948242 103.712501525879 99.1750030517578 91.5500030517578 82.1750030517578 73.6937484741211 65.8062515258789 60.21875 54.9625015258789 49.5812492370605 45.40625 41.4749984741211 38.5625 37.1062507629395 37.2312507629395 36.65625 36.7937507629395 38.34375 39.5625 42.0812492370605 43.28125 44.0750007629395 44.3312492370605 42.0125007629395 38.9937515258789 39.4249992370605 38.8562507629395 36.1312484741211 34.2625007629395 31.0625 
60.7437515258789 64.0374984741211 67.7249984741211 69.4625015258789 70.5812530517578 71.9250030517578 72.3812484741211 75.7249984741211 77.8187484741211 79.4749984741211 81.40625 83.3937530517578 84.375 84.0687484741211 83.6500015258789 83.7375030517578 83.5999984741211 84.8375015258789 85.6937484741211 88.0500030517578 92.28125 94.1187515258789 96.3000030517578 90.2562484741211 84 76.5500030517578 68.4562530517578 61.7062492370605 56.5187492370605 51.2999992370605 46.7125015258789 42.3624992370605 38.2562484741211 35.3937492370605 33.0750007629395 32.2312507629395 32.1437492370605 31.0562496185303 31.1812496185303 32.15625 34.3125 35.9562492370605 36.96875 37.0374984741211 35.8562507629395 35.6375007629395 35.4562492370605 33.5250015258789 31.1000003814697 30.1812496185303 27.7312507629395 
56.2312507629395 58.4500007629395 59.0812492370605 62.4749984741211 64.6500015258789 66.84375 67.7249984741211 69.8062515258789 72.1999969482422 74.5562515258789 77.2750015258789 78.4312515258789 81.46875 79.6125030517578 78.4499969482422 79.1187515258789 81.0124969482422 79.4250030517578 78.3687515258789 82.3187484741211 86.5500030517578 88.2750015258789 88.9937515258789 82.0999984741211 75.5437469482422 71.3625030517578 64.2062530517578 56.9749984741211 51.0687484741211 47.21875 43.2625007629395 39.84375 36.09375 33.1437492370605 30.3187503814697 28.375 27.1437492370605 26.3187503814697 25.5249996185303 25.0874996185303 26.1375007629395 28.3937492370605 29.6375007629395 29.7437496185303 29.8312492370605 30.6375007629395 29.9624996185303 28.375 26.8875007629395 26.15625 24.8624992370605 
51.8312492370605 51.3312492370605 51.7687492370605 53.5750007629395 56.5125007629395 59.6375007629395 62.4000015258789 64.2937469482422 67.40625 68.8937530517578 72.0437469482422 75.0250015258789 76.1999969482422 77.5999984741211 76.8874969482422 76.7125015258789 76.8687515258789 75.2562484741211 73.3249969482422 76.96875 78.8000030517578 80.9124984741211 80.5999984741211 74.4499969482422 70.1437530517578 64.75 58.71875 53.3937492370605 46.9562492370605 43.5812492370605 40.7312507629395 37.375 33.4249992370605 30.3125 27.6437492370605 25.0437507629395 23.5125007629395 21.0249996185303 20.21875 20.2124996185303 20.65625 21.9812507629395 23.0499992370605 24.2062492370605 24.7999992370605 25.875 26.5562496185303 25.2875003814697 23.2999992370605 22.3999996185303 21.4562492370605 
47.2312507629395 46.1875 45.6875 46.6875 49.1124992370605 51.7687492370605 54.9000015258789 57.3687515258789 59.0812492370605 63.1500015258789 67.875 69.3000030517578 71.6999969482422 74.6687469482422 74.625 72.7562484741211 71.0187530517578 71.9187469482422 71.5875015258789 73.8062515258789 74.3187484741211 74.0875015258789 72.4187469482422 68.1937484741211 65.1374969482422 59.9625015258789 55.3937492370605 49.5999984741211 44.8375015258789 40.9124984741211 37.8624992370605 34.3875007629395 30.1749992370605 27.2562503814697 24.9500007629395 22.8624992370605 20.125 17.6687507629395 16.8125 16.9500007629395 16.9437503814697 17.9187507629395 18.0687503814697 19.0812492370605 19.7749996185303 20.9187507629395 22.5812492370605 21.3250007629395 20.4187507629395 19.1375007629395 18.78125 
42.9124984741211 41.9749984741211 42.0250015258789 42.7062492370605 43.53125 44.5125007629395 46.90625 48.2125015258789 52.1937484741211 55.2312507629395 60.15625 63.96875 67.8125 69.8625030517578 69.7937469482422 67.5875015258789 66.90625 67.1187515258789 66.8499984741211 68.0250015258789 69.0749969482422 67.125 66.8812484741211 63.5499992370605 59.2750015258789 54.65625 50.5562477111816 46.5125007629395 42.125 38.5812492370605 35.4437484741211 31.8187503814697 27.75 25.1062507629395 22.5499992370605 20.0687503814697 17.0750007629395 14.875 14.3000001907349 13.8625001907349 13.6687498092651 14.3687496185303 14.90625 15.2124996185303 16.0625 16.5 17.0187492370605 16.5812492370605 16.1625003814697 16.0437507629395 15.6187496185303 
39.46875 37.4375 38.2750015258789 38.3812484741211 39.2625007629395 40.0687484741211 40.9625015258789 42.0125007629395 44.0687484741211 47.4437484741211 52.9437484741211 58.6749992370605 65.1312484741211 68.5999984741211 66.6437530517578 64.6624984741211 63.3187484741211 62.7562484741211 63.3624992370605 63 63.5 63.375 61.9812507629395 58.7312507629395 54.7750015258789 50.4249992370605 46.8875007629395 43.2874984741211 39.2687492370605 34.2937507629395 31.4375 29.1375007629395 25.7749996185303 22.90625 19.84375 17.40625 15.0249996185303 13.1625003814697 12.1875 11.3125 10.7312498092651 10.8062496185303 11.4875001907349 11.7062501907349 12.2312498092651 12.8000001907349 13.1374998092651 13.1812496185303 12.9875001907349 12.7749996185303 12.6374998092651 
36.1624984741211 35.0562515258789 36.0625 35.4000015258789 35.8375015258789 36.0562515258789 36.7687492370605 37.34375 38.7999992370605 40.9000015258789 45.53125 52.0625 60.0562515258789 62.21875 62.25 60.9749984741211 60.2625007629395 58.9937515258789 58.0750007629395 57.9249992370605 55.8187484741211 56.9500007629395 55.0250015258789 51.9312515258789 47.9749984741211 46.09375 43.1749992370605 40.1437492370605 36.5875015258789 32.1500015258789 29.2437496185303 27.2000007629395 23.9249992370605 21.3187503814697 18.5 16.0375003814697 14.1000003814697 12.2937498092651 11.6312503814697 10.7875003814697 9.85000038146973 9.80000019073486 9.67500019073486 9.72500038146973 10.0625 10.2749996185303 10.3125 10.625 10.6437501907349 10.2875003814697 10.3374996185303 
32.8250007629395 32.6312484741211 33.1062507629395 32.2874984741211 32.5187492370605 33.2000007629395 33.5625 33.7249984741211 34.21875 34.4500007629395 38.90625 45.9625015258789 52.4874992370605 55.2937507629395 56.6937484741211 56.5187492370605 55.7125015258789 53.8312492370605 52.6312484741211 52.4937477111816 50.2062492370605 49.21875 47.9187507629395 46.28125 43.0875015258789 41.2374992370605 39.0499992370605 36.3187484741211 33.4562492370605 30.375 27.3312492370605 24.6875 21.6499996185303 19.3125 16.8250007629395 14.53125 12.8374996185303 11.7749996185303 11.25 10.2875003814697 9.23750019073486 8.94375038146973 8.5625 8.5625 8.67500019073486 8.35624980926514 8.53750038146973 8.54374980926514 8.61874961853027 8.47500038146973 8.46875 
29.1000003814697 29.5249996185303 29.2374992370605 29.5562496185303 29.7749996185303 30.21875 30.5375003814697 30.5125007629395 30.9500007629395 30.5062503814697 36.7125015258789 42.8562507629395 47.0062484741211 50.0374984741211 52.0437507629395 52.3812484741211 50.3937492370605 50.1375007629395 48.1500015258789 47.5 46.0125007629395 44.4000015258789 42.28125 41.125 39.34375 37.6812515258789 35.5562515258789 33.4249992370605 31.1312503814697 27.8999996185303 24.0812492370605 22.0562496185303 19.4562492370605 17.5437507629395 15.0187501907349 12.9812498092651 12.1312503814697 11.1374998092651 10.6312503814697 9.8125 8.86250019073486 8.64999961853027 8.04374980926514 7.21250009536743 7.11250019073486 6.90625 6.89375019073486 7.18125009536743 6.81874990463257 6.75624990463257 7.20625019073486 
25.5562496185303 25.3687496185303 25.0249996185303 26.1187496185303 26.5437507629395 26.96875 26.7374992370605 28.2562503814697 30.15625 33.2999992370605 39.1187515258789 41.7312507629395 43.8687515258789 46.84375 48.4812507629395 47.71875 46.4249992370605 45.5499992370605 43.2062492370605 42.4937515258789 41.0187492370605 39.1375007629395 38.0499992370605 37.0250015258789 34.9437484741211 33.59375 32.3499984741211 30.2562503814697 28.6124992370605 26.3062496185303 23.21875 20.53125 18.375 16.8062496185303 14.9562501907349 13.46875 12.7312498092651 12.0249996185303 11.3062496185303 10.0249996185303 9.51249980926514 9.50625038146973 8.55000019073486 7.875 7.63750028610229 7.39375019073486 7.0625 7.08125019073486 7.04374980926514 7.22499990463257 7.5 
22.3250007629395 22.4937496185303 22.1499996185303 23.4375 23.71875 24.7687492370605 25.2687492370605 26.7124996185303 28.9812507629395 31.8250007629395 35.65625 38.6312484741211 40.5187492370605 42.0562515258789 43.7999992370605 44.5062484741211 42.6624984741211 42.3312492370605 40.3062515258789 38.4249992370605 35.5999984741211 34.3062515258789 32.96875 32.1624984741211 30.7312507629395 29.6437492370605 28.4562492370605 27.1625003814697 25.5625 24.2250003814697 22.3937492370605 20.1062507629395 18.1375007629395 16.6625003814697 15.6937503814697 14.1812496185303 13.0437498092651 12.3374996185303 12.1875 11.1000003814697 10.4937496185303 10.3249998092651 9.41250038146973 8.54374980926514 8.03125 7.63749980926514 7.55625009536743 7.47499990463257 7.56874990463257 7.72499990463257 7.88124990463257 
18.4937496185303 19.0249996185303 19.7749996185303 20.5812492370605 21.28125 22.1125011444092 23.2999992370605 25.2749996185303 26.3187503814697 29.7000007629395 33.0374984741211 35.8125 37.6812515258789 37.90625 38.5812492370605 39.3562507629395 39.1812515258789 38.1062507629395 36.0437507629395 34.2437515258789 31.5874996185303 30.2937507629395 28.65625 27.8999996185303 27.8250007629395 26.8125 25.8125 25.0874996185303 24.1437492370605 22 20.5874996185303 20.0375003814697 18.375 17.15625 15.9937505722046 14.7624998092651 13.8000001907349 12.9937496185303 12.75 12.1687498092651 11.2312498092651 10.8062496185303 10.1062498092651 9.25 8.72500038146973 8.25 7.91874980926514 7.65625 7.96875 7.96250009536743 8.15625 
15.1187496185303 15.7375001907349 16.6187496185303 17.3562507629395 18.4249992370605 19.4125003814697 20.9249992370605 21.9375 23.2124996185303 25.7875003814697 28.5562496185303 31.4937496185303 33.1687507629395 32.9124984741211 33.625 35.0687484741211 35.3499984741211 34.8375015258789 32.9124984741211 31.5249996185303 28.9624996185303 27.28125 25.5187492370605 24.0999984741211 24.1187496185303 23.4312496185303 23.0750007629395 22.6625003814697 22.40625 21.46875 19.1937503814697 18.6687507629395 17.9500007629395 18 16.96875 15.1312503814697 14.4250001907349 14.1062498092651 13.90625 13.3999996185303 12.3187503814697 11.6687498092651 10.7437496185303 10.0062503814697 9.49374961853027 9.13125038146973 8.44375038146973 7.90625 8.32499980926514 8.26875019073486 8.19375038146973 
11.8000001907349 12.5687503814697 13.2624998092651 13.8874998092651 14.34375 15.6687498092651 16.84375 17.7312507629395 19.4562492370605 21.6312503814697 23.8187503814697 25.9937496185303 27.3250007629395 28.2062492370605 29.4750003814697 30.8999996185303 31.3812503814697 31.5249996185303 30.2250003814697 28.0062503814697 25.5875015258789 23.5875015258789 22.5437507629395 22.3375015258789 22.4000015258789 21.1750011444092 21.0750007629395 20.6374988555908 19.9874992370605 19.3937492370605 18.2875003814697 16.9624996185303 16.1625003814697 16.7312507629395 17.8999996185303 17.1062507629395 15.28125 14.875 14.5812501907349 13.4250001907349 12.5500001907349 12.1875 11.6000003814697 10.6812496185303 10.5749998092651 9.63749980926514 8.71249961853027 8.39999961853027 9.07499980926514 8.71875 8.15625 
9.125 9.63125038146973 10.2062501907349 10.71875 11.4250001907349 12.4812498092651 13.25 14.25 15.71875 17.6749992370605 19.4500007629395 21.4812507629395 22.8374996185303 24.5249996185303 25.7999992370605 26.5562496185303 28.0625 28.78125 27.5375003814697 26.0375003814697 23.7062492370605 21.6875 19.8999996185303 19.9624996185303 19.5750007629395 18.875 18.5 18.25 17.8187503814697 17.7124996185303 16.75 15.9812498092651 15.5437498092651 15.78125 17.7312507629395 18.53125 16.2749996185303 15.4875001907349 14.9875001907349 13.5625 12.7687501907349 12.4375 11.6312503814697 10.9750003814697 10.6624994277954 9.90625 9.40625 8.6875 8.44999980926514 8.81875038146973 8.125 
6.92500019073486 7.25624990463257 7.91874980926514 8.41250038146973 9.30624961853027 10.2749996185303 10.8562498092651 11.40625 12.8812503814697 14.4437503814697 15.84375 17.375 19.28125 21.2999992370605 22.84375 23.1687507629395 24.1875 25.4125003814697 24.9375 23.3875007629395 21.2562503814697 19.8187503814697 17.75 17.4375 17.375 17.125 16.1875 16.125 15.9250001907349 15.8624992370605 15.1625003814697 14.6437501907349 14.5 15.5 16.5125007629395 17.8624992370605 16.3312492370605 15.4125003814697 14.6687498092651 14.1000003814697 12.9437503814697 12.4750003814697 12.1499996185303 11.3562498092651 10.8812503814697 10.0874996185303 9.64999961853027 8.83749961853027 8.15625 8.5 8.35000038146973 
