ncols        51
nrows        45
xllcorner    -63.500000000000
yllcorner    -7.500000000000
cellsize     0.166666666667
NODATA_value -99
300.418762207031 302.556243896484 294.818756103516 290.581237792969 283.456237792969 269.96875 252.306259155273 235.431243896484 218.712493896484 204.587493896484 193.462493896484 182.324996948242 170.600006103516 157.337493896484 146.587493896484 136.368743896484 126.706253051758 117.993751525879 110.693748474121 103.775001525879 98.5999984741211 93.40625 88.8937530517578 85.7249984741211 83.1500015258789 81.2624969482422 81.4499969482422 82.25 82.9937515258789 81.1437530517578 79.1312484741211 77.1125030517578 74.8375015258789 72.6500015258789 70.75 69.1875 67.59375 65.9875030517578 65.3249969482422 64.7062530517578 64.21875 64.5875015258789 64.5562515258789 63.9125022888184 62.75 60.90625 58.8562507629395 55.2874984741211 51.7125015258789 48.0625 45.9312515258789 
297.262512207031 301.518737792969 301.231262207031 304.618743896484 306.96875 292.418762207031 275.387512207031 260.8125 245.818756103516 230.462493896484 215.96875 201.168746948242 186.25 171.3125 158.274993896484 146.487503051758 134.462493896484 125.431251525879 117.606246948242 110.637496948242 104.943748474121 99.9437484741211 95.3812484741211 91.78125 88.5 85.4437484741211 85.21875 85.3187484741211 84.9625015258789 81.4499969482422 78.6624984741211 76.1937484741211 73.7750015258789 71.6875 69.1812515258789 66.9499969482422 65.09375 62.9749984741211 62.1749992370605 61.3187484741211 60.7437515258789 61.2374992370605 61.3687515258789 60.8375015258789 59.7374992370605 57.9124984741211 55.7687492370605 51.9625015258789 47.8187484741211 43.8062515258789 41.5374984741211 
279.9375 285.368743896484 286.424987792969 292.206237792969 296.950012207031 289.15625 280.549987792969 273.575012207031 263.131256103516 249.443756103516 233.706253051758 216.318740844727 199.293746948242 182.449996948242 167.918746948242 154.618743896484 142.318756103516 132.881256103516 124.506248474121 117.056251525879 110.59375 105.362503051758 100.03125 95.1374969482422 90.5374984741211 86.7062530517578 85.6624984741211 85.1687469482422 83.6374969482422 80.25 77.4812469482422 74.4749984741211 71.8562469482422 69.6624984741211 67.1500015258789 64.6937484741211 62.3312492370605 60.1687507629395 59.3499984741211 58.4124984741211 57.7312507629395 58.21875 58.5062484741211 58.4249992370605 57.3375015258789 55.1500015258789 53.0562515258789 49.3187484741211 44.8250007629395 40.59375 38.0750007629395 
259.131256103516 263.512512207031 267.850006103516 271.443756103516 277.5 276.956237792969 278.118743896484 280.162506103516 277.5625 267.587493896484 250.21875 229.643753051758 210.081253051758 192.175003051758 177.431243896484 162.899993896484 149.706253051758 140.350006103516 131.90625 124.256248474121 117.21875 110.418754577637 103.631248474121 97.6374969482422 91.6687469482422 86.4375 84.7062530517578 83.3812484741211 81.4937515258789 78.0062484741211 75.09375 72.3249969482422 69.1687469482422 66.375 63.3624992370605 61.4000015258789 59.125 56.75 55.9749984741211 55.0625 53.9187507629395 54.5437507629395 55.0374984741211 55.3562507629395 54.0499992370605 52.3624992370605 49.8875007629395 45.9124984741211 41.4625015258789 37.1437492370605 34.53125 
250.237503051758 248.025009155273 245.75 248.5625 256.643737792969 262.899993896484 270.518737792969 279.475006103516 286.262512207031 284.243743896484 263.518768310547 237.987503051758 217.5625 200.368743896484 184.768753051758 169.618743896484 156.5 146.181243896484 137.350006103516 129.425003051758 122.231246948242 114.300003051758 106.5 99.4437484741211 92.21875 85.875 82.9875030517578 81.4375 79.5562515258789 75.4937515258789 72.34375 69.34375 66.3625030517578 63.40625 60.5187492370605 58.2125015258789 55.84375 53.5250015258789 52.4874992370605 51.40625 50.1687507629395 50.5125007629395 51.2937507629395 51.7625007629395 50.96875 49.0687484741211 46.3187484741211 42.2125015258789 37.7125015258789 33.8937492370605 31 
239.987503051758 237.162506103516 229.743743896484 225.100006103516 234.400009155273 244.756256103516 253.331253051758 262.575012207031 270.90625 274.737487792969 253.443756103516 229.949996948242 213.131256103516 198.006256103516 184.03125 171.537506103516 159.206253051758 149.412506103516 141.231246948242 133.318756103516 125.206253051758 116.631248474121 108.131248474121 99.3937454223633 91.25 83.9749984741211 80.5437469482422 78.1937484741211 76.3375015258789 72.4375 69.4875030517578 67.1937484741211 64.3687515258789 61.8499984741211 59.3812484741211 57.5374984741211 55.5062522888184 53.7687492370605 53.09375 51.4562492370605 49.2125015258789 49.375 49.8250007629395 50.4187507629395 50.7312507629395 48.2750015258789 44.7999992370605 40.3312492370605 36.4500007629395 32.7625007629395 30.1625003814697 
234.668746948242 230.475006103516 222.5 216.081253051758 220.387496948242 226.131256103516 231.568756103516 235.456253051758 236.337493896484 232.975006103516 225.550003051758 214.074996948242 203.493743896484 192.943756103516 181.800003051758 171.699996948242 161.568756103516 151.993743896484 143.75 136.556243896484 128.018753051758 118.706253051758 109.056251525879 99.4437484741211 90.34375 82.125 78.4562530517578 75.4500045776367 72.65625 69.4312515258789 66.8000030517578 64.4812469482422 62.0875015258789 60.1624984741211 58.3499984741211 56.5625 54.9437484741211 53.5499992370605 53.3937492370605 50.9187507629395 48.15625 47.5812492370605 47.84375 48.4812507629395 49.1437492370605 46.9937515258789 43.0999984741211 38.3499984741211 34.71875 31.5499992370605 29.34375 
231.03125 225.081253051758 219.231246948242 215.9375 215.543746948242 216.649993896484 214.106246948242 207.587493896484 197.587493896484 193.806243896484 197.024993896484 195.637496948242 192.331253051758 186.418746948242 179.518753051758 171.662506103516 163.4375 154.512496948242 146.699996948242 140.118743896484 131.050003051758 120.681251525879 110.074996948242 99.6500015258789 89.5 80.1125030517578 75.7249984741211 72 68.8125 65.4312515258789 63.3062515258789 61.6062507629395 59.8187484741211 58.4000015258789 56.8250007629395 55.2374992370605 53.40625 51.9437484741211 50.6937484741211 48.2750015258789 45.4187507629395 44.3937492370605 43.9500007629395 44.0187492370605 44.3499984741211 42.7125015258789 39.8562507629395 35.8875007629395 32.5750007629395 30.0812492370605 28.2124996185303 
229.118743896484 224.606246948242 220.71875 217.181243896484 215.431243896484 212.643753051758 206.731246948242 194.75 177.212493896484 169.287506103516 177.399993896484 181.25 182.106246948242 178.96875 175.012496948242 170.175003051758 164.087493896484 157.050003051758 150.568756103516 143.387496948242 133.15625 122.168746948242 109.831253051758 99.2562484741211 88.0875015258789 77.84375 72.7874984741211 69.6750030517578 66.5875015258789 63.3937492370605 61.7750015258789 60.4749984741211 58.7687492370605 57.4500007629395 55.9937515258789 54.7687492370605 53.2687492370605 51.40625 49.34375 46.78125 43.8187484741211 42.03125 41.0250015258789 39.96875 39.1937484741211 38.1687507629395 36.4187507629395 33.3562507629395 30.8687496185303 29.1312503814697 28.34375 
228.050003051758 224.043746948242 220.175003051758 217.84375 216.512496948242 212.800003051758 205.506256103516 193.012496948242 178.431243896484 170.84375 172 173.25 174.581253051758 173.243743896484 171.543746948242 169.149993896484 165.087493896484 159.743743896484 154.149993896484 148.34375 136.59375 123.831253051758 109.987503051758 97.7937469482422 85.3375015258789 74.8062515258789 70.28125 66.875 64.1187515258789 61.5999984741211 59.9437484741211 59.0750007629395 57.7374992370605 56.8125 55.8499984741211 54.6624984741211 52.9874992370605 50.9249992370605 48.53125 45.375 42.0812492370605 39.7125015258789 37.6124992370605 35.7874984741211 34.6062507629395 33.3812484741211 32.2625007629395 30.4562492370605 28.7374992370605 27.5750007629395 26.625 
226.925003051758 222.962493896484 219.006256103516 216.84375 215.831253051758 215.274993896484 209.024993896484 195.787506103516 182.856246948242 175.143753051758 172.375 171.012496948242 169.868743896484 169.293746948242 168.962493896484 167.71875 165.918746948242 161.737503051758 157.40625 152.537506103516 141.293746948242 126.256248474121 110.287498474121 95.5625 83.2874984741211 73.1125030517578 68.8937530517578 65.6812515258789 62.5625 60.4874992370605 59.2937507629395 58.6375007629395 57.6124992370605 56.7687492370605 55.7374992370605 54.2937507629395 52.5499992370605 50.0999984741211 47.2625007629395 43.75 40.0999984741211 37.2312507629395 34.7687492370605 32.1937484741211 30.5375003814697 29.4125003814697 28.4312496185303 27.2937507629395 26.0125007629395 24.8562507629395 23.5437507629395 
225.275009155273 221.324996948242 217.84375 216.506256103516 216.181243896484 216.337493896484 212.243743896484 198.037506103516 186.168746948242 177.543746948242 172.512496948242 170.381256103516 168.300003051758 167.643753051758 168.024993896484 166.800003051758 165.443756103516 161.600006103516 157.737503051758 154.162506103516 144.393753051758 128.175003051758 110.449996948242 94.9499969482422 81.78125 71.1437530517578 66.90625 64.5812530517578 62.4000015258789 61.0125007629395 59.7437515258789 59.1749992370605 57.9500007629395 57.1124992370605 56.2374992370605 54.6500015258789 52.6687507629395 50.2937507629395 46.7625007629395 42.8499984741211 38.4937515258789 35.28125 32.5250015258789 29.9437503814697 27.7625007629395 26.0562496185303 25.3562507629395 24.4562492370605 23.7687492370605 22.9375 21.28125 
222.131256103516 218.78125 215.550003051758 213.481246948242 212.6875 211.137496948242 204.925003051758 195.006256103516 184.9375 177.893753051758 172.668746948242 169.556243896484 167.850006103516 165.574996948242 165.606246948242 165.3125 163.425003051758 160.125 156.600006103516 152.449996948242 143.75 127.681251525879 109.21875 93.9875030517578 78.7062530517578 68.0812530517578 65.9937515258789 64.2125015258789 62.8187484741211 61.7000007629395 60.6062507629395 59.6749992370605 58.6062507629395 57.4500007629395 56.5562515258789 55.1062507629395 53.1062507629395 50.96875 47.2937507629395 42.2625007629395 37.5499992370605 34.4187507629395 31.2250003814697 27.0562496185303 24.4562492370605 24.21875 23.8999996185303 23.0687503814697 22.2062492370605 21.3374996185303 19.7250003814697 
217.324996948242 214.050003051758 211.024993896484 208.506256103516 206.28125 203.274993896484 197.268753051758 190.162506103516 182.649993896484 175.712493896484 170.268753051758 167.262496948242 165.287506103516 163.84375 161.949996948242 161.649993896484 159.375 155.512496948242 151.300003051758 146.399993896484 136.625 121.643753051758 105.868751525879 92.5812530517578 79.5062484741211 69.7312469482422 67.1750030517578 65.2750015258789 63.7062492370605 62.1624984741211 60.90625 60.1500015258789 58.9562492370605 57.84375 57.0250015258789 55.8187484741211 54.2125015258789 52.5562515258789 48.8687515258789 43.9937515258789 38.4124984741211 33.8499984741211 30.2749996185303 26.9750003814697 24.78125 24.2437496185303 24.3624992370605 23.7062492370605 22.375 21.0687503814697 19.0499992370605 
211.899993896484 209.300003051758 205.40625 202.756256103516 200.043746948242 196.193756103516 192.018753051758 186.237503051758 178.987503051758 172.75 167.631256103516 164.131256103516 161.537506103516 159.681243896484 156.987503051758 156.037506103516 152.912506103516 147.806243896484 142.568756103516 137.78125 128.324996948242 115.931251525879 103.237503051758 93.90625 84.5124969482422 75.7937469482422 71.9250030517578 68.8062515258789 66.0999984741211 63.6812515258789 61.8062515258789 60.6312484741211 59.4312515258789 58.7937507629395 58.0625 56.84375 55.9937515258789 55.8875007629395 54.2437515258789 49.6937484741211 43.625 37.9812507629395 33.5875015258789 29.7562484741211 27.2624988555908 25.9624996185303 25.1375007629395 24.34375 23.2312507629395 21.6375007629395 19.59375 
204.96875 202.318756103516 198.943756103516 196.356246948242 193.487503051758 190.243743896484 186.106246948242 180.649993896484 174.587493896484 169.118743896484 163.362503051758 158.59375 155.631256103516 153.587493896484 151.28125 148.850006103516 144.050003051758 138.462493896484 133.0625 127.962501525879 119.043754577637 109.537498474121 100.537498474121 95.9499969482422 89.46875 81.6125030517578 77.2750015258789 73.1187515258789 69.0875015258789 65.3562469482422 62.7562484741211 60.8250007629395 59.3624992370605 58.7750015258789 57.7999992370605 56.3937492370605 57.3250007629395 58.4187507629395 59.1624984741211 56.1875 51.4500007629395 44.5875015258789 38.2999992370605 32.9437484741211 30.34375 28.59375 27.4375 26 24.5187492370605 23.0125007629395 21.375 
195.9375 194.068756103516 192.09375 190.256256103516 187.4375 184.262496948242 180.46875 175.550003051758 170.106246948242 163.981246948242 157.931243896484 152.5625 148.199996948242 145.068756103516 141.918746948242 138.443740844727 132.337509155273 126.581253051758 121.78125 117.462501525879 109.75 102.456253051758 97 96.875 94.25 86.1125030517578 81.625 76.25 70.9124984741211 66.40625 63.5562515258789 62.0125007629395 59.2125015258789 57.0625 55.6000022888184 56.03125 58.0562515258789 62.9249992370605 68.09375 64.8687515258789 59.7999992370605 51.5187492370605 43.15625 36.8187484741211 33.90625 31.8374996185303 29.9187507629395 28.375 27.1375007629395 25.2625007629395 23.8500003814697 
186.100006103516 185.481246948242 184.712493896484 183.331253051758 181.15625 178.756240844727 175.287506103516 170.318756103516 164.800003051758 158.949996948242 152.84375 146.024993896484 140.175003051758 134.956253051758 130.493743896484 125.693748474121 119.662498474121 113.762496948242 110 106.09375 100.168746948242 94.9875030517578 91.7937469482422 94.0062484741211 93.7687530517578 88.53125 85.5625 79.6187515258789 72.9812469482422 67.0999984741211 63.46875 61.5999984741211 60.2562484741211 59.28125 56.2687492370605 52.9312515258789 58.0875015258789 64.7062530517578 68.65625 67.9000015258789 63.3062515258789 55.71875 47.75 41.53125 38.1062507629395 35.6937484741211 33.4562492370605 31.5062503814697 30.0750007629395 28.03125 26.6812496185303 
175.0625 176.706253051758 177.024993896484 176.649993896484 175.600006103516 173.149993896484 169.6875 165.21875 160.550003051758 154.131256103516 146.637496948242 139.087493896484 131.475006103516 124.512496948242 119.118751525879 114.574996948242 108.75 102.78125 99.25 95.5437469482422 90.9312515258789 88.75 85.46875 88.5124969482422 89.8687515258789 88.625 86.2937469482422 81.2750015258789 75.3874969482422 68.3874969482422 63.1687507629395 63.4749984741211 65.4625015258789 64.1312484741211 61.4625015258789 59.2374992370605 62.0562515258789 66.03125 68.5500030517578 68.2437515258789 64.9875030517578 60.0562515258789 52.5812492370605 46.6812515258789 42.9187507629395 39.7999992370605 37.4937515258789 35.59375 33.7625007629395 30.6749992370605 30.0562496185303 
163.393753051758 167.181243896484 168.324996948242 168.868759155273 168.912506103516 167.612503051758 164.993743896484 161.050003051758 156.143753051758 149.949996948242 141.931243896484 132.71875 123.800003051758 115.46875 109.568748474121 104.775001525879 98.78125 94.7687530517578 91.6125030517578 89.125 84.6624984741211 81.8562469482422 81.6125030517578 85 87.1062469482422 86.6999969482422 85.5562515258789 83.1374969482422 77.6812515258789 71.5687484741211 67.8499984741211 70.3874969482422 72.0687484741211 73.2937469482422 73.3937530517578 70.8187484741211 69.8562469482422 70.5250015258789 70.5562515258789 69.4000015258789 67.1750030517578 63.3624992370605 57.3624992370605 51.8312492370605 47.9124984741211 44.6437492370605 41.9000015258789 39.6500015258789 37.1749992370605 34.4000015258789 33.5625 
149.987503051758 156.043746948242 159.225006103516 161.199996948242 162.287506103516 161.418746948242 159.893753051758 156.762496948242 152.574996948242 146.112503051758 138.225006103516 128.668746948242 119.518753051758 110.462501525879 104.431251525879 99.1187515258789 93.7125015258789 89.8125 88.25 86.1437530517578 84.0062484741211 82.4937515258789 81.6437530517578 84.4312515258789 87.1812515258789 88.2249984741211 87.9562530517578 85.0062484741211 81.6999969482422 79.6312484741211 78.8062515258789 80.6500015258789 81.8937454223633 83.9875030517578 86.3062515258789 82.6999969482422 78.59375 76.6374969482422 74.6312484741211 72.5875015258789 70.0437469482422 66.3874969482422 61.3624992370605 56.5999984741211 52.7437515258789 49.3312492370605 46.6437492370605 43.9749984741211 40.8062515258789 38.6624984741211 37.4187507629395 
137.399993896484 145.65625 150 152.875 155.074996948242 155.306243896484 154.387496948242 152.40625 149.618743896484 143.274993896484 134.899993896484 125.287498474121 116.300003051758 108.5 102.1875 97.0625 92.65625 89.3812484741211 87.4812469482422 85.9437484741211 83.5687484741211 82.4250030517578 82.5062484741211 84.9875030517578 87.1500015258789 88.5500030517578 89.8062515258789 89.0749969482422 88.3249969482422 88.2874984741211 88.8874969482422 90.75 91.5250015258789 93.1062469482422 93.4812469482422 90.5500030517578 85.9812469482422 82.1624984741211 78.8937530517578 76.2375030517578 73.2687530517578 69.6812515258789 65.5687484741211 61.09375 57.6375007629395 54.3312492370605 51.6875 48.8062515258789 45.6312484741211 43.5687484741211 41.8937492370605 
127.318748474121 137.5 142.662506103516 145.962493896484 147.743743896484 148.387496948242 148.331253051758 147.9375 147.4375 140.493743896484 131.78125 121.912498474121 113.949996948242 107.431251525879 101.237503051758 96.0500030517578 91.8062515258789 89.4250030517578 87.5812530517578 86 84.7125015258789 83.5687484741211 83.4812469482422 86.0062484741211 88.0562515258789 88.8187484741211 91.21875 93.2624969482422 93.9000015258789 95.6374969482422 98.1937484741211 101.050003051758 101.006248474121 101.512496948242 100.856246948242 97.3187484741211 92.5187530517578 87.4000015258789 83.375 81.1125030517578 78.21875 74.6937484741211 70.6937484741211 66.1875 62.5999984741211 59.7062492370605 57.2437515258789 54.2750015258789 50.8062515258789 48.375 47.1687507629395 
118.506248474121 129.181243896484 135.556243896484 138.106246948242 139.681259155273 140.75 141.050003051758 141.675003051758 141.350006103516 135.725006103516 127.59375 119.675003051758 113.050003051758 107.5 102.206253051758 97.3375015258789 93.59375 91.46875 89.7874984741211 88.2750015258789 87.3874969482422 86.8187484741211 86.2125015258789 88.34375 89.9437484741211 90.0749969482422 91.7437515258789 95.53125 99.0437469482422 102.474998474121 106.081253051758 109.418746948242 109.481246948242 109.25 108.387496948242 105.293746948242 100.556251525879 94.9312515258789 90.7750015258789 87.5875015258789 84.2374954223633 80.4124984741211 75.9000015258789 70.84375 68.1624984741211 65.7874984741211 63.40625 59.8250007629395 57.34375 53.1812515258789 51.8375015258789 
113.318748474121 122.543746948242 128.837493896484 130.168746948242 131.337493896484 132.462493896484 132.893753051758 132.96875 132.350006103516 129.03125 123.868751525879 117.949996948242 112.987503051758 108.574996948242 103.712501525879 99.5500030517578 95.9937515258789 94.2624969482422 92.84375 91.65625 90.8624954223633 89.8062515258789 89.7125015258789 91.5812530517578 93.4000015258789 95.0250015258789 97.15625 100.875 104.912498474121 109 112.962501525879 115.962501525879 116.887496948242 116.53125 115.893745422363 112.456253051758 108.731246948242 104.556251525879 99.75 96.0749969482422 92.0437469482422 87.4187469482422 82.15625 77.125 73.1437530517578 70.96875 68.5374984741211 68.1500015258789 65.5124969482422 59.4312515258789 57.7249984741211 
109.375 116.15625 119.506248474121 121.599998474121 122.518753051758 123.643753051758 124.337501525879 124.587501525879 124.6875 123.331253051758 119.443748474121 116.025001525879 112.606246948242 109.456253051758 105.662498474121 101.900001525879 98.9250030517578 97.3312530517578 96.3125 95.375 94.8062515258789 93.8562469482422 93.8000030517578 96.0187530517578 98.4312515258789 100.856246948242 103.925003051758 107.349998474121 111.275001525879 115.618751525879 118.868751525879 122.768753051758 124.175003051758 123.900001525879 123.887496948242 120.8125 117.512496948242 114.387496948242 109.787498474121 105.637496948242 101.224998474121 96.0062484741211 89.9124984741211 84.4499969482422 80.2125015258789 76.0625 78.6999969482422 78.9124984741211 75.34375 70.0500030517578 66.7562484741211 
107.706253051758 110.6875 112.956253051758 114.543746948242 115.462501525879 117.168746948242 118.137496948242 118.837501525879 119.150001525879 118.34375 117.193748474121 115.84375 114.381248474121 112.775001525879 109.368751525879 106.275001525879 103.150001525879 101.9375 100.768753051758 99.7125015258789 99.3687515258789 98.5250015258789 98.4375 101.743751525879 104.21875 107.068748474121 110.28125 113.837501525879 117.96875 121.875 125.837501525879 128.818756103516 130.868743896484 131.506256103516 131.512496948242 129.5625 127.431251525879 125.231246948242 121.412498474121 118.018753051758 113.737503051758 108.3125 101.768753051758 95.4375 92.1125030517578 92.28125 94.1812515258789 90.9187469482422 86.1062469482422 79.9124984741211 75.7437515258789 
105.456253051758 105.981246948242 107.300003051758 108.550003051758 109.349998474121 111.175003051758 112.875 113.737503051758 114.53125 115.0625 114.962501525879 115.481246948242 116.275001525879 115.912498474121 113.34375 110.6875 108.306251525879 106.587501525879 105.550003051758 104.875 104.293746948242 103.581253051758 104.131248474121 107.206253051758 110.087501525879 113.412498474121 117.21875 121.162498474121 124.650001525879 128.212493896484 131.456253051758 134.71875 137.168746948242 138.362503051758 139.78125 138.449996948242 136.962493896484 136.612503051758 133.34375 131.024993896484 128.587493896484 122.331253051758 114.050003051758 107.756248474121 108.056251525879 110.418746948242 110.043746948242 104.150001525879 97.28125 90.1500015258789 84.7249984741211 
103.46875 102.243751525879 102.493751525879 103.581253051758 104.324996948242 105.881248474121 107.425003051758 108.956253051758 110.618751525879 112.375 113.787498474121 115.912498474121 118.099998474121 119.150001525879 117.550003051758 115.362503051758 113.581253051758 111.912498474121 110.65625 109.925003051758 109.275001525879 108.9375 109.53125 112.699996948242 115.881248474121 119.787498474121 123.824996948242 127.831253051758 132.168746948242 135.043746948242 137.337493896484 140.368743896484 143.243743896484 145.206253051758 147.331253051758 147.356246948242 146.975006103516 147.081253051758 144.0625 142.337493896484 141.3125 134.706253051758 126.09375 121.012496948242 123 125.324996948242 123.668746948242 116.1875 109.056251525879 101.831253051758 93.8375015258789 
105.925003051758 103.71875 103.09375 102.806251525879 103.143745422363 104.012496948242 105.606246948242 107.493751525879 110.099998474121 112.15625 114.78125 117.568748474121 121.03125 123.25 122.287498474121 121.162498474121 119.431251525879 118.300003051758 116.724998474121 115.143753051758 114.824996948242 114.599998474121 114.887496948242 117.762496948242 121.418746948242 125.981246948242 130.03125 133.90625 137.662506103516 140.481246948242 143.318756103516 146.3125 149.631256103516 152.925003051758 155.675003051758 156.78125 157.456253051758 159.050003051758 155.28125 153.081253051758 152.368743896484 149.399993896484 143.46875 140.856246948242 141.431243896484 142.668746948242 140.46875 134.856246948242 126.881248474121 118.256248474121 108.4375 
108.856246948242 105.631248474121 104.400001525879 102.806251525879 102.53125 103.831253051758 105.193748474121 107.050003051758 109.84375 112.46875 116.043746948242 120.0625 124.800003051758 128.024993896484 127.4375 127.056251525879 126.443748474121 124.787498474121 122.912498474121 121.349998474121 120.537498474121 120.287498474121 120.568748474121 123.412498474121 127.237503051758 131.512496948242 135.637496948242 139.493743896484 143.081253051758 145.837493896484 149.125 152.300003051758 156.318756103516 160.706253051758 164.506256103516 166.050003051758 168.199996948242 171.006256103516 166.875 161.050003051758 161.581253051758 162.756256103516 161.518753051758 159.774993896484 160.15625 161.993743896484 159.699996948242 154.293746948242 145.862503051758 135.581253051758 125.868751525879 
111.5 107.599998474121 105.224998474121 103.706253051758 103.59375 103.900001525879 105.025001525879 106.856246948242 109.956253051758 113.28125 117.275001525879 122.5 127.712501525879 132.231246948242 133.262496948242 133.625 133.043746948242 130.681243896484 129.318756103516 127.53125 126.5 125.974998474121 126.1875 128.831253051758 132.762496948242 136.78125 140.850006103516 144.837493896484 148.306243896484 151.556243896484 154.912506103516 157.9375 162.899993896484 168.675003051758 172.875 175.800003051758 179.3125 182.987503051758 178.362503051758 174.456253051758 176.78125 180.1875 180.699996948242 181.4375 182.3125 185.774993896484 184.0625 177.668746948242 166.818756103516 155.475006103516 144.793746948242 
117.550003051758 113.21875 110.418746948242 108.706253051758 107.506248474121 107.349998474121 107.756248474121 108.8125 111.625 115.175003051758 120.981246948242 126.300003051758 132.725006103516 138.693756103516 140.293746948242 140.806243896484 140.175003051758 137.931243896484 135.987503051758 134.043746948242 132.612503051758 131.6875 131.28125 133.949996948242 137.306243896484 140.90625 145 148.774993896484 152.524993896484 157.018753051758 160.949996948242 164.856246948242 169.518753051758 176.399993896484 183.106246948242 188.625 192.831253051758 196.199996948242 194.387496948242 196.056243896484 200.393753051758 204.487503051758 207.443756103516 209.993743896484 214.8125 221.625 220.350006103516 208.668746948242 196.981246948242 183.625 170.850006103516 
123.262504577637 119.193748474121 116.393753051758 114.237503051758 111.75 111.125 110.862503051758 111.337501525879 113.287498474121 116.925003051758 122.199996948242 129.981246948242 138.643753051758 144.412506103516 147.15625 148.037506103516 147.862503051758 145.662506103516 142.71875 140.893753051758 138.931243896484 137.412506103516 136.574996948242 138.193756103516 141.46875 144.699996948242 148.399993896484 152.262496948242 156.581253051758 161.6875 166.949996948242 172.225006103516 178.699996948242 185.512496948242 194.112503051758 200.768753051758 205.831253051758 210.462493896484 212.899993896484 218.068756103516 223.175003051758 228.975006103516 235.587493896484 241.018753051758 247.8125 254.675003051758 251.324996948242 238.962493896484 225.631256103516 212.537506103516 198.3125 
129.03125 125.46875 121.868751525879 119.324996948242 116.293746948242 115.043746948242 114.03125 114.006248474121 114.768753051758 118.09375 124.09375 133.399993896484 143.918746948242 151.881256103516 153.881256103516 155.162506103516 155.543746948242 153.043746948242 150 147.231246948242 145.168746948242 142.875 141.556243896484 142.362503051758 144.987503051758 147.800003051758 151.800003051758 156.243743896484 160.762496948242 166.356246948242 172.256256103516 178.949996948242 186.662506103516 195.481246948242 204.231246948242 210.987503051758 217.081253051758 225.081253051758 230.431243896484 237.112503051758 244.3125 250.893753051758 259.65625 267.056243896484 273.600006103516 276.549987792969 274.450012207031 265.043762207031 252.90625 239.306243896484 225.274993896484 
135.274993896484 131.824996948242 128.762496948242 125.537498474121 122.481246948242 120.943748474121 119.043746948242 117.931251525879 117.849998474121 120.018753051758 126.699996948242 137.081253051758 149.024993896484 157.4375 160.418746948242 161.84375 162.106246948242 159.824996948242 156.800003051758 153.612503051758 151.412506103516 149.131256103516 146.518753051758 146.793746948242 148.368743896484 150.068756103516 153.600006103516 157.912506103516 162.381256103516 169.256256103516 176.0625 183.668746948242 192.368743896484 202.850006103516 211.543746948242 217.975006103516 227.300003051758 235.118743896484 241.6875 249.006256103516 257.71875 265.668762207031 272.368743896484 281.431243896484 288.799987792969 290.575012207031 289.475006103516 284.331237792969 274.956237792969 262.431243896484 247.481246948242 
141.606246948242 138.425003051758 135.462493896484 132.381256103516 129.350006103516 127.056251525879 124.425003051758 122.300003051758 120.943748474121 120.78125 128.574996948242 142.662506103516 153.699996948242 161.181243896484 165.487503051758 167.899993896484 168.268753051758 166.168746948242 162.75 159.1875 156.625 153.875 151.462493896484 150.581253051758 150.90625 151.962493896484 154.96875 159.100006103516 163.987503051758 171.643753051758 179.918746948242 187.787506103516 198.743743896484 210.15625 218.587493896484 227.300003051758 236.462493896484 245.824996948242 252.893753051758 260.118743896484 268.825012207031 275.306243896484 283.78125 294.168762207031 302.112487792969 304.4375 306.931243896484 303.462493896484 294.856262207031 284.287506103516 270.143737792969 
147.493743896484 144.712493896484 141.756256103516 138.925003051758 136.162506103516 133.46875 131.231246948242 128.731246948242 127.287498474121 125.431251525879 137.387496948242 151.65625 160.25 166.893753051758 171.012496948242 173.681243896484 174.056243896484 171.800003051758 168.556243896484 164.506256103516 161.28125 157.550003051758 154.743743896484 152.993743896484 153.043746948242 153.550003051758 155.975006103516 159.925003051758 164.762496948242 173.512496948242 181.849990844727 191.268753051758 203.28125 214.881256103516 225.225006103516 233.381256103516 243.899993896484 252.875 261.893737792969 270.287506103516 276.549987792969 284.5 291.325012207031 300.125 307.75 312.274993896484 317.59375 317.768737792969 309.975006103516 300.731262207031 288.087493896484 
150.9375 148.293746948242 146.131256103516 143.737503051758 141.306243896484 139.175003051758 137.506256103516 137.181243896484 138.237503051758 144.081253051758 157.256256103516 163.887496948242 168.256256103516 172.931243896484 176.756256103516 179.131256103516 179.25 176.587493896484 172.418746948242 168.618743896484 164 159.662506103516 156.649993896484 154.706253051758 153.84375 154.568756103516 157.274993896484 161.206253051758 165.4375 173.46875 182.512496948242 191.293746948242 201.712493896484 212.168746948242 223.600006103516 233.181243896484 241.649993896484 250.71875 259.256256103516 264.0625 270.84375 277.506256103516 282.375 289.518737792969 295.931243896484 300.0625 301.399993896484 302.231262207031 297.456237792969 292.6875 280.887512207031 
154.256256103516 151.981246948242 150.493743896484 148.824996948242 146.675003051758 145.887496948242 144.925003051758 146.387496948242 149.637496948242 156.518753051758 165.143753051758 171.9375 176.581253051758 179.981246948242 183.293746948242 184.606246948242 184.53125 181.612503051758 176.675003051758 171.649993896484 166.293746948242 161.175003051758 157.3125 155.25 155.118743896484 155.518753051758 158.0625 162.043746948242 166.199996948242 173.725006103516 181.556243896484 190.53125 201.643753051758 211.237503051758 222.231246948242 230.387496948242 237.587493896484 245.856246948242 253.931243896484 256.549987792969 261.306243896484 267.162506103516 270.581237792969 275.681243896484 279.493743896484 282.368743896484 284.868743896484 285.612487792969 283.299987792969 279.53125 269.96875 
157.762496948242 156.175003051758 154.993743896484 153.59375 152.581253051758 151.6875 152.381256103516 154.237503051758 158.350006103516 164.631256103516 171.793746948242 177.949996948242 183.731246948242 187.056243896484 190.012496948242 190.887496948242 189.6875 186.481246948242 180.831253051758 174.449996948242 167.706253051758 161.256256103516 157.106246948242 155.368743896484 156.15625 156.399993896484 158.612503051758 162.268753051758 166.231246948242 173.043746948242 181.756256103516 191.918746948242 201.550003051758 210.706253051758 220.125 227.40625 234.537506103516 241.28125 247.324996948242 249.643753051758 252.537506103516 255.787506103516 257.450012207031 261.362487792969 264.799987792969 268.993743896484 270.787506103516 268.5625 269.450012207031 266.299987792969 258.793762207031 
161.456253051758 161.231246948242 160.018753051758 158.40625 157.168746948242 156.21875 157.068740844727 158.875 163.393753051758 168.831253051758 175.550003051758 181.543746948242 187.831253051758 191.768753051758 194.175003051758 195.037506103516 194.287506103516 190.0625 184.5625 175.899993896484 166.831253051758 160.362503051758 155.637496948242 154.15625 155.975006103516 156.393753051758 158.056243896484 161.318756103516 166.087493896484 174.081253051758 180.449996948242 189.818756103516 198.956253051758 209.5 218.268753051758 222.774993896484 227.90625 233.618743896484 237.212493896484 238.112503051758 240.09375 239.024993896484 239.399993896484 244.462493896484 248.581253051758 253.212493896484 253.824996948242 251.762496948242 254.106246948242 250.693756103516 244.34375 
166.149993896484 165.606246948242 165.581253051758 163.75 161.012496948242 159.606246948242 160.162506103516 161.537506103516 165.324996948242 171.262496948242 178.225006103516 185.068756103516 191.793746948242 195.90625 198.824996948242 199.418746948242 198.256256103516 195.743743896484 189.481246948242 177.956253051758 166.293746948242 157.175003051758 153.206253051758 154.137496948242 155.706253051758 156.887496948242 158.4375 161.274993896484 165.987503051758 172.681243896484 179.143753051758 185.581253051758 193.787506103516 203.300003051758 213.824996948242 220.287506103516 221.600006103516 225.006256103516 226.4375 226.806243896484 227.15625 226.274993896484 226.081253051758 229.34375 233.081253051758 235.037506103516 237.462493896484 236.675003051758 238.856246948242 236.537506103516 230.793746948242 
170.362503051758 170.643753051758 170.875 168.712493896484 164.899993896484 162.34375 161.475006103516 163.212493896484 166.693756103516 172.881256103516 181.087493896484 189.106246948242 195.46875 200.574996948242 203.75 203.943756103516 202.431243896484 199.40625 194.943756103516 182.337493896484 168.337493896484 156.837493896484 152.981246948242 154.175003051758 155.800003051758 157.8125 158.9375 161.949996948242 165.78125 171.487503051758 176.143753051758 181.081253051758 187.981246948242 197.018753051758 207.543746948242 217.487503051758 217.337493896484 216.925003051758 216.90625 215.768753051758 215.587493896484 214.59375 214.131256103516 217.28125 219.106246948242 219.3125 221.512496948242 222.199996948242 221.46875 221.962493896484 217.668746948242 
174.475006103516 176.206253051758 177.850006103516 174.475006103516 169.21875 165.600006103516 162.443756103516 162.818756103516 166.962493896484 174.40625 183.556243896484 192.675003051758 200.393753051758 205.587493896484 208.737503051758 207.84375 205.237503051758 200.668746948242 194.193756103516 183.981246948242 170.96875 162.268753051758 156.125 155.1875 157.0625 158.625 160.3125 162.75 166.868743896484 171.949996948242 175.693756103516 180.318756103516 186.125 192.800003051758 201.40625 210.5625 211.949996948242 210.5 209.243743896484 208.899993896484 208.262496948242 206.887496948242 206.837493896484 207.387496948242 208.625 209.112503051758 210.381256103516 211.449996948242 210.118743896484 211.524993896484 208.418746948242 
