ncols        51
nrows        45
xllcorner    -63.500000000000
yllcorner    -7.500000000000
cellsize     0.166666666667
NODATA_value -99
326.112487792969 326.431243896484 326.03125 336.043762207031 341.168762207031 347.912506103516 347.793762207031 345.4375 336.899993896484 339.881256103516 345.581237792969 345.200012207031 345.037506103516 340.637512207031 333.524993896484 328.174987792969 320.006256103516 311.337493896484 302.306243896484 297.118743896484 297.649993896484 289.149993896484 282.506256103516 273.287506103516 266.381256103516 261.1875 260.84375 262.956237792969 258.40625 257.962493896484 252.425003051758 253.918746948242 259.212493896484 259.318756103516 259.8125 259.549987792969 258.21875 258.649993896484 251.918746948242 247.90625 247.693756103516 252.712509155273 248.693756103516 247.643753051758 243.287506103516 242.912506103516 246.231246948242 244.78125 241.918746948242 242.887496948242 245.493743896484 
316.612487792969 317 323.950012207031 331.962493896484 342.631256103516 349.206237792969 348.875 345.987487792969 345.950012207031 348.1875 349.868743896484 346.456237792969 336.725006103516 329.424987792969 319.893737792969 312.225006103516 301.549987792969 289.431243896484 279.506256103516 275.306243896484 273.774993896484 266.65625 262.787506103516 257.462493896484 251.65625 246.34375 247.21875 247.256256103516 244.456253051758 240.300003051758 239.806243896484 246.393753051758 249.21875 251.637496948242 254.175003051758 249.53125 249.012496948242 247.34375 241.068756103516 237.668746948242 240.21875 234.393753051758 237.337493896484 236.212493896484 237.887496948242 236.824996948242 239.675003051758 236.606246948242 231.418746948242 233.90625 237.0625 
294.912506103516 302.987487792969 309.306243896484 311.96875 322.96875 333.831237792969 338.318756103516 346.237487792969 348.237487792969 350.256256103516 348.487487792969 339.71875 331.462493896484 316.512512207031 304.28125 294.524993896484 281.4375 270.424987792969 261.568756103516 255.543746948242 254.981246948242 254.300003051758 250.175003051758 249.96875 241.53125 235.456253051758 240.543746948242 238.512496948242 232.618743896484 235.15625 233.006256103516 235.493743896484 237.606246948242 241.818756103516 241.3125 231.637496948242 233.168746948242 234.787506103516 229.581253051758 227.03125 231.300003051758 228.3125 227.606246948242 224.512496948242 227.9375 224.337493896484 229.737503051758 230.524993896484 224.274993896484 224.962493896484 226.131256103516 
271.3125 273.243743896484 284.443756103516 292.262512207031 298.837493896484 310.393737792969 322.5625 334.318756103516 342.649993896484 347.918762207031 342.825012207031 330.199981689453 316.731262207031 300.768737792969 288.850006103516 277.893737792969 261.475006103516 252.600006103516 244.712493896484 246.425003051758 244.206253051758 238.225006103516 236.600006103516 238.806243896484 230.962493896484 225.899993896484 227.849990844727 223.612503051758 222.287506103516 225.84375 226.574996948242 226.006256103516 227.568756103516 225.84375 225.3125 227.324996948242 228.96875 226.862503051758 220.987503051758 218.431243896484 220.456253051758 222.256256103516 220.506256103516 216.09375 220.949996948242 214.362503051758 218.699996948242 218.46875 216.256256103516 212.462493896484 217.600006103516 
268.731262207031 266.337493896484 260.068756103516 269.456237792969 282.700012207031 290.731262207031 304.481262207031 323.237487792969 338.918762207031 346.381256103516 340.71875 317.581237792969 303.53125 289.287506103516 273.399993896484 261 247.53125 234.0625 226.462493896484 226.375 224.5 223.21875 223.331253051758 224.556243896484 218.024993896484 215.0625 214.1875 216.21875 215.59375 214.78125 218.9375 221.462493896484 220.362503051758 220.449996948242 223.287506103516 219.356246948242 219.59375 220.4375 212.949996948242 207.699996948242 209.956253051758 211.09375 210.96875 210.631256103516 211.306243896484 207.487503051758 204.699996948242 203.774993896484 202.21875 202.525009155273 204.287506103516 
249.6875 251.300003051758 247.168746948242 239.106246948242 255.275009155273 274.950012207031 285.693756103516 301.100006103516 321.299987792969 331.65625 320.850006103516 300.53125 288.25 275.3125 258.137512207031 246.412490844727 232.631256103516 220.743743896484 216.9375 214.893753051758 216.287506103516 214.662506103516 213.84375 210.506256103516 209.231246948242 208.056243896484 205.318756103516 207.375 207.59375 206.831253051758 212.831253051758 215.237503051758 216.425003051758 213.375 209.34375 212.25 207.737503051758 200.162506103516 198.193756103516 200.268753051758 198.118743896484 201.074996948242 198.725006103516 197.90625 203.949996948242 197.600006103516 192.681243896484 191.956253051758 187.162506103516 185.8125 189.337493896484 
236.568756103516 234.5625 232.100006103516 229.456253051758 229.193756103516 237.806243896484 248.831253051758 270.006256103516 280.212493896484 289.962493896484 288.237487792969 275.131256103516 268.837493896484 260.856262207031 246.587493896484 234.768753051758 224.756256103516 214.362503051758 205.96875 205.25 201.5 201.21875 199.643753051758 200.356246948242 204.21875 203.587493896484 200.350006103516 199.818756103516 199.800003051758 206.206253051758 205.806243896484 203.993759155273 201.956253051758 202.506256103516 203.875 199.737503051758 190.024993896484 185.568756103516 182.793746948242 185.943756103516 183.975006103516 185.087493896484 186.300003051758 186.193756103516 187.231246948242 189.293746948242 181.774993896484 172.168746948242 171.362503051758 173.043746948242 177.481246948242 
221.181243896484 214.268753051758 212.96875 216.9375 217.84375 229.412506103516 228.975006103516 229.40625 229.556243896484 242.931243896484 251.418746948242 249.618743896484 248.350006103516 242.731246948242 235.962493896484 226.100006103516 213.6875 205.475006103516 197.425003051758 190.6875 197.78125 194.84375 192.25 192.662506103516 196.712493896484 194.287506103516 192.706253051758 192.199996948242 192.475006103516 193.256256103516 200.475006103516 197.53125 195.337493896484 192.550003051758 186.837493896484 181.056243896484 174.949996948242 170.006256103516 163.800003051758 162.09375 163.050003051758 168.018753051758 165.606246948242 162.981246948242 162.449996948242 160.09375 156.268753051758 154.793746948242 154.287506103516 154.568756103516 162.037506103516 
206.056243896484 201.46875 198.149993896484 199.6875 202.681243896484 208.274993896484 216.212493896484 221.300003051758 213.65625 211.262496948242 216.731246948242 220.824996948242 228.225006103516 226.550003051758 222.518753051758 213.331253051758 210.143753051758 205.762496948242 200.768753051758 191.556243896484 185.943756103516 191.818756103516 184.974990844727 191.206253051758 190.474990844727 189.356246948242 187.850006103516 189.506256103516 193.931243896484 192.893753051758 199.412506103516 187.675003051758 177.125 171.731246948242 170.737503051758 171.068756103516 167.649993896484 164.550003051758 158.412506103516 152.706253051758 149.40625 147.543746948242 152.193756103516 149.831253051758 143.03125 139.774993896484 139.524993896484 136.831253051758 134.431243896484 138.131256103516 142.131256103516 
192.149993896484 188.456253051758 186.224990844727 187.543746948242 189.756256103516 194.162506103516 200.4375 202.024993896484 203.34375 203.274993896484 202.431243896484 197.112503051758 207.131256103516 210.556243896484 210.15625 206.774993896484 201.962493896484 205.193756103516 202.199996948242 198.09375 189.293746948242 186.0625 177.949996948242 180.975006103516 178.981246948242 181.96875 181.6875 181.5 181.962493896484 185.225006103516 187.587493896484 179.649993896484 173.287506103516 168.043746948242 161.800003051758 159.149993896484 157.649993896484 156.318756103516 152.524993896484 152.037506103516 150.943740844727 148.84375 142.043746948242 134.074996948242 128.618743896484 128.15625 127.9375 127.199996948242 127.037498474121 125.175003051758 122.337501525879 
181.606246948242 176.5625 174.368743896484 174.418746948242 174.725006103516 181.25 182.918746948242 184.78125 188.956253051758 191.762496948242 194.03125 190.712493896484 189.881256103516 194.9375 195.293746948242 195.181243896484 193.381256103516 193.006256103516 195.706253051758 199.581253051758 202.774993896484 194.337493896484 179.175003051758 164.556259155273 169.862503051758 181.862503051758 183.393753051758 179.524993896484 175.725006103516 175.731246948242 176.149993896484 171.125 166.481246948242 161.756256103516 156.462493896484 150.024993896484 148.0625 144.493743896484 146.762496948242 144.543746948242 142.375 138.074996948242 135.324996948242 123.856246948242 114.943748474121 112.356246948242 117.599998474121 119.125 118.868751525879 117.799995422363 112.75 
170.40625 166.618743896484 167.137496948242 164.856246948242 165.75 168.681243896484 174.5 177.737503051758 180.962493896484 178.887496948242 183.643753051758 183.225006103516 175.043746948242 179.46875 185.518753051758 185.012496948242 183.887496948242 186.0625 191.731246948242 203.78125 209.3125 204.149993896484 187.96875 168.006256103516 166.399993896484 169.637496948242 168.024993896484 168.25 169.168746948242 166.481246948242 159.53125 158.875 155.850006103516 148.899993896484 147.106246948242 146.106246948242 146.25 144 138.9375 140.631256103516 139.100006103516 133.993743896484 122.199996948242 105.087501525879 94.6937484741211 90.875 93.4625015258789 105.849998474121 108.893753051758 106.21875 99.3937530517578 
163.274993896484 158.831253051758 158.03125 156.037506103516 157.693756103516 158.731246948242 162.574996948242 165.881256103516 166.65625 167.768753051758 170.881256103516 172.774993896484 170.943756103516 163.199996948242 165.475006103516 169.237503051758 170.631256103516 176.206253051758 176.725006103516 187.412506103516 197.537506103516 194.9375 185.387496948242 170.15625 157.756256103516 157.743743896484 160.0625 161.524993896484 163.731246948242 163.368743896484 154.756256103516 147.756256103516 147.96875 139.75 137.412506103516 138.65625 142.824996948242 143.493743896484 147.28125 144.106246948242 135.893753051758 128.800003051758 111.59375 98.0187530517578 93.0749969482422 91.9000015258789 92.7937469482422 93.4499969482422 94.5562515258789 95.3625030517578 94.7437515258789 
154.743743896484 150.981246948242 149.274993896484 147.962493896484 146.881256103516 148.925003051758 150.643753051758 154.800003051758 157.412506103516 157.212493896484 159.168746948242 157.537506103516 157.668746948242 154.381256103516 146.5 153.318756103516 154.306243896484 157.6875 161.4375 170.331253051758 179.0625 178.831253051758 173.731246948242 167.1875 160.125 154.737503051758 151.912506103516 150.418746948242 151.262496948242 149.5625 147.268753051758 142.318756103516 139.168746948242 136.481246948242 130.806243896484 137.631256103516 145.712493896484 150.837493896484 154.8125 148.28125 128.056243896484 115.568748474121 110.6875 110.568748474121 109.368751525879 102.6875 99.9124984741211 99.8125 98.46875 101.03125 97.8249969482422 
143.037506103516 140.3125 140.581253051758 140.543746948242 139.324996948242 140.893753051758 143.518753051758 145.5625 147.268753051758 148.112503051758 148.206253051758 146.981246948242 145.8125 140.837493896484 131.512496948242 135.918746948242 138.199996948242 144.774993896484 145.46875 152.293746948242 162.800003051758 165.78125 167.443756103516 165.5 165.34375 161.625 158.462509155273 154.862503051758 155.862503051758 148.112503051758 139.40625 137.306243896484 139.856246948242 132.050003051758 122.662498474121 123.199996948242 138.893753051758 153.90625 154.975006103516 144.625 133.287506103516 126.949996948242 126.393753051758 117.118751525879 110.856254577637 109.006248474121 110.206253051758 111.21875 109.581253051758 102.300003051758 94.6999969482422 
133.662506103516 130.268753051758 130.868743896484 129.787506103516 131.412506103516 133.5625 134.918746948242 135.643753051758 139.037506103516 142.512496948242 142.143753051758 139.59375 137.762496948242 132.9375 125.731246948242 116.056251525879 121.15625 130.1875 131.625 137.756256103516 147.168746948242 153.9375 161.125 165.106246948242 166.100006103516 163.462493896484 157.543746948242 155.324996948242 153.162506103516 151.637496948242 145.15625 137.462493896484 128.175003051758 118.96875 111.212501525879 126.893753051758 132.6875 142.006256103516 148.625 148.975006103516 145.768753051758 140.487503051758 130.975006103516 117.175003051758 108.493751525879 104.331253051758 103.856246948242 101.293746948242 101.818748474121 98.4499969482422 92.3812484741211 
123.337501525879 121.631248474121 120.949996948242 122.387496948242 123.837501525879 126.381248474121 127.543746948242 129.100006103516 129.268753051758 131.03125 133.34375 131.84375 127.462501525879 122.806251525879 120.662498474121 112.65625 102.993751525879 110.324996948242 117.1875 122.193748474121 130.262496948242 141.5625 150.8125 161.006256103516 162.693756103516 155.543746948242 150.137496948242 147.206253051758 150.162506103516 149.887496948242 147.318756103516 143.118743896484 133.800003051758 129.34375 133.618743896484 137.53125 145.518753051758 151.59375 157.068756103516 148.493743896484 145.168746948242 136.074996948242 122.868751525879 113.481246948242 105.787498474121 101.650001525879 100.912498474121 100.78125 98.6937484741211 90.1875 85.1999969482422 
110.949996948242 110.474998474121 112.199996948242 113.793746948242 115.675003051758 119.400001525879 119.831253051758 120.675003051758 121.050003051758 120.581253051758 121.068748474121 121.574996948242 116.693748474121 113.081245422363 112.693748474121 107.90625 99.15625 92.2750015258789 104.837501525879 106.09375 114.512496948242 126.28125 141.193756103516 149.987503051758 155.393753051758 148.943756103516 141.118743896484 144.318756103516 146.100006103516 142.731246948242 133.881256103516 126.21875 139.850006103516 140.256256103516 139.637496948242 158.431243896484 163.324996948242 155.5625 153.756256103516 147.587493896484 132.175003051758 120.787498474121 110.506248474121 104.212501525879 99.2937469482422 97.65625 97.65625 96.15625 93.0437469482422 83.0812530517578 82.0374984741211 
99.71875 101.112503051758 103.037498474121 105.34375 107.893753051758 109.618751525879 110.637496948242 111.081253051758 112.78125 114.03125 113.675003051758 108.5625 104.96875 103.081253051758 100.849998474121 98.0437469482422 96.28125 87.7937469482422 85.90625 88.9437484741211 101.78125 117.875 120.974998474121 133.324996948242 138.868743896484 144.662506103516 142.637496948242 138.231246948242 142.71875 139.125 132.762496948242 131.931243896484 137.5625 136.199996948242 140.993743896484 153.256256103516 152.118743896484 143.850006103516 141.443756103516 131.712493896484 118.800003051758 105.46875 99.7062530517578 96.7062530517578 94.53125 93.8125 94.7874984741211 92.7937469482422 86.8000030517578 76.2687530517578 79.6750030517578 
90.5437469482422 92.5875015258789 93.8062515258789 93.9749984741211 95.8562469482422 100.025001525879 101.431251525879 101.506248474121 105.456253051758 107.78125 108.400001525879 105.887496948242 101.512496948242 96.7249984741211 93.15625 85.28125 80.8312530517578 84.2249984741211 82.0749969482422 86.0250015258789 88.0875015258789 99.5625 117.199996948242 124.412498474121 124.518753051758 124.931251525879 124.668746948242 131.606246948242 128.268753051758 123.293746948242 122.212501525879 133.762496948242 135.03125 132.712493896484 132.25 138.068740844727 139.912506103516 133.512496948242 126.650001525879 118.106246948242 104.881248474121 91.6437530517578 90.6062469482422 89.6125030517578 87.7125015258789 87.71875 88.4187469482422 85.8499984741211 80.4437484741211 75.3062515258789 78.7937469482422 
76.9812469482422 83.0500030517578 86.7437515258789 87.78125 86.8812484741211 89.1624984741211 92.6937484741211 94.59375 97.5687484741211 99.1624984741211 101.206253051758 99.0374984741211 95.21875 89.6125030517578 84.7437515258789 81.7375030517578 77.1187515258789 77.53125 82.1812515258789 84.3249969482422 96.8874969482422 109.6875 124.387496948242 135.0625 137.649993896484 134.100006103516 123.53125 122.8125 122.737503051758 124.125 125.356254577637 131.556243896484 124.400001525879 121.287498474121 119.699996948242 125.050003051758 128.59375 126 117.168746948242 108.493751525879 99.4625015258789 89.2874984741211 86.6062469482422 86.1937484741211 84.7750015258789 84.90625 85.4187469482422 81.6437530517578 75.3812484741211 76.6937484741211 76.3687515258789 
69.1125030517578 71.09375 76.1624984741211 79.6999969482422 80.4749984741211 81.5749969482422 84.2687530517578 86.0687484741211 88.6999969482422 92.3812484741211 94.3375015258789 91.4375 88.1125030517578 86.1937484741211 84.34375 79.0687484741211 81.7687530517578 81.1749954223633 86.5062484741211 90.0187530517578 97.2125015258789 113.599998474121 128.168746948242 131.668746948242 131.425003051758 129.637496948242 129.018753051758 123.1875 126.34375 127.724998474121 124.293754577637 119.881248474121 116.0625 116.731246948242 113.443748474121 114.212501525879 116.400001525879 117.143753051758 111.962501525879 105.162498474121 96.6374969482422 89.3062515258789 86.3249969482422 86.1875 83.59375 82.2125015258789 81.3499984741211 77.46875 72.1062469482422 76.4000015258789 75.2937469482422 
61.9249992370605 67.6374969482422 72.1999969482422 75.2437515258789 76.28125 76.6374969482422 75.1999969482422 76.2437515258789 81.6750030517578 84.9562530517578 86.7312469482422 87.2937469482422 88.6187515258789 88.6624984741211 86.6062469482422 83.6187515258789 80.6999969482422 81.65625 86.3812484741211 92.6125030517578 104.887496948242 115.068748474121 123.75 128.381256103516 134.362503051758 132.949996948242 126.962501525879 123.84375 123.943748474121 118.875 115.025001525879 113.512496948242 108.612503051758 105.331253051758 106.856246948242 104.474998474121 103.775001525879 105.462501525879 105.162498474121 101.650001525879 94.4499969482422 88.90625 85.34375 83.0749969482422 82.2874984741211 80.84375 76.53125 72.0875015258789 71.9124984741211 75.6062469482422 74.9312515258789 
53.3125 59.2999992370605 65.7687530517578 67.3187484741211 67.8125 68.65625 71.2312469482422 72.4625015258789 74.5 76.2125015258789 81.59375 86.4875030517578 87.1750030517578 89.5562515258789 85.78125 83.4625015258789 82.0124969482422 86.3499984741211 90.6624984741211 95.8312530517578 106.631248474121 119.40625 126.506248474121 135.65625 136.162506103516 132.350006103516 131.418746948242 120.900001525879 115.756248474121 112.756248474121 108.618751525879 106.356246948242 103.400001525879 98.5250015258789 98.7125015258789 95.6187515258789 96.7125015258789 98.4250030517578 97.15625 93.9875030517578 89.5062484741211 86.0999984741211 83.6312484741211 82.375 82.5562515258789 77.59375 70.7312469482422 67.1812515258789 68.96875 72.0749969482422 71.5124969482422 
44.84375 50.9749984741211 56.2625007629395 60.375 62.2249984741211 63.5875015258789 65.5562515258789 68.3499984741211 70.3375015258789 74.65625 77.9625015258789 81.3000030517578 85.5374984741211 85.5 82.6687469482422 81.3125 81.8562469482422 84.8312530517578 90.625 98.3874969482422 108.631248474121 118.324996948242 131.1875 137.84375 133.918746948242 130.268753051758 124.462501525879 117.306251525879 110.806251525879 107.8125 100.625 95.6374969482422 92.8312530517578 91.7687530517578 90.6999969482422 89.9499969482422 90.2062530517578 89.6687469482422 90.6187515258789 88.8187484741211 85.59375 83.9875030517578 83.2562484741211 80.0500030517578 77.2249984741211 71.6062469482422 64.0124969482422 61.84375 61.1500015258789 66.2937469482422 68.9874954223633 
38.6812515258789 45.0499992370605 47.6624984741211 51.6062507629395 53.5125007629395 56.0437507629395 58.1187515258789 61.5187492370605 62.4437484741211 64.9875030517578 70.9937515258789 75.1374969482422 79.7312469482422 81.75 81.4250030517578 78.9749984741211 80.0500030517578 85.6062469482422 92.0374984741211 97.0687484741211 107.46875 118.0625 128.943756103516 133.237503051758 133.006256103516 127.181251525879 120.887496948242 113.737503051758 104.643753051758 100.037498474121 93.1187515258789 88.0124969482422 85.4312515258789 83.71875 82.5500030517578 84.21875 84.8625030517578 83.1374969482422 82.4562530517578 83.3062515258789 80.9312515258789 75.6125030517578 74.8687515258789 74.9875030517578 73.4812469482422 68.65625 63.6312484741211 59.0374984741211 60.3250007629395 65.90625 66.5250015258789 
31.4624996185303 34.2125015258789 38.21875 41.7312507629395 44.1687507629395 47.5374984741211 50.5250015258789 51.9187507629395 54.6875 60.8250007629395 67.3812484741211 72.1374969482422 76 79.90625 81.0187530517578 81.4000015258789 81.25 83.90625 90.9312515258789 96.0062484741211 103.6875 113.9375 125.368751525879 133.887496948242 128.418746948242 123 116.900001525879 108.018753051758 99.4250030517578 93.625 88.8000030517578 81.5 78.2687530517578 77.0062484741211 76.3499984741211 76.8625030517578 78.8312530517578 77.4937515258789 75.7874984741211 77.5124969482422 77.2249984741211 73.7874984741211 70.5749969482422 69.3937530517578 68.15625 67.09375 65.5625 59.40625 57.9312515258789 59.75 58.6812515258789 
24.9562492370605 25.6687507629395 29.0874996185303 31.8687496185303 34.6749992370605 39.0187492370605 42.8624992370605 45.5062484741211 49.6875 56.0999984741211 61.7750015258789 67.7249984741211 72.1812515258789 76.1125030517578 77.3625030517578 78.1875 78.7249984741211 83.3187484741211 86.90625 93.5062484741211 101.862503051758 108.918746948242 120.925003051758 124.412498474121 121.6875 115.856246948242 109.818748474121 101.337501525879 95.8812484741211 91.5750045776367 85.5625 79.9312515258789 75.4187469482422 71.1437530517578 72.0625 72.25 73.9812469482422 72.4000015258789 72.3187484741211 73.2062530517578 73.2687530517578 72.3499984741211 66.2312469482422 66.2687530517578 63.8250007629395 63.4187507629395 61.5562515258789 58.59375 55.5062484741211 51.1749992370605 50.0999984741211 
18.9500007629395 19.5500011444092 21.6499996185303 24.1062507629395 27.3812503814697 30.625 34.9937515258789 39.6624984741211 45.21875 50.6624984741211 56.9000015258789 62.9000015258789 69.1062469482422 74.1500015258789 75.7375030517578 77.0187530517578 78.9499969482422 81.8874969482422 87.0875015258789 93.28125 98.4749984741211 104.193748474121 111.318748474121 113.387496948242 111.875 106.493751525879 103.449996948242 98.46875 92.1875 85.7999954223633 79.4562530517578 75.3312530517578 70.65625 68.6999969482422 67.1687469482422 66.9749984741211 69.5437469482422 66.8249969482422 67.1624984741211 67.1374969482422 66.2125015258789 64.21875 62.0562515258789 63.9249992370605 62.5812492370605 59.4312515258789 59.0374984741211 55.0625 51.3125 47.0499992370605 43.0125007629395 
16.9187507629395 16.6937503814697 18.5125007629395 20.4312496185303 22.9812507629395 26.8250007629395 30.8687496185303 36.2874984741211 41.4874992370605 47.4437484741211 53.6687507629395 60.4937477111816 67.3249969482422 73.125 74.3874969482422 75.0875015258789 76.6624984741211 81.3249969482422 83.0812530517578 85.5562515258789 92.6687469482422 98.1937484741211 104.168746948242 105.743751525879 102.675003051758 101.637496948242 97.5625 92.1187515258789 86.8562469482422 80.2750015258789 74.7874984741211 70.3187484741211 67.34375 65.5875015258789 64.9437484741211 63.2312507629395 66.2750015258789 63.7437515258789 60.8312492370605 63.2437515258789 61.8499984741211 59.6937484741211 59.3187484741211 57.7874984741211 56.375 56.3624992370605 52.6749992370605 50.1437492370605 47.1375007629395 43.3562507629395 39.0875015258789 
15.8500003814697 15.0437498092651 16.28125 18.0437507629395 20.2124996185303 23.7250003814697 28.0625 32.8250007629395 37.9937515258789 44.3624992370605 50.9625015258789 57.1437492370605 65.0437469482422 68.2062530517578 70.8625030517578 74.6812515258789 77.3312530517578 79.1374969482422 81.0187530517578 84.03125 88.4499969482422 91.5374984741211 96.5749969482422 98.3812484741211 96.4000015258789 95.6750030517578 91.1999969482422 86.8187484741211 81.4937515258789 75.8562469482422 73 68.875 64.875 61.5374984741211 60.375 58.9937515258789 60.6624984741211 59.6812515258789 57.1624984741211 54.875 55.0750007629395 53.3500022888184 52.6500015258789 51.9812507629395 51.875 50.0625 46.5812492370605 44.1812515258789 41.65625 39.5374984741211 37.1187515258789 
15.2437496185303 14.2250003814697 14.9375 16.53125 18.7562503814697 22.125 25.9312496185303 30.1812496185303 35.5812492370605 41.0562515258789 46.4500007629395 53.0687484741211 58.90625 65.15625 69.4375 72.6374969482422 73.375 74.8812484741211 77.0749969482422 80.0625 83.4124984741211 86.9937515258789 88.9000015258789 89.4749984741211 89.8874969482422 88.21875 85.3687515258789 81.625 76.6500015258789 74.7624969482422 70.5374984741211 66.0749969482422 62.6749992370605 58.9124984741211 56.8250007629395 54.6937484741211 54.6375007629395 52.3687515258789 51.6062507629395 50.3125 50.6312484741211 49.3687515258789 48 47.1500015258789 46.6624984741211 45.8312492370605 44.3187484741211 41.2562484741211 38.4874992370605 36.46875 34.15625 
17.8687496185303 16.8125 17.3875007629395 18.4937496185303 19.625 22.5500011444092 25.90625 29.7999992370605 34.28125 39.4124984741211 45.9625015258789 51.8125 58.03125 65.5437469482422 70.21875 71.3812484741211 71.9875030517578 74.8625030517578 76.5999984741211 78.5812530517578 79.4937515258789 81.2624969482422 83.9312515258789 84.5374984741211 83.7437515258789 82.71875 79.78125 76.1374969482422 72.9812469482422 71.1437530517578 67.9312515258789 62.5875015258789 59.5187492370605 57.2687492370605 54.15625 51.7437515258789 49.7000007629395 47.3875007629395 46.5562515258789 47.2062492370605 47.2062492370605 45.6687507629395 43.4500007629395 42.0999984741211 40.6124992370605 40.5250015258789 41.1875 38.1062507629395 36.2000007629395 32.3937492370605 30.9874992370605 
20.5249996185303 19.7312507629395 20.3500003814697 20.7875003814697 21.2562503814697 23.4812507629395 26.5625 29.28125 33.1937484741211 37.5562515258789 43.7562484741211 50.9312515258789 57.4562492370605 63.2249984741211 66.9562530517578 70.5437469482422 73.28125 74.0562515258789 73.6437454223633 75.1437530517578 76.6312484741211 77.40625 80.4312515258789 79.0250015258789 78.9000015258789 76.5500030517578 75.3874969482422 72.4375 70.8625030517578 68.3937530517578 65.9499969482422 62.3312492370605 56.7687492370605 53.3687515258789 51.1375007629395 48.7249984741211 46.1687507629395 43.6187515258789 42.8937492370605 42.6375007629395 41.46875 41.0062484741211 39.6624984741211 36.4500007629395 36.5374984741211 36.8562507629395 35.6812515258789 32.9249992370605 31.2562503814697 30.2250003814697 29.3624992370605 
23.5062503814697 22.28125 22.8875007629395 23.4125003814697 23.4750003814697 24.5249996185303 26.34375 28.9187507629395 32.5374984741211 36.4937515258789 43.4500007629395 50.9937515258789 57.9375 66.0812530517578 70.09375 72.0999984741211 73.03125 71.4937515258789 70.6437530517578 69.0625 72.4499969482422 71.9437484741211 73.0187530517578 72.0562515258789 73.9875030517578 72.9187469482422 71.1500015258789 67.8874969482422 66.0124969482422 63.4937515258789 61.7750015258789 59.3312492370605 53.5125007629395 49.8499984741211 46.5499992370605 44.7625007629395 41.46875 40.9124984741211 38.96875 38.5187492370605 37.3312492370605 35.8250007629395 34.9749984741211 32.9625015258789 32.5812492370605 31.9500007629395 30.9562492370605 30.2625007629395 28.28125 28.0125007629395 26.8500003814697 
27.7687492370605 26.4187507629395 26.6437492370605 27.1312503814697 27.3187503814697 28.1937503814697 29.4937496185303 30.96875 33.5999984741211 36.8687515258789 41.9874992370605 51.4000015258789 59.8187484741211 66.6812515258789 70.84375 73.0062484741211 73.0374984741211 69.5124969482422 67.4312515258789 64.7750015258789 65.5812530517578 67.8312530517578 67.8125 66.9437484741211 68.46875 67.5875015258789 66.0124969482422 63.4874992370605 62.8624992370605 60.0687484741211 57.1937484741211 54.9500007629395 50.7000007629395 46.4937515258789 42.4375 40.84375 39.7687492370605 37.4187507629395 36.2062492370605 35.9187507629395 34.7374992370605 32.8875007629395 31.7687492370605 30.9187507629395 29.78125 28.3875007629395 28.2937507629395 27.1625003814697 26.5125007629395 25.2062492370605 24.8812503814697 
30.8874988555908 30.71875 30.15625 30.7062492370605 31.2875003814697 31.8250007629395 32.5374984741211 34.0499992370605 35.9812507629395 36.8562507629395 43.1062507629395 54.0250015258789 62.7125015258789 67.59375 71.4000015258789 73.0749969482422 73.3312530517578 70.2312469482422 67.1437530517578 62.1937484741211 61.3375015258789 63.7125015258789 63.21875 63.03125 62.5374984741211 62.1062507629395 62.5187492370605 60.40625 58.3624992370605 54.8250007629395 53.6749992370605 50.3812484741211 47.1375007629395 43.8125 39.9000015258789 38.2374992370605 37.2249984741211 36.0625 34.0625 32.6124992370605 31.3500003814697 30.5874996185303 28.7250003814697 29.8062496185303 28.5 26.5499992370605 27.1937503814697 25.1875 24.4249992370605 23.8062496185303 23.1312503814697 
33.1875 33.25 33.4625015258789 34.4562492370605 34.6687507629395 35.2625007629395 36.2374992370605 37.3875007629395 39.5687484741211 39.8499984741211 49.0625 59.4500007629395 65.3499984741211 70.1937484741211 71.5374984741211 72.5562515258789 72.0875015258789 69.5500030517578 66.9250030517578 62.8624992370605 60.34375 60.2687492370605 58.6124992370605 58.6375007629395 57.7750015258789 58.6687507629395 59.03125 57.0625 55.0999984741211 51.0999984741211 48.5999984741211 47.40625 44.75 40.8187484741211 37.3937492370605 36.0687484741211 34.7937507629395 33.1687507629395 33.1624984741211 31.09375 29.34375 28.90625 26.7937507629395 25.9874992370605 25.5812492370605 24.7250003814697 24.9624996185303 23.8624992370605 21.8625011444092 21.8125 21.7999992370605 
33.6124992370605 33.3624992370605 34.2062492370605 35.3250007629395 36.3562507629395 38.25 39.4187507629395 41.6437492370605 45.3624992370605 53.2124977111816 65.1624984741211 68.78125 69.1312484741211 70.4250030517578 70.7750015258789 70.0250015258789 70.1750030517578 67.46875 64.5875015258789 61.8499984741211 58.3187484741211 56.7000007629395 55.0750007629395 54.5750007629395 54.2874984741211 55.7249984741211 55.03125 52.90625 51.25 49.1312484741211 47.3687515258789 45.0562515258789 42.1312484741211 39.5812492370605 37.9312515258789 35.5875015258789 34.2562484741211 32.53125 30.5750007629395 28.84375 28.4812507629395 28.2562503814697 26.9624996185303 26.1687507629395 25.2312507629395 24.4375 23.6062507629395 22.3062496185303 21.4812507629395 21.6749992370605 22.0499992370605 
32.6749992370605 33.3375015258789 34.84375 35.78125 38.2625007629395 41.1437492370605 42.1687507629395 46.4500007629395 51.5875015258789 59.3062515258789 65.46875 70.2375030517578 70.9625015258789 71.2937469482422 71.1812515258789 71.3499984741211 69.3312530517578 65.9812469482422 62.3187484741211 59.7687492370605 56.4874992370605 54.6062507629395 51.0875015258789 51.1062507629395 49.84375 49.8937492370605 50.3687515258789 49.0187492370605 47.4625015258789 45.1437492370605 43.2750015258789 42.1437492370605 39.1375007629395 38.1187515258789 35.4749984741211 33.9562492370605 32.5812492370605 31.7437496185303 30.0125007629395 28.4812507629395 28.40625 27.8812503814697 26.0625 24.9562492370605 23.8125 23.7999992370605 22.9937496185303 22.875 22.4750003814697 22.6375007629395 22.3875007629395 
32.84375 33.1812515258789 34.8062515258789 36.8499984741211 38.9312477111816 41.0999984741211 43.5062484741211 48.5875015258789 53.5062484741211 59.9562492370605 64.8687515258789 67.9875030517578 70.1812515258789 69.0625 69.9375 68.1437454223633 67.5999984741211 64.8249969482422 59.8624992370605 56.75 54.4249992370605 51.3812522888184 48.9937515258789 48.625 47.2312507629395 45.4874992370605 45.8062515258789 46.0125007629395 45.2000007629395 42.0374984741211 41.90625 41.0687484741211 37.0812492370605 35.9562492370605 34.2625007629395 32.6624984741211 30.875 30.71875 29.0187492370605 27.3500003814697 27.7625007629395 26.6625003814697 24.9500007629395 23.8500003814697 24.3500003814697 23.8999996185303 22.8812503814697 22.4187507629395 23.9562492370605 24.03125 23.2437496185303 
33.1375007629395 33.7999992370605 34.1812515258789 36.6812515258789 38.0374984741211 41.0625 43.0812492370605 47.3687515258789 52.25 55.9625015258789 60.3312492370605 62.4312515258789 64.7437515258789 64.8375015258789 64.9000015258789 64.1875 63.9124984741211 60.46875 57.53125 54.0125007629395 50.4874992370605 47.3812522888184 45 44.25 43.3125 41.2874984741211 41.09375 41.6312484741211 41.6812515258789 38.7937507629395 37.4874992370605 37.875 36.6687507629395 36.375 33.5750007629395 31.2625007629395 29.9499988555908 29.1437492370605 27.9249992370605 27.4187507629395 27.0375003814697 26.1625003814697 25.4937496185303 24.7999992370605 24.09375 23.5062503814697 22.0625 21.3250007629395 22.2000007629395 23.1437492370605 23.2312507629395 
32.84375 33.28125 34.84375 35.5 37.6624984741211 40.3375015258789 43.4812507629395 46.1312484741211 48.65625 51.5875015258789 54.96875 58.0499992370605 58.8499984741211 58.7874984741211 59.5437507629395 59.5999984741211 58.2437515258789 57.2874984741211 54.625 50.8125 46.21875 41.7374992370605 38.75 39.1875 39.5625 39.0562515258789 38.3250007629395 38.3687515258789 38.2000007629395 36.0125007629395 35.1062507629395 34.4187507629395 34.0687484741211 34.9312515258789 34.8250007629395 31.3562507629395 28.875 27.7062492370605 27.1000003814697 26.4125003814697 26.0062503814697 25.8562507629395 25.3500003814697 24.6625003814697 23.3687496185303 22.28125 21.34375 21.09375 22.4312496185303 21.6812496185303 22.5874996185303 
32.5875015258789 33.7687492370605 35.3125 36.0374984741211 38.8062515258789 40.4749984741211 42.71875 45.8624992370605 48.4437484741211 49.4749984741211 50.5374984741211 52.5499992370605 52.7437515258789 53.40625 54.0187492370605 53.28125 53.65625 53.5437507629395 52.9249992370605 48.4125022888184 42.5812492370605 38.3125 35.25 36.5625 35.875 34.875 34.3125 35.8499984741211 35.8687515258789 33.84375 32.8062515258789 32.7687492370605 32.6187515258789 32.7937507629395 34.7687492370605 32.2312507629395 28.4874992370605 26.8687496185303 26.4750003814697 25.8312492370605 24.8875007629395 24.2937507629395 24.5062503814697 23.9125003814697 22.7999992370605 22.0499992370605 21.1812496185303 19.9812507629395 20.1187496185303 21.4249992370605 21.9624996185303 
33.0562515258789 33.53125 34.6875 36.5374984741211 38.90625 41.5250015258789 42.875 44.6875 47.0750007629395 47.8624992370605 47.1875 46.7437515258789 47.4874992370605 48.125 47.5812492370605 48.6812515258789 48.7750015258789 48.5125007629395 48.40625 45.25 40.4625015258789 37.0999984741211 34 33.1875 32.9375 32.5625 31.6875 33.4375 33.8499984741211 31.3875007629395 29.7312507629395 29.8937492370605 29.4437503814697 28.9562492370605 30.2124996185303 29.3187503814697 26.9375 26.03125 26.1499996185303 25.90625 24.9375 24.4312496185303 23.3812503814697 22.8187503814697 22.2062492370605 21.6374988555908 20.8187503814697 19.1375007629395 18.4437503814697 19.2562503814697 20.8500003814697 
