ncols        51
nrows        45
xllcorner    -63.500000000000
yllcorner    -7.500000000000
cellsize     0.166666666667
NODATA_value -99
162.78125 160.837493896484 161.443756103516 167.21875 171.574996948242 177.337493896484 180.087493896484 182.143753051758 183.587493896484 188.118743896484 196.143753051758 203.850006103516 211.693756103516 216.556243896484 220.8125 224.71875 231.231246948242 232.431243896484 236.59375 240.431243896484 246.125 250.78125 255.762496948242 254.475006103516 254.912506103516 254.637496948242 251.149993896484 250.274993896484 248.462493896484 246.5625 249.006256103516 248.725006103516 250.393753051758 254.118743896484 257.418731689453 263.118743896484 268.068756103516 273.712493896484 281.450012207031 288.068756103516 295.012512207031 301.462493896484 306.368743896484 312.231262207031 314.237487792969 318.412506103516 321 322.3125 323.487487792969 327.299987792969 328.100006103516 
167.993743896484 164.931243896484 168.387496948242 173.675003051758 178.756256103516 184 186.737503051758 190.074996948242 195.087493896484 200.881256103516 208.8125 215.4375 222.100006103516 227.181243896484 230.975006103516 235.1875 240.675003051758 242.981246948242 244.962493896484 247.399993896484 251.581253051758 255.649993896484 260.356262207031 260.28125 260.274993896484 260.318756103516 257.206237792969 257.043762207031 254.918746948242 252.625 252.137496948242 253.03125 254.087493896484 259.637512207031 261.993743896484 268.681243896484 275.53125 281.537506103516 289.256256103516 295.575012207031 303.318756103516 309.356231689453 313.875 318.912506103516 321.387512207031 325.03125 326.450012207031 326.693756103516 328.543762207031 331.625 331.556243896484 
174.137496948242 171.762496948242 175.71875 180.6875 184.637496948242 189.743743896484 195.181243896484 201.043746948242 207.337493896484 214.5625 220.318756103516 225.1875 231.212493896484 236.181243896484 239.862503051758 245.087493896484 250.306243896484 253.75 255.912506103516 258.6875 262.975006103516 267.462493896484 270.350006103516 270.225006103516 269.762512207031 267.475006103516 264.65625 263.96875 260.78125 257.537506103516 257.362487792969 257.549987792969 259.568756103516 262.568756103516 267.487487792969 272.34375 279.706237792969 287.787506103516 295.268737792969 302.987487792969 310.625 315.868743896484 319.887512207031 323.537506103516 327.174987792969 329.381256103516 330.96875 330.09375 330.806243896484 332.950012207031 333.143737792969 
178.849990844727 177.962493896484 183.481246948242 187.431243896484 190.818756103516 195.537506103516 201.993743896484 209.606246948242 218.612503051758 226.487503051758 231.106246948242 233.75 237.456253051758 241.574996948242 246.050003051758 251.34375 258.506256103516 263.850006103516 267.9375 271.431243896484 276.600006103516 279.5625 280.200012207031 278.787506103516 277.056243896484 273.743743896484 270.799987792969 267.524993896484 264.081237792969 261.737487792969 259.743743896484 261.225006103516 262.6875 265.162506103516 269.1875 276.1875 284.393737792969 293.118743896484 302.356262207031 309.899993896484 316.0625 321.743743896484 325.793762207031 328.274993896484 331.524993896484 332.524993896484 334.037506103516 333.28125 330.700012207031 331.981262207031 332.75 
188.493743896484 186.106246948242 188.431243896484 192.387496948242 195.306243896484 200.149993896484 205.925003051758 214.418746948242 226.050003051758 236.324996948242 239.393753051758 239.381256103516 242.225006103516 247.6875 251.631256103516 258.225006103516 265.5625 273.418731689453 277.956237792969 281.631256103516 286.956237792969 288.556243896484 289.799987792969 287.850006103516 284.4375 280.356262207031 275.200012207031 271.318756103516 269.899993896484 265.387512207031 264.21875 263.4375 266.693756103516 269.962493896484 273.84375 281.587493896484 289.893737792969 298.443756103516 308.637512207031 315.693756103516 322.993743896484 326.850006103516 329.9375 332.981262207031 334.456237792969 334.881256103516 335.793762207031 333.100006103516 329.731262207031 329.212493896484 331.350006103516 
194.943756103516 192.587493896484 195.71875 197.168746948242 197.306243896484 202.918746948242 209.274993896484 217.40625 229.693756103516 241.637496948242 242.649993896484 242.606246948242 247.09375 252.143753051758 257.59375 264.743743896484 273.0625 281.256256103516 287.78125 291.743743896484 295.8125 298.3125 299.774993896484 296.8125 293.131256103516 289.975006103516 284.606262207031 279.131256103516 275.237487792969 271.768737792969 269.3125 268.8125 271.131256103516 277.706237792969 283.96875 291.25 301.25 310.075012207031 319.762512207031 327.5625 332.043762207031 335.350006103516 337.518737792969 339.162506103516 339.068756103516 337.4375 336.518737792969 333.100006103516 329.368743896484 325.806243896484 323.412506103516 
199.475006103516 196.118743896484 198.206253051758 197.837493896484 196.268753051758 201.28125 207.46875 213.399993896484 220.899993896484 228.524993896484 235.449996948242 240.324996948242 247.112503051758 254.068756103516 261.206237792969 269.174987792969 278.149993896484 285.756256103516 292.456237792969 300.056243896484 303.262512207031 306.818756103516 308.03125 305.443756103516 302.46875 298.568756103516 292.987487792969 286.493743896484 280.024993896484 275.087493896484 274.693756103516 273.700012207031 277.125 283.006256103516 290.818756103516 299.924987792969 309.34375 318.75 330.837493896484 336.34375 336.856262207031 339.556243896484 340.825012207031 341.787506103516 343.237487792969 338.649993896484 335.350006103516 331.012512207031 322.8125 319.956237792969 318.943756103516 
201.018753051758 196.600006103516 196.774993896484 196.356246948242 195.681243896484 200.324996948242 203.662506103516 204.706253051758 206.231246948242 213.106246948242 225.168746948242 235.368743896484 245.912506103516 255.537506103516 263.799987792969 272.799987792969 280.662506103516 287.693756103516 295.6875 304.524993896484 309.549987792969 313.674987792969 316 313.28125 312.143737792969 307.056243896484 299.462493896484 291.993743896484 283.693756103516 278.443756103516 276.362487792969 277.9375 281.581237792969 288.350006103516 296.875 306.012512207031 315.806243896484 325.100006103516 335.200012207031 339.049987792969 339.443756103516 341.068756103516 341.575012207031 341.549987792969 341.462493896484 336.662506103516 328.731262207031 320.3125 315.462493896484 310.368743896484 308.625 
201.800003051758 196.762496948242 197.231246948242 197.100006103516 196.175003051758 200.193756103516 202.59375 201.8125 198.606246948242 202.75 218.75 232.65625 246.293746948242 256.537506103516 266.1875 276.212493896484 284.618743896484 292.081237792969 302.068756103516 311.375 314.243743896484 320.21875 323.125 325.387512207031 323.912506103516 317.143737792969 306.118743896484 295.96875 288.231262207031 282.225006103516 280.774993896484 282.643737792969 287.03125 293.737487792969 301.668762207031 311.818756103516 323.350006103516 332.475006103516 341.174987792969 343.818756103516 343.543762207031 343.693756103516 343.537506103516 342.125 338.8125 333.274993896484 325.037506103516 314.481262207031 306.262512207031 299.46875 297.231262207031 
202.412506103516 196.956253051758 197.118743896484 197.162506103516 197.131256103516 201.3125 204.449996948242 204.856246948242 204.931243896484 210.243743896484 222.606246948242 234.149993896484 247.668746948242 259.075012207031 269.081237792969 279.706237792969 289.487487792969 297.362487792969 306.8125 316.168762207031 319.4375 326.149993896484 332.78125 338.174987792969 334.40625 326.40625 314.162506103516 301.975006103516 291.681243896484 284.756256103516 282.625 286.274993896484 292.362487792969 300.518737792969 308.706237792969 318.350006103516 329.243743896484 339.206237792969 347.256256103516 350.262512207031 350.049987792969 349.393737792969 345.575012207031 338.793762207031 335.3125 331.393737792969 323.231262207031 311.462493896484 299.556243896484 291.268737792969 287.081237792969 
202.9375 197.537506103516 197.256256103516 197.774993896484 198.831253051758 204.087493896484 208.25 209.712493896484 213.018753051758 219.856246948242 229.649993896484 240.199996948242 251.487503051758 263.350006103516 273.549987792969 283.681243896484 293.418731689453 301.581237792969 309.806243896484 318.856262207031 324.612487792969 332.28125 342.756256103516 346.431243896484 346.668762207031 334.9375 320.831237792969 309.40625 297.231262207031 288.71875 287.493743896484 290.262512207031 296.381256103516 304.918762207031 314.049987792969 323.149993896484 333.4375 343.450012207031 351.03125 355.206237792969 354.731262207031 351.212493896484 344.075012207031 334.918762207031 329.9375 325.399993896484 315.368743896484 300.618743896484 289.34375 284.412506103516 277.862487792969 
204.162506103516 199.237503051758 199.25 200.59375 201.487503051758 207.918746948242 213.668746948242 216.78125 221.725006103516 228.512496948242 237.231246948242 246.149993896484 255.487503051758 266.131256103516 278.28125 288.59375 296.287506103516 303.318756103516 311.231262207031 319.237487792969 323.268737792969 332.818756103516 347.15625 357.018737792969 354.931243896484 337.09375 321.793762207031 310.424987792969 301.443756103516 296.681243896484 292.931243896484 293.756256103516 298.950012207031 306.556243896484 314.737487792969 325.71875 337.21875 347.59375 354.21875 359.481262207031 359.774993896484 353.256256103516 341.024993896484 324.962493896484 315.5 307.006256103516 295.118743896484 285.206237792969 279.524993896484 277.662506103516 270.931243896484 
205.387496948242 200.712493896484 201.387496948242 202.46875 204.237503051758 211.387496948242 217.449996948242 222.331253051758 228.112503051758 236.212493896484 245.800003051758 253.762496948242 262.793762207031 270.662506103516 281.96875 291.962493896484 299.143768310547 306.399993896484 314.693756103516 320.75 321.53125 330.931243896484 345.037506103516 352.012512207031 343.25 328.3125 320.46875 312.731262207031 306.106262207031 302.993743896484 299.96875 297.96875 301.0625 307.606262207031 315.231262207031 325.3125 337.375 348.606262207031 356.668762207031 363.549987792969 365.612487792969 355.731262207031 334.212493896484 313.65625 300.568756103516 295.299987792969 286.96875 277.6875 273.100006103516 273.331237792969 274.25 
205.431243896484 201.600006103516 202.493743896484 203.981246948242 206.618743896484 212.887496948242 220.118743896484 227.149993896484 235.34375 244.131240844727 253.40625 261.25 268.924987792969 277.543762207031 285.231262207031 295.225006103516 302.25 308.762512207031 316.293762207031 323.324981689453 326.912506103516 333.712493896484 342.418762207031 343.018737792969 335.174987792969 325.71875 320 314.0625 308.674987792969 306.649993896484 305.53125 303.375 303.293762207031 306.65625 313.09375 324.237487792969 337.700012207031 348.856262207031 356.081237792969 361.606262207031 362.487487792969 346.174987792969 325.962493896484 308.537506103516 297.200012207031 290.481262207031 284.206237792969 279.587493896484 275.231262207031 277.024993896484 282.112487792969 
203.862503051758 199.912506103516 201.487503051758 204.53125 208.050003051758 214.800003051758 223.399993896484 231.96875 240.568756103516 249.774993896484 259.793762207031 267.375 274.712493896484 282.462493896484 288.143737792969 297.075012207031 303.693756103516 311.393737792969 318.225006103516 325.056243896484 329.837493896484 335.143737792969 340.431243896484 339.443756103516 334.887512207031 330.056243896484 324.924987792969 319.512512207031 315.350006103516 314 310.337493896484 306.643737792969 306.162506103516 304.668762207031 307.4375 320.274993896484 335.393737792969 346.706237792969 349.34375 347.887512207031 340.862487792969 330.462493896484 319.793762207031 305.862487792969 297.237487792969 291.643737792969 287.918731689453 284.21875 283.049987792969 282.506256103516 285.899993896484 
200.5 197.568756103516 200.262496948242 204.118743896484 208.662506103516 217.368743896484 226.225006103516 235.118743896484 245.618743896484 256.137512207031 265.600006103516 273.731262207031 281.037506103516 287.825012207031 293.606262207031 299.537506103516 305.287506103516 313.137512207031 319.881256103516 327.337493896484 331.331237792969 335.15625 339.149993896484 337.90625 334.662506103516 332.40625 328.90625 325.40625 323.475006103516 321.987487792969 319.181243896484 314.174987792969 310.200012207031 307.731262207031 308.131256103516 326.018737792969 338.931243896484 342.587493896484 339.399993896484 334.412506103516 326.212493896484 319.518737792969 311.962493896484 301.931243896484 295.137512207031 290.943756103516 286.912506103516 283.59375 282.649993896484 282.125 284.037506103516 
197.168746948242 195.462493896484 198.28125 203.225006103516 209.112503051758 218.449996948242 229.081253051758 238.993743896484 249.881256103516 261.100006103516 270.731262207031 279.46875 287.193756103516 292.793762207031 299.575012207031 303.856262207031 306.162506103516 312.231262207031 320.299987792969 327.443756103516 331.21875 335.131256103516 339.262512207031 338.293762207031 336.743743896484 333.8125 331.756256103516 330.518737792969 328.918762207031 329.450012207031 327.6875 323 319.424987792969 320.28125 332.081237792969 345.956237792969 348.987487792969 344.206237792969 334.174987792969 324.518737792969 317.53125 312.112487792969 304.53125 296.518737792969 292.506256103516 289.256256103516 285.549987792969 284.03125 284.506256103516 282.068756103516 283.368743896484 
191.21875 190.431243896484 194.856246948242 201.081253051758 207.887496948242 217.875 228.75 239.975006103516 252.025009155273 263.887512207031 274.899993896484 285.056243896484 291.950012207031 298.450012207031 304.25 306.943756103516 308.674987792969 308.4375 319.068756103516 326.125 331.712493896484 335.462493896484 338.481262207031 337.637512207031 336.556243896484 336.787506103516 334.068756103516 334.737487792969 335.762512207031 336.581237792969 333.668762207031 323.856262207031 321.75 327.681243896484 344.768737792969 366.612487792969 357.28125 343.100006103516 329.225006103516 320.043762207031 310.831237792969 305.475006103516 299.556243896484 292.668762207031 289.09375 287.5625 285.293762207031 284.868743896484 286.112487792969 282.78125 284.46875 
184.600006103516 184.793746948242 189.949996948242 197.143753051758 205.506256103516 217.043746948242 229.006256103516 241.087493896484 253.600006103516 266.306243896484 278.09375 286.412506103516 295.375 303.231262207031 306.793762207031 307.887512207031 307.943756103516 307.043762207031 312.5 320.393737792969 328.5 334.618743896484 333.362487792969 333.806243896484 334.875 337.112487792969 336.84375 336.631256103516 338.931243896484 341.637512207031 340.137512207031 326.549987792969 318.456237792969 315.787506103516 325.556243896484 342.950012207031 339.681243896484 331.262512207031 322.993743896484 313.956237792969 306.237487792969 300.431243896484 295.518737792969 290.15625 287.149993896484 286.143737792969 285.59375 286.3125 287.368743896484 280.643737792969 285.762512207031 
176.375 178.125 184.231246948242 192.487503051758 202.1875 215.431243896484 228.78125 241.949996948242 255.212493896484 267.850006103516 279.587493896484 287.618743896484 297.543762207031 307.162506103516 307.65625 303.899993896484 300.25 303.975006103516 307.825012207031 314.568756103516 319.850006103516 323.706237792969 327.868743896484 328.387512207031 330.268737792969 332.6875 333.881256103516 335.993743896484 336.8125 336.793762207031 332.450012207031 321.850006103516 306.337493896484 291.950012207031 284.875 297.318756103516 311.862487792969 315.743743896484 313.96875 309.118743896484 302.174987792969 296.856262207031 293.125 289.056243896484 287.21875 286.987487792969 287.006256103516 287.424987792969 286.725006103516 279.625 286.825012207031 
167.800003051758 171.612503051758 179.693756103516 188.96875 199.487503051758 214.231246948242 229.5625 244 257.837493896484 269 277.600006103516 284.387512207031 291.362487792969 300.118743896484 301.537506103516 297.424987792969 294.34375 295.956237792969 301.40625 306.662506103516 312.350006103516 318.056243896484 322.049987792969 324.618743896484 327.543762207031 330.737487792969 331.850006103516 332.106262207031 332.09375 331.450012207031 325.506256103516 314.518737792969 296.674987792969 275.087493896484 254.831253051758 270.975006103516 294.768737792969 306.200012207031 308.618743896484 305.34375 299.6875 295.643737792969 290.587493896484 286.837493896484 286.71875 287.056243896484 287.924987792969 288.700012207031 284.512512207031 282.331237792969 288.28125 
159.962493896484 164.46875 174.243743896484 184.693756103516 196.487503051758 212.887496948242 229.893753051758 246.412506103516 260.575012207031 269.162506103516 273.149993896484 275.625 278.512512207031 283.943756103516 287.587493896484 288.768737792969 290.475006103516 293.450012207031 298.056243896484 302.306243896484 304.4375 307.443756103516 313.225006103516 315.325012207031 319.018737792969 324.899993896484 330.181243896484 330.824981689453 330.46875 328.768737792969 321.693756103516 310.881256103516 295.768737792969 280.537506103516 271.412506103516 279.806243896484 296.899993896484 307.575012207031 309.84375 305.350006103516 298.625 294.462493896484 289.987487792969 286.512512207031 287.225006103516 288.337493896484 289.725006103516 290.25 285.549987792969 288.325012207031 290.168762207031 
154.243743896484 159.931243896484 169.887496948242 181.293746948242 193.581253051758 210.106246948242 227.612503051758 247.100006103516 263.700012207031 268.5 268.212493896484 264.96875 263.34375 267.9375 275.200012207031 280.262512207031 283.881256103516 288.09375 292.399993896484 296.1875 297.100006103516 297.412506103516 299.787506103516 301.881256103516 308.424987792969 317.225006103516 324 326.8125 326.631256103516 324.100006103516 318.668762207031 312.575012207031 304.924987792969 296.618743896484 295.493743896484 301.125 310.143737792969 315.381256103516 314.012512207031 307.424987792969 299.049987792969 294.162506103516 289.837493896484 285.674987792969 287.006256103516 289.799987792969 292.418762207031 292.325012207031 290.893737792969 293.606262207031 293.837493896484 
150.043746948242 155.725006103516 165.918746948242 177.5 189.90625 205.793746948242 223.875 243.006256103516 258.212493896484 261.431243896484 259.34375 256.375 251.699996948242 257.4375 267.075012207031 274.262512207031 279.9375 285.206237792969 288.206268310547 290.774993896484 290.174987792969 288.674987792969 288.899993896484 290.506256103516 295.506256103516 304.28125 312.293762207031 318.299987792969 321.15625 322.493743896484 321.987487792969 319.518737792969 315.962493896484 313.15625 314.862487792969 320.262512207031 324.799987792969 322.856262207031 316.59375 308.125 299.15625 292.962493896484 288.018737792969 282.962493896484 286.4375 290.875 295.200012207031 293.862487792969 298.8125 297.325012207031 297.600006103516 
148.787506103516 153.649993896484 162.456253051758 173.831253051758 186.793746948242 202.237503051758 218.09375 234.131256103516 246.274993896484 252.043746948242 253.993743896484 252.256256103516 252.4375 257.068756103516 263.96875 271.75 277.537506103516 283.225006103516 286.818756103516 287.125 283.618743896484 280.006256103516 277.268737792969 275.818756103516 281.899993896484 294.40625 302.8125 312.168762207031 317.625 324.037506103516 326.512512207031 327.024993896484 327.006256103516 326.78125 327.962493896484 327.524993896484 328.299987792969 324.637512207031 316.681243896484 308.825012207031 299.575012207031 292.362487792969 285.137512207031 281.662506103516 282.381256103516 288.056243896484 292.700012207031 301.75 306.868743896484 303.881256103516 302.149993896484 
149.09375 153.806243896484 160.793746948242 171.4375 182.6875 196.725006103516 211.09375 225.074996948242 235.649993896484 242.756256103516 247.443756103516 250.4375 253.78125 258.350006103516 264.4375 271.962493896484 277.068756103516 283.306243896484 287.46875 285.693756103516 281.631256103516 273.918762207031 266.193756103516 260.700012207031 269.325012207031 285.618743896484 298.6875 308.243743896484 316.4375 325.762512207031 331.918762207031 336.337493896484 338.693756103516 337.512512207031 336.03125 332.368743896484 329.612487792969 324.649993896484 317.15625 308.575012207031 299.643737792969 291.206237792969 281.231262207031 276.518768310547 278.618743896484 285.018737792969 301.712493896484 312.181243896484 315.043762207031 314.5 311.506256103516 
146.893753051758 148.399993896484 155.662506103516 164.84375 174.912506103516 188.143753051758 201.225006103516 213.987503051758 224.59375 234.056243896484 242.050003051758 248.037506103516 253.956253051758 260.462493896484 267.356262207031 274.231262207031 281.237487792969 286.575012207031 289.8125 289.818756103516 283.743743896484 274.862487792969 262.481262207031 254.524993896484 267.274993896484 283.5 297.418762207031 306.831237792969 315.681243896484 326.006256103516 334.637512207031 342.84375 347.331237792969 343.806243896484 339.774993896484 334.987487792969 331.137512207031 325.1875 318.087493896484 310.362487792969 300.393737792969 291.174987792969 280.28125 273.956237792969 282.46875 296.5 313.331237792969 321.399993896484 325.649993896484 322.21875 321.1875 
144 143.081253051758 149.862503051758 158.506256103516 167.181243896484 179.431243896484 192.9375 205.262496948242 216.368743896484 227.068756103516 236.3125 244.587493896484 253.243743896484 262.006256103516 269.6875 276.9375 284.912506103516 292.806243896484 297.068756103516 298 293.143737792969 284.662506103516 278.212493896484 272.274993896484 278.668762207031 290.762512207031 301.568756103516 310.4375 317.9375 326.487487792969 334.737487792969 341.956237792969 346 343.006256103516 339.431243896484 334.856262207031 329.162506103516 324.274993896484 318.549987792969 312.850006103516 306.237487792969 296.125 282.387512207031 275.65625 292.100006103516 308.15625 324.331237792969 331.606262207031 335.168762207031 331.612487792969 329.325012207031 
140.693756103516 137.9375 144.21875 151.893753051758 160.993743896484 172.618743896484 184.618743896484 196.824996948242 208.818756103516 220.087493896484 231.362503051758 241.806243896484 252.337493896484 263.431243896484 273.049987792969 282.381256103516 292.793762207031 301.881256103516 308.375 311.206237792969 307.856262207031 301.6875 298.1875 291.981262207031 295.024993896484 301.518737792969 308.475006103516 315.181243896484 320.975006103516 328.274993896484 333.837493896484 338.875 342.043762207031 340.743743896484 338.337493896484 333.737487792969 327.3125 322.368743896484 317.450012207031 311.875 309.087493896484 299.462493896484 286.556243896484 287.056243896484 306.075012207031 322.21875 336.293762207031 344.1875 345.512512207031 343.206237792969 336.325012207031 
141.681243896484 137.449996948242 142.125 148.274993896484 155.71875 166 177.612503051758 189.462493896484 201.887496948242 213.6875 225.943756103516 238.868743896484 252.324996948242 265.549987792969 276.737487792969 287.756256103516 299.450012207031 313.856262207031 322.8125 323.918762207031 321.006256103516 317.299987792969 314.587493896484 309.262512207031 308.825012207031 312.631256103516 316.731262207031 320.068756103516 322.956237792969 327.84375 332.375 335.174987792969 337.356262207031 338.5625 337.53125 332.168762207031 325.618743896484 321.106231689453 313.15625 307.462493896484 305.368743896484 304.368743896484 300.012512207031 305.875 317.956237792969 337.037506103516 352.649993896484 359.21875 359.193756103516 355.887512207031 348.381256103516 
142.074996948242 136.418746948242 139.59375 144.681243896484 150.8125 160.081253051758 171.600006103516 182.90625 195.34375 207.856246948242 221.0625 235.175003051758 250.625 265.125 278.268737792969 291.737487792969 307.21875 323.056243896484 336.337493896484 337.462493896484 334.8125 330.9375 329.774993896484 323.825012207031 320.837493896484 323.668762207031 323.9375 323.612487792969 324.793762207031 327.837493896484 331.081237792969 334.03125 336.006256103516 337.368743896484 337.068756103516 330.506256103516 323.987487792969 319.78125 310.649993896484 299.200012207031 299.306243896484 307.543731689453 313.049987792969 321.149993896484 333.512512207031 357.118743896484 372.068756103516 377.850006103516 376.0625 369.637512207031 360.081237792969 
142.462493896484 135.831253051758 137.568756103516 141.143753051758 146.09375 154.824996948242 165.793746948242 176.243743896484 188.662506103516 201.606246948242 215.381256103516 230.59375 246.793746948242 264.0625 279.537506103516 295.306243896484 309.75 325.274993896484 338.537506103516 344.393737792969 342.71875 341.918762207031 340.225006103516 333.674987792969 332.112487792969 331.862487792969 328.787506103516 327.506256103516 325.362487792969 327.96875 330.868743896484 333.200012207031 334.131256103516 335.549987792969 335.65625 329.443756103516 324.424987792969 319.256256103516 308.243743896484 300.568756103516 304.600006103516 317.700012207031 328.393737792969 342.881256103516 358.543762207031 384.325012207031 400.024993896484 401.612487792969 394.09375 383.337493896484 371.543762207031 
149.4375 143.043746948242 143.03125 144.587493896484 147.09375 154.75 163.368743896484 171.956253051758 183.143753051758 196.243743896484 211.800003051758 227.393753051758 245.268753051758 265.53125 281.631256103516 297.15625 311.131256103516 326.350006103516 337.912506103516 345.206237792969 346.84375 346.700012207031 344.668762207031 339.831237792969 336.899993896484 334.962493896484 330.662506103516 327.881256103516 326.25 328.0625 330.65625 332.956237792969 334.862487792969 336.5625 336.125 332.743743896484 328.606262207031 323.262512207031 315.318756103516 316.024993896484 321.53125 334.84375 349.231262207031 366.075012207031 391.037506103516 423.318756103516 435.649993896484 425.774993896484 412.28125 398.40625 382.862487792969 
157.28125 151.106246948242 150.100006103516 149.725006103516 150.212493896484 155.481246948242 161.612503051758 168.300003051758 178.5 190.831253051758 205.993743896484 224.350006103516 244.012496948242 263.856262207031 280.0625 296.887512207031 312.893737792969 326.837493896484 336.537506103516 344.106262207031 347.662506103516 347.950012207031 347.493743896484 341.493743896484 337.987487792969 334.431243896484 330.568756103516 326.75 326.193756103516 327.600006103516 329.375 333.03125 336.0625 337.837493896484 339.4375 336.943756103516 333.081237792969 328.274993896484 327.381256103516 331.068756103516 336.568756103516 350.368743896484 368.493743896484 387.612487792969 415.674987792969 446.300018310547 454.618743896484 441.537506103516 426.125 410.837493896484 394.487487792969 
165.762496948242 160.262496948242 158 155.693756103516 153.587493896484 157.081253051758 160.824996948242 165.925003051758 174.243743896484 185.037506103516 200.4375 220.862503051758 242.887496948242 263.931243896484 281.71875 297.618743896484 313.806243896484 326.606262207031 335.881256103516 343 347.081237792969 347.049987792969 346.149993896484 339.78125 336.299987792969 333.018768310547 328.243743896484 325.418762207031 323.493743896484 326.056243896484 329.625 333.693756103516 336.806243896484 339.787506103516 341.268737792969 338.756256103516 335.962493896484 336.618743896484 339.40625 344.049987792969 350.78125 363.125 380.668762207031 400.206237792969 424.274993896484 443.756256103516 450.631256103516 444.700012207031 432.481262207031 418.206237792969 402.987487792969 
178.962493896484 173.237503051758 170.225006103516 167.275009155273 164.5625 165.943756103516 168.050003051758 170.149993896484 175.568756103516 184.556243896484 198.612503051758 219.40625 243.318756103516 265.881256103516 283.25 299.5625 314.231262207031 325.46875 334.78125 342.131256103516 344.318756103516 342.875 340.21875 334.631256103516 330.456237792969 326.674987792969 322.581237792969 320.84375 319.875 323.106262207031 328.331237792969 333.012512207031 335.887512207031 340.493743896484 342.9375 341.700012207031 343.143737792969 345.424987792969 347.787506103516 353.981262207031 362.225006103516 373.431243896484 387.350006103516 405.893737792969 424.087493896484 436.818756103516 442.837493896484 440.71875 431.887512207031 421.506256103516 405.575012207031 
192.09375 186.862503051758 183.699996948242 180.206253051758 177.350006103516 177.4375 177.262496948242 177.225006103516 179.4375 183.681243896484 198.356246948242 223.137496948242 247.3125 268.193756103516 285.78125 300.774993896484 313.962493896484 323.625 332.381256103516 336.887512207031 338.100006103516 335.662506103516 332.46875 325.606262207031 320.918762207031 317.53125 314.799987792969 315.087493896484 315.037506103516 320.043762207031 325.96875 331.53125 336.681243896484 342.362487792969 345.443756103516 347.28125 350.706237792969 354.84375 358.337493896484 362.475006103516 369.1875 379.181243896484 391.950012207031 407.762512207031 422.918762207031 431.799987792969 437.049987792969 436.356262207031 430.637512207031 421.65625 408.15625 
204.318756103516 199.831253051758 196.350006103516 193.081253051758 190.662506103516 189.975006103516 188.743743896484 186.987503051758 188.75 190.21875 209.787506103516 234.824996948242 254.981246948242 273.556243896484 288.518737792969 302.4375 313.100006103516 320.731262207031 326.75 329.006256103516 327.168762207031 324.193756103516 322.043762207031 315.100006103516 310.681243896484 308.21875 306.668762207031 308.831237792969 310.818756103516 316.78125 322.831237792969 329.137512207031 335.543762207031 342.737487792969 346.493743896484 351.606262207031 356.649993896484 360.331237792969 365.693756103516 371.125 375.100006103516 384.581237792969 393.725006103516 402.868743896484 415.3125 423.875 429.793762207031 432.362487792969 428.181243896484 419.931243896484 410.556243896484 
208.524993896484 205.381256103516 203.731246948242 202.149993896484 201.199996948242 201.068756103516 202.024993896484 202.675003051758 208.456253051758 220.912506103516 242.856246948242 257.1875 269.78125 283.512512207031 295.625 306.287506103516 314.15625 318.418762207031 320.631256103516 319.899993896484 315 310.912506103516 308.056243896484 303 300.081268310547 299.399993896484 300.0625 302.756256103516 306.337493896484 312.918762207031 320.399993896484 326.106262207031 332.299987792969 340.1875 348.231262207031 352.518737792969 356.818756103516 362.256256103516 365.631256103516 368.71875 372.068756103516 380.712493896484 387.368743896484 395.262512207031 403.518737792969 410.293762207031 414.856262207031 415.8125 414.737487792969 412.693756103516 403.200012207031 
211.875 210.331253051758 210.524993896484 210.418746948242 211.649993896484 214.675003051758 217.037506103516 222.012496948242 230.774993896484 243.375 259.168762207031 273.293762207031 284.712493896484 294.743743896484 304.306243896484 311.443756103516 316.3125 316.887512207031 314.706237792969 311.600006103516 303.962493896484 298.100006103516 293 289.09375 288.818756103516 289.981262207031 291.831237792969 296.524993896484 301.28125 307.818756103516 314.362487792969 323.206237792969 332.75 340.325012207031 348.399993896484 353.737487792969 356.931243896484 361.418762207031 365.331237792969 365.46875 366.75 373.6875 378.975006103516 384.331237792969 390.443756103516 396.943756103516 402.418762207031 405.424987792969 404.887512207031 403.325012207031 397.28125 
214.418746948242 214.981246948242 216.78125 218.975006103516 221.212493896484 225.637496948242 230.524993896484 238.543746948242 248.637496948242 261.174987792969 273.962493896484 286.325012207031 296.818756103516 304.893737792969 312.331237792969 317.831237792969 319.793762207031 316.875 311.256256103516 303.649993896484 292.6875 284.137512207031 278.399993896484 275.556243896484 278.1875 281.118743896484 284.331237792969 290.274993896484 297.087493896484 304.618743896484 312.731262207031 323.918762207031 332.956237792969 341.306243896484 349.3125 354.356262207031 357.543762207031 361.912506103516 363.887512207031 361.450012207031 361.987487792969 364.493743896484 366.868743896484 372.424987792969 379.162506103516 386.243743896484 390.856262207031 392.21875 394.206237792969 394.743743896484 391.274993896484 
214.712493896484 215.956253051758 218.743743896484 222.050003051758 225.237503051758 230.681243896484 236.975006103516 245.15625 255.712493896484 267.287506103516 279.362487792969 291.918762207031 302.899993896484 311.149993896484 317.799987792969 322.037506103516 324.087493896484 318.893737792969 311.737487792969 300.024993896484 283.75 271.831237792969 266.174987792969 266.0625 271.475006103516 275.475006103516 280.137512207031 286.90625 295.59375 304.862487792969 311 323.293762207031 332.706237792969 342.743743896484 352.34375 354.787506103516 356.924987792969 360.381256103516 360.9375 357.46875 355.256256103516 352.618743896484 352.893737792969 360.793762207031 367.862487792969 375.568756103516 379.262512207031 380.75 383.96875 383.962493896484 381.337493896484 
215.056243896484 217.231246948242 220.837493896484 223.518753051758 227.443756103516 234.274993896484 241.606246948242 248.762496948242 258.96875 270.5 283.131256103516 295.799987792969 307.362487792969 316.681243896484 322.887512207031 327.274993896484 327.443756103516 324.368743896484 316.125 297.993743896484 275.112487792969 257.393737792969 254.21875 259.5 266.625 272.412506103516 278.15625 284.03125 293.381256103516 302.912506103516 311.587493896484 319.806243896484 329.34375 341.40625 353.231262207031 360.243743896484 359.168762207031 359.793762207031 358.125 353.674987792969 351.600006103516 348.71875 347.131256103516 351.181243896484 359.712493896484 364.668762207031 368.368743896484 370.600006103516 374.475006103516 375.262512207031 374.537506103516 
216.118743896484 219.012496948242 222.90625 225.762496948242 230.731246948242 237.399993896484 244.568756103516 252.71875 262.799987792969 274.231262207031 287.262512207031 300.493743896484 311.918762207031 321.21875 327.318756103516 330.662506103516 331.600006103516 328.581237792969 322.887512207031 301.90625 275.631256103516 253.731246948242 251.712493896484 256.887512207031 264.100006103516 270.537506103516 276.418762207031 283.65625 292.600006103516 302.450012207031 309.75 317.818756103516 327.59375 340.056243896484 353.524993896484 365.399993896484 363.850006103516 360.743743896484 356.568756103516 352.700012207031 349.90625 347.987487792969 345.424987792969 347.912506103516 353.106262207031 356.362487792969 360.506256103516 361.575012207031 362.637512207031 366.387512207031 367.762512207031 
220.350006103516 223.78125 227.350006103516 230.993743896484 235.631256103516 242 248.824996948242 256.731262207031 267.112487792969 278.362487792969 289.674987792969 303.5625 316.0625 325.693756103516 332.0625 333.543762207031 333.556243896484 328.0625 320.493743896484 303.725006103516 281.762512207031 266.362487792969 259.174987792969 261.443756103516 267.674987792969 272.625 278.049987792969 285.512512207031 294.112487792969 304.149993896484 311.225006103516 317.84375 326.443756103516 336.975006103516 349.806243896484 362.274993896484 363.537506103516 359.331237792969 354.78125 352.21875 348.837493896484 346.806243896484 346.112487792969 344.649993896484 349.34375 351.431243896484 353.043762207031 354.649993896484 353.837493896484 355.737487792969 360.512512207031 
