ncols        51
nrows        45
xllcorner    -63.500000000000
yllcorner    -7.500000000000
cellsize     0.166666666667
NODATA_value -99
192.712493896484 190.137496948242 182.850006103516 178.399993896484 171.625 167.393753051758 161.475006103516 153.168746948242 144.956253051758 139.543746948242 137.5625 134.96875 131.725006103516 124.337501525879 119.356246948242 114.856246948242 111.3125 106.349998474121 104.462501525879 103.206253051758 103.168746948242 103.287498474121 104.981246948242 109 114.118751525879 120.300003051758 129.425003051758 139.681243896484 150.84375 161.350006103516 172.925003051758 185.456253051758 196.712493896484 208.806243896484 221.774993896484 231.818756103516 239.46875 246.206253051758 251.5625 254.425003051758 258.625 261.700012207031 262.587493896484 266.96875 267.387481689453 269.200012207031 271.043762207031 274.118743896484 277.068756103516 283.9375 289.8125 
203.106246948242 201.243743896484 197.399993896484 192.506256103516 188.412506103516 186.925003051758 182.412506103516 178.5 173.731246948242 168.274993896484 163.662506103516 157.71875 151.306243896484 143.568756103516 136.568740844727 129.831253051758 124.349998474121 120.212501525879 118.150001525879 116.556251525879 116.431251525879 117.337501525879 119.337501525879 123.256248474121 127.637504577637 133.71875 142.287506103516 152.574996948242 163.168746948242 174.037506103516 184.943756103516 198.612503051758 210.537506103516 223.887496948242 236.425003051758 246.268753051758 254.25 260.506256103516 265.043762207031 267.28125 270.412506103516 272.399993896484 272.162506103516 274.850006103516 274.443756103516 276.15625 277.743743896484 279.618743896484 284.8125 292.46875 297.681243896484 
211.762496948242 210.46875 207.03125 203.568756103516 201.462493896484 201.318756103516 201.487503051758 202.537506103516 201.5 196.875 190.268753051758 181.949996948242 172.96875 162.981246948242 153.706253051758 145.068756103516 137.618743896484 133.300003051758 130.331253051758 128.300003051758 128.362503051758 130.425003051758 132.199996948242 136.337493896484 142.225006103516 147.78125 156.331253051758 166.725006103516 176.256256103516 186.675003051758 199.118743896484 212.725006103516 226.46875 239.662506103516 254.462493896484 263.918762207031 273.487487792969 282.393737792969 285.90625 288.106262207031 290.493743896484 290.299987792969 288.53125 287.131256103516 287.268737792969 288.737487792969 290.737487792969 292.206237792969 297.15625 304.4375 310.112487792969 
217.725006103516 217.118743896484 216.056243896484 214.15625 216.081253051758 217.056243896484 221.037506103516 226.893753051758 230.225006103516 228.412506103516 220.243743896484 207.768753051758 194.399993896484 181.662506103516 170.893753051758 160.65625 151.824996948242 145.34375 141.993759155273 141.087493896484 142.118743896484 143.831253051758 145.21875 149.96875 155.84375 161.912506103516 171.143753051758 180.856246948242 189.9375 201.318756103516 213.306243896484 228.762496948242 242.637496948242 257.762512207031 272.712493896484 284.862487792969 295.9375 305.612487792969 310.700012207031 313.331237792969 313.356262207031 310.9375 307.018737792969 302.462493896484 301.556243896484 300.674987792969 303.043762207031 305.174987792969 308.231262207031 315.706237792969 322.825012207031 
228.618743896484 225.46875 222.487503051758 222.862503051758 226.918746948242 231.53125 237.4375 248.350006103516 258.649993896484 262.09375 248.331253051758 230.074996948242 215.125 201.074996948242 187.756256103516 176.175003051758 166.300003051758 158.006256103516 154.762496948242 154.106246948242 155.949996948242 156.818756103516 158.712493896484 164.15625 170.037506103516 176.725006103516 184.206253051758 192.856246948242 203.84375 216.074996948242 229.081253051758 243.318756103516 259.674987792969 276.399993896484 292.424987792969 306.112487792969 319.887512207031 331.787506103516 337.424987792969 338.5625 338.774993896484 332.568756103516 324.799987792969 317.956237792969 313.987487792969 314.100006103516 315.662506103516 318.774993896484 321.09375 327.356262207031 334.887512207031 
236.475006103516 234.787506103516 230.574996948242 229.21875 232.681243896484 239.268753051758 247.300003051758 258.456237792969 271.049987792969 278.806243896484 261.75 242.524993896484 227.868743896484 214.662506103516 201.949996948242 191.481246948242 180.743743896484 172.487503051758 169.681243896484 169.15625 169.899993896484 170.881256103516 172.643753051758 177.381256103516 182.46875 189.5 197.418746948242 205.637496948242 215.681243896484 228.050003051758 241.449996948242 256.012512207031 271.168762207031 290.28125 307.806243896484 322.618743896484 338.268737792969 351.924987792969 360.15625 362.375 360.306243896484 352.456237792969 343.450012207031 334.96875 326.493743896484 325.793762207031 329.200012207031 332.78125 333.012512207031 335.043762207031 335.493743896484 
244.962493896484 243.212493896484 239.668746948242 236.318756103516 238.25 242.987503051758 249.837493896484 256.9375 264.981231689453 266.037506103516 258.862487792969 247.131256103516 235.675003051758 224.981246948242 214.981246948242 205.981246948242 197.943756103516 192.331253051758 188.899993896484 185.587493896484 184.050003051758 184.612503051758 185.018753051758 189.125 195.887496948242 202.081253051758 210.087493896484 219.037506103516 227.262496948242 239 253.793746948242 268.6875 284.90625 300.837493896484 318.393768310547 336.712493896484 353.524993896484 369.943756103516 382.112487792969 385.381256103516 381.024993896484 372.59375 363.318756103516 353.393737792969 342.162506103516 339.418762207031 342.337493896484 345.043762207031 341.168762207031 339.668762207031 340.318756103516 
252.643753051758 249.237503051758 245.418746948242 244.206253051758 245.287506103516 246.931243896484 248.850006103516 249.962493896484 250.462493896484 250.818756103516 251.649993896484 248.493743896484 242.3125 233.75 226.03125 219.487503051758 213.556243896484 210.543746948242 208.181243896484 201.25 197.331253051758 196.637496948242 196.65625 201.293746948242 208.074996948242 214.324996948242 222.331253051758 230.487503051758 239.59375 251.181243896484 264.268737792969 279.987487792969 295.875 312.418762207031 329.28125 347.337493896484 365.71875 383.118743896484 395.262512207031 401.024993896484 400.268737792969 393.3125 384.331268310547 372.831237792969 362.5625 358.681243896484 356.193756103516 351.512512207031 350.712493896484 344.299987792969 340.450012207031 
260.325012207031 256.825012207031 252.681243896484 251.350006103516 250.949996948242 249.606246948242 249.637496948242 247.5625 243.550003051758 243.175003051758 247.443756103516 249.306243896484 246.574996948242 240.65625 233.762496948242 228.681259155273 223.337493896484 219.587493896484 217.21875 209.306243896484 204.287506103516 203.618743896484 204.412506103516 211.568756103516 218.949996948242 225.487503051758 232.668746948242 240.600006103516 250.043746948242 260.556243896484 273.21875 287.931243896484 302.6875 317.674987792969 333.59375 352.556243896484 371.512512207031 389.506256103516 404.287506103516 413.243743896484 415.662506103516 411.456237792969 405.762512207031 397.162506103516 389.068756103516 382.200012207031 375.756256103516 366.575012207031 356.450012207031 344.787506103516 336 
267.556243896484 263.950012207031 260.231262207031 257.600006103516 255.743743896484 253.225006103516 252.856246948242 250.487503051758 249.350006103516 249.53125 252.918746948242 253.074996948242 252.34375 246.949996948242 241.206253051758 235.09375 229.068756103516 223.993743896484 217.824996948242 211 208.018753051758 208.806243896484 211.706253051758 221.550003051758 229.712493896484 236.368743896484 243.975006103516 250.818756103516 260.662506103516 270.387512207031 280.450012207031 293.149993896484 307.243743896484 322.649993896484 338.518737792969 357.125 376.368743896484 393.65625 410.112487792969 423.493743896484 431.743743896484 431.46875 427.443756103516 419.631256103516 414.6875 410.524993896484 400.725006103516 385.887512207031 369.581237792969 351.412506103516 334.431243896484 
273.443756103516 269.518737792969 265.600006103516 262.4375 259.493743896484 256.825012207031 255.943756103516 255.418746948242 256.068756103516 257.556243896484 261.018737792969 261.512512207031 259.387512207031 253.949996948242 247.731246948242 240.925003051758 233.375 225.831253051758 217.887496948242 211.46875 209.25 211.418746948242 217.756256103516 227.537506103516 239.762496948242 246.756256103516 253.318756103516 261.018737792969 269.306243896484 277.25 286.774993896484 297.75 310.4375 324.993743896484 341.78125 361.09375 378.725006103516 397.725006103516 416.012512207031 431.256256103516 443.28125 445.462493896484 444.8125 440.174987792969 435.368743896484 433.575012207031 420.59375 398.087493896484 378.350006103516 360.231262207031 338.200012207031 
278.875 274.612487792969 269.943756103516 266.943756103516 264.443756103516 261.962493896484 261.225006103516 262.6875 263.924987792969 266.143737792969 270.262512207031 271.9375 268.268737792969 261.649993896484 254.918746948242 246.356246948242 237.824996948242 228.4375 218.818756103516 211.043746948242 208.618743896484 212.3125 222.274993896484 236.399993896484 248.868743896484 254.681243896484 260.024993896484 266.943756103516 275 283.024993896484 291.3125 300.143737792969 312.168731689453 325.481262207031 341.024993896484 360.25 379.943756103516 399.431243896484 419.53125 437.543762207031 452.881256103516 456.006256103516 453.274993896484 446.25 438.912506103516 428.975006103516 414.162506103516 400.706237792969 382.962493896484 364.71875 341.8125 
280.862487792969 277.299987792969 273.518737792969 270.387512207031 269.056243896484 267.5625 267.9375 269.149993896484 270.581237792969 274.3125 278.356262207031 280.487487792969 276.712493896484 268.206237792969 260.206237792969 250.293746948242 240.868743896484 231.59375 222.375 213.518753051758 208.949996948242 213.943756103516 225.862503051758 240.106246948242 250.6875 257.237487792969 264.46875 271.706237792969 279.200012207031 286.481262207031 293.868743896484 301.524993896484 311.162506103516 323.875 338.762512207031 356.862487792969 376.0625 397.856262207031 420.756256103516 441.674987792969 461.331237792969 463.931243896484 456.424987792969 446.274993896484 434.831237792969 425.443756103516 412.225006103516 395.456237792969 380.662506103516 367.987487792969 354.681243896484 
281.456237792969 278.287506103516 275.037506103516 272.681243896484 272.274993896484 271.375 273.0625 274.868743896484 277.056243896484 280.137512207031 283.068756103516 283.53125 280 273.524993896484 263.524993896484 253.887496948242 243.412506103516 235.09375 226.300003051758 219.300003051758 218.125 222.568756103516 231.543746948242 242.412506103516 251.962493896484 259.331237792969 267.424987792969 274.693756103516 282.524993896484 287.693756103516 293.987487792969 299.981262207031 308.362518310547 320.174987792969 333.693756103516 351.975006103516 372.96875 395.96875 422.424987792969 445.587493896484 463.262512207031 460.375 455.125 448.643737792969 438.268737792969 425.600006103516 413.350006103516 401.0625 384.40625 374.975006103516 370.0625 
282.381256103516 278.787506103516 276.293762207031 275.618743896484 274.662506103516 275.137512207031 277.987487792969 279.8125 282.618743896484 285.475006103516 286.975006103516 287.293762207031 283.912506103516 277.731262207031 268.09375 257.581237792969 247.6875 239.668746948242 232.28125 227.375 228.337493896484 232.212493896484 239.550003051758 248.237503051758 255.96875 263.9375 271.587493896484 277.825012207031 284.5625 289.300018310547 292.893737792969 296.4375 304.012512207031 313.53125 326.137512207031 343.475006103516 366.59375 392.53125 419.518737792969 440.862487792969 451.924987792969 453.799987792969 453.693756103516 448.84375 437.524993896484 425.056243896484 414.225006103516 402.787506103516 391.450012207031 379.84375 375 
281.731262207031 278.018737792969 276.306243896484 276.231262207031 276.612487792969 277.893737792969 281.075012207031 282.762512207031 286.337493896484 290.381256103516 292.262512207031 292.662506103516 289.65625 282.96875 272.912506103516 260.450012207031 251.806243896484 245.668746948242 239.90625 236.28125 237.625 241.556243896484 247.850006103516 255.868743896484 261.493743896484 267.34375 273.399993896484 279.862487792969 286.774993896484 290.725006103516 293.537506103516 294.043762207031 296.96875 303.293762207031 312.412506103516 330.418762207031 355.356262207031 384.875 415.268737792969 436.037506103516 445.456237792969 447.206237792969 447.631256103516 444.487487792969 431.681243896484 419.612487792969 407.862487792969 396.056243896484 385.825012207031 375.856262207031 369.1875 
278.337493896484 276.137512207031 274.899993896484 275.487487792969 276.96875 279.024993896484 282.537506103516 285.381256103516 289.59375 294.46875 298.09375 299.399993896484 297.350006103516 291.131256103516 280.174987792969 267.100006103516 256.231262207031 249.850006103516 244.818756103516 242.481246948242 245.637496948242 250.25 255.699996948242 262.34375 267.5625 270.256256103516 273.987487792969 280.768737792969 288.356262207031 293.15625 294.443756103516 292.556243896484 291.1875 290.274993896484 296.6875 313.881256103516 339.381256103516 375.318756103516 414.337493896484 429.056243896484 432.850006103516 435.350006103516 435.34375 433.443756103516 423.181243896484 412.274993896484 399.856262207031 389.5 382.143737792969 370.15625 361.78125 
272.700012207031 271.631256103516 272.318756103516 274.325012207031 276.362487792969 279.081237792969 283.21875 286.762512207031 291.424987792969 296.431243896484 301.581237792969 305.6875 306.600006103516 301.143737792969 290.09375 276.625 262 251.256256103516 247.212493896484 244.537506103516 250.362503051758 255.287506103516 259.200012207031 263.6875 268.118743896484 271.043762207031 273.331237792969 280.84375 289.475006103516 294.931243896484 294.787506103516 286.1875 281.181243896484 277.075012207031 278.793762207031 291.725006103516 321.981262207031 358.181243896484 394.28125 412.706268310547 417.46875 419.600006103516 420.668762207031 420.481262207031 412.131256103516 401.168762207031 391.993743896484 382.543762207031 374.268737792969 362.225006103516 355.606262207031 
266.03125 266.381256103516 268.012512207031 270.037506103516 273.181243896484 277.837493896484 281.881256103516 286.793762207031 292.743743896484 297.881256103516 304.412506103516 309.868743896484 313.818756103516 312.993743896484 300.131256103516 282.768737792969 265.993743896484 252.231246948242 245.350006103516 243.262496948242 251.074996948242 257.5625 258.375 262.268737792969 266.756256103516 271.318756103516 275.34375 282.262512207031 291.362487792969 298.068756103516 298.212493896484 286.299987792969 275.356262207031 263.706237792969 259.018737792969 272.96875 303.03125 337.024993896484 369.418762207031 389.193756103516 399.112487792969 401.112487792969 404.056243896484 405.90625 399.549987792969 391.725006103516 383.78125 374.799987792969 366.549987792969 351.162506103516 348.912506103516 
259.612487792969 259.8125 262.075012207031 264.831268310547 269.431243896484 275.243743896484 280.924987792969 285.4375 291.668731689453 297.418762207031 303.612487792969 310.493743896484 318.443756103516 323.681243896484 307.631256103516 283.78125 263.424987792969 250.587493896484 242.818756103516 240.056243896484 245.056243896484 249.993743896484 255.268753051758 259.387512207031 264.212493896484 269.356262207031 275.274993896484 283.412506103516 290.4375 295.587493896484 293.40625 284.325012207031 268.912506103516 251.112503051758 239.5 256.15625 289.9375 323.787506103516 352.443756103516 372.418762207031 382.024993896484 383.456237792969 389.887512207031 394.15625 389.931243896484 383.381256103516 375.25 365.725006103516 356.131256103516 341.881256103516 340.075012207031 
250.256256103516 252.587509155273 255.568756103516 258.931243896484 264.881256103516 270.587493896484 276.881256103516 283.09375 289.256256103516 294.256256103516 297.918762207031 303.6875 310.481231689453 315.774993896484 301.512512207031 279.193756103516 260.28125 246.381256103516 239.512496948242 234.818756103516 239.581253051758 244.8125 248.9375 254.318756103516 260.375 267.037506103516 273.649993896484 280.112487792969 287.506256103516 293.193756103516 292.206237792969 284.731262207031 268.862487792969 247.9375 228.975006103516 250.318756103516 287.581237792969 320.375 346.287506103516 364.4375 374.725006103516 378.924987792969 383.243743896484 385.931243896484 382.168762207031 376.693756103516 369.087493896484 359.6875 346.856262207031 336.262512207031 330.556243896484 
239.887496948242 243.893753051758 247.856246948242 253.4375 259.09375 265.831237792969 272.762512207031 279.59375 285.8125 288.674987792969 289.087493896484 289.712493896484 290.706237792969 289.868743896484 282.75 269.450012207031 255.8125 244.793746948242 236.975006103516 231.9375 232.774993896484 235.643753051758 240.381240844727 245.662506103516 252.518753051758 260.850006103516 269.1875 276.931243896484 285.96875 293.362487792969 295.987487792969 290.081237792969 277.600006103516 264.037506103516 256.493743896484 272.78125 301.75 327.987487792969 348.006256103516 362.381256103516 372.5 377.15625 380.318756103516 381.625 378.399993896484 372.96875 365.206237792969 354.850006103516 341.225006103516 332.549987792969 322.412506103516 
232.956253051758 238.581253051758 242.231246948242 247.975006103516 253.587493896484 261.681243896484 267.862487792969 275.431243896484 282.243743896484 281.787506103516 277.96875 273.34375 268.875 266.950012207031 265.024993896484 258.381256103516 249.056243896484 240.824996948242 233.043746948242 226.524993896484 226.112503051758 226.706253051758 229.068756103516 234.274993896484 242.606246948242 252.71875 261.975006103516 271.350006103516 282.537506103516 292.287506103516 298.8125 299.862487792969 290.706237792969 283.837493896484 286.712493896484 304.193756103516 325.03125 342.606262207031 355.537506103516 363.456237792969 370.825012207031 374.606262207031 376.862487792969 377.84375 375.15625 370.3125 362.381256103516 351.049987792969 338.5 330.012512207031 319.206237792969 
227.725006103516 232.550003051758 236.6875 241.331253051758 247.418746948242 255.787506103516 263.399993896484 269.899993896484 275.662506103516 273.331237792969 268.318756103516 261.9375 252.762496948242 253.024993896484 253.90625 250.125 243.618743896484 237.568756103516 230.3125 223.287506103516 220.856246948242 219.443756103516 219.706253051758 224.556243896484 233.006256103516 241.881256103516 253.21875 264.84375 276.637512207031 288.168762207031 297.193756103516 301.28125 298.131256103516 297.618743896484 305.931243896484 326.21875 343.21875 351.924987792969 358.993743896484 364.168762207031 370.200012207031 372.6875 375.381256103516 377.774993896484 377.112487792969 371.412506103516 361.506256103516 346.475006103516 339.600006103516 329.637512207031 319.09375 
226.543746948242 228.862503051758 232.350006103516 237.449996948242 244.387496948242 251.024993896484 258.012512207031 263.581237792969 266.325012207031 265.174987792969 261.268737792969 256.100006103516 251.112503051758 249.568756103516 248.09375 245.506256103516 241.256256103516 235.6875 228.6875 221.274993896484 217.431243896484 213.300003051758 210.71875 214.012496948242 221.368743896484 233.293746948242 244.662506103516 257.943756103516 270.274993896484 281.493743896484 290.087493896484 295.162506103516 298.068756103516 302.375 311.75 327.068756103516 341.225006103516 349.087493896484 355.456237792969 361.006256103516 367.049987792969 369.78125 373.774993896484 379.049987792969 377.331237792969 371.862487792969 359.087493896484 349.799987792969 340.9375 334.46875 325.443756103516 
231.100006103516 231.5 232.8125 236.975006103516 242.762496948242 248.71875 253.612503051758 257.975006103516 259.8125 259.225006103516 256.581237792969 253.6875 251.46875 249.037506103516 247.21875 244.125 240.34375 234.975006103516 228.824996948242 221.212493896484 215.287506103516 208.1875 202.287506103516 202.793746948242 212.043746948242 225.012496948242 239.137496948242 251.662506103516 264.375 274.131256103516 281.956237792969 288.143737792969 293.65625 300.15625 309.112487792969 321.681243896484 333.618743896484 342.418762207031 347.899993896484 354.475006103516 361.362518310547 365.337493896484 369.53125 375.96875 377.78125 373.037506103516 366.78125 358.450012207031 348.21875 344.956237792969 337.387512207031 
238.787506103516 237.512496948242 237.487503051758 240.850006103516 244.287506103516 247.837493896484 251.875 254 255.637496948242 256.318756103516 255.59375 253.949996948242 252.918746948242 251.600006103516 249.318756103516 247.03125 243.162506103516 238.149993896484 231.681243896484 223.662506103516 216.237503051758 207.949996948242 199.231246948242 197.649993896484 208.875 221.925003051758 235.40625 247.837493896484 259.1875 268.424987792969 276.537506103516 281.912506103516 287.987487792969 296.712493896484 303.649993896484 315.03125 325.806243896484 333.356231689453 340.262512207031 346.887512207031 353.581237792969 357.706237792969 362.3125 369.018737792969 375.975006103516 378.725006103516 376.818756103516 370.600006103516 364.306243896484 354.71875 349.450012207031 
247.287506103516 243.837493896484 243.399993896484 244.731246948242 246.043746948242 247.387496948242 250.431243896484 253.037506103516 254.34375 255.71875 255.356246948242 254.600006103516 253.993743896484 253.162506103516 251.699996948242 250.074996948242 246.53125 242.912506103516 236.399993896484 229.012496948242 221.556243896484 212.850006103516 206.350006103516 205.643753051758 212.306243896484 222.962493896484 234.737503051758 246.149993896484 256.337493896484 265.0625 272.631256103516 278.90625 286.237487792969 292.137512207031 297.993743896484 308.393737792969 316.837493896484 325.168762207031 331.806243896484 337.96875 344.75 350.399993896484 355.868743896484 364.856262207031 376.375 383.212493896484 386.362487792969 382.668762207031 376.637512207031 366.075012207031 359.293762207031 
254.512496948242 250.393753051758 248.299987792969 248.168746948242 248.4375 248.5625 250.387496948242 251.981246948242 253.818756103516 255.637496948242 255.862503051758 255.5 254.962493896484 255.581253051758 255.068756103516 254.774993896484 252.856246948242 248.71875 243.856246948242 236.456253051758 229.231246948242 220.543746948242 215.524993896484 215.324996948242 218.768753051758 225.949996948242 236.337493896484 246.3125 256.512512207031 264.431243896484 270.487487792969 277.081237792969 282.6875 287.774993896484 293.506256103516 301.674987792969 310.368743896484 318.274993896484 326.46875 331.462493896484 335.318756103516 340.587493896484 350.043762207031 363.987487792969 379.012512207031 388.318756103516 392.84375 392.637512207031 386.412506103516 377.993743896484 368.25 
262.768737792969 257.012512207031 253.887496948242 252 251.78125 251.481246948242 251.925003051758 252.8125 253.987503051758 256.181243896484 257.368743896484 258.299987792969 258.787506103516 260.200012207031 260.5625 259.518737792969 258.625 256.793762207031 252.543746948242 244.837493896484 236.862503051758 229.356246948242 224.637496948242 223.9375 226.006256103516 231.493743896484 240.125 248.550003051758 257.375 263.875 270.381256103516 276.556243896484 280.668762207031 285.25 289.512512207031 297.225006103516 304.018737792969 311.774993896484 317.737487792969 322.25 329.706237792969 337.375 346.306243896484 361.118743896484 370.149993896484 383.675018310547 393.575012207031 394.625 390.368743896484 384.362487792969 375.03125 
269.012512207031 262.71875 257.637512207031 255.0625 253.274993896484 253.087493896484 253.175003051758 253.943756103516 255.137496948242 256.987487792969 260.106262207031 262.399993896484 264.431243896484 265.181243896484 265.137512207031 265.212493896484 265 264.206237792969 261.518737792969 253.731246948242 245.262496948242 237.1875 231.856246948242 230.856246948242 232.28125 236.837493896484 243.96875 251.587493896484 259.1875 264.774993896484 270.487487792969 276.243743896484 280.78125 284.875 288.725006103516 293.725006103516 299.799987792969 307.25 312.081237792969 315.287506103516 323.331237792969 333.875 343.868743896484 354.274993896484 363.456237792969 382.075012207031 395.018737792969 397.818756103516 394.125 386.731262207031 378.837493896484 
271.575012207031 265.393737792969 260.287506103516 257.350006103516 254.53125 253.574996948242 253.8125 253.487503051758 254.712493896484 257.850006103516 261.318756103516 264.84375 268.09375 270.331237792969 270.543731689453 271.412506103516 269.299987792969 267.850006103516 265.049987792969 259.149993896484 251.418746948242 244.168746948242 238.037506103516 237.074996948242 238.574996948242 241.887496948242 247.662506103516 254.331253051758 261.137512207031 266.924987792969 272.1875 277 280.96875 284.162506103516 287.612487792969 291.831237792969 297.09375 302.556243896484 306.100006103516 312.0625 322.368743896484 332.712493896484 342.181243896484 353.006256103516 364.137512207031 386.46875 400.950012207031 402.5 396.125 388.137512207031 378.556243896484 
273.100006103516 267.756256103516 263.399993896484 259.893737792969 256.212493896484 254.768753051758 253.643753051758 253.3125 255.15625 258.875 264.274993896484 268.225006103516 273.15625 276.700012207031 277.212493896484 276.318756103516 273.681243896484 272.46875 268.356262207031 263.131256103516 257.043762207031 250.106246948242 244.40625 242.787506103516 243.800003051758 246.350006103516 251.112503051758 257.637512207031 263.868743896484 268.78125 274.3125 278.512512207031 281.149993896484 284.256256103516 287.568756103516 291.931243896484 296.043762207031 299.068756103516 301.575012207031 309.731262207031 318.649993896484 327.8125 337.850006103516 349.587493896484 366.731231689453 390.756256103516 401.893737792969 396.575012207031 388.131256103516 379.818756103516 369.25 
275.09375 269.618743896484 265.262512207031 262.112487792969 258.100006103516 255.387496948242 253.681243896484 253.118743896484 253.612503051758 257.59375 264.075012207031 270.743743896484 278.106262207031 282.256256103516 282.84375 281.518737792969 278.443756103516 276.25 272.018737792969 266.987487792969 260.924987792969 254.287506103516 249.399993896484 247.306243896484 247.875 249.706253051758 254.056243896484 259.549987792969 265.71875 271.162506103516 276.674987792969 280.918762207031 283.712493896484 285.681243896484 287.15625 291.112487792969 294.081237792969 296.350006103516 298.787506103516 304.837493896484 311.024993896484 319.568756103516 331.143737792969 343.225006103516 360.743743896484 380.831237792969 388.731262207031 382.337493896484 373.856262207031 365.475006103516 357.193756103516 
276.65625 272.225006103516 268.024993896484 263.575012207031 259.918762207031 256.737487792969 253.337493896484 251.324996948242 250.6875 254.137496948242 262.762512207031 273.575012207031 284.118743896484 289.737487792969 289.34375 287.049987792969 282.575012207031 279.25 275.612487792969 270.024993896484 265.056243896484 258.231262207031 253.106246948242 250.231246948242 250.725006103516 251.53125 256.09375 261.71875 267.612487792969 273.456237792969 278.399993896484 283.975006103516 285.875 287.375 287.862487792969 289.737487792969 291.056243896484 294.712493896484 296.512512207031 298.399993896484 302.393737792969 308.443756103516 317.918762207031 328.643737792969 342.75 355.506256103516 362.0625 360.568756103516 354.981262207031 348.868743896484 343.21875 
278.318756103516 275.037506103516 270.912506103516 266.106262207031 261.881256103516 258.856262207031 254.71875 251.118743896484 248.762496948242 251.206253051758 261.606262207031 275.799987792969 289.881256103516 297.631256103516 296.53125 292.96875 288.149993896484 284 278.393737792969 273.40625 268.100006103516 262.412506103516 256.762512207031 254.725006103516 254.3125 255.193740844727 259.443756103516 265.787506103516 271.368743896484 276.768737792969 282.581237792969 288.193756103516 289.987518310547 290.731262207031 289.243743896484 288.725006103516 290.899993896484 291.450012207031 291.299987792969 293.149993896484 296.712493896484 300.012512207031 305.518737792969 314.081237792969 323.068756103516 330.325012207031 335.193756103516 336.512512207031 334.462493896484 330.662506103516 326.918762207031 
281.25 278.59375 274.012512207031 271.018737792969 266.612487792969 262.956237792969 258.25 253.324996948242 248.412506103516 244.743743896484 259.975006103516 282.350006103516 296.59375 303.137512207031 302.487487792969 297.9375 292.299987792969 287.456237792969 282.456237792969 276.231262207031 270.350006103516 264.268737792969 259.012512207031 257.21875 256.793762207031 258.274993896484 262.4375 268.143737792969 274.287506103516 279.862487792969 285.9375 291.524993896484 293.431243896484 293.318756103516 291.524993896484 290.899993896484 289.493743896484 288.024993896484 286.806243896484 286.587493896484 287.325012207031 289.206237792969 292.524993896484 297.756256103516 303.225006103516 306.543762207031 310.774993896484 313.212493896484 311.993743896484 310.356262207031 310.068756103516 
284.549987792969 282.543762207031 278.71875 275.649993896484 272.375 268.475006103516 264.237487792969 259.8125 256.487487792969 250.899993896484 276.243743896484 300.331237792969 308.549987792969 310.856262207031 308.693756103516 303.018737792969 295.075012207031 290.012512207031 283.625 276.325012207031 270.662506103516 264.237487792969 259.737487792969 258.206237792969 258.59375 260.518737792969 264.399993896484 270.375 276.606262207031 283.34375 288.587493896484 294.512512207031 295.8125 295.674987792969 292.924987792969 291.15625 288.075012207031 285.143737792969 282.606262207031 280.368743896484 278.506256103516 278.731262207031 278.993743896484 280.84375 284.075012207031 286.918762207031 289.637512207031 292.768737792969 293.018737792969 293.243743896484 295.056243896484 
290.787506103516 287.100006103516 283.100006103516 281.387512207031 278.212493896484 275.59375 274.049987792969 273.350006103516 276.225006103516 289.78125 318.612487792969 322.975006103516 321.606262207031 320.256256103516 316.318756103516 308.350006103516 299.875 292.90625 284.512512207031 276.287506103516 269.256256103516 262.825012207031 259.450012207031 257.931243896484 258.774993896484 262.112487792969 266.512512207031 272.78125 279.712493896484 286.168762207031 292.737487792969 297.962493896484 298.787506103516 298.737487792969 298.549987792969 295.643737792969 290.918762207031 287.681243896484 283.725006103516 278.868743896484 276.362487792969 275.25 275.1875 276.149993896484 278.8125 282.09375 284.487487792969 287.28125 288.581237792969 291.34375 293.856262207031 
297.743743896484 292.6875 289.131256103516 286.706237792969 284.375 283.59375 283.412506103516 287.006256103516 294.006256103516 308.575012207031 325.09375 330.893737792969 331.543762207031 329.28125 323.506256103516 315.287506103516 305.731262207031 296.856262207031 286.268737792969 276.956237792969 267.387512207031 260.5 256.524993896484 255.668746948242 258.631256103516 262.618743896484 268.100006103516 275 282.693756103516 289.100006103516 294.768737792969 301.787506103516 305.049987792969 304.931243896484 303.299987792969 299.837493896484 293.924987792969 288.5625 284.243743896484 278 274.09375 272.943756103516 272.243743896484 271.743743896484 274.806243896484 278.568756103516 281.975006103516 286.59375 289.106262207031 293.362487792969 296.806243896484 
305.350006103516 298.668762207031 295.799987792969 292.868743896484 291.106262207031 289.924987792969 292.131256103516 298.056243896484 305.606262207031 317.600006103516 328.806243896484 333.912506103516 337.625 336.299987792969 330.71875 322.768737792969 312.3125 302.375 290.0625 276.768737792969 264.668762207031 256.03125 251.818756103516 252.743743896484 257.518737792969 262.787506103516 269.037506103516 277.274993896484 285.125 292.100006103516 299.424987792969 307.950012207031 310.618743896484 311.024993896484 308.375 303.475006103516 297.106262207031 290.037506103516 284.993743896484 276.793762207031 272.081237792969 269.475006103516 267.387512207031 268.325012207031 271.837493896484 276.15625 280.068756103516 284.637512207031 289.774993896484 295.424987792969 300.649993896484 
315.768737792969 307.756256103516 303.40625 299.1875 296.506256103516 296.362487792969 298.4375 304.481262207031 311.606262207031 321.368743896484 331.293762207031 337.231262207031 340.743743896484 341.424987792969 336.21875 328.350006103516 318.575012207031 308.549987792969 295.268768310547 277.106262207031 260.581237792969 248.65625 244.837493896484 247.675003051758 254.350006103516 261.450012207031 268.737487792969 276.9375 286.75 295.193756103516 301.53125 311.799987792969 314.8125 316.518737792969 315.700012207031 308.825012207031 302.193756103516 295.681243896484 288.881256103516 280.725006103516 274.475006103516 269.331237792969 266.068756103516 268.924987792969 272.981231689453 277.262512207031 280.831237792969 285.450012207031 291.362487792969 297.424987792969 304.399993896484 
326.8125 317.456237792969 311.243743896484 304.731262207031 301.037506103516 300.5 302.700012207031 307.543762207031 314.256256103516 323.131256103516 334.493743896484 340.393737792969 344.362487792969 345.350006103516 341.537506103516 335.006256103516 325.9375 316.15625 302.087493896484 279.318756103516 256.831237792969 238.393753051758 236.65625 243.425003051758 252.125 261.174987792969 269.056243896484 276.825012207031 286.918762207031 296.850006103516 305.868743896484 313.737487792969 318.118743896484 320.149993896484 320.581237792969 317.475006103516 308.893737792969 301.043762207031 292.543762207031 284.793762207031 278.5625 273.543762207031 270.162506103516 271.0625 275.168762207031 278.606262207031 282.4375 286.993743896484 292.918762207031 299.618743896484 308.149993896484 
337.331237792969 327.043762207031 317.149993896484 309.268737792969 304.674987792969 303.112487792969 304.075012207031 308.612487792969 316.131256103516 324.337493896484 335.418762207031 343.662506103516 347.9375 349.987487792969 348.40625 341.9375 332.581237792969 322.537506103516 310.506256103516 286 259.331237792969 237.050003051758 235.9375 242.5625 251.443756103516 261.193756103516 269.612487792969 277.924987792969 287.293762207031 297.71875 307.59375 317.206237792969 321.700012207031 323.424987792969 324.725006103516 323.975006103516 315.600006103516 306.256256103516 297.456237792969 289.737487792969 283.162506103516 279.068756103516 276.34375 276.1875 278.575012207031 281 284.537506103516 287.743743896484 291.643737792969 299.387512207031 310.293762207031 
348.075012207031 336.387512207031 323.893737792969 315.587493896484 309.362487792969 306.612487792969 305.231262207031 307.90625 315.40625 325.34375 336.875 346.6875 352.450012207031 356.274993896484 354.631256103516 347.462493896484 337.737487792969 325.637512207031 311.200012207031 289.037506103516 266.96875 251.743743896484 245.100006103516 247.71875 255.024993896484 262.806243896484 270.868743896484 278.543762207031 287.693756103516 297.556243896484 307.268737792969 316.549987792969 321.25 322.731262207031 323.1875 323.943756103516 316.943756103516 307.768737792969 299.987487792969 293.943756103516 287.700012207031 284.299987792969 281.618743896484 279.75 281.6875 283.756256103516 285.268737792969 287.1875 288.112487792969 294.743743896484 307.399993896484 
