ncols        51
nrows        45
xllcorner    -63.500000000000
yllcorner    -7.500000000000
cellsize     0.166666666667
NODATA_value -99
111.587501525879 103.75 97.9437484741211 94.3312530517578 90.15625 89.6687469482422 88.34375 85.8062515258789 84.4437484741211 84.3937530517578 85.2937469482422 86.8499984741211 87.7874984741211 86.59375 86.9124984741211 88.4749984741211 90.09375 89.8375015258789 93.6062469482422 97.4312515258789 101.974998474121 107.737503051758 113.768753051758 119.737503051758 127.375 134.556243896484 142.418746948242 151.649993896484 162.03125 171.71875 182.3125 193.387496948242 203.306243896484 215.399993896484 225.931243896484 235.712493896484 242.25 247.074996948242 250.699996948242 253.393753051758 254.90625 255.668746948242 254.931243896484 254.975006103516 257.337493896484 256.0625 255.837493896484 256.34375 257.768737792969 261.237487792969 261.637512207031 
118.443748474121 109.768753051758 104.525001525879 100.337501525879 97.0999984741211 97.2249984741211 96.40625 95.78125 96.2624969482422 96.96875 97.25 97.6437530517578 97.375 97.2375030517578 97.0999984741211 97.4187469482422 97.875 99.15625 102.78125 107.962501525879 113.974998474121 120.324996948242 127.581253051758 135.481246948242 142.824996948242 150.274993896484 158.793746948242 167.693756103516 177.09375 188.425003051758 199.537506103516 210.425003051758 220.518753051758 234.306243896484 244.668746948242 251.837493896484 261.131256103516 266.075012207031 268.21875 269.950012207031 271.762512207031 271.774993896484 269 268.018737792969 268.975006103516 267.462493896484 267.049987792969 267.268737792969 268.193756103516 269.537506103516 269.012512207031 
125.262496948242 117.181251525879 112.65625 109.5 107.368751525879 108.162498474121 108.949996948242 110.106246948242 111.537498474121 112.775001525879 112.96875 112.518753051758 111.90625 110.612503051758 109.662498474121 108.449996948242 108.256248474121 109.625 112.762496948242 118.962501525879 126.512496948242 135.199996948242 143.675003051758 151.84375 159.956253051758 167.931243896484 176.725006103516 185.53125 193.587493896484 203.800003051758 216.212493896484 228.131240844727 240.212493896484 250.074996948242 262.5 269.581237792969 277.862518310547 284.362487792969 286.09375 286.356262207031 288.424987792969 286.850006103516 283.825012207031 281.293762207031 279.200012207031 277.393768310547 276.331237792969 276.825012207031 275.71875 276.674987792969 274.84375 
131.175003051758 123.900001525879 122.056251525879 120.268753051758 120.150001525879 119.9375 122.474998474121 125.956253051758 129.40625 132.056243896484 131.381256103516 129.550003051758 127.662498474121 125.462501525879 123.818748474121 121.631248474121 119.787498474121 119.650001525879 123.362503051758 131.5 142.03125 152.331253051758 160.300003051758 169.987503051758 179.456253051758 188.493743896484 197.625 204.143753051758 211.65625 222.1875 233.981246948242 247.581253051758 258.887512207031 269.043762207031 279.243743896484 288.481262207031 295.28125 302.106262207031 304.34375 305.78125 304.831237792969 303.556243896484 299.668762207031 294.631256103516 291.25 288.475006103516 287.306243896484 285.024993896484 283.912506103516 282.456237792969 278.931243896484 
141.712493896484 133.037506103516 130.868743896484 131.018753051758 131.862503051758 133.600006103516 136.149993896484 141.381256103516 147.5625 152.081253051758 150.137496948242 147.118743896484 145.043746948242 142.75 140.21875 136.918746948242 133.443756103516 130.78125 136.212493896484 147.087493896484 160.287506103516 171.149993896484 180.256256103516 190.181243896484 200.131256103516 211.306243896484 217.3125 223.21875 232.756256103516 242.662506103516 254.25 264.012512207031 276.856262207031 288.956237792969 299.393737792969 307.868743896484 316.206237792969 320.200012207031 322.381256103516 322.825012207031 324.087493896484 320.256256103516 315.9375 308.950012207031 303.662506103516 300.962493896484 297.756256103516 294.118743896484 290.568756103516 287.856262207031 282.28125 
150.149993896484 142.893753051758 141.074996948242 140.550003051758 141.543746948242 144.112503051758 147.787506103516 152.731246948242 159.456253051758 165.375 163.481246948242 161.806243896484 160.206253051758 158.881256103516 156.193756103516 154.90625 151.40625 148.768753051758 156.731246948242 168.762496948242 181.28125 191.65625 202.050003051758 210.743743896484 221.056243896484 231.731246948242 238.074996948242 243.28125 251.506256103516 262.506256103516 272.706237792969 282.668762207031 292.174987792969 304.206237792969 317.575012207031 324.962493896484 332.03125 337.018737792969 339.3125 341.1875 339.131256103516 335.712493896484 329.774993896484 322.606262207031 316.381256103516 310.6875 306.200012207031 301.53125 297.40625 291.59375 281.237487792969 
158.71875 152.537506103516 151.431243896484 149.962493896484 149.75 151.300003051758 154.925003051758 159.3125 164.193756103516 167.925003051758 171.375 173.293746948242 175.368743896484 176.1875 175.787506103516 176.481246948242 177.506256103516 181.887496948242 190.512496948242 198.537506103516 205.362503051758 214.75 222.418746948242 231.243743896484 242.274993896484 251.837493896484 257.881256103516 263.481262207031 269.756256103516 279.875 291.875 301.75 309.924987792969 319.568756103516 330.612487792969 340 346.725006103516 352.8125 357.981262207031 357.168762207031 353.450012207031 349.131256103516 342.993743896484 335.787506103516 328.418762207031 323.850006103516 317.762512207031 309.387512207031 301.537506103516 293.456237792969 285.643737792969 
168.487503051758 161.243743896484 159.987503051758 159.375 158.837493896484 160.818756103516 162.581253051758 162.649993896484 163.806243896484 169.987503051758 178.743743896484 185.362503051758 191.100006103516 193.712493896484 196.462493896484 199.75 205.168746948242 214.962493896484 227.725006103516 230.143753051758 231 237.03125 243.725006103516 252.837493896484 264.350006103516 273.125 277.78125 282.443756103516 290.0625 300.331237792969 309.875 319.643737792969 326.768737792969 335.131256103516 344.46875 353.137512207031 360.375 366.637512207031 370.368743896484 371.606262207031 369.506256103516 365.181243896484 359.106231689453 350.850006103516 344.756256103516 340.21875 332.587493896484 319.662506103516 308.25 298.181243896484 284.862487792969 
177.606246948242 170.931243896484 170 168.649993896484 168.625 169.5625 170.568756103516 170.462493896484 169.53125 174.018753051758 187.78125 197.831253051758 206.71875 211.425003051758 215.649993896484 219.975006103516 226.068756103516 236.725006103516 248.71875 249.625 248.118743896484 254.181243896484 260.46875 272.737487792969 283.825012207031 292.018737792969 296.287506103516 299.131256103516 306.424987792969 316.806243896484 326.818756103516 333.587493896484 340.212493896484 346.612487792969 354.475006103516 361.600006103516 369.862487792969 376.106262207031 380.018737792969 382.193756103516 380.274993896484 376.081237792969 373.543762207031 368.387512207031 361.556243896484 355.537506103516 346.575012207031 331.206237792969 314.475006103516 299.5625 287.668762207031 
186.675003051758 180.731246948242 178.90625 178.087493896484 178.443756103516 180.0625 181.418746948242 183.0625 185.762496948242 193.375 205.09375 215.431243896484 224.418746948242 230.237503051758 234.806243896484 239.331253051758 243.693756103516 250.725006103516 256.768737792969 259.181243896484 259.793762207031 266.84375 275.543762207031 290.774993896484 300.524993896484 307.481262207031 311.393737792969 314.712493896484 320.100006103516 329.46875 337.825012207031 344.606262207031 351.381256103516 358.03125 365.418762207031 370.981262207031 377.612487792969 384.149993896484 388.143737792969 390.899993896484 392.356262207031 389.649993896484 387.268737792969 381.1875 376.15625 373.706237792969 361.600006103516 342.475006103516 322.75 306.381256103516 289.637512207031 
196.862503051758 191.731246948242 189.193756103516 188.081253051758 187.90625 190.5625 193.418746948242 198.206253051758 204.21875 213.668746948242 226.925003051758 237.518753051758 244.287506103516 249.112503051758 252.668762207031 255.662506103516 257.46875 260.643737792969 262.600006103516 263.512512207031 268.174987792969 276.174987792969 289.5625 303.231262207031 317.037506103516 321.962493896484 324.424987792969 327.5 331.981262207031 338 345.424987792969 352.75 360.043762207031 366.950012207031 373.412506103516 379.868743896484 385.518737792969 389.950012207031 395.587493896484 400.162506103516 402.350006103516 398.725006103516 397.137512207031 392.575012207031 387.962493896484 389.981262207031 372.899993896484 345.787506103516 325.600006103516 309.356262207031 292.762512207031 
205.431243896484 200.487503051758 198.556243896484 198.675003051758 199.212493896484 201.9375 206.399993896484 214.356246948242 222.868743896484 233.318756103516 247.793746948242 261.0625 265.668762207031 268.100006103516 270.350006103516 270.575012207031 270.975006103516 269.700012207031 269.481262207031 267.71875 271.262512207031 281.037506103516 298.725006103516 317.887512207031 329.268737792969 329.375 331.106262207031 333.606262207031 338.700012207031 346.225006103516 353.09375 358.962493896484 366.106262207031 372.71875 379.149993896484 385.418762207031 390.962493896484 394.71875 400.362487792969 406.100006103516 408.799987792969 405.081237792969 398.956237792969 391.912506103516 384.181243896484 374.399993896484 355.375 338.049987792969 321.649993896484 311.768737792969 294.131256103516 
215.068756103516 210.943756103516 209.675003051758 209.681243896484 210.512496948242 215.475006103516 221.125 228.962493896484 239.018753051758 251.206253051758 266.112487792969 280.0625 285.362487792969 284.081268310547 285.225006103516 284.681243896484 282.837493896484 281.618743896484 279.262512207031 275.28125 272.481262207031 284.649993896484 305.737487792969 321.28125 324.975006103516 326.162506103516 333.306243896484 340.043762207031 345.575012207031 353.481262207031 360 364.768737792969 370.34375 376.268737792969 382.15625 387.956237792969 392.337493896484 395.6875 400.631256103516 406.368743896484 411.274993896484 406.162506103516 392.256256103516 378.481262207031 368.387512207031 361.793762207031 348 328.03125 315.299987792969 308.737487792969 299.193756103516 
223.181243896484 220.268753051758 219.493743896484 220.018753051758 221.806243896484 226.193756103516 232.993743896484 243.287506103516 254.256256103516 267.15625 279.975006103516 291.78125 296.287506103516 297.78125 296.799987792969 297.100006103516 294.212493896484 293.331237792969 289.918762207031 286.643737792969 287.568756103516 298.306243896484 312.806243896484 324.081237792969 326.475006103516 330.381256103516 337.84375 344.825012207031 352.975006103516 359.956237792969 365.9375 370.068756103516 374.09375 377.90625 383.774993896484 388.375 392.837493896484 397.049987792969 400.087493896484 402.8125 403.006256103516 387.662506103516 375.818756103516 368.600006103516 362.931243896484 353.243743896484 342.9375 331.193756103516 317.181243896484 309.524993896484 303.893737792969 
229.862503051758 227.412506103516 227.71875 228.925003051758 232.268753051758 237.899993896484 246.362503051758 256.325012207031 267.087493896484 278.662506103516 291.475006103516 301.681243896484 307.475006103516 310.293762207031 309.1875 308.53125 305.537506103516 302.943756103516 300.587493896484 300.09375 303.84375 311.299987792969 323.237487792969 330.443756103516 336.087493896484 341.137512207031 346.90625 354.137512207031 361.012512207031 368.337493896484 372.46875 373.487487792969 378.21875 380.118743896484 383.78125 386.356262207031 391.256256103516 396.643737792969 397.518768310547 388.462493896484 374.487487792969 365.912506103516 364.5625 362.71875 354.618743896484 346.693756103516 336.981262207031 329.112487792969 322.193756103516 311.006256103516 301 
235.3125 232.962493896484 234.231246948242 236.268753051758 240.668746948242 247.34375 256.731262207031 266.881256103516 276.850006103516 288.912506103516 301.549987792969 311.868743896484 318.581237792969 322.100006103516 322.125 317.825012207031 315.618743896484 313.556243896484 310.762512207031 311.299987792969 318.868743896484 327.293762207031 337.112487792969 342.237487792969 346.493743896484 351.056243896484 355.0625 363.299987792969 371.293762207031 378.837493896484 381.881256103516 380.299987792969 378.831237792969 378.831237792969 379.71875 384.975006103516 390.075012207031 393.149993896484 390.53125 376.012512207031 355.149993896484 349.987487792969 353.537506103516 352.325012207031 346.131256103516 339.8125 332.700012207031 324.962493896484 315.962493896484 307.75 296.831237792969 
238.743743896484 237.15625 238.449996948242 241.806243896484 247.637496948242 255.193756103516 265.53125 276.018737792969 286.3125 297.5625 310.762512207031 322.350006103516 329.756256103516 333.887512207031 334.40625 330.868743896484 321.931243896484 319.318756103516 319.243743896484 323.337493896484 331.737487792969 341.943756103516 351.0625 353.556243896484 357.862487792969 360.049987792969 362.300018310547 370.237487792969 380.693756103516 389.393737792969 393.087493896484 389.506256103516 383.381256103516 378.018737792969 380.643737792969 385.75 388.737487792969 393.5 395.287506103516 375.018737792969 353.681243896484 346.793762207031 345.131256103516 344.118743896484 338.787506103516 333.5625 326.450012207031 319.056243896484 312.600006103516 304.21875 295.581237792969 
241.606246948242 240.324996948242 242.149993896484 246.824996948242 252.793746948242 261.818756103516 272.918762207031 283.987487792969 294.174987792969 305.78125 317.262512207031 331.40625 340.518737792969 345.368743896484 345.325012207031 339.762512207031 330.018737792969 322.662506103516 327.200012207031 332.625 343.84375 354.1875 362.618743896484 363.799987792969 365.587493896484 367.706237792969 367.006256103516 377.012512207031 390.618743896484 401.03125 401.768737792969 387.493743896484 379.337493896484 375.606231689453 375.174987792969 379.443756103516 386.975006103516 392.081237792969 389.337493896484 377.081237792969 356.706237792969 345.612487792969 340.631256103516 338.268737792969 333.068756103516 328.081237792969 322.212493896484 315.443756103516 309.950012207031 299.806243896484 293.325012207031 
241.5 240.868743896484 243.837493896484 250.050003051758 257.506256103516 267.53125 277.837493896484 290.424987792969 301.28125 312.818756103516 323.931243896484 335.818756103516 347.443756103516 357.40625 355.362487792969 345.731262207031 333.587493896484 325.53125 325.799987792969 334.899993896484 351.100006103516 364.818756103516 367.012512207031 370.243743896484 371.825012207031 374.975006103516 377.993743896484 384.96875 398.606262207031 409.46875 410.825012207031 390.399993896484 376.393737792969 363.674987792969 359.375 368.0625 378.712493896484 383.8125 385.087493896484 375.162506103516 358.46875 344.637512207031 336.8125 333.549987792969 328.131256103516 322.693756103516 318.612487792969 313.693756103516 307.34375 294.293762207031 292.587493896484 
240.53125 240.137496948242 244.068756103516 249.9375 258.799987792969 271.193756103516 283.006256103516 294.84375 305.53125 316.700012207031 326.743743896484 338.943756103516 354.46875 369.856262207031 362.524993896484 345.087493896484 329.706237792969 326.612487792969 328.299987792969 336.274993896484 349.237487792969 359.012512207031 368.518737792969 371.65625 374.537506103516 380.212493896484 383.481262207031 390.90625 398.149993896484 401.962493896484 398.59375 381.350006103516 363.899993896484 345.762512207031 337.618743896484 349.362487792969 368.993743896484 383.0625 385.956268310547 378.3125 362.162506103516 344.237487792969 336.612487792969 331.78125 325.637512207031 320.987487792969 316.40625 310.481262207031 304.125 293.362487792969 292.206237792969 
236.5625 237.237503051758 243 251.231246948242 260.243743896484 273.325012207031 287.868743896484 300.299987792969 310.34375 317.96875 324.706237792969 332.893737792969 344.5 357.256256103516 352.137512207031 335.825012207031 325.15625 321.868743896484 326.106262207031 330.90625 344.518737792969 357.318756103516 367.568756103516 373.493743896484 379.512512207031 385.581237792969 387.268737792969 389.081237792969 389.987487792969 389.131256103516 379.662506103516 365.200012207031 349.137512207031 333.018737792969 319.106262207031 338.5625 369.493743896484 390.90625 396.462493896484 388.268737792969 371.337493896484 354.356262207031 342.418762207031 333.256256103516 326.193756103516 321.1875 316.868743896484 311.768737792969 302.53125 295.606262207031 292.587493896484 
233.524993896484 233.0625 239.1875 249.068756103516 260.8125 274.875 289.71875 304.600006103516 314.824981689453 317.949981689453 318.637512207031 317.34375 319.631256103516 325.899993896484 327.806243896484 323.081237792969 321.050018310547 321.612487792969 324.981262207031 330.375 339.037506103516 350.212493896484 361.737487792969 368.762512207031 376.100006103516 384.131256103516 389.59375 388.787506103516 385.418762207031 378.681243896484 364.174987792969 348.96875 339.674987792969 335.112487792969 334.431243896484 352.606262207031 384.287506103516 410.181243896484 415.618743896484 403.368743896484 382.899993896484 363.299987792969 348.637512207031 337.018737792969 328.149993896484 322.412506103516 317.125 312.331237792969 303.899993896484 300.618743896484 295.03125 
230.831253051758 230.481246948242 235.362503051758 245.512496948242 259.206237792969 275.700012207031 291.40625 307.46875 320.09375 318.106262207031 309.737487792969 298.412506103516 291.993743896484 296.143737792969 305.5625 311.231262207031 313.799987792969 317.356262207031 321.462493896484 326.318756103516 334.418762207031 343.125 351.856262207031 358.725006103516 369.118743896484 381 388 386.356262207031 379.981262207031 367.575012207031 351.149993896484 337.581237792969 338.799987792969 342.850006103516 351.674987792969 369.262512207031 401.118743896484 437.4375 439.668762207031 416.100006103516 391.112487792969 370.46875 351.487487792969 337.987487792969 328.524993896484 322.712493896484 318.643737792969 312.993743896484 307.462493896484 305.25 299.112487792969 
229.0625 227.568756103516 231.318756103516 242.131256103516 257.71875 273.943756103516 290.450012207031 306.106262207031 316.162506103516 311.0625 299.237487792969 285.524993896484 269.987487792969 276.737487792969 291.862487792969 301.575012207031 307.15625 312.118743896484 316.943756103516 322.1875 327.84375 334.612487792969 341.793762207031 347.831237792969 359.537506103516 371.587493896484 380.475006103516 378.03125 371.40625 361.881256103516 349.3125 340.256256103516 344.6875 352.71875 364.381256103516 382.200012207031 409.506256103516 440.768737792969 441.887512207031 418.975006103516 393.743743896484 371.700012207031 352.65625 338.59375 330.143737792969 325.118743896484 320.912506103516 313.943756103516 314.4375 311.331237792969 306.049987792969 
228.631256103516 226.762496948242 229.0625 242.381256103516 260.9375 275.612487792969 289.40625 302 307.450012207031 304.306243896484 295.168762207031 284.0625 274.931243896484 277.693756103516 287.606262207031 297.262512207031 304.174987792969 310.606262207031 314.737487792969 317.337493896484 321.306243896484 324.862487792969 329.743743896484 334.524993896484 345.1875 359.049987792969 366.112487792969 368.850006103516 365.762512207031 361.100006103516 353.831237792969 349.881256103516 354.012512207031 362.743743896484 374.131256103516 387.681243896484 407.96875 423.162506103516 423.225006103516 409.606262207031 388.731262207031 368.65625 350.975006103516 339.193756103516 328.03125 324.774993896484 319.03125 321.21875 319.9375 319.681243896484 313.924987792969 
233.25 234.425003051758 238.34375 251.074996948242 265.768737792969 278.524993896484 289.393737792969 297.475006103516 300.575012207031 298.506256103516 293.743743896484 288.15625 283.100006103516 283.649993896484 289.443756103516 297.043762207031 304.212493896484 310.450012207031 314.15625 315.15625 317.78125 316.887512207031 318.337493896484 319.662506103516 331.018737792969 346.706237792969 357.287506103516 361.825012207031 363.049987792969 359.34375 358.706268310547 358.787506103516 364.799987792969 371.018737792969 380.606262207031 390.0625 402.293762207031 409.362487792969 407.5 396.78125 380.649993896484 362.306243896484 344.725006103516 334.681243896484 327.806243896484 323.200012207031 331.587493896484 334.8125 330.368743896484 327.706237792969 320.424987792969 
238.568756103516 240.831253051758 247.631256103516 258.262512207031 269.350006103516 279.668762207031 288.78125 293.831237792969 295.90625 296.587493896484 295.006256103516 292.556243896484 290.1875 290.712493896484 294.59375 300.90625 307.125 312.78125 317.125 316.4375 315.5625 314.625 310.962493896484 309.950012207031 323.962493896484 338.943756103516 349.125 355.225006103516 358.887512207031 358.612487792969 361.268737792969 363.462493896484 371.806243896484 377.762512207031 383.737487792969 391.131256103516 398.618743896484 400.1875 395.137512207031 386.456237792969 371.893737792969 353.818756103516 338.237487792969 330.081237792969 333.399993896484 343.649993896484 352.912506103516 350.537506103516 345.912506103516 336.056243896484 326.950012207031 
245.606246948242 247.631256103516 255.84375 265.431243896484 274.756256103516 282.037506103516 288.46875 292.143737792969 294.53125 295.524993896484 295.875 295.825012207031 294.71875 295.556243896484 299.131256103516 304.774993896484 310.106262207031 317.90625 320.068756103516 320.556243896484 320.862487792969 317.456237792969 318.043762207031 317.806243896484 326.606262207031 337.600006103516 345.862487792969 350.768737792969 355.049987792969 358.387512207031 360.799987792969 363.762512207031 372.100006103516 377.756256103516 383.956237792969 389.431243896484 392.768737792969 393.368743896484 389.075012207031 379.524993896484 367.46875 351.443756103516 335.068756103516 329.5625 347.924987792969 365.956237792969 376.006256103516 369.774993896484 359.850006103516 346.825012207031 333.575012207031 
251.262496948242 254.162506103516 262.362487792969 272.15625 280.375 285.106262207031 287.768737792969 291.306243896484 293.0625 295.018737792969 297.068756103516 297.799987792969 298.206237792969 301.299987792969 305.350006103516 311.518737792969 319.193756103516 325.043762207031 328.100006103516 328.649993896484 327.787506103516 324.943756103516 325.862487792969 326.581237792969 331.768737792969 338.787506103516 345.03125 348.899993896484 353.625 357.356262207031 358.993743896484 361.543762207031 369.587493896484 377.131256103516 384.131256103516 387.481262207031 390.556243896484 390.106262207031 386.668762207031 377.625 363.887512207031 350.356262207031 340.46875 344.243743896484 365.1875 383 394.287506103516 384.600006103516 372.737487792969 358.0625 340.5625 
256.65625 259.262512207031 268.181243896484 278.225006103516 284.850006103516 286.368743896484 286.731231689453 289.350006103516 291.006256103516 292.700012207031 296.34375 299.768737792969 302.5 306.90625 312.75 318.725006103516 325.25 332.287506103516 337.325012207031 336.700012207031 334.962493896484 334.1875 333.950012207031 333.193756103516 336.581237792969 341.543762207031 345.21875 347.487487792969 351.100006103516 354.231262207031 357.375 360.40625 367.056243896484 375.637512207031 382.068756103516 385.287506103516 387.043762207031 388.518737792969 384.981262207031 378.299987792969 369.631256103516 361.450012207031 357.181243896484 362.806243896484 373.40625 390.768737792969 399.981262207031 395.162506103516 383.331237792969 367.643737792969 349.850006103516 
259.75 262.03125 268.743743896484 277.787506103516 284.725006103516 283.149993896484 283.575012207031 285.125 287.174987792969 290.34375 295.631256103516 300.899993896484 305.90625 310.90625 318.087493896484 324.412506103516 331.862487792969 339.981262207031 345.506256103516 345.368743896484 342.524993896484 340.53125 341.149993896484 339.0625 339.681243896484 344.006256103516 346.100006103516 346.71875 349.837493896484 352.350006103516 356 359.774993896484 365.612518310547 373.581237792969 379.887512207031 382.868743896484 384.112487792969 386.993743896484 386.03125 381.456237792969 377.081237792969 373.0625 372.225006103516 374.34375 382.524993896484 400.112487792969 409.9375 406.681243896484 394.568756103516 377.087493896484 358.237487792969 
260.649993896484 261.731262207031 266.387512207031 272.206237792969 276.018737792969 276.112487792969 278.475006103516 279.443756103516 282.399993896484 286.59375 292.837493896484 299.768737792969 306.931243896484 314.850006103516 322.96875 329.524993896484 335.299987792969 342.712493896484 346.825012207031 348.481262207031 345.549987792969 343.712493896484 344.762512207031 341.737487792969 342.71875 344.90625 344.881256103516 345.181243896484 345.887512207031 350.168762207031 354.243743896484 358.306243896484 364.337493896484 371.856262207031 378.106262207031 380.137512207031 383.424987792969 384.28125 383.112487792969 381.625 383.606262207031 383.375 385.056243896484 391.356262207031 399.725006103516 419.106262207031 428.756256103516 421.162506103516 405.331237792969 387.174987792969 367.106262207031 
262.287506103516 262.725006103516 266.049987792969 269.362487792969 270.181243896484 270.21875 270.8125 271.799987792969 273.899993896484 280.46875 289.8125 298.8125 309.912506103516 321.306243896484 328.268737792969 333.668762207031 337.924987792969 342.649993896484 345.674987792969 347.887512207031 345.956237792969 344.618743896484 344.868743896484 343.693756103516 343.46875 345.075012207031 343.96875 341.587493896484 341.681243896484 347.887512207031 352.081237792969 355.21875 361.606262207031 369.40625 374.556243896484 377.537506103516 379.981262207031 381.09375 379.081237792969 382.881256103516 385.806243896484 388.149993896484 393.024993896484 402.475006103516 418.268737792969 441.918731689453 446.168762207031 429.075012207031 409.887512207031 389.918762207031 369.543762207031 
263.3125 263.356262207031 264.6875 265.956237792969 264.256256103516 263.799987792969 263.774993896484 263.5625 266.162506103516 271.993743896484 282.756256103516 297.481262207031 312.987487792969 325.674987792969 332.387512207031 336.181243896484 340.381256103516 344.362487792969 345.287506103516 345.899993896484 344.806243896484 344.268737792969 344.731262207031 342.962493896484 342.287506103516 342.362487792969 340.0625 338.268737792969 338.881256103516 343.893737792969 349.681243896484 353.818756103516 359.356262207031 367.100006103516 372.206237792969 374.693756103516 375.924987792969 375.399993896484 376.456237792969 380.40625 383.181243896484 387.818756103516 395.1875 406.262512207031 423.337493896484 444.0625 446.237487792969 428.1875 409.024993896484 389.431243896484 370.09375 
265.8125 264.524993896484 264.200012207031 262.65625 260.125 258.956237792969 256.893737792969 255.475006103516 255.818756103516 262.399993896484 276.331237792969 295.043762207031 316.5625 332.743743896484 338.225006103516 339.6875 341.818756103516 343.524993896484 343.731262207031 342.018737792969 342.15625 342.137512207031 342.731262207031 340.331237792969 339.487487792969 337.5625 336.03125 334.84375 335.03125 339.649993896484 345.987487792969 352.075012207031 357.8125 363.681243896484 367.931243896484 369.637512207031 369.287506103516 371.587493896484 373.118743896484 374.981262207031 378.012512207031 381.9375 389.643737792969 399.518737792969 412.462493896484 422.549987792969 425.475006103516 414.268737792969 398.768737792969 383.806243896484 367.799987792969 
270.212493896484 267.887512207031 266.325012207031 263.681243896484 260.375 256.762512207031 253.668746948242 249.587493896484 247.518753051758 251.800003051758 267.087493896484 290.893737792969 316.412506103516 334.662506103516 340.506256103516 341.850006103516 341.912506103516 342.181243896484 341.037506103516 338.318756103516 337.15625 337.643737792969 337.287506103516 334.356262207031 333.318756103516 332.787506103516 331.306243896484 330.699981689453 331.674987792969 336.237487792969 343.306243896484 349.106262207031 355.443756103516 361.075012207031 364.487487792969 364.287506103516 366.643768310547 367.212493896484 366.024993896484 367.325012207031 369.956237792969 373.731262207031 379.081237792969 387.137512207031 395.024993896484 399.6875 401.225006103516 394.181243896484 385.268737792969 374.012512207031 361.693756103516 
274.8125 272.03125 268.881256103516 265.506256103516 261.481262207031 257.168762207031 253.537506103516 247.46875 241.53125 239.25 258.475006103516 292.193756103516 318.543762207031 333.899993896484 340.518737792969 342.299987792969 341.774993896484 340.587493896484 338.012512207031 333.793762207031 332.431243896484 330.6875 330.1875 327.518737792969 327.024993896484 327.556243896484 326.850006103516 327.46875 328.8125 333.806243896484 340.487487792969 346.331237792969 352.9375 358.506256103516 361.268737792969 361.181243896484 361.5 360.162506103516 358.868743896484 358.09375 357.774993896484 360.237487792969 365.606262207031 371.149993896484 375.424987792969 377.637512207031 379.84375 375.556243896484 369.537506103516 361.53125 352.762512207031 
279.456237792969 276.112487792969 272.149993896484 268.825012207031 264.899993896484 261.331237792969 256.924987792969 251.09375 245.618743896484 240.587493896484 272.681243896484 307.118743896484 325.6875 336.393737792969 341.825012207031 342.912506103516 341.043762207031 339.5 336.381256103516 331.118743896484 327.725006103516 323.962493896484 322.018737792969 319.8125 319.831237792969 321.487487792969 321.137512207031 322.46875 324.850006103516 330.950012207031 337.043762207031 341.806243896484 348.087493896484 353.956237792969 356.306243896484 355.774993896484 353.700012207031 352.03125 350.325012207031 347.899993896484 345.450012207031 347.681243896484 350.043762207031 351.9375 355.362487792969 357.350006103516 359.587493896484 359.212493896484 353.956237792969 350.399993896484 345.549987792969 
285.712493896484 280.006256103516 276.5 273.037506103516 269.693756103516 266.681243896484 263.193756103516 262.125 266.412506103516 283.225006103516 320.756256103516 331.34375 336.568756103516 342.28125 345.543762207031 345.100006103516 343.493743896484 339.5625 334.4375 328.299987792969 321.475006103516 316.274993896484 313.5625 311.893737792969 312.09375 314.181243896484 315.881256103516 318.950012207031 323.1875 330.568756103516 336.287506103516 340.575012207031 345.125 348.206237792969 352.475006103516 351.056243896484 347.424987792969 345.174987792969 341.762512207031 337.018737792969 334.0625 334.668762207031 335.350006103516 337.893737792969 340.868743896484 343.331237792969 344.375 345.368743896484 344.231262207031 343.424987792969 341.09375 
292.568756103516 286.256256103516 281.893737792969 277.393737792969 275.6875 274.393737792969 273.4375 277.037506103516 287.112487792969 305.424987792969 327.024993896484 339.549987792969 344.325012207031 348.25 349.431243896484 348.924987792969 346.637512207031 341.712493896484 333.387512207031 324.8125 313.787506103516 307.493743896484 303.90625 302.556243896484 303.96875 306.506256103516 310.25 315.762512207031 321.212493896484 328.25 333.462493896484 339.143737792969 344.299987792969 346.299987792969 346.862487792969 344.512512207031 340.21875 336.568756103516 331.8125 325.924987792969 322.549987792969 322.225006103516 321.5625 323.043762207031 326.3125 329.674987792969 332.143737792969 334.475006103516 337.28125 338.712493896484 338.356262207031 
299.587493896484 292.78125 287.137512207031 282.881256103516 280.75 280.743743896484 283.0625 289.256256103516 300.799987792969 314.756256103516 329.524993896484 341.993743896484 349.1875 352.993743896484 354.712493896484 354.649993896484 351.399993896484 344.662506103516 333.806243896484 321.549987792969 307.174987792969 297.1875 292.03125 291.799987792969 295.768737792969 299.875 305.274993896484 312.706237792969 319.018737792969 326.181243896484 333.331237792969 339.53125 342.893737792969 344.375 342.831237792969 338.375 333.231262207031 328.512512207031 323.34375 316.399993896484 311.975006103516 309.21875 307.518737792969 309.487487792969 314.549987792969 318.381256103516 321.106262207031 325.381256103516 329.96875 333.524993896484 335.78125 
307.96875 299.143737792969 292.131256103516 287.712493896484 286 287.081237792969 291.168762207031 298.837493896484 310.325012207031 323.075012207031 334.762512207031 346.043762207031 354.987487792969 360.262512207031 361.799987792969 361.59375 359.043762207031 352.037506103516 339.674987792969 322.293762207031 302.674987792969 288.46875 281.912506103516 283.59375 290.181243896484 295.931243896484 302.487487792969 311.206237792969 319.131256103516 328.231262207031 334.043762207031 341.012512207031 344.037506103516 344.306243896484 341.5 333.331237792969 327.912506103516 322.818756103516 316.793762207031 309.681243896484 303.831237792969 297.243743896484 294.318756103516 298.856262207031 305.043762207031 310.056243896484 313.143737792969 316.956237792969 323.118743896484 327.331237792969 333.799987792969 
315.831237792969 304.387512207031 296.243743896484 291.21875 290.043762207031 293.337493896484 298.162506103516 306.274993896484 316.643737792969 329.212493896484 341.09375 351.743743896484 360.693756103516 366.975006103516 369.34375 368.3125 365.0625 360.443756103516 348.5625 325.049987792969 297.674987792969 276.287506103516 272.350006103516 278.299987792969 286.806243896484 293.325012207031 301.087493896484 310.4375 319.487487792969 328.543762207031 336.737487792969 343.03125 344.84375 342.174987792969 337.924987792969 330.318756103516 322.068756103516 316.84375 310.768737792969 305.212493896484 299.287506103516 293.831237792969 291.568756103516 293.375 298.081237792969 301.799987792969 304.756256103516 308.600006103516 314.693756103516 321.424987792969 331.068756103516 
322.762512207031 309.006256103516 298.600006103516 292.693756103516 293.287506103516 297.537506103516 303.231262207031 311.6875 322.543762207031 334.174987792969 346.556243896484 358.4375 366.799987792969 373.387512207031 376.706237792969 375.918762207031 373.393737792969 367.5 357.96875 331.34375 299.681243896484 273.606262207031 270.575012207031 277.068756103516 285.862487792969 293.899993896484 301.5 310.287506103516 320.737487792969 329.418762207031 337.84375 346.193756103516 347.0625 341.481262207031 335.03125 328.081237792969 319.306243896484 313.793762207031 308.125 303.106262207031 298.274993896484 294.606262207031 291.993743896484 292.21875 294.918731689453 296.306243896484 299.200012207031 301 304.493743896484 312.25 325.8125 
329.0625 313.556243896484 300.037506103516 293.649993896484 297.799987792969 302.700012207031 307.975006103516 316.912506103516 327.381256103516 339.299987792969 351.831237792969 363.962493896484 373.799987792969 381 383.637512207031 381.737487792969 377.518737792969 368.912506103516 356.6875 333.587493896484 308.268768310547 289.787506103516 280.5625 282.6875 289.8125 296.5 302.9375 311.875 320.899993896484 329.050018310547 337.4375 345.912506103516 345.556243896484 339.34375 333.381256103516 325.393737792969 316.131256103516 310.799987792969 306.924987792969 302.693756103516 298.612487792969 295.487487792969 293.424987792969 292.78125 294.668762207031 295.081268310547 295.787506103516 295.350006103516 294.618743896484 300.362487792969 317.787506103516 
