ncols        51
nrows        45
xllcorner    -63.500000000000
yllcorner    -7.500000000000
cellsize     0.166666666667
NODATA_value -99
311.612487792969 322.225006103516 324.125 331.299987792969 332.475006103516 326.475006103516 318.693756103516 305.71875 295.456237792969 289.850006103516 288.024993896484 285.799987792969 282.125 276.4375 271.53125 267.462493896484 264.84375 259.975006103516 258.087493896484 256.481262207031 255.862503051758 256.631256103516 256.6875 259.200012207031 259.768737792969 263.299987792969 267.831237792969 274.5625 279.637512207031 281.4375 283.175018310547 284.9375 284.53125 285.600006103516 286.162506103516 286.612487792969 284.943756103516 283.168762207031 282.756256103516 280.487487792969 277.918762207031 274.149993896484 267.674987792969 263.143737792969 259.456237792969 255.956253051758 251.643753051758 245.9375 241.899993896484 239.356246948242 237.481246948242 
320.918762207031 331.1875 341.649993896484 350.831237792969 358.256256103516 350.475006103516 340.106262207031 331.737487792969 322.606262207031 315.3125 311.381256103516 305.90625 300.412506103516 293.65625 285.868743896484 281.306243896484 275.637512207031 271.943756103516 269.424987792969 266.431243896484 265.143737792969 264.524993896484 265.600006103516 266.012512207031 267.456237792969 269.506256103516 273.40625 280.012512207031 283.1875 283.125 284.206237792969 286.056243896484 285.431243896484 286.768737792969 285.943756103516 285.674987792969 285.674987792969 284.006256103516 283.168762207031 280.262512207031 277.112487792969 274.162506103516 268.424987792969 262.731262207031 259.0625 256.162506103516 253.618743896484 246.925003051758 242 237.793746948242 235.0625 
321.387512207031 333.75 342.181243896484 353.100006103516 361.762512207031 357.825012207031 352.206237792969 347.837493896484 344.09375 337.331237792969 330.331237792969 322.256256103516 315.881256103516 306.243743896484 297.918762207031 291.837493896484 285.418762207031 281.575012207031 277.818756103516 275.356262207031 274.206268310547 273.662506103516 272.475006103516 271.75 272.643737792969 273.575012207031 278.299987792969 281.46875 282.725006103516 282.712493896484 282.306243896484 281.962493896484 282.625 282.274993896484 279.393737792969 277.287506103516 277.600006103516 276.575012207031 274.4375 271.5625 268.350006103516 264.600006103516 260.043762207031 255.856246948242 252.412506103516 249.475006103516 246.037506103516 239.106246948242 232.625 227.443756103516 223.90625 
315.231262207031 327.568756103516 339.575012207031 347.337493896484 355.137512207031 357.518737792969 357.881256103516 358.693756103516 360.149993896484 357.762512207031 349.575012207031 338.125 327.306243896484 317.856262207031 308.418762207031 301.662506103516 295.543762207031 291.024993896484 286.912506103516 284.381256103516 283.643737792969 282.137512207031 278.725006103516 277.662506103516 276.9375 275.181243896484 280.043762207031 281.537506103516 282.15625 282.649993896484 281.106262207031 279.487487792969 276.424987792969 274.1875 270.143737792969 268.799987792969 267.256256103516 265.137512207031 264.081237792969 259.78125 256.362487792969 254.556243896484 249.681243896484 245.393753051758 243.274993896484 238.681243896484 235.4375 228.018753051758 220.212493896484 215.181243896484 211.524993896484 
323.793762207031 329.993743896484 331.975006103516 338.862487792969 349.143737792969 354.318756103516 357.006256103516 363.262512207031 370.8125 374.649993896484 364.125 346.950012207031 335.712493896484 326.693756103516 316.881256103516 309.4375 302.287506103516 298.018737792969 293.649993896484 290.575012207031 290.03125 286.987487792969 283.131256103516 282.350006103516 278.043762207031 275.087493896484 277.506256103516 281.681243896484 283.850006103516 281.524993896484 279.012512207031 273.706237792969 269.006256103516 265.806243896484 261.350006103516 258.606262207031 254.993743896484 252.081253051758 250.9375 246.8125 244.199996948242 240.649993896484 237.581253051758 235.606246948242 232.631256103516 228.0625 222.725006103516 215.243743896484 207.256256103516 201.449996948242 198.8125 
321.787506103516 328.568756103516 330.649993896484 329.9375 338.5625 345.950012207031 349.793731689453 357.037506103516 365.506256103516 373.243743896484 360.606262207031 345.443756103516 336.237487792969 328.6875 319.149993896484 312.875 304.512512207031 299.9375 297.662506103516 295.274993896484 292.268737792969 288.112487792969 285.731262207031 282.556243896484 278.512512207031 275.612487792969 277.131256103516 280.212493896484 281.674987792969 278.4375 274.943756103516 271.137512207031 263.456237792969 258.643737792969 254.512496948242 249.800003051758 246.399993896484 242.274993896484 239.831253051758 236.456253051758 230.743743896484 227.09375 224.774993896484 223.337493896484 221.762496948242 217.012496948242 211.137496948242 203.168746948242 195.268753051758 188.324996948242 184.356246948242 
320.706237792969 325.993743896484 327.818756103516 325.912506103516 325.431243896484 328.306243896484 332.393737792969 338.34375 342.262512207031 344.018737792969 342.237487792969 336.78125 333.912506103516 327.831237792969 320.543762207031 316.181243896484 309.100006103516 301.606231689453 297.474975585938 296.268737792969 293.837493896484 290.237487792969 286.6875 280.924987792969 276.943756103516 274.074981689453 275.981262207031 277.043762207031 277.612487792969 274.450012207031 271.318756103516 266.399993896484 259.024993896484 251.262496948242 245.537506103516 239.818756103516 233.925003051758 229.212493896484 227.537506103516 222.962493896484 214.59375 211.40625 209.556243896484 208.149993896484 208.28125 203.331253051758 198.231246948242 189.462493896484 180.96875 175.100006103516 171.574996948242 
320.318756103516 321.90625 321.206237792969 321.043762207031 320.725006103516 320.768737792969 317.34375 313.375 309.931243896484 311.962493896484 320.681243896484 325.950012207031 328.106262207031 326.700012207031 322.581237792969 317.931243896484 311.418762207031 303.762512207031 297.043762207031 296.056243896484 294.737487792969 291.475006103516 286.256256103516 280.137512207031 276.743743896484 271.25 272.174987792969 273.15625 273.787506103516 270.975006103516 265.600006103516 260.318756103516 252.193756103516 243.774993896484 236.137496948242 227.262496948242 220.356246948242 213.668746948242 209.65625 203.600006103516 196.456253051758 194.300003051758 192.28125 190.199996948242 189.774993896484 186.356246948242 180.800003051758 172.712493896484 166.262496948242 160.431243896484 157.306243896484 
318.625 319.737487792969 318.331237792969 316.243743896484 315.337493896484 313.3125 310.537506103516 304.75 295.293762207031 292.512512207031 305.331237792969 315.137512207031 325 326.068756103516 321.837493896484 318.368743896484 313.6875 307.381256103516 302.612487792969 299.306243896484 292.243743896484 290.243743896484 284.28125 280.049987792969 275.506256103516 268.037506103516 267.59375 268.712493896484 268.950012207031 265.793762207031 261.8125 254.649993896484 244.899993896484 234.212493896484 226.087493896484 217.237503051758 209.899993896484 201.34375 196.40625 189.59375 182.524993896484 179.412506103516 177.962493896484 176.65625 174.449996948242 171.462493896484 168.199996948242 160.543746948242 153.418746948242 148.475006103516 147.237503051758 
316.393737792969 314.924987792969 313.96875 312.143737792969 309.950012207031 308.59375 307.018737792969 302.206237792969 298.875 300.681243896484 309.368743896484 315.568756103516 323.274993896484 325.350006103516 323.287506103516 319.081268310547 315.043762207031 310.331237792969 305.774993896484 304.71875 296.737487792969 290.118743896484 282.8125 279.456237792969 271.587493896484 262.293762207031 261.087493896484 261.549987792969 262.443756103516 261.162506103516 254.975006103516 246.643753051758 235.956253051758 225.100006103516 215.837493896484 207.418746948242 198.100006103516 189.206253051758 183.25 177.125 170.806243896484 167.699996948242 165.262496948242 161.625 160.887496948242 160.774993896484 157.418746948242 149.725006103516 142.581253051758 137.949996948242 135.831253051758 
314.318756103516 312.924987792969 311.024993896484 308.550018310547 304.668731689453 304.1875 303.837493896484 301.237487792969 302.493743896484 306.787506103516 315.125 322.868743896484 324.806243896484 326.381256103516 322.443756103516 317.756256103516 314.600006103516 311.287506103516 308.681243896484 306.856262207031 302.237487792969 293.5 282.549987792969 270.568756103516 265.600006103516 256.581237792969 253.175003051758 252.600006103516 251.987503051758 250.543746948242 244.668746948242 236.5 226.037506103516 215 205.356246948242 194.956253051758 185.34375 176.568756103516 170.743743896484 164.568756103516 157.881256103516 154.512496948242 153 150.431243896484 149.34375 149.056243896484 146.199996948242 137.962493896484 132.34375 128.8125 125.53125 
311.15625 308.799987792969 306.543762207031 307.193756103516 304.887512207031 302.90625 304.431243896484 305.193756103516 308.950012207031 314.387512207031 322.581237792969 329.993743896484 326.875 324.493743896484 319.899993896484 315.743743896484 312.018737792969 308.868743896484 307.087493896484 306.106262207031 300.46875 291.40625 280.700012207031 271.356262207031 260.006256103516 247.306243896484 243.149993896484 240.987503051758 240.112503051758 236.993743896484 231.881256103516 225.100006103516 214.4375 204.193756103516 194.887496948242 185.78125 177.550003051758 169.706253051758 162.675003051758 155.46875 149.393753051758 146.487503051758 144.25 140.118743896484 138.831253051758 136.199996948242 131.443756103516 126.868751525879 123.543746948242 121.6875 117.90625 
308.918762207031 306.087493896484 304.237487792969 303.768737792969 303.137512207031 304.84375 305.118743896484 305.587493896484 309.368743896484 317.331237792969 325.225006103516 331.325012207031 328.212493896484 317.837493896484 312.793762207031 310.787506103516 306.181243896484 303.087493896484 302.637512207031 300.262512207031 294.475006103516 283.84375 270.668762207031 261.049987792969 244.818756103516 231.443756103516 229.706253051758 227.34375 227.168746948242 223.65625 219.012496948242 212.631256103516 202.462493896484 192.925003051758 183.662506103516 176.581253051758 169.556243896484 162.518753051758 156.34375 149.418746948242 141.212493896484 139.043746948242 135.543746948242 131.631256103516 131.78125 130.756256103516 126.856254577637 119.831253051758 115.556251525879 115.300003051758 114.868751525879 
305.475006103516 302.4375 299.649993896484 298.799987792969 300.143737792969 301.706237792969 301.887512207031 303.225006103516 308.600006103516 315.1875 319.899993896484 320.674987792969 318.112487792969 310.899993896484 302.981262207031 301.993743896484 297.612487792969 292.862487792969 292.787506103516 289.112487792969 282.049987792969 269.956268310547 257.912506103516 245.006256103516 231.537506103516 220.118743896484 217.112503051758 215.143753051758 213.8125 210.975006103516 206.618743896484 201.399993896484 190.53125 181.487503051758 173.625 167.981246948242 161.881256103516 156.456253051758 151.393753051758 143.824996948242 134.149993896484 129.368743896484 128.118759155273 127.699996948242 129.081253051758 126.818748474121 123.756248474121 119.056251525879 114.256248474121 114.300003051758 115.3125 
300.381256103516 297.912475585938 296.006256103516 295.725006103516 297.706237792969 299.043762207031 300.381256103516 301.581237792969 304.75 308.712493896484 311.837493896484 311.268737792969 306.856262207031 299.924987792969 291.087493896484 286.643737792969 283.706237792969 282.681243896484 282.024993896484 278.868743896484 270.081237792969 259.893737792969 246.800003051758 234.5625 222.431243896484 212.975006103516 209.212493896484 207.324996948242 205.862503051758 202.318756103516 196.849990844727 189.881256103516 181.425003051758 171.893753051758 163.724990844727 158.256256103516 155.581253051758 152.675003051758 147.475006103516 138.706253051758 129.481246948242 126.606246948242 127.231246948242 125.5625 125.506248474121 124.668746948242 123.306251525879 119.300003051758 116.287498474121 113.556251525879 112.731246948242 
293.493743896484 291.212493896484 291.450012207031 292.662506103516 294.174987792969 295.537506103516 296.649993896484 298.0625 302.206237792969 304.28125 305.481262207031 303.09375 298.106262207031 289.537506103516 279.018737792969 268.75 269.450012207031 272.34375 270.918762207031 268.637512207031 260.237487792969 248.943756103516 236 225.106246948242 213.949996948242 206.168746948242 201.568756103516 199.931243896484 198.168746948242 195.3125 191.612503051758 184.631256103516 172.506256103516 162.21875 153.043746948242 151.662506103516 149.65625 147.668746948242 143.106246948242 136.574996948242 128.537506103516 126.643753051758 125.53125 123.037498474121 122.012496948242 120.775001525879 119.318748474121 116.018753051758 112.993751525879 110.193748474121 108.037498474121 
285.181243896484 284.587493896484 286.318756103516 288.450012207031 289.862487792969 291.212493896484 293.950012207031 295.331237792969 297.1875 299.03125 298.756256103516 295.46875 288.931243896484 280.318756103516 271.818756103516 264.393737792969 258.537506103516 259.418731689453 260.693756103516 259.90625 251.668746948242 241.581253051758 229.149993896484 216.550003051758 206.456253051758 198.649993896484 194.806243896484 192.800003051758 191.743743896484 190.03125 186.350006103516 179.993743896484 168.587493896484 158.018753051758 152.043746948242 148.71875 147.375 146.21875 143.90625 136.587493896484 129.037506103516 126.443748474121 123.237503051758 120.418746948242 118.625 117.362503051758 116.125 113.699996948242 111.162498474121 106.987503051758 104.349998474121 
274.65625 276.581237792969 278.5 282.825012207031 284.65625 286.931243896484 290.200012207031 290.268737792969 291.481262207031 291.631256103516 289.90625 285.868743896484 279.118743896484 272.174987792969 264.762512207031 258.887512207031 252.712493896484 245.84375 250.143753051758 250.493743896484 245.056243896484 235.418746948242 224.1875 212.368743896484 203.431243896484 196.162506103516 190.324996948242 189.78125 189.306243896484 187.168746948242 181.268753051758 170.868759155273 163.587493896484 155.868743896484 148.893753051758 147.318756103516 145.731246948242 143.875 140.856246948242 136.324996948242 128.168746948242 124.8125 121.456253051758 118.087501525879 116.462501525879 115.043746948242 113.893753051758 111.599998474121 109.118751525879 104.40625 102.918746948242 
263.09375 266.950012207031 271.056243896484 274.71875 277.600006103516 281.037506103516 283.46875 285.631256103516 286.943756103516 286.325012207031 282.693756103516 275.237487792969 269.006256103516 264.143737792969 254.981246948242 249.28125 244.237503051758 238.993743896484 237.21875 238.137496948242 238.206253051758 232.15625 215.800003051758 208.050003051758 201.712509155273 196.862503051758 193.056243896484 190.6875 190.168746948242 187.181243896484 181.46875 172.175003051758 161.8125 149.625 142.131256103516 140.875 139.96875 137.9375 136.725006103516 132.162506103516 126.806251525879 123.46875 119.5 115.949996948242 114.393753051758 112.675003051758 111.75 109.606246948242 107.481246948242 101.368751525879 101.974998474121 
251.34375 257.137512207031 261.237487792969 264.03125 269.212493896484 275.225006103516 279.46875 280.043762207031 281.125 280.306243896484 275.481262207031 269.34375 262.799987792969 256.549987792969 246.412506103516 236.21875 229.1875 229.899993896484 228.106246948242 228.774993896484 226.087493896484 219.581253051758 213.068756103516 206.5 200.9375 196.175003051758 193.487503051758 192.862503051758 190.28125 185.493743896484 178.225006103516 173.074996948242 159.893753051758 144.637496948242 133.831253051758 132.606246948242 134.550003051758 134.862503051758 133.456253051758 130.018753051758 124.762496948242 121.34375 117.462501525879 113.712501525879 111.193748474121 109.337501525879 108.987503051758 106.925003051758 104.8125 99.5437469482422 100.856254577637 
237.975006103516 246.5625 252.381256103516 257.1875 260.456237792969 267.787506103516 274.274993896484 276.331237792969 276.806243896484 273.774993896484 268.018737792969 259.212493896484 250.59375 243.668746948242 234.043746948242 226.175003051758 220.318756103516 218.568756103516 219.168746948242 218.681243896484 218.681243896484 216.381256103516 212.243743896484 208.006256103516 206.212493896484 203.893753051758 200.493743896484 196.681243896484 191.868743896484 189.012496948242 183.768753051758 177.743743896484 161.881256103516 144.668746948242 130.1875 130.84375 134.793746948242 135.59375 133.731246948242 129.131256103516 122.956253051758 119.550003051758 114.631248474121 110.818748474121 108.15625 106.712501525879 105.675003051758 104.112503051758 100.46875 98.2687530517578 99.2312469482422 
226.875 232.893753051758 239.425003051758 248.40625 254.625 260.431243896484 267.243743896484 271.90625 272.9375 267.743743896484 258.100006103516 244.774993896484 234.243743896484 227.625 223.137496948242 217.606246948242 215.087493896484 213.193756103516 213.556243896484 212.925003051758 209.662506103516 207.899993896484 207.3125 204.425003051758 203.387496948242 205.050003051758 210.368743896484 205.90625 199.987503051758 196.912506103516 191.28125 183.856246948242 168.987503051758 154.481246948242 143.787506103516 139.981246948242 140.543746948242 139.637496948242 135.731246948242 129.731246948242 123.125 118.543746948242 113.125 108.449996948242 105.193748474121 103.293746948242 102.337501525879 101.025001525879 97.9437484741211 98.4250030517578 98.4937515258789 
217.024993896484 227.425003051758 234.856246948242 242.931243896484 249.237503051758 255.193756103516 259.856262207031 266.4375 272.649993896484 262.9375 248.0625 231.34375 219.149993896484 214.387496948242 213.162506103516 211.71875 209.206253051758 206.975006103516 206.087493896484 204.418746948242 202.393753051758 200.725006103516 198.581253051758 196.949996948242 198.912506103516 202.993743896484 209.875 208.149993896484 203.59375 200.412506103516 197.043746948242 191.887496948242 180.743743896484 168.618743896484 159.300003051758 152.300003051758 148.675003051758 145.012496948242 138.987503051758 130.75 122.818748474121 116.925003051758 111.068748474121 105.837501525879 102.40625 99.9749984741211 98.5749969482422 97.4375 96.3125 97.9499969482422 98.8000030517578 
209.037506103516 219.25 227.949996948242 233.96875 239.368743896484 245.524993896484 252.662506103516 258.056243896484 262.287506103516 252.399993896484 237.762496948242 224.050003051758 209.03125 207.762496948242 208.3125 207.068756103516 204.362503051758 203.831253051758 202.106246948242 200.837493896484 197.768753051758 194.043746948242 191.356246948242 191.175003051758 192.899993896484 194.050003051758 198.943756103516 202.831253051758 202.78125 204.550003051758 205.256256103516 204.881256103516 195.368743896484 183.206253051758 173.3125 164.1875 157.324996948242 149.212493896484 140.350006103516 130.274993896484 121.418746948242 114.981246948242 109.081253051758 103.59375 100.675003051758 98.3375015258789 96.0875015258789 93.5500030517578 95.8562469482422 96.84375 98.375 
203.787506103516 213.5 220.506256103516 226.856246948242 232.743743896484 237.856246948242 243.056243896484 247.112503051758 247.1875 242.431243896484 231.512496948242 219.568756103516 212.162506103516 207.512496948242 205.668746948242 203.90625 202.881256103516 202.21875 200.631256103516 197.756256103516 193.306243896484 188.581253051758 185.412506103516 183.618743896484 184.012496948242 188.506256103516 194.9375 199.756256103516 203.600006103516 211.168746948242 216.668746948242 220.068756103516 211.40625 198.350006103516 185.699996948242 172.475006103516 161.918746948242 149.96875 139.84375 129.75 120.137496948242 113.324996948242 107.875 102.074996948242 97.15625 94.5999984741211 91.8874969482422 93.3375015258789 94.3625030517578 95.9312515258789 97.4812469482422 
204.84375 212.418746948242 214.618743896484 219.356246948242 223.018753051758 227.71875 232.231246948242 235.0625 233.012496948242 228.637496948242 223.4375 218.168746948242 213.34375 210.618743896484 206.725006103516 205.456253051758 203.643753051758 202.556259155273 199.899993896484 195.25 191.418746948242 184.943756103516 179.362503051758 173.993743896484 177.024993896484 183.96875 194.056243896484 200.237503051758 207.612503051758 216.768753051758 227.5 235.543746948242 227.481246948242 211.006256103516 194.199996948242 178.356246948242 164.40625 150.568756103516 139.168746948242 128.606246948242 118.943748474121 111.831253051758 105.875 99.71875 95.46875 91.5 93.7312469482422 94.625 94.3812484741211 95.6624984741211 96.2437515258789 
204 207.050003051758 209.712493896484 212.524993896484 214.125 219.100006103516 222.306243896484 223.487503051758 222.462493896484 223.03125 222.024993896484 218.987503051758 216.918746948242 215.768753051758 212.524993896484 210.306243896484 207.881256103516 205.300003051758 203.137496948242 199.331253051758 192.987503051758 185.443756103516 177.431243896484 171.412506103516 176.84375 183.412506103516 194.574996948242 202.25 211.274993896484 222.018753051758 235.362503051758 245.868743896484 238.443756103516 218.143753051758 198.143753051758 180.25 164.693756103516 149.887496948242 137.662506103516 126.962501525879 116.731246948242 110.400001525879 104.581253051758 99.3187484741211 97.25 96.9749984741211 98.2624969482422 97.5999984741211 96.7062530517578 94.9312515258789 94.8062515258789 
204.206253051758 203.418746948242 204.462493896484 205.743743896484 207.399993896484 210.693756103516 214.21875 214.412506103516 216.043746948242 218.256256103516 217.706253051758 218.5625 219.012496948242 220.543746948242 218.137496948242 214.693756103516 212.725006103516 212.131256103516 208.524993896484 205.456253051758 199.837493896484 191.737503051758 187.456253051758 181.837493896484 183.487503051758 188.881256103516 197.46875 205.725006103516 214.199996948242 225.4375 237.018753051758 245.612503051758 235.681243896484 216.556243896484 197.65625 179.206253051758 163.681259155273 148.793746948242 136.675003051758 125.675003051758 115.775001525879 109.862503051758 104.53125 100.375 101.34375 102.243751525879 102.9375 100.818748474121 98.2750015258789 94.5437469482422 94.28125 
202.918746948242 199.925003051758 199.125 199.856246948242 200.21875 201.693756103516 204.293746948242 207.431243896484 211.71875 213.925003051758 216.306243896484 219.09375 221.149993896484 224.493743896484 224.318756103516 223.625 222.387496948242 219.274993896484 217.193740844727 213.512496948242 208.706253051758 201.612503051758 198.09375 194.118743896484 193.21875 196.606246948242 203.912490844727 210.737503051758 217.981246948242 227.5 235.462493896484 240.981246948242 227.949996948242 211.1875 193.5625 176.581253051758 161.731246948242 147.418746948242 135.78125 124.3125 113.537498474121 108.168746948242 104.043746948242 103.381248474121 105.050003051758 105.15625 105.712501525879 102.956253051758 99.0124969482422 95.5812530517578 93.3812484741211 
204.412506103516 199.762496948242 198.037506103516 195.699996948242 195.6875 197.943756103516 200.818756103516 204.574996948242 208.65625 211.675003051758 215.931243896484 220.106246948242 225.943756103516 230.875 231.618743896484 231.212493896484 230.71875 230.712493896484 227.768753051758 222.475006103516 216.524993896484 212.5625 210.75 205.65625 202.90625 204.637496948242 210.993743896484 215.550003051758 221.318756103516 227.493743896484 232.475006103516 233.631256103516 220.768753051758 205.725006103516 189.868743896484 173.881256103516 159.925003051758 146.125 134.175003051758 124.012496948242 114.6875 110.331253051758 106.550003051758 106.150001525879 106.0625 107.074996948242 106.400001525879 104.1875 100.693748474121 97.2937469482422 94.3937530517578 
204.574996948242 198.225006103516 195.493743896484 193.356246948242 193.293746948242 194.943756103516 198.274993896484 200.84375 205.300003051758 210.293746948242 215.824996948242 221.993743896484 230.568756103516 235.524993896484 238.149993896484 239.34375 241.331253051758 241.71875 239.831253051758 235.356246948242 229.412506103516 224.475006103516 221.712493896484 214.793746948242 210.199996948242 213.693756103516 216.587509155273 220.75 224.518753051758 226.543746948242 228.850006103516 227.725006103516 215.868743896484 201.324996948242 185.643753051758 170.862503051758 156.131256103516 142.899993896484 132.975006103516 123.481246948242 114.775001525879 110.743751525879 108.143753051758 106.599998474121 106.96875 107.275001525879 106.53125 104.668746948242 101.837501525879 98.1624984741211 95.75 
203.550003051758 196.231246948242 193.274993896484 192.375 191.568740844727 191.762496948242 194.774993896484 196.881240844727 201.662506103516 207.03125 214.09375 223.925003051758 232.331253051758 239.856246948242 243.512496948242 246.637496948242 247.59375 248.725006103516 246.75 245.581253051758 240.681243896484 236.037506103516 231.731246948242 225.043746948242 222.418746948242 222.418746948242 222.868743896484 226.012496948242 227.106246948242 227.300003051758 227.462493896484 224.318756103516 210.768753051758 196.418746948242 181.5 167 153.274993896484 139.46875 129.956253051758 120.981246948242 114.368751525879 111.362503051758 108.993751525879 107.637496948242 108.237503051758 109.331253051758 108.943748474121 106.824996948242 103.543746948242 100.018753051758 97.5437469482422 
205.399993896484 197.143753051758 194.362503051758 192.5 192.068756103516 191.806243896484 192.475006103516 194.84375 198.949996948242 205.481246948242 215.524993896484 224.862503051758 235.981246948242 245.993743896484 250.356246948242 253.431259155273 256.393737792969 257.981262207031 255.168746948242 252.899993896484 250.231246948242 246.03125 241.306243896484 235.318756103516 232.956253051758 229.862503051758 230.131256103516 230.524993896484 230.618743896484 229.574996948242 226.425003051758 220.631256103516 206.78125 192.993743896484 178.675003051758 165.262496948242 151.518753051758 138.412506103516 128.625 122.462501525879 115.643745422363 112.556251525879 110.6875 109.787498474121 110.706253051758 112.737503051758 112.400001525879 109.362503051758 106.331253051758 103.050003051758 101.099998474121 
206.40625 199.387496948242 196.693756103516 194.09375 192.256256103516 192.612503051758 192.856246948242 193.199996948242 196.768753051758 203.112503051758 211.993743896484 225.068756103516 238.612503051758 248.231246948242 254.581253051758 258.181243896484 262.631256103516 264.162506103516 262.299987792969 260.075012207031 257.587493896484 254.237503051758 250.28125 242.443740844727 240.625 237.068756103516 234.912506103516 233.962493896484 233.350006103516 229.050003051758 223.90625 217.71875 203.949996948242 190.024993896484 176.262496948242 162.75 149.568756103516 135.487503051758 128.506256103516 122.506248474121 115.731246948242 113.3125 111.837501525879 111.175003051758 112.643753051758 114.150001525879 113.443748474121 110.768753051758 108.46875 106.043746948242 105.168746948242 
206.21875 201.131256103516 199.131256103516 195.256256103516 192.449996948242 191.59375 190.793746948242 191.15625 193.024993896484 197.706253051758 208.649993896484 224.925003051758 241.918746948242 255.743743896484 261.793762207031 266.212493896484 269.318756103516 268.450012207031 268.6875 265 264.293762207031 259.893737792969 256.475006103516 247.774993896484 244.756256103516 242.987503051758 240.300003051758 237.112503051758 235.637496948242 230.662506103516 223.125 215.637496948242 200.949996948242 187.668746948242 173.524993896484 159.856246948242 146 135.581253051758 128.949996948242 122.6875 116.175003051758 114.018753051758 112.756248474121 111.824996948242 112.393753051758 112.787498474121 112.15625 111.400001525879 110.599998474121 108.925003051758 108.412498474121 
209.024993896484 205.618743896484 203.1875 199.524993896484 195.96875 193.5625 192.337493896484 191.006256103516 190.331253051758 193.262496948242 202.818740844727 221.524993896484 242.537506103516 257.662506103516 264.78125 269.881256103516 273.850006103516 273.575012207031 273.412506103516 272.34375 269.631256103516 266.137512207031 259.174987792969 252.225006103516 247.787506103516 245.693756103516 243.5625 241.28125 239.199996948242 232.0625 223.618743896484 214.243743896484 200.024993896484 187.675003051758 173.425003051758 159.306243896484 149.262496948242 139.756256103516 132.737503051758 126.90625 121.474998474121 118.78125 116.756248474121 115.637496948242 115.443748474121 115.3125 115.056251525879 115.806251525879 115.137496948242 114.712501525879 115.525001525879 
212.456253051758 210.537506103516 207.574996948242 204.393753051758 200.46875 197.587493896484 195.8125 191.762496948242 187.837493896484 187.03125 198.393753051758 222.46875 241.712493896484 254.912506103516 264.875 271.46875 274.331237792969 275.068756103516 275.768737792969 272.981262207031 270.712493896484 266.381256103516 259.618743896484 253.893753051758 248.949996948242 246.84375 245.962493896484 244.59375 241.84375 233.100006103516 224.493743896484 215.056243896484 201.25 187.681243896484 173.668746948242 162.106246948242 153.112503051758 144.925003051758 139.074996948242 132.100006103516 126.675003051758 123.462501525879 121.506248474121 119.706253051758 119.800003051758 118.918746948242 119.543746948242 120.525001525879 120.818748474121 121.118751525879 123.862503051758 
217.675003051758 214.699996948242 211.118743896484 208.631256103516 204.875 202.25 199.181243896484 194.006256103516 190.712509155273 187.831253051758 204.25 227.774993896484 243.431243896484 255.168746948242 264.412506103516 271.637512207031 273.975006103516 275.631256103516 273.625 269.918762207031 267.318756103516 262.362487792969 258.09375 253.03125 248.506256103516 248.112503051758 245.4375 245.981246948242 244.331253051758 235.712493896484 224.681243896484 215.006256103516 203.03125 189.324996948242 174.574996948242 166.387496948242 158.206253051758 149.743743896484 145.081253051758 138.612503051758 132.175003051758 128.993743896484 125.599998474121 122.837501525879 123.337501525879 123.381248474121 123.40625 126.862503051758 127.668746948242 128.431243896484 131.925003051758 
219.699996948242 215.056243896484 212.243743896484 210.800003051758 208.818756103516 205.443756103516 203.262496948242 200.725006103516 202.625 210.524993896484 227.675003051758 240.212493896484 247.943756103516 257.393768310547 265.287506103516 269.818756103516 272.212493896484 272.4375 267.893737792969 265.456237792969 261.6875 256.293762207031 252.368743896484 249.762496948242 247.09375 244.925003051758 243.681243896484 244.268753051758 242.925003051758 236.824996948242 228.09375 217.46875 206.899993896484 196.087493896484 186.34375 176.956253051758 167.993743896484 160.681243896484 154.65625 147.181243896484 141.225006103516 138.375 134.524993896484 132.356246948242 132.668746948242 133.537506103516 133.65625 136.649993896484 138.625 141.068756103516 144.300003051758 
220.543746948242 216.837493896484 214.956253051758 214.331253051758 213.100006103516 211.631256103516 208.975006103516 210.743743896484 215.606246948242 223.787506103516 234.931243896484 246 252.556243896484 259.78125 265.762512207031 268.706237792969 270.225006103516 269.487487792969 263.868743896484 259.412506103516 254.25 251.118743896484 244.831253051758 242.425003051758 243.206253051758 242.524993896484 242.162506103516 243.181243896484 242.574996948242 237.5 228.706253051758 223.725006103516 216.831253051758 207.556243896484 199.237503051758 189.9375 180.587493896484 172.962493896484 165.800003051758 156.868743896484 150.199996948242 147.300003051758 142.84375 140.475006103516 141.668746948242 142.987503051758 144.706253051758 148.493743896484 151.84375 155.262496948242 158.725006103516 
220.868743896484 219.181243896484 218.15625 217.84375 216.356246948242 215.212493896484 215.293746948242 220.356246948242 225.074996948242 230.462493896484 239.643753051758 248.318756103516 255.850006103516 260.25 265.100006103516 267.299987792969 267.581237792969 265.875 259.8125 253.637496948242 246.699996948242 243.46875 237.793746948242 235.40625 239.112503051758 240.056243896484 239.824996948242 241.662506103516 242.649993896484 237.893753051758 233.231246948242 233.137496948242 226.356246948242 220.037506103516 213.543746948242 205.787506103516 196.850006103516 187.618743896484 179.662506103516 168.03125 160.28125 155.75 151.425003051758 148.893753051758 151.456253051758 154.118743896484 155.637496948242 160.025009155273 165.537506103516 168.856246948242 173.206253051758 
222.443756103516 221.237503051758 221.043746948242 219.743743896484 218.024993896484 218.037506103516 219.293746948242 222.112503051758 227.868743896484 231.96875 240.212493896484 247.006256103516 254.237503051758 258.700012207031 262.5625 264.831237792969 265.149993896484 262.512512207031 256.881256103516 248.612503051758 239.556243896484 232.925003051758 228.018753051758 227.943756103516 231.706253051758 234.506256103516 235.399993896484 239.762496948242 243.693756103516 243.8125 237.550003051758 240.350006103516 237.237503051758 234.59375 229.90625 220.168746948242 212.40625 203.612503051758 193.568756103516 181.462493896484 172.456253051758 165.449996948242 160.65625 160.71875 164.512496948242 167.806243896484 169.875 174.050003051758 179.793746948242 183.15625 188.331253051758 
224.043746948242 222.431243896484 222.550003051758 219.487503051758 218.78125 219.793746948242 221.28125 224.056243896484 227.818756103516 231.418746948242 237.793746948242 244.143753051758 251.043746948242 254.3125 259.106262207031 261.606262207031 263.337493896484 262.356262207031 255.543746948242 244.837493896484 231.1875 220.574996948242 217.84375 222.081253051758 226.962493896484 230.862503051758 233.59375 236.993743896484 242.425003051758 243.993743896484 244.137496948242 245.112503051758 245.875 246.212493896484 244.756256103516 240.050003051758 228.981246948242 220.4375 208.149993896484 196.356246948242 187.981246948242 180.699996948242 174.862503051758 174.925003051758 179.125 181.137496948242 182.21875 188.975006103516 196.193756103516 198.456253051758 203.524993896484 
226.46875 224.831253051758 224.693756103516 220.6875 221.46875 221 221.600006103516 224.03125 227.643753051758 231.143753051758 236.71875 242.5625 247.606246948242 251.837493896484 255.881256103516 259.306243896484 260.962493896484 259.131256103516 256.174987792969 245.149993896484 229.3125 215.893753051758 214.212493896484 218.662506103516 223.987503051758 228.050003051758 231.018753051758 234.600006103516 239.668746948242 244.550003051758 245.6875 249.056243896484 250.806243896484 253.8125 260.225006103516 261.325012207031 248.793746948242 236.074996948242 224.125 213.006256103516 203.518753051758 196.018753051758 192.300003051758 191.0625 194.331253051758 195.681243896484 198.487503051758 203.918746948242 208 213.09375 218.393753051758 
228.306243896484 226.875 226.387496948242 223.043746948242 223.462493896484 223.0625 221.3125 224.21875 227.387496948242 230.912506103516 234.368743896484 239.456253051758 244.425003051758 249.006256103516 251.068756103516 253.368743896484 254.712493896484 253.631256103516 251.762496948242 244.287506103516 231.256240844727 220.368743896484 216.6875 219 223.3125 227.0625 230.25 233.5625 239.493743896484 243.581253051758 248.193756103516 250.100006103516 252.087493896484 255.350006103516 263.106262207031 268.325012207031 258.306243896484 245.5625 236.106246948242 225.975006103516 217.612503051758 212.256256103516 207.21875 204.90625 207.893753051758 209.34375 210.75 216.068756103516 218.449996948242 223.381256103516 229.412506103516 
