ncols        51
nrows        45
xllcorner    -63.500000000000
yllcorner    -7.500000000000
cellsize     0.166666666667
NODATA_value -99
217.987503051758 210.431243896484 207.143753051758 210.662506103516 212.225006103516 214.762496948242 213.625 211.800003051758 208.987503051758 209.78125 214.487503051758 218.956253051758 223.53125 224.925003051758 226.212493896484 227.137496948242 230.756256103516 229.850006103516 232.012496948242 233.856246948242 237.8125 240.800003051758 244.518753051758 245.0625 247.824996948242 250.149993896484 250.887496948242 254.712493896484 257.643737792969 259.512512207031 265.899993896484 269.693756103516 276.4375 285.862487792969 294.325012207031 300.65625 305.231262207031 310.049987792969 314.087493896484 316.212493896484 318.59375 320.931243896484 321.581237792969 323.287506103516 321.787506103516 322.631256103516 322.200012207031 322.537506103516 323.09375 326.431243896484 327.706237792969 
228.856246948242 220.431243896484 221.168746948242 224.256256103516 226.756256103516 228.100006103516 226.268753051758 225.287506103516 225.537506103516 226.668746948242 230.331253051758 232.893753051758 235.456253051758 236.431243896484 236.6875 237.449996948242 239.618743896484 239.699996948242 239.556243896484 239.918746948242 242.449996948242 244.875 248.318756103516 249.706253051758 251.568756103516 253.931243896484 255.243743896484 260.100006103516 263.318756103516 266.875 272.649993896484 280.049987792969 286.912506103516 299.087493896484 306.90625 313.818756103516 319.806243896484 324.212493896484 327.493743896484 328.493743896484 331.024993896484 332.556243896484 332.506256103516 333.125 332.087493896484 332.40625 330.862487792969 330.475006103516 332.081237792969 335.118743896484 335.762512207031 
241.012496948242 234.068756103516 235.28125 237.668746948242 238.28125 238.631256103516 239.199996948242 240.268753051758 241.131256103516 242.993743896484 243.387496948242 243.34375 244.631256103516 244.9375 244.762496948242 246.293746948242 247.893753051758 248.737503051758 248.431243896484 248.818756103516 251.5 254.487503051758 256.424987792969 258.399993896484 260.568756103516 261.337493896484 263.506256103516 268.350006103516 271.037506103516 274.637512207031 281.9375 289.737487792969 298.112487792969 307.65625 318.787506103516 323.674987792969 330.381256103516 337.3125 340.393737792969 343.0625 345.506256103516 345.793762207031 344.8125 343.649993896484 343.90625 342.912506103516 341.737487792969 340.668762207031 341.662506103516 344.293762207031 345.84375 
251.393753051758 247.112503051758 250.318756103516 250.925003051758 250.25 249.175003051758 250.081253051758 252.262496948242 255.40625 257.15625 255.381240844727 252.193756103516 250.40625 249.375 249.768753051758 251.175003051758 254.512496948242 256.793762207031 257.931243896484 258.65625 262.274993896484 264.024993896484 264.112487792969 265.700012207031 267.643737792969 268.34375 270.96875 273.712493896484 276.643737792969 282.049987792969 288.318756103516 298.46875 306.53125 315.737487792969 326.125 333.850006103516 341.837493896484 349.818756103516 355.256256103516 357.950012207031 358.850006103516 359.3125 357.862487792969 355.03125 355.03125 352.956237792969 351.962493896484 351.524993896484 349.59375 351.9375 354.787506103516 
269.212493896484 263.4375 262.037506103516 262.375 260.600006103516 258.75 257.737487792969 259.981262207031 265.424987792969 269.018737792969 264.643737792969 257.912506103516 254.675003051758 254.518753051758 254.131256103516 256.59375 259.818756103516 264.106262207031 265.225006103516 265.768737792969 269.743743896484 270.512512207031 271.5625 273.549987792969 274.875 275.774993896484 276.756256103516 279.350006103516 284.931243896484 288.799987792969 296.887512207031 305.299987792969 315.71875 326.024993896484 336.46875 345.450012207031 353.962493896484 362.168762207031 369.1875 371.743743896484 374.3125 372.418762207031 369.506256103516 367.012512207031 365.243743896484 362.762512207031 361.399993896484 359.399993896484 357.1875 358.237487792969 363.212493896484 
283.831237792969 278.943756103516 278.625 275.15625 269.181243896484 266.956237792969 265.212493896484 265.725006103516 271.168762207031 275.981262207031 268.581237792969 261.368743896484 259.487487792969 258.475006103516 259.162506103516 261.743743896484 265.431243896484 269.456237792969 271.893737792969 272.356262207031 275.731262207031 278.100006103516 280.137512207031 281.893737792969 283.693756103516 286.243743896484 287.537506103516 289.012512207031 292.418762207031 297.606262207031 304.362487792969 313.15625 322.012512207031 335.681243896484 348.587493896484 357.600006103516 368.975006103516 378.40625 386.206237792969 391.087493896484 391.700012207031 389.700012207031 386.256256103516 382.587493896484 379.381256103516 374.875 371.831237792969 369.706237792969 367.756256103516 366.09375 366.481262207031 
296.293762207031 290.918762207031 289.09375 282.825012207031 274.024993896484 269.674987792969 266.350006103516 262.956237792969 262.268737792969 261.875 260.96875 258.975006103516 259.293731689453 259.962493896484 261.893737792969 264.78125 268.631256103516 271.518737792969 273.568756103516 277.03125 280.274993896484 284.518737792969 287.174987792969 290.049987792969 293.225006103516 295.737487792969 297.350006103516 298.237487792969 299.337493896484 302.931243896484 311.912506103516 320.024993896484 329.549987792969 341.662506103516 355.837493896484 367.71875 379.262512207031 390.512512207031 402.856262207031 406.71875 404.200012207031 402.387512207031 398.575012207031 394.793762207031 393.71875 386.09375 380.693756103516 378.149993896484 371.768737792969 371.518737792969 373.825012207031 
304.475006103516 298.399993896484 293.75 287.231262207031 279.325012207031 273.225006103516 264.912506103516 254.493743896484 246.412506103516 245.21875 250.125 253.893753051758 258.043762207031 261.15625 263.793762207031 267.181243896484 269.443756103516 271.299987792969 274.049987792969 278.293762207031 283.84375 289.481262207031 294.012512207031 297.450012207031 303.112487792969 305.162506103516 305.256256103516 305.543762207031 305.018737792969 308.174987792969 315.087493896484 325.850006103516 335.043762207031 347.46875 361.868743896484 374.34375 387.225006103516 399.318756103516 410.956237792969 414.618743896484 413.618743896484 411.568756103516 407.737487792969 403.587493896484 401.149993896484 393.518737792969 383.037506103516 376.287506103516 374.287506103516 371.862487792969 373.587493896484 
310.318756103516 303.524993896484 299.081237792969 292.700012207031 284.143737792969 276.8125 266.943756103516 253.918746948242 239.856246948242 235.431243896484 244.806243896484 252.512496948242 259.693756103516 263.106262207031 266.693756103516 270.618743896484 272.931243896484 274.75 278.899993896484 283.237487792969 287.125 294.806243896484 300.356262207031 309 314.975006103516 315.943756103516 313.024993896484 310.924987792969 311.212493896484 313.043762207031 320.068756103516 330.53125 340.112487792969 351.924987792969 365.1875 379.024993896484 394.393737792969 406.712493896484 417.981262207031 421.700012207031 421.431243896484 419.043762207031 415.825012207031 411.337493896484 405.606262207031 397.462493896484 386.918762207031 377.8125 371.981262207031 367.637512207031 368.549987792969 
315.856262207031 308.481262207031 303.306243896484 296.887512207031 289.337493896484 282.043762207031 272.887512207031 261.03125 250.25 246.537506103516 251.243743896484 255.956253051758 262.631256103516 266.90625 270.3125 274.362487792969 277.481262207031 279.237487792969 282.481262207031 286.512512207031 290.993743896484 299.737487792969 309.118743896484 321.237487792969 325.581237792969 325.912506103516 322.206237792969 318.387512207031 316.168762207031 316.443756103516 321.918762207031 333.637512207031 344.756256103516 357.875 370.96875 384.362487792969 399.125 412.893737792969 424.587493896484 430.293762207031 431.631256103516 429.806243896484 423.649993896484 413.931243896484 408.600006103516 402.78125 392.618743896484 382.174987792969 371.9375 365.793762207031 364.024993896484 
320.875 313.568756103516 307.462493896484 301.481262207031 295.256256103516 289.318756103516 281.318756103516 270.381256103516 262.924987792969 260.293762207031 261.393737792969 264.537506103516 268.412506103516 272.793762207031 275.893737792969 278.862487792969 281.418762207031 283.043762207031 284.75 288.21875 295.131256103516 304.981231689453 318.21875 329.206237792969 337.950012207031 335.181243896484 330.012512207031 327.40625 323.418762207031 321.450012207031 327.262512207031 337.256256103516 347.975006103516 361.100006103516 374.962493896484 387.806243896484 401.987487792969 416.125 428.393737792969 436.856262207031 439.274993896484 435.450012207031 426.693756103516 415.34375 408.674987792969 402.543762207031 390.243743896484 376.106262207031 366.556243896484 364.649993896484 359.618743896484 
323.987487792969 317.28125 311.393737792969 306.487487792969 299.893737792969 295.918762207031 290.299987792969 281.556243896484 275.818756103516 272.693756103516 272.243743896484 273.643737792969 275.625 278.868743896484 283.575012207031 286.21875 286.306243896484 286.506256103516 287.662506103516 289.90625 294.875 306.018737792969 322.475006103516 339.549987792969 346.462493896484 337.981262207031 331.943756103516 329.674987792969 329.393737792969 331.125 333.612487792969 340.850006103516 350.293762207031 362.168762207031 374.731262207031 389.768737792969 405.40625 420.006256103516 431.431243896484 441.587493896484 445.493743896484 439.225006103516 425.481262207031 406.612487792969 394.637512207031 383.649993896484 369.056243896484 360.5 357.65625 359.487487792969 354.212493896484 
326.662506103516 320.043762207031 315.024993896484 309.537506103516 304.200012207031 301.668762207031 296.862487792969 290.643737792969 285.825012207031 284.037506103516 284.424987792969 284.875 286.799987792969 287.262512207031 290.649993896484 292.481262207031 291.575012207031 291.643737792969 292.856262207031 292.987487792969 294.524993896484 305 320.756256103516 335.0625 335.493743896484 329.806243896484 331.493743896484 333.318756103516 335.831237792969 339.049987792969 341.868743896484 345.381256103516 352.231262207031 362.737487792969 374.506256103516 388.412506103516 404.65625 420.243743896484 433.556243896484 445.893737792969 452.40625 443.162506103516 419.068756103516 395.5625 379.193756103516 372.3125 362.131256103516 354.037506103516 352.28125 356.631256103516 361.581237792969 
327.75 322.1875 317.325012207031 312.200012207031 308.075012207031 304.693756103516 301.962493896484 298.924987792969 297.037506103516 295.850006103516 295.725006103516 296.268737792969 296.950012207031 298.424987792969 297.537506103516 298.856262207031 297.331237792969 296.350006103516 296.518737792969 297.25 300.8125 308.381256103516 318.649993896484 326.899993896484 328.149993896484 327.837493896484 331.893737792969 335.881256103516 339.931243896484 343.981262207031 348.518737792969 351.443756103516 354.5 361.21875 371.518737792969 386.681243896484 404.65625 420.274993896484 433.056243896484 444.318756103516 449.96875 433.375 411.46875 392.350006103516 378.137481689453 369.356262207031 361.731262207031 359.337493896484 357.631256103516 363.912506103516 374.600006103516 
328.25 321.681243896484 317.493743896484 314.481262207031 311.356262207031 308.71875 307.9375 306.918762207031 305.71875 305.25 306.131256103516 306.681243896484 307.306243896484 308.03125 304.774993896484 304.731262207031 302.549987792969 302.362487792969 301.537506103516 301.706237792969 305.799987792969 311.34375 317.881256103516 324.450012207031 328.725006103516 332.962493896484 337.856262207031 342.612487792969 348.212493896484 353.100006103516 354.712493896484 355.924987792969 358.743743896484 360 366.225006103516 383.981262207031 404.612487792969 421.381256103516 431.131256103516 436.662506103516 434.431243896484 423.068756103516 410.450012207031 393.356262207031 381.625 373.649993896484 368.612487792969 366.931243896484 368.987487792969 371.806243896484 379.831237792969 
326.162506103516 320.375 317.5625 315.456237792969 313.556243896484 313.756256103516 313.337493896484 312.75 314.299987792969 315.700012207031 316.131256103516 317.637512207031 318.524993896484 318.481262207031 315.037506103516 311.543762207031 308.181243896484 307.825012207031 306.543762207031 306.918762207031 309.649993896484 313.143737792969 317.850006103516 324 329.443756103516 336.162506103516 342.825012207031 349.831237792969 358.056243896484 362.943756103516 365.668762207031 365.462493896484 364.537506103516 364.993743896484 368.793762207031 393.331237792969 412.100006103516 420.643768310547 425.887512207031 429.862487792969 428.181243896484 419.212493896484 407.59375 392.774993896484 382.368743896484 375.424987792969 369.331237792969 367.556243896484 369.387512207031 371.674987792969 377.112487792969 
324.625 320 316.987487792969 316.193756103516 316.03125 317.1875 319.274993896484 320.056243896484 322.274993896484 324.78125 325.612487792969 328.1875 329.924987792969 328.731262207031 326.125 320.556243896484 313.34375 310.893737792969 310.581237792969 310.287506103516 312.118743896484 314.918762207031 319.09375 325.325012207031 332.331237792969 338.293762207031 346.53125 356.137512207031 364.924987792969 372.168762207031 376.21875 376.575012207031 376.537506103516 381.431243896484 399.5 420.193756103516 427.875 427.037506103516 425.837493896484 425.943756103516 427.331237792969 418.256256103516 404.25 390 382.268737792969 375.856262207031 369.481262207031 369.487487792969 372.612487792969 371.912506103516 376.0625 
321.987487792969 318.225006103516 317.399993896484 318.268737792969 319.137512207031 321.162506103516 323.5625 326.075012207031 329.568756103516 332.53125 334.725006103516 339.049987792969 339.899993896484 339.806243896484 336.068756103516 328.725006103516 320.84375 311.631256103516 313.674987792969 312.987487792969 315.512512207031 317.049987792969 319.168762207031 325.206237792969 332.40625 341.381256103516 349.137481689453 361.006256103516 372.975006103516 380.825012207031 383.806243896484 378.481262207031 380.868743896484 392.612487792969 418.0625 449.681243896484 443.256256103516 431.318756103516 423.887512207031 422.918762207031 419.918762207031 411.462493896484 400.512512207031 388.3125 380.662506103516 375.787506103516 370.625 371.487487792969 375.100006103516 372.793762207031 377.543762207031 
318.549987792969 315.856262207031 315.912506103516 318.049987792969 321.037506103516 325.381256103516 329.274993896484 332.850006103516 336.549987792969 340.162506103516 342.956237792969 345.125 348.575012207031 350.100006103516 343.856262207031 334.818756103516 325.15625 315 311.674987792969 311.556243896484 315.450012207031 318.100006103516 315.081237792969 321.962493896484 330.9375 341.65625 352.125 363.268737792969 376.899993896484 387.087493896484 391.9375 382.549987792969 378.543762207031 380.693756103516 398.006256103516 424.931243896484 426.581237792969 422.100006103516 419.8125 416.712493896484 413.868743896484 405.649993896484 397.299987792969 388.143737792969 380.8125 376.006256103516 372.4375 374.212493896484 377.068756103516 369.850006103516 379.299987792969 
312.018737792969 311.5625 312.924987792969 316.481262207031 321.3125 328.362487792969 334.293762207031 339.274993896484 343.674987792969 346.837493896484 349.274993896484 351.100006103516 355.774993896484 359.424987792969 349.743743896484 335.399993896484 321.868743896484 316.299987792969 311.100006103516 309.556243896484 309.837493896484 309.287506103516 310.543762207031 317.03125 326.456237792969 337.006256103516 348.993743896484 362.712493896484 374.8125 382.049987792969 383.700012207031 377.875 365.568756103516 354.037506103516 351.018737792969 372.043762207031 396.325012207031 407.524993896484 411.887512207031 412.306243896484 408.987487792969 402.068756103516 396.418731689453 389.856262207031 383.631256103516 379.15625 375.706237792969 376.5625 376.543762207031 368.375 380.662506103516 
304.243743896484 307.293762207031 311.537506103516 316.174987792969 321.700012207031 330.887512207031 339.637512207031 346.193756103516 351.424987792969 352.725006103516 351.225006103516 351.212493896484 352.03125 354.518737792969 346.131256103516 331.587493896484 318.78125 310.450012207031 306.375 302.825012207031 303.28125 304.274993896484 305.087493896484 313.1875 323.212493896484 334.1875 346.131256103516 358.024993896484 369.237487792969 375.837493896484 375.693756103516 369.524993896484 354.987487792969 335.225006103516 316.168762207031 341.837493896484 378 399.125 408.5625 410.643737792969 408.649993896484 403.649993896484 396.375 390.362487792969 385.981262207031 381.706237792969 378.787506103516 379.462493896484 374.174987792969 371.818756103516 381.850006103516 
297.443756103516 301.631256103516 308.443756103516 314.456237792969 321.4375 333.100006103516 344.225006103516 353.581237792969 359.387512207031 357.34375 350.037506103516 344.325012207031 339.887512207031 338.387512207031 333.081237792969 324.981262207031 317.5625 310.006256103516 304.274993896484 299.149993896484 295.950012207031 294.256256103516 296.662506103516 303.893737792969 314.149993896484 327.331237792969 343.612487792969 356.043762207031 367.043762207031 372.556243896484 371.21875 365.418762207031 354.774993896484 343.46875 338.993743896484 355.700012207031 383.962493896484 404.600006103516 413.899993896484 414.212493896484 410.65625 405.506256103516 399.112487792969 393.418762207031 389.693756103516 385.924987792969 383.131256103516 382.762512207031 376.087493896484 379.587493896484 383.53125 
294.399993896484 300.643737792969 307.287506103516 314.299987792969 321.518737792969 333.262512207031 345.106262207031 358.837493896484 368.206237792969 361.043762207031 348.143737792969 334.8125 324.5 321.956237792969 321.387512207031 318.137512207031 312.981262207031 306.268737792969 299.618743896484 293.518737792969 288.912506103516 284.543762207031 283.631256103516 290.387512207031 302.924987792969 318.543762207031 336.237487792969 350.975006103516 362.274993896484 366.90625 367.543762207031 367.506256103516 366.581237792969 364.774993896484 371.456237792969 385.693756103516 404.53125 418.825012207031 423.412506103516 420.837493896484 414.931243896484 408.78125 402.5625 395.881256103516 392.393768310547 390.149993896484 388.331237792969 386.543762207031 383.600006103516 386.399993896484 387.625 
295.100006103516 301.100006103516 307.649993896484 314.362487792969 321.118743896484 332.018737792969 345.081237792969 358.493743896484 365.893737792969 356.356262207031 340.837493896484 327.087493896484 312.306243896484 310.674987792969 313.03125 312.412506103516 309.575012207031 303.537506103516 295.068756103516 287.40625 280.96875 274.600006103516 271.40625 277.5 288.225006103516 303.524993896484 322.225006103516 340.287506103516 354.918762207031 364.037506103516 370.59375 375.237487792969 380.193756103516 386.293762207031 397.875 413.293762207031 427.893737792969 433.9375 432.174987792969 426.993743896484 420.118743896484 411.924987792969 404.618743896484 396.262512207031 394.337493896484 392.837493896484 391.899993896484 388.356262207031 393.918762207031 391.237487792969 392.418762207031 
301.96875 305.868743896484 309.15625 314.787506103516 321.918762207031 332.168762207031 342 351.243743896484 354.337493896484 348.412506103516 337.975006103516 324.875 315.168762207031 311.375 310.306243896484 310.324981689453 307.543762207031 301.512512207031 293.168762207031 282.837493896484 273.225006103516 264.581237792969 258.424987792969 261.381256103516 272.899993896484 291.549987792969 310.518737792969 332.0625 349.643737792969 364.65625 374.918762207031 383.5 393.75 404.21875 416.443756103516 425.818756103516 436.875 441.762512207031 437.799987792969 433.424987792969 426.037506103516 416.118743896484 405.3125 398.712493896484 391.456237792969 390.037506103516 388.225006103516 398.34375 404.287506103516 399.806243896484 398.34375 
313.037506103516 316.325012207031 315.15625 318.65625 322.09375 330.006256103516 337.65625 343.956237792969 344.75 340.59375 333.543762207031 325.637512207031 318.825012207031 313.9375 311.693756103516 311.256256103516 307.556243896484 301.612487792969 293.368743896484 280.512512207031 269.918762207031 257.018737792969 245.975006103516 244.993743896484 258.65625 280.737487792969 304.318756103516 326.137512207031 346.850006103516 365.331268310547 380.118743896484 393.799987792969 408.075012207031 418.725006103516 428.962493896484 435.518737792969 443.200012207031 447.362487792969 444.143737792969 438.649993896484 431.59375 419.456237792969 404.181243896484 395.262512207031 388.743743896484 387.03125 400.125 412.006256103516 415.075012207031 413.875 410.731262207031 
323.625 322.024993896484 321.087493896484 321.518737792969 322.612487792969 328.262512207031 332.881256103516 336.4375 336.46875 334.774993896484 331.1875 325.774993896484 320.706237792969 316.893737792969 315.200012207031 313.831237792969 312.043762207031 304.799987792969 295.306243896484 283.8125 270.375 255.537506103516 239.618743896484 236.356246948242 253.806243896484 275.768737792969 300.28125 322.162506103516 343.856262207031 363.706237792969 381.537506103516 400.181243896484 418.674987792969 428.431243896484 437.237487792969 443.625 451.149993896484 454.912506103516 452.293762207031 447.868743896484 438.950012207031 424.162506103516 405.918762207031 393.350006103516 395.799987792969 404.537506103516 417.543762207031 425.96875 430.524993896484 425.149993896484 424.231262207031 
334.850006103516 330.100006103516 327.706237792969 326.4375 324.375 327.081237792969 331.212493896484 332.856262207031 332.493743896484 331.462493896484 328.4375 324.5625 321.456237792969 319.006256103516 317.899993896484 316.787506103516 315.893737792969 311.037506103516 302.181243896484 291.081237792969 277.700012207031 262.112487792969 250.768753051758 249.71875 261.549987792969 279.762512207031 301.581237792969 323.356262207031 344.068756103516 362.212493896484 379.850006103516 397.787506103516 417.287506103516 429.387512207031 440.424987792969 448.299987792969 454.362487792969 460.643737792969 459.950012207031 458.318756103516 453.924987792969 436.125 411.831268310547 397.200012207031 410.96875 422.537506103516 434.6875 441.6875 444.837493896484 438.818756103516 435.818756103516 
344.618743896484 337.981262207031 334.106262207031 330.256256103516 328.693756103516 328.831237792969 328.918762207031 329.206268310547 329.15625 327.899993896484 326.600006103516 324.212493896484 321.981262207031 321.056243896484 321.856262207031 322.84375 324.28125 320.262512207031 313.181243896484 303.318756103516 290.043762207031 275.299987792969 265.618743896484 264.631256103516 273.793762207031 287.037506103516 305.612487792969 325.637512207031 345.018737792969 362.137512207031 377.125 392.9375 412.756256103516 428.431243896484 442.375 451.431243896484 457.618743896484 464.768737792969 465.287506103516 463.737487792969 464.831237792969 446.125 421.243743896484 415.712493896484 433 444.75 454.018737792969 461.28125 460.84375 455.862487792969 446.225006103516 
353.012512207031 345.193756103516 339.487518310547 334.268737792969 331.012512207031 328.024993896484 326.825012207031 325.868743896484 325.637481689453 324.268737792969 323.424987792969 323.424987792969 323.887512207031 324.5 326.387512207031 328.575012207031 330.78125 332.306243896484 327.556243896484 315.543762207031 301.600006103516 287.975006103516 278.037506103516 277.912506103516 284.043762207031 294.912475585938 310.981262207031 327.881256103516 344.412506103516 359.600006103516 374.174987792969 388.181243896484 407.450012207031 426.862487792969 443.393737792969 452.71875 460.118743896484 469.118743896484 465.706237792969 464.356262207031 466.8125 460.4375 447.34375 448.943756103516 456.274993896484 472.356262207031 483.731262207031 487.956237792969 484.193756103516 476.456237792969 465.075012207031 
357.950012207031 349.174987792969 342.368743896484 337.356262207031 333.412506103516 328.012512207031 326.024993896484 323.543762207031 322.456237792969 321.237487792969 320.912506103516 321.59375 323.712493896484 324.981262207031 328.431243896484 332.662506103516 338.34375 341.331237792969 340.956237792969 328.71875 313.837493896484 298.887512207031 289.412506103516 288.700012207031 292.556243896484 302.524993896484 315.225006103516 328.631256103516 343.581237792969 357.506256103516 371.5 386.475006103516 406.162506103516 426.393737792969 444.612487792969 453.65625 462.4375 473.112487792969 468.5 458.818756103516 464.981262207031 472.5 473.674987792969 478.068756103516 485.837493896484 508.693756103516 518.96875 520.612487792969 512.65625 499.006256103516 483.875 
359.774993896484 350.6875 343.381256103516 337.762512207031 333.681243896484 327.331237792969 324.262512207031 320.03125 318.306243896484 317.043762207031 316.837493896484 318.325012207031 320.625 324.5 330.03125 336.143737792969 340.043762207031 342.893737792969 342.837493896484 335.368743896484 320.681243896484 307.643737792969 296.90625 295.524993896484 300.618743896484 307.668762207031 317.3125 329.837493896484 341.431243896484 355.612487792969 370.037506103516 385.09375 404.112487792969 424.9375 444.28125 454.893737792969 467.012512207031 477.399993896484 470.4375 466.881256103516 479.618743896484 494.649993896484 503.456237792969 517.15625 529.825012207031 555.993774414062 567.112487792969 561.224975585938 543.424987792969 522.106262207031 502.799987792969 
358.274993896484 350.512512207031 343.037506103516 337.043762207031 331.475006103516 326.049987792969 321.106262207031 315.837493896484 312.5 311.71875 314.212493896484 315.662506103516 319.53125 326.387512207031 331.868743896484 336.950012207031 339.71875 342.700012207031 341.518737792969 336.087493896484 325.068756103516 313.006256103516 302.15625 301.799987792969 305.112487792969 310.112487792969 318.131256103516 328.59375 340.200012207031 353.943756103516 368.543762207031 383.993743896484 404.462493896484 425.881256103516 444.737487792969 459.524993896484 473.268737792969 483.681243896484 481.487487792969 491.0625 506.549987792969 523.256225585938 539.325012207031 558.1875 585.549987792969 621.974975585938 628.400024414062 604.756225585938 577 549.837524414062 523.825012207031 
355.862487792969 349.024993896484 343.299987792969 337.418762207031 331.549987792969 324.556243896484 317.956237792969 311.925018310547 307.443756103516 305.825012207031 307.962493896484 312.981262207031 318.637512207031 324.3125 329.306243896484 335.21875 339.693756103516 341.78125 339.431243896484 334.962493896484 326.53125 315.606262207031 306.549987792969 304.618743896484 306.725006103516 309.543762207031 317.28125 326.012512207031 338.068756103516 351.725006103516 365.862487792969 383.193756103516 405.262512207031 426.943756103516 448.6875 464.924987792969 479.262512207031 490.681243896484 499.293762207031 513.631225585938 529.474975585938 548.618774414062 572.525024414062 596.9375 630.212524414062 665.337524414062 666.587524414062 637.118774414062 605.143737792969 574.587524414062 545.75 
353.443756103516 348.450012207031 343.40625 337.143737792969 329.399993896484 322.299987792969 314.193756103516 308.006256103516 301.225006103516 297.8125 301.018737792969 308.924987792969 317.424987792969 324.043762207031 330.293762207031 334.4375 338.581237792969 340.068756103516 338.012512207031 333.899993896484 326.9375 316.53125 307.649993896484 304.799987792969 306.206237792969 308.524993896484 314.606262207031 323.418762207031 333.331268310547 348.424987792969 364.887512207031 383.068756103516 405.331237792969 428.59375 450.162506103516 466.293762207031 481.931243896484 501.274993896484 515.487487792969 531.362487792969 549.381225585938 567.90625 593 620.200012207031 648.96875 669.106262207031 669.599975585938 650.174987792969 621.950012207031 591.831237792969 563.0625 
351.59375 346.350006103516 340.825012207031 334.518737792969 327.212493896484 319.168762207031 311.450012207031 302.887512207031 293.981262207031 290.262512207031 293.668762207031 303.381256103516 315.181243896484 324.287506103516 329.700012207031 333.875 336.174987792969 337.056243896484 336.268737792969 333.581237792969 326.362487792969 316.131256103516 306.768737792969 304.125 304.193756103516 305.293762207031 310.65625 319.037506103516 328.581237792969 344.15625 362.40625 381.112487792969 402.412506103516 426.825012207031 448.606262207031 464.625 484.1875 504.006256103516 516.981262207031 534.643737792969 554.625 572.693725585938 593.756225585938 621.150024414062 643.231262207031 655.862487792969 657.893737792969 645.868774414062 624 600.450012207031 569.987487792969 
348.337493896484 344.037506103516 338.943756103516 332.481262207031 326.056243896484 318.643737792969 310.056243896484 300.90625 289.581237792969 281.193756103516 287.850006103516 304.268737792969 317.087493896484 324.600006103516 330 332.3125 332.943756103516 333.287506103516 333.21875 329.112487792969 322.668762207031 313.168762207031 304.587493896484 300.299987792969 299.149993896484 299.818756103516 304.962493896484 313.706237792969 322.71875 339.868743896484 358.737487792969 378.206237792969 401.350006103516 426.143737792969 447.631256103516 465.706237792969 485.700012207031 506.018737792969 519.931274414062 533.96875 551.181274414062 568.674987792969 589.587524414062 614.512512207031 634.424987792969 644.075012207031 647.762512207031 639.84375 624.293762207031 604.03125 576.525024414062 
346.649993896484 343.375 337.90625 332.143737792969 327.137512207031 320.625 312.662506103516 302.975006103516 293.262512207031 282.681243896484 297.649993896484 314.793762207031 322.78125 327.881256103516 330.118743896484 331.112487792969 329.137512207031 328.518737792969 327.024993896484 322.081237792969 314.462493896484 306.193756103516 299.899993896484 295.043762207031 293.450012207031 294.168762207031 298.9375 307.931243896484 317.549987792969 335.268737792969 353.975006103516 373.806243896484 397.331237792969 422.774993896484 443.799987792969 464.068756103516 484.03125 501.625 517.474975585938 532.831237792969 545.737487792969 563.549987792969 580.5 596.943725585938 614.893737792969 626.393737792969 633.418762207031 632.081237792969 620.325012207031 602.381225585938 580.462524414062 
348.612487792969 345.337493896484 340.899993896484 335.950012207031 331.424987792969 324.549987792969 318.918762207031 312.09375 308.34375 313.212493896484 330.018737792969 332.600006103516 331.993743896484 332.637512207031 332.856262207031 331.5625 327.931243896484 325.03125 320.875 314.231262207031 305.299987792969 297.606262207031 291.956237792969 288.350006103516 287.431243896484 289.056243896484 294.587493896484 302.631256103516 312.356262207031 329.362487792969 348.262512207031 365.96875 387.006256103516 410.824981689453 434.90625 452.575012207031 470.056243896484 488.649993896484 501.21875 512.893737792969 524.543762207031 540.9375 554.212524414062 568.818786621094 580.737487792969 589.993774414062 595.506225585938 592.587524414062 586.28125 578.143737792969 556.900024414062 
351.956237792969 348.875 344.96875 339.987487792969 336.668762207031 332.825012207031 327.431243896484 325.362487792969 325.056243896484 329.087493896484 336.493743896484 340.212493896484 339.924987792969 337.981262207031 336.850006103516 333.206237792969 327.924987792969 322.424987792969 315 307.1875 297.181243896484 289.337493896484 282.737487792969 279.743743896484 280.637512207031 283.268737792969 288.631256103516 297.181243896484 306.600006103516 322.0625 338.40625 357.825012207031 380.299987792969 401.237487792969 422.862487792969 440.393737792969 455.131256103516 471.168762207031 484.037506103516 491.46875 499.96875 513.606262207031 524.681274414062 535.40625 544.1875 553.006225585938 559.918762207031 560.4375 555.525024414062 548.75 533.168762207031 
354.96875 353.193756103516 349.8125 346.418762207031 342.643737792969 339.15625 335.768737792969 336.412506103516 337.137512207031 340.212493896484 343.174987792969 345.856262207031 346 343.325012207031 341.125 336.981262207031 329.881256103516 321.799987792969 311.787506103516 300.5 288.53125 279.387512207031 273.21875 270.84375 273.981262207031 277.668762207031 283.106262207031 291.568756103516 301.649993896484 316.568756103516 333.056243896484 353.318756103516 372.931243896484 392.306243896484 411.487487792969 427.21875 440.71875 455.399993896484 465.356262207031 469.262512207031 476.506256103516 483.899993896484 490.737487792969 501.412506103516 510.912506103516 520.418762207031 526.168762207031 524.862487792969 523.887512207031 520.493774414062 509.15625 
360.293762207031 359.618743896484 357.862487792969 356.337493896484 353.993743896484 351.737487792969 350.106262207031 350.612487792969 351.575012207031 352.96875 354.587493896484 356.837493896484 356.743743896484 353.431243896484 349.743743896484 343.662506103516 336.137512207031 325.487487792969 313.762512207031 298.287506103516 281.256256103516 269.043762207031 263.162506103516 263.274993896484 268.981262207031 273.399993896484 279.481262207031 287.850006103516 298.78125 313.65625 326.006256103516 345.318756103516 363.481262207031 382.943756103516 402.231262207031 413.712493896484 424.868743896484 437.356262207031 444.918762207031 447.168762207031 450.462493896484 450.862487792969 454.537506103516 467.706237792969 477.356262207031 487.443756103516 491.918762207031 490.931243896484 491.725006103516 487.924987792969 478.387512207031 
366.743743896484 367.956237792969 367.975006103516 365.850006103516 365.056243896484 365.018737792969 364.912506103516 363.793762207031 363.950012207031 365.018737792969 367.018737792969 368.318756103516 367.6875 364.431243896484 359.25 352.412506103516 342.056243896484 333.131256103516 319.9375 297.693756103516 274.081237792969 256.137512207031 252.768753051758 258.137512207031 265.381256103516 271.381256103516 277.831237792969 284.5 295.081237792969 308.237487792969 321.106262207031 333.975006103516 350.368743896484 370.193756103516 390.143737792969 405.5625 412.0625 420.193756103516 424.53125 425.231262207031 428.262512207031 428.181243896484 429.287506103516 437.018737792969 448.193756103516 454.5625 458.924987792969 459.006256103516 460.6875 458.100006103516 451.606262207031 
373.649993896484 376.4375 377.40625 375.96875 377.3125 377.118743896484 376.825012207031 377.1875 376.975006103516 377.662506103516 379.850006103516 380.868743896484 378.962493896484 374.512512207031 368.306243896484 359.449981689453 349.03125 339.6875 328.587493896484 302.987487792969 275.893737792969 253.787506103516 251.556243896484 256.725006103516 263.943756103516 270.40625 276.381256103516 283.712493896484 293 304.737487792969 314.21875 324.9375 339.774993896484 358.100006103516 377.912506103516 397.200012207031 402.137512207031 405.131256103516 406.043762207031 407.056243896484 408.837493896484 409.693756103516 409.456237792969 414.881256103516 421.668762207031 425.818756103516 430.65625 429.4375 427.831237792969 429.006256103516 425.581237792969 
381.068756103516 385.0625 385.950012207031 386.356262207031 387.600006103516 387.387512207031 387.006256103516 387.5 388.024993896484 388.731262207031 388.850006103516 390.618743896484 389.818756103516 385.362487792969 378.787506103516 367.087493896484 354.962493896484 342.075012207031 328.15625 306.012512207031 282.768737792969 266.837493896484 259.231262207031 261.443756103516 267.674987792969 272.625 278.049987792969 285.512512207031 294.256256103516 305.456237792969 313.856262207031 322.143737792969 334.237487792969 348.774993896484 366.09375 384.28125 390.899993896484 391.487487792969 391.1875 392.868743896484 393.299987792969 393.6875 395.34375 395.78125 401.662506103516 404.25 405.962493896484 405.743743896484 402.399993896484 401.899993896484 403.068756103516 
