ncols        51
nrows        45
xllcorner    -63.500000000000
yllcorner    -7.500000000000
cellsize     0.166666666667
NODATA_value -99
309.049987792969 303.331237792969 301.299987792969 309.631256103516 313.8125 321.706237792969 323.649993896484 323.65625 318.831237792969 325.024993896484 334.012512207031 337.762512207031 341.831237792969 341.893737792969 340.143737792969 340.287506103516 337.143737792969 331.731262207031 325.556243896484 322.962493896484 323.912506103516 314.587493896484 306.868743896484 293.649993896484 282.700012207031 273.412506103516 267.5 263.737487792969 252.8125 242.75 228.056243896484 219.981246948242 214.625 204.931243896484 196.449996948242 190.912506103516 185.268753051758 181.543746948242 176.3125 173.574996948242 173.693756103516 178.631256103516 177.381256103516 178.524993896484 178.881256103516 182.443756103516 189.268753051758 194.90625 199.837493896484 207.84375 216.65625 
304.081237792969 298.424987792969 302.331237792969 307.693756103516 315.881256103516 322.806243896484 323.762512207031 322.581237792969 325.506256103516 330.800018310547 335.725006103516 336.325012207031 330.837493896484 327.78125 323.756256103516 321.674987792969 316.131256103516 308.231262207031 302.268737792969 301.850006103516 301.174987792969 293.768737792969 289.325012207031 279.556243896484 268.856262207031 258.59375 253.4375 247.181243896484 237.643753051758 224.237503051758 214.3125 210.743743896484 203.306243896484 195.568756103516 188.637496948242 179.90625 174.862503051758 169.71875 165.199996948242 163.25 165.600006103516 163.087509155273 166.868743896484 168.087493896484 172.893753051758 176.112503051758 182.75 187.524993896484 190.856246948242 200.5 210.212493896484 
297.106262207031 299.818756103516 304.049987792969 305.149993896484 314.5 324.706237792969 328.887512207031 336.850006103516 341.737487792969 347.106262207031 348.762512207031 343.943756103516 339.612487792969 328.325012207031 320.924987792969 316 307.049987792969 299.462493896484 293.9375 290.837493896484 290.225006103516 288.868743896484 282.931243896484 277.21875 261.943756103516 249.449996948242 247.949996948242 238.981246948242 225.975006103516 219.006256103516 207.65625 200.756240844727 193.050003051758 187.081253051758 178.199996948242 166.268753051758 163.074996948242 160.612503051758 157.53125 156.912506103516 161.193756103516 161.5 163.574996948242 164.012496948242 170.012496948242 170.956253051758 179.212493896484 186.356246948242 188.143753051758 195.668746948242 203.731246948242 
288.8125 286.362487792969 296.924987792969 304.556243896484 310.643737792969 320.918762207031 331.543762207031 342.331237792969 353.700012207031 362.668762207031 360.868743896484 351.537506103516 341.125 327.918762207031 319.931243896484 312.831237792969 299.024993896484 292.681243896484 287.106262207031 292.15625 288.450012207031 279.637512207031 275.28125 270.899993896484 254.5625 241.743743896484 236.4375 224.774993896484 215.962493896484 210.199996948242 201.662506103516 192.331253051758 184.550003051758 174.337493896484 165.931243896484 162.862503051758 160 155.262496948242 152.425003051758 152.556243896484 156.131256103516 160.681243896484 162.918746948242 163.175003051758 170.162506103516 168.337493896484 175.475006103516 180.918746948242 185.087493896484 187.96875 199.581253051758 
303.28125 297.143737792969 289.9375 300.368743896484 315.024993896484 320.637512207031 331.918762207031 349.456237792969 369.024993896484 380.712493896484 377.962493896484 356.075012207031 344.068756103516 331.606262207031 317.918762207031 308.006256103516 296.268737792969 283.168762207031 276.793762207031 278.84375 274.40625 270.018737792969 266.587493896484 259.950012207031 243.837493896484 232.243759155273 223.524993896484 217.993759155273 209.5625 199.90625 194.956253051758 188.600006103516 179.118743896484 170.818756103516 165.362503051758 158.399993896484 154.981246948242 152.8125 149.399993896484 148.324996948242 152.762496948242 157.587493896484 161.774993896484 165.75 169.362503051758 169.168746948242 170.056243896484 174.0625 177.818756103516 183.387496948242 191.743743896484 
304.600006103516 305.168762207031 300.143737792969 290.518737792969 309.462493896484 328.106262207031 334.918762207031 347.818756103516 373.212493896484 388.493743896484 378.924987792969 357.962493896484 346.200012207031 333.456237792969 315.75 304.4375 290.143737792969 277.081237792969 273.868743896484 272.137512207031 270.40625 264.149993896484 258.318756103516 245.824996948242 235.443756103516 225.518753051758 214.856246948242 209.431243896484 202.149993896484 193.668746948242 191.568756103516 186.387496948242 180.975006103516 172.3125 163.631256103516 163.493743896484 158.199996948242 151.212493896484 152.143753051758 156.918746948242 158.506256103516 164.949996948242 167.21875 170.574996948242 178.212509155273 174.756256103516 172.712493896484 176 175.725006103516 178.862503051758 188.125 
313.46875 311.806243896484 308.731262207031 305.262512207031 304.012512207031 308.206237792969 314.293762207031 334.237487792969 348.100006103516 362.806243896484 363.118743896484 348.512512207031 342.318756103516 333.825012207031 317.131256103516 303.381256103516 291.668762207031 278.625 268 266.649993896484 257 251.256256103516 243.449996948242 235.550003051758 230.887496948242 221.287506103516 210.118743896484 202.118743896484 194.900009155273 194.418746948242 187.643753051758 180.137496948242 174.4375 171.387496948242 169.46875 165.699996948242 157.712493896484 154.46875 155.068756103516 161.21875 163.162506103516 167.987503051758 173.0625 176.668746948242 179.168746948242 182.262496948242 176.550003051758 170.300003051758 172.831253051758 178.125 187.362503051758 
318.549987792969 311.924987792969 310.450012207031 316.049987792969 315.787506103516 323.193756103516 312.600006103516 304.912506103516 305.131256103516 324.481262207031 337.493743896484 335.850006103516 334.799987792969 327.75 318.65625 305.231262207031 288.331237792969 276.3125 264.506256103516 253.8125 257.049987792969 246.587493896484 236.362503051758 227.837493896484 223.318756103516 211.681243896484 202.493743896484 194.837493896484 188.268753051758 183.706253051758 185.412506103516 178.162506103516 174.606246948242 170.962509155273 165.1875 161.600006103516 158.09375 155.75 153.449996948242 155.481246948242 160.087493896484 168.412506103516 169.512496948242 169.837493896484 169.925003051758 167.662506103516 164.237503051758 165 167 170.068756103516 182.074996948242 
321.106262207031 319.03125 314.024993896484 315.993743896484 318.868743896484 317.53125 318.350006103516 316.212493896484 304.106262207031 300.668762207031 308.206237792969 313.575012207031 323.787506103516 320.912506103516 314.274993896484 300.3125 294.568756103516 285.65625 275.737487792969 259.643737792969 244.706253051758 244.537506103516 228.018753051758 226.381256103516 216.368743896484 206.40625 197.868743896484 192.993743896484 191.21875 186.300003051758 189.03125 175.106246948242 165.556259155273 161.34375 161.556243896484 164.918746948242 165.0625 165.65625 163.506256103516 161.699996948242 162.081253051758 163.018753051758 170.881256103516 170.649993896484 163.09375 159.181243896484 158.993743896484 157.456253051758 156.475006103516 162.618743896484 169.84375 
324.006256103516 324.368743896484 320.643737792969 322.043762207031 323.575012207031 320.03125 318.3125 310.456237792969 309.475006103516 307.65625 304.637512207031 295.21875 308.850006103516 312.59375 310.125 303.299987792969 294.037506103516 293.856262207031 284.456237792969 273.162506103516 252.125 238.618743896484 219.668746948242 214.393753051758 203.293746948242 198.356246948242 191.837493896484 185.824996948242 181.012496948242 182.006256103516 182.556243896484 173.668746948242 169.631256103516 167.131256103516 163.800003051758 165.550003051758 168.943756103516 172.537506103516 173.15625 177.412506103516 180.681243896484 180.731246948242 174.756256103516 166.731246948242 159.59375 158.375 157.806243896484 157.824996948242 158.762496948242 157.600006103516 155.699996948242 
330.700012207031 329.25 325.28125 324.168762207031 322.112487792969 322.362487792969 312.756256103516 305.043762207031 307.293762207031 308.34375 308.71875 301.056243896484 297.487487792969 303.162506103516 301.125 298.237487792969 292.331237792969 285.143737792969 282.106262207031 280.037506103516 273.25 250.868743896484 221.537506103516 195.03125 192.943756103516 198.3125 194.262496948242 184.993743896484 176.606246948242 175.806243896484 176.03125 171.431243896484 170.506256103516 169.987503051758 169.074996948242 167.943756103516 171.987503051758 174.125 182.293746948242 184.743743896484 186.837493896484 183.25 181.050003051758 166.806243896484 154.212493896484 149.962493896484 156.331253051758 158.824996948242 159.050003051758 158.274993896484 152.412506103516 
329.475006103516 329.631256103516 330.575012207031 324.681243896484 323.668762207031 318.237487792969 316.899993896484 311.768737792969 311.100006103516 302.237487792969 305.581237792969 302.556243896484 287.162506103516 292.21875 298.90625 294.793762207031 289.043762207031 284.337493896484 284.137512207031 292.268737792969 286.337493896484 265.65625 232.856246948242 199.518753051758 189.425003051758 185.625 179.449996948242 175.774993896484 173.412506103516 170.918746948242 164.65625 165.331253051758 166.606246948242 164.074996948242 167.337493896484 172.581253051758 179.675003051758 183.943756103516 183.081253051758 191.037506103516 194.193756103516 188.78125 173.193756103516 149.699996948242 134.399993896484 128.324996948242 131.443756103516 149.068756103516 153.831253051758 150.481246948242 141.25 
334.131256103516 331.943756103516 329.931243896484 324.3125 324.96875 316.587493896484 312.799987792969 308.618743896484 302.424987792969 297.568756103516 297.068756103516 298.112487792969 293.487487792969 278.568756103516 278.668762207031 281.293762207031 279.068756103516 278.606262207031 269.487487792969 274.90625 274.375 255.743743896484 230.068756103516 202.387496948242 180.068756103516 173.262496948242 172.5 171.300003051758 171.375 172.293746948242 165.056243896484 159.84375 164.993743896484 161.225006103516 164.193756103516 172.350006103516 184.875 193.3125 205.100006103516 206.987503051758 200.649993896484 191.462493896484 166.625 146.862503051758 139.087509155273 136.756256103516 137.600006103516 138.831253051758 140.881256103516 142.462493896484 141.4375 
334.774993896484 333.018737792969 328.649993896484 324.112487792969 318.918762207031 313.5625 306.581237792969 304.9375 301.068756103516 292.375 288.924987792969 284.118743896484 283.399993896484 276.112487792969 258.225006103516 266.03125 262.725006103516 258.318756103516 253.637496948242 256.006256103516 252.956253051758 236.71875 216.125 199.306243896484 183.456253051758 170.881256103516 165.399993896484 162.081253051758 161.806243896484 162.050003051758 162.268753051758 159.881256103516 161.78125 164.59375 163.856246948242 179.587493896484 198.193756103516 213.743743896484 226.737503051758 224.175003051758 199.143753051758 180.774993896484 173.5625 173.668746948242 171.381256103516 160.568756103516 155.993743896484 156.1875 154.556243896484 158.931243896484 153.243743896484 
325.200012207031 324.131256103516 323.825012207031 321.850006103516 316.037506103516 310.225006103516 305.862487792969 300.5 294.450012207031 287.037506103516 279.649993896484 276.012512207031 273.481262207031 263.350006103516 242.225006103516 246.074996948242 245.293746948242 246.643753051758 237.143753051758 236.699996948242 235.606246948242 222.550003051758 209.649993896484 198.756256103516 191.306243896484 180.818756103516 175.65625 170.774993896484 171.475006103516 165.449996948242 158.693756103516 159.699996948242 168.46875 165.21875 159.524993896484 166.787506103516 195.75 225.725006103516 234.743743896484 225.981246948242 213.987503051758 204.949996948242 204.3125 189.53125 179.481246948242 176.568756103516 178.6875 181.181243896484 179.443756103516 168.318756103516 155.706253051758 
319.256256103516 315 315.106262207031 310.3125 311.131256103516 307.106262207031 300.706237792969 293.081237792969 290.306243896484 287.618743896484 278.731231689453 272.950012207031 269.787506103516 260.112487792969 242.262496948242 219.600006103516 224.331253051758 231.037506103516 223.074996948242 221.912506103516 218.587509155273 209.893753051758 203.106246948242 199.881256103516 194.331253051758 185.556243896484 177.993743896484 175.431243896484 173.368743896484 174.693756103516 170.699996948242 165.393753051758 159.824996948242 154.262496948242 150.137496948242 178 193.487503051758 215.256256103516 232.274993896484 239.8125 241.018753051758 233.375 217.6875 194.987503051758 181.131256103516 174.800003051758 174.71875 171.706253051758 174.074996948242 169.518753051758 159.493743896484 
309.912506103516 308.418762207031 304.875 306.043762207031 306.299987792969 304.049987792969 297.756256103516 292.306243896484 282.262512207031 275.818756103516 272.09375 268.806243896484 260.918762207031 251.631256103516 243.399993896484 223.181243896484 199.556243896484 204.1875 206.956253051758 204.568756103516 198.881256103516 196.243743896484 191.637496948242 196.806243896484 192.756256103516 179.331253051758 173.09375 170.462493896484 175.018753051758 178.0625 178.862503051758 178.006256103516 172.637496948242 173.731246948242 186.868743896484 199.59375 219.368743896484 237.168746948242 253.087493896484 246.143753051758 246.824996948242 232.262496948242 209.831253051758 194.043746948242 181.96875 176 176.006240844727 177.643753051758 175.949996948242 162.487503051758 154.512496948242 
295.418762207031 295.681243896484 298.168762207031 299.6875 301.193756103516 302.475006103516 294.825012207031 288.106262207031 277.918762207031 266.131256103516 258.21875 258.962493896484 249.399993896484 241.918746948242 237.425003051758 223.381256103516 201.068740844727 179.087493896484 194.362503051758 186.600006103516 181.456253051758 179.487503051758 182.28125 186.518753051758 187.893753051758 175.881256103516 167.09375 172.1875 175.96875 175.118743896484 167.693756103516 161.831253051758 186.143753051758 194.087493896484 201.193756103516 236.850006103516 253.0625 249.78125 253.78125 249.875 229.074996948242 210.243743896484 192.587493896484 182.03125 174.78125 173.4375 175.087493896484 174.975006103516 171.993743896484 155.856246948242 155.625 
282.306243896484 286.674987792969 289.587493896484 293.112487792969 296.568756103516 293.387512207031 287.806243896484 280.46875 273.106262207031 264.456237792969 254.112503051758 242.074996948242 234.743743896484 230.581253051758 222.237503051758 212.418746948242 204.5625 179.293746948242 168.018753051758 165.03125 167.537506103516 172.625 158.84375 168.868743896484 171.574996948242 175.09375 173.71875 170.125 177.699996948242 176.3125 171.556243896484 174.28125 188.524993896484 194.15625 209.199996948242 235.574996948242 242.225006103516 237.03125 238.850006103516 227.581253051758 209.524993896484 186.975006103516 177.168746948242 172.449996948242 170.21875 170.6875 174.5 174.162506103516 166.231246948242 148.949996948242 157.899993896484 
273.581237792969 278.956237792969 279.774993896484 277.09375 278.799987792969 283.424987792969 279.600006103516 271.587493896484 269.712493896484 263.106262207031 254.306243896484 247.350006103516 237.4375 226.112503051758 214.725006103516 193.4375 179.84375 180.368743896484 168.75 167.71875 151.362503051758 149.399993896484 157.0625 161.037506103516 157.587493896484 155.225006103516 156.181243896484 167.03125 165.037506103516 161.356246948242 162.768753051758 181.893753051758 190.368743896484 194.693756103516 201.743743896484 218.037506103516 228.600006103516 225.449996948242 218.574996948242 207.943756103516 188.03125 165.306243896484 164.056243896484 163.081253051758 161.456253051758 163.518753051758 167.15625 166.206253051758 159.625 153.112503051758 163.03125 
249.074996948242 267.256256103516 275.612487792969 275.131256103516 268.212493896484 267.581237792969 270.03125 266.993743896484 262.868743896484 254.668746948242 249.3125 241.53125 231.118743896484 216.181243896484 201.506256103516 191.425003051758 177.181243896484 170.868743896484 173.318756103516 168.193740844727 170.793746948242 170.149993896484 172.943756103516 181.0625 180.081253051758 172.012496948242 159.762496948242 160.96875 163.0625 167.268753051758 171.356246948242 182.956253051758 179.206253051758 181.668746948242 186.274993896484 201.15625 213.65625 215.956253051758 204.837493896484 193.15625 180.09375 162.824996948242 158.837493896484 159.1875 158.912506103516 161.768753051758 165.649993896484 162.743743896484 154.59375 161.756256103516 164.181243896484 
240.956253051758 245.600006103516 258.950012207031 266.706237792969 264.450012207031 260.018737792969 260.0625 256.706237792969 252.193756103516 250.15625 244.65625 233.118743896484 221.8125 214.25 206.556243896484 190.699996948242 193.418746948242 183.462493896484 186.162506103516 182.881256103516 175.712493896484 182.056243896484 185.418746948242 183.368743896484 178.024993896484 171.706253051758 172.231246948242 166.637496948242 173.181243896484 176.993743896484 174.143753051758 170.387496948242 170.71875 178.287506103516 179.831253051758 186.8125 196.337493896484 203.462493896484 197.993743896484 189.068740844727 176.456253051758 164.487503051758 160.206253051758 161.431243896484 159.462493896484 160.03125 161.8125 159.024993896484 152.949996948242 167.043746948242 168.100006103516 
233.862503051758 252.331253051758 264.318756103516 270.243743896484 268.34375 260.450012207031 246.556243896484 240.868743896484 245.46875 242.725006103516 236.693756103516 232.475006103516 231.0625 226.662506103516 217.949996948242 207.21875 196.043746948242 188.706253051758 189.256256103516 191.28125 194.012496948242 190.650009155273 186.162506103516 185.587493896484 188.418746948242 181.793746948242 174.881256103516 172.84375 175.143753051758 169.350006103516 165.131256103516 164.78125 162.912506103516 164 172.487503051758 173.800003051758 177.75 185.699996948242 188.262496948242 184.668746948242 174.024993896484 165.399993896484 160.237503051758 157.706253051758 159.725006103516 160.725006103516 156.137496948242 152.318756103516 157.699996948242 171.34375 173.574996948242 
221.668746948242 242.393753051758 262.75 262.868743896484 258.368743896484 250.71875 249.068756103516 242.431243896484 235.712493896484 227.943756103516 231.756256103516 237.056243896484 231.237503051758 230.524993896484 216.931243896484 207.899993896484 200.149993896484 200.237503051758 199.274993896484 198.637496948242 199.618743896484 201.762496948242 195.550003051758 201.662506103516 196.387496948242 186.15625 185.975006103516 173.0625 167.53125 164.012496948242 158.699996948242 156.706253051758 157.40625 155.662506103516 161.731246948242 161.537506103516 168.34375 176.21875 176.587493896484 173.125 166.962493896484 161.9375 158.412506103516 157.59375 162.243743896484 157.106246948242 147.75 145.912506103516 155.631256103516 168.637496948242 171.506256103516 
207.168746948242 230.96875 247.875 258.706237792969 258.631256103516 250.975006103516 245.40625 242.649993896484 234.443756103516 233.850006103516 230.375 228.862503051758 230.168746948242 220.931243896484 209.40625 202.731246948242 199.893753051758 196.84375 199.306243896484 204.237503051758 205.387496948242 203.662506103516 207.956253051758 210.550003051758 198.556243896484 188.356246948242 180.824996948242 172.131256103516 164.068756103516 159.993743896484 149.518753051758 142.931243896484 143.318756103516 147.043746948242 150.774993896484 154.324996948242 159.5625 163.293746948242 167.350006103516 165.981246948242 161.731246948242 159.618743896484 158.981246948242 154.243743896484 153.537506103516 147.5625 136.893753051758 137.918746948242 142.112503051758 160.125 171.206253051758 
201.787506103516 229.21875 234.393753051758 245.324996948242 244.893753051758 240.731246948242 233.943756103516 232.381256103516 219.75 213.199996948242 218.03125 216.875 217.03125 211.25 205.881256103516 196.449996948242 194.9375 198.081253051758 201.943740844727 201.356246948242 204.731246948242 206.306243896484 209.081253051758 208.481246948242 202.143753051758 188.668746948242 179.956253051758 170.737503051758 158.293746948242 151.268753051758 140.59375 133.3125 133.71875 136.143753051758 139.375 146.925003051758 152.768753051758 154.1875 154.899993896484 158.143753051758 155.143753051758 145.543746948242 144.512496948242 145.887496948242 148.050003051758 144.043746948242 139.168746948242 134.975006103516 144.199996948242 164.074996948242 170.6875 
192.737503051758 205.612503051758 218.337493896484 225.712493896484 225.831253051758 223.9375 219.375 208.59375 201.831253051758 206.90625 212.28125 210.106246948242 205.350006103516 202.21875 200.100006103516 197.693756103516 193.15625 189.875 195.543746948242 195.71875 195.449996948242 198.556243896484 203.9375 210.90625 197.106246948242 184.675003051758 176.131256103516 164.037506103516 152.025009155273 143.043746948242 135.350006103516 124.650001525879 124.21875 127.543746948242 131.881256103516 137.293746948242 145.487503051758 147.337493896484 145.975006103516 150.768753051758 151.587493896484 145.518753051758 139.643753051758 138.368743896484 140.368743896484 143.400009155273 145.600006103516 138.324996948242 141.324996948242 152.412506103516 154.606246948242 
185.300003051758 189.762496948242 198.8125 200.53125 201.087493896484 203.4375 202.087493896484 195.175003051758 192.668746948242 197.956253051758 199.318756103516 198.443756103516 192.9375 188.081253051758 186.112503051758 184.71875 181.956253051758 183.731246948242 182.512496948242 186.762496948242 189.462493896484 188.581253051758 196.75 196.731246948242 188.043746948242 175.65625 167.0625 155.362503051758 147.987503051758 141.181243896484 131.568756103516 123.34375 121.324996948242 120.087501525879 127.543746948242 132.34375 140.131256103516 141.412506103516 143.006256103516 146.09375 147.537506103516 146.40625 134.600006103516 135.737503051758 134.4375 138.050003051758 138.681243896484 138.587493896484 138.037506103516 133.518753051758 135.393753051758 
173.40625 181.606246948242 179.931243896484 178.274993896484 181.318756103516 177.418746948242 179.0625 181.149993896484 183.887496948242 184.918746948242 187.399993896484 185.074996948242 182.53125 178.8125 177.206253051758 176.65625 177.024993896484 175.456253051758 178.225006103516 182.050003051758 180.25 178.6875 180.5 179.412506103516 173.606246948242 162.568756103516 158.550003051758 152.043746948242 143.293746948242 133.268753051758 123.193748474121 117.362503051758 115.262496948242 118.293746948242 121.78125 125.974998474121 135.324996948242 134.212493896484 136.556243896484 137.837493896484 137.149993896484 133.850006103516 129.96875 134.943756103516 135.412506103516 132.206253051758 135.518753051758 132.712493896484 130.387496948242 125.693748474121 119.393753051758 
163 165.793746948242 164.699996948242 161.537506103516 161.875 163.475006103516 164.331253051758 170.862503051758 171.831253051758 174.59375 176.625 176.368743896484 174.824996948242 172.243743896484 168.53125 165.293746948242 163.675003051758 166.368743896484 162.84375 160.462493896484 163.756256103516 163.556243896484 164.824996948242 164.0625 157.012496948242 153.600006103516 148.1875 141.006256103516 134.012496948242 124.493751525879 116.574996948242 110.893753051758 111.731246948242 115.331253051758 120.824996948242 122.318748474121 133.0625 132.393753051758 128.318756103516 135.081253051758 133.6875 130.068756103516 130.318756103516 128.212493896484 127.931251525879 131.262496948242 126.168746948242 125.618751525879 123.743751525879 119.112503051758 111.28125 
155.487503051758 154.756256103516 151.481246948242 149.8125 149.850006103516 150.743743896484 154.418746948242 158.431243896484 159.431243896484 163.84375 167.03125 164.668746948242 166.043746948242 156.993743896484 155.306243896484 157.412506103516 156.887496948242 154.125 151.5625 150.962493896484 150.493743896484 147.506256103516 148.518753051758 149.162506103516 144.8125 142.668746948242 136.850006103516 131.381256103516 124.46875 117.300003051758 114.34375 109.9375 109.512496948242 110.59375 115.25 117.525001525879 125.799995422363 128.46875 125.362503051758 122.293746948242 124.643753051758 122.125 121.84375 121.762496948242 124.21875 122.699996948242 117.175003051758 115.46875 113.3125 111.875 108.46875 
146.868743896484 145.237503051758 140.106246948242 140.143753051758 143.399993896484 143.975006103516 145.631256103516 147.899993896484 150.34375 151.399993896484 150.931243896484 150.699996948242 147.387496948242 146.125 146.881256103516 146.331253051758 141.243743896484 138.524993896484 137.399993896484 137.46875 136.337493896484 135.25 132.550003051758 132.143753051758 132.21875 129.443756103516 126.193748474121 121.78125 115.612503051758 115 110.862503051758 106.693748474121 107.543746948242 108.118751525879 111.349998474121 112.206253051758 117.0625 116.90625 117.856246948242 117.262496948242 120.256248474121 118.962501525879 117.224998474121 116.875 118.025001525879 118.493751525879 117.28125 112.712501525879 108.743751525879 106.425003051758 102.46875 
137.981246948242 136.612503051758 134.949996948242 135.212493896484 134.118743896484 135.056243896484 136.649993896484 139.34375 139.087493896484 139.993743896484 144.3125 142.012496948242 140 141.287506103516 141.493743896484 135.6875 129.543746948242 129.75 128.393753051758 127.25 122.987503051758 120.137496948242 119.375 119.587501525879 118.474998474121 117.193748474121 114.112503051758 110.112503051758 107.006248474121 107.493751525879 106.09375 101.537498474121 103.293746948242 106.881248474121 108.474998474121 109.118751525879 110.006248474121 109.912498474121 110.9375 115.28125 117.993751525879 116.1875 112.431251525879 110.824996948242 109.081253051758 111.050003051758 115.21875 109.306251525879 106.637496948242 97.875 95.3499984741211 
128.925003051758 129.59375 131.40625 130.556243896484 128.556243896484 128.012496948242 130.387496948242 129.618743896484 128.393753051758 128.012496948242 132.081253051758 134.268753051758 133.206253051758 130.862503051758 128.274993896484 126.168746948242 123.09375 120.074996948242 115.849998474121 114.537498474121 112.012496948242 108.400001525879 108.712501525879 106.668746948242 106.974998474121 104.337501525879 103.943748474121 101.206253051758 100.743751525879 101.256248474121 102.206253051758 101.5 99.4437484741211 101.15625 104.75 105.599998474121 105.599998474121 105.131248474121 106.818748474121 109.287498474121 109.3125 110.462501525879 109.074996948242 102.243751525879 104.462501525879 107.318748474121 105.868751525879 99.6062469482422 96.3187484741211 94.8000030517578 92.6937484741211 
122.90625 121.125 124.581253051758 126.724998474121 124.868751525879 120.574996948242 118.993751525879 119.65625 118.918746948242 118.243751525879 125.262496948242 128.637496948242 128.65625 130.78125 127.4375 121.1875 114.5625 108.431251525879 104.181251525879 98.96875 99.9749984741211 95.4937515258789 93.8874969482422 92.7874984741211 96.0062484741211 95.4124984741211 94.4000015258789 91.40625 90.7375030517578 91.875 94.75 96.7062530517578 94.46875 95.7750015258789 97.1937484741211 99.4250030517578 97.7562484741211 102.143753051758 101.012496948242 103.262496948242 103.53125 101.868751525879 101.793746948242 98.15625 98.8499984741211 98.6187515258789 97.15625 96.1125030517578 90.8874969482422 90.8562469482422 86.6500015258789 
116.543746948242 114.625 116.056251525879 118.037498474121 117.787498474121 114.881248474121 113.03125 111.012496948242 108.637496948242 107.53125 110.525001525879 119.724998474121 123.837501525879 123.918746948242 120.574996948242 114.4375 106.487503051758 98.21875 93.0250015258789 87.2249984741211 85.5124969482422 85.6187515258789 83.25 82.3187484741211 84.7125015258789 84.2125015258789 83.34375 81.3499984741211 82.2750015258789 83.6374969482422 85.40625 88.2249984741211 88.6125030517578 88.8000030517578 88.4499969482422 90.8562469482422 94.1812515258789 94.1062469482422 94.9000015258789 97.78125 98.1750030517578 95.53125 94.78125 94.5749969482422 92.6500015258789 89.7562484741211 90.7562484741211 87.6437530517578 85.9812469482422 81.8937530517578 79.3562469482422 
106.993751525879 109.418746948242 107.9375 110.037498474121 111.537498474121 108.993751525879 106.625 106.087501525879 102.893753051758 96.5875015258789 103.199996948242 115.856246948242 120.743751525879 117.556251525879 113.537498474121 106.75 99.375 92.4625015258789 86.6187515258789 78.5687484741211 75.5374984741211 76.4000015258789 74.1937484741211 73.9499969482422 73.65625 73.4875030517578 74.9124984741211 73.375 72.5187530517578 73.2562484741211 77.8687515258789 79.4499969482422 81.3562545776367 82.9499969482422 82.7874984741211 84.8874969482422 88.1437530517578 90.9124984741211 89.8062515258789 89.7062530517578 89.8125 90.2687530517578 87.25 93.0562515258789 90.4250030517578 85.4625015258789 88.625 82.1187515258789 79.4625015258789 77 72.4875030517578 
98.28125 101.006248474121 102.006248474121 105.056251525879 105.362503051758 103.987503051758 103.306251525879 102.418746948242 100.78125 93.9312515258789 106.71875 117.356246948242 116.918746948242 114.175003051758 106.425003051758 98.9375 91.0749969482422 85.5749969482422 80.9250030517578 74.65625 70.2750015258789 68.8000030517578 65.7750015258789 65.7312545776367 64.8562469482422 66.0437469482422 67.21875 65.8562469482422 65.0749969482422 65.4187469482422 68.2624969482422 73.0187530517578 75.6812515258789 76 76.4562530517578 79.0875015258789 81.5500030517578 82.9499969482422 87 85.3499984741211 84.2624969482422 85.71875 81.9375 81.7937469482422 81.6500015258789 79.9812469482422 81.5374984741211 77.5062484741211 70.40625 69.2375030517578 66.28125 
91.4124984741211 92.1437530517578 94.0187530517578 96.28125 97.7874984741211 99.3625030517578 98.6062469482422 99.8874969482422 101.525001525879 110.787498474121 126.431251525879 122.574996948242 113.068748474121 105.956253051758 98.375 90.0812530517578 84.2125015258789 79.0374984741211 74.375 70.0749969482422 65.15625 62.4937515258789 59.9437484741211 59.28125 58.9625015258789 60.65625 60.5562515258789 58.96875 58.3875007629395 60.34375 63.3375015258789 65.6125030517578 67.0374984741211 68.8375015258789 72.0812530517578 72.4437484741211 74.5812530517578 75.59375 74.7249984741211 73.8874969482422 76.3499984741211 78.1062469482422 76.7624969482422 76.5687484741211 74.6062469482422 72.8375015258789 70.7249984741211 66.0749969482422 62.7312507629395 62.1624984741211 60.4500007629395 
82.46875 84.7687530517578 87.25 87.9812469482422 92.0999984741211 95.0999984741211 93.40625 98.25 102.118751525879 109.768753051758 113.418746948242 112.993751525879 106.068748474121 99.1687545776367 92.5 86.7375030517578 79.3499984741211 73.8125 68.5500030517578 64.7437515258789 60.6187515258789 58.1500015258789 54 53.9312515258789 52.53125 52.6187477111816 53.6749992370605 52.8624992370605 52.21875 53.1124992370605 54.9249992370605 57.7249984741211 58.1500015258789 61.5125007629395 62.0750007629395 63.6437492370605 65.3625030517578 68.0437469482422 67.6187515258789 67.3562469482422 70.40625 71.1624984741211 68.4000015258789 67.1187515258789 64.4375 64.5999984741211 62.46875 61.1437492370605 58.9375 58.0875015258789 55.0062484741211 
77.15625 77.9187469482422 79.9562530517578 82.5437469482422 84.8687515258789 85.6812515258789 86.5250015258789 92.0687484741211 95.1437530517578 100 101.59375 99.9000015258789 96.7937545776367 89.4875030517578 85.5124969482422 78.6875 74.0687484741211 69.5250015258789 63.125 58.9812507629395 56.3125 53.0250015258789 50.4249992370605 49.9124984741211 48.3937492370605 46.5812492370605 47.3562507629395 48.1312484741211 48.1375007629395 47.4375 50.4874992370605 52.875 51.3687515258789 53.7062492370605 55.1187515258789 56.2750015258789 56.875 60.4249992370605 60.0750007629395 59.4312515258789 63.2437515258789 62.5125007629395 60.0499992370605 58.65625 59.9937515258789 58.90625 56.2312507629395 54.0437507629395 56.46875 55.28125 51.1749992370605 
73.5062484741211 74.9562530517578 74.21875 77.6999969482422 78.5062484741211 81.125 81.2562484741211 85.2312469482422 88.4437484741211 88.96875 90.3000030517578 87.8937530517578 85.7687530517578 80.9749984741211 76.9000015258789 72.2125015258789 68.6687469482422 63.6812515258789 59.6875 55.3187484741211 51.5250015258789 48.2874984741211 45.7999992370605 44.9625015258789 43.9375 41.8562507629395 41.9500007629395 42.8312492370605 43.4562492370605 42.3062515258789 42.9937515258789 45.7312507629395 47.125 49.8375015258789 49.0374984741211 48.5875015258789 49.46875 51.1749992370605 51.375 52.7874984741211 54.4124984741211 54.0687484741211 53.9187507629395 53.53125 52.1875 50.8687515258789 47.6875 45.1749992370605 46.0687484741211 46.8499984741211 45.1187515258789 
68.8812484741211 69.8187484741211 71.7062530517578 71.4812469482422 73.9812469482422 75.9812469482422 78.375 79.4499969482422 78.9625015258789 78.8312530517578 79.2062530517578 78.8125 75.3562469482422 71.1062469482422 68.6812515258789 65.6687469482422 61.5625 59.5125007629395 56.0187492370605 51.4812507629395 46.7437515258789 42.1062507629395 39.0999984741211 39.5187492370605 39.84375 39.3312492370605 38.7374992370605 38.9124984741211 39.0499992370605 37.9312515258789 38.2687492370605 38.9249992370605 40.5499992370605 43.8562507629395 46.1124992370605 43.8187484741211 42.65625 43.1875 44.15625 44.9375 46.0562515258789 46.9187507629395 46.9749984741211 46.5750007629395 44.2937507629395 42.3250007629395 40.4562492370605 39.2625007629395 40.9312515258789 38.5999984741211 38.71875 
64.5062484741211 66.8874969482422 68.7687530517578 68.7750015258789 72.40625 72.5625 73.4625015258789 75.4875030517578 75.3625030517578 72.6812515258789 70.1812515258789 68.9312515258789 65.375 62.7437515258789 60.8187484741211 57.625 55.9625015258789 54.9812507629395 53.71875 48.6500015258789 42.6812515258789 38.3375015258789 35.2750015258789 36.5875015258789 35.9000015258789 34.9000015258789 34.3375015258789 35.9000015258789 36.0125007629395 34.5875015258789 34.1812515258789 34.9000015258789 36.15625 37.9500007629395 42.0125007629395 40.7999992370605 37.8624992370605 37.4375 38.4312515258789 39.0125007629395 39.0187492370605 38.9249992370605 40.03125 39.7999992370605 38.0999984741211 36.9124984741211 35.46875 32.8562507629395 32.4375 33.7562484741211 33.4000015258789 
61.3312492370605 62.2874984741211 63.4749984741211 65.7125015258789 68.6125030517578 70.625 70.2312469482422 70.4187469482422 70.4749984741211 68.1062469482422 63.84375 60.0875015258789 58.0625 56.09375 53.3937492370605 52.65625 51.0374984741211 49.9749984741211 49.2125015258789 45.46875 40.5625 37.125 34 33.1875 32.9375 32.5625 31.6875 33.4375 33.9000015258789 31.7625007629395 30.4499988555908 31.0625 31.46875 31.8937492370605 34.3562507629395 34.59375 33.03125 33.1624984741211 34.4812507629395 35.2999992370605 35.0625 34.9937515258789 34.0687484741211 33.7687492370605 32.96875 32.1687507629395 30.9500007629395 28.03125 26.5375003814697 27.2062492370605 28.59375 
