ncols        51
nrows        45
xllcorner    -63.500000000000
yllcorner    -7.500000000000
cellsize     0.166666666667
NODATA_value -99
204.324996948242 206.237503051758 201.78125 202.231246948242 200.243743896484 195.912506103516 187.887496948242 179.793746948242 172.25 167.993743896484 167.231246948242 168.3125 169.756256103516 169.106246948242 170.512496948242 172.037506103516 175.662506103516 176.356246948242 179.46875 182.143753051758 185.193756103516 187.237503051758 190.09375 191.856246948242 195.59375 199.5625 205.0625 213.875 221.131256103516 220.806243896484 223.043746948242 222.787506103516 223.912506103516 226.787506103516 228.9375 231.5 233.012496948242 235.050003051758 239.175003051758 242.350006103516 245.850006103516 249.693740844727 252.34375 255.981246948242 257.799987792969 261.631256103516 264.243743896484 266.325012207031 268.387512207031 272.787506103516 275.637512207031 
213.300003051758 216.881256103516 219.018753051758 221.743743896484 223.012496948242 218.112503051758 209.612503051758 202.268753051758 196.824996948242 192.381256103516 190.456253051758 189.768753051758 189.456253051758 188.181243896484 188.262496948242 189.074996948242 191.350006103516 194.100006103516 197.087493896484 200.175003051758 202.768753051758 204.943756103516 208.050003051758 210.0625 212.600006103516 215.925003051758 220.318756103516 228.225006103516 233.943756103516 234.206253051758 235.331253051758 237.493743896484 238.143753051758 242.737503051758 243.993743896484 247.537506103516 250.8125 253.243743896484 257.493743896484 260.537506103516 264.837493896484 268.225006103516 270.356262207031 273.118743896484 274.993743896484 278.075012207031 279.225006103516 279.21875 280.537506103516 283.056243896484 283.668762207031 
218.537506103516 223.96875 228.9375 233.75 235.943756103516 232.356246948242 228.175003051758 224.481246948242 220.4375 217.306243896484 213.1875 210.481246948242 209.206253051758 207.381256103516 206.78125 207.881256103516 209.356246948242 212.025009155273 214.100006103516 216.462493896484 218.84375 221.125 222.568756103516 224.5625 226.831253051758 228.131256103516 232.175003051758 238.899993896484 242.931243896484 242.393753051758 244.012496948242 245.75 247.237503051758 249.25 252.762496948242 254.606246948242 258.40625 262.725006103516 266.799987792969 271.100006103516 275.337493896484 278.075012207031 279.850006103516 281.46875 284.237487792969 285.962493896484 287.106262207031 285.868743896484 285.9375 287.387512207031 287.84375 
220.949996948242 228.806243896484 238.0625 244.074996948242 248.125 245.956253051758 244.8125 244.725006103516 244.256256103516 242.225006103516 237.09375 231.693756103516 227.800003051758 224.887496948242 224.462493896484 225.118743896484 227.662506103516 230.387496948242 232.274993896484 233.581253051758 236.149993896484 236.787506103516 236 237.068756103516 238.512496948242 239.018753051758 242.356246948242 246.043746948242 249.09375 249.274993896484 249.1875 252.143753051758 252.949996948242 254.318756103516 256.84375 260.737487792969 265.325012207031 270.243743896484 275.956237792969 280.075012207031 283 286.256256103516 288.15625 288.856262207031 291.231262207031 291.774993896484 292.756256103516 291.518737792969 288.625 289.21875 289.987487792969 
229.6875 236.368743896484 243.543746948242 252.081253051758 257.956237792969 257.875 257.643737792969 260.306243896484 263.856262207031 265.137512207031 258.618743896484 250.018753051758 244.949996948242 242.981246948242 241.524993896484 242.899993896484 245.006256103516 248.387496948242 248.793746948242 248.550003051758 250.71875 249.800003051758 249.175003051758 249.868743896484 249.993759155273 249.850006103516 250.600006103516 252.925003051758 257.181243896484 255.237503051758 256.018737792969 256.84375 259.299987792969 261.287506103516 263.568756103516 268.262512207031 273.09375 278.03125 284.743743896484 288.556243896484 292.59375 294.34375 295.537506103516 296.84375 297.587493896484 297.581237792969 297.950012207031 294.918762207031 291.231262207031 290.200012207031 291.9375 
237.46875 244.78125 253.456253051758 259.043762207031 261.506256103516 262.149993896484 262.362487792969 264.431243896484 269.168762207031 272.899993896484 264.549987792969 256.331237792969 253.387496948242 251.356246948242 251.337493896484 253.181243896484 256.075012207031 259.09375 260.581237792969 259.918762207031 260.8125 260.537506103516 259.90625 259.15625 258.4375 258.568756103516 258.84375 259.450012207031 261.1875 260.59375 260.537506103516 262.075012207031 263.725006103516 268.975006103516 273.731262207031 278.649993896484 285.887512207031 291.899993896484 299 304.337493896484 306.606231689453 308.21875 308.831237792969 309.118743896484 308.625 306.868743896484 305.737487792969 302.149993896484 298.262512207031 294.543762207031 291.793762207031 
243.425003051758 250.050003051758 257.418762207031 260.537506103516 260.5 259.837493896484 259.318756103516 258.387512207031 258.225006103516 258.006256103516 257.237487792969 255.181243896484 255.34375 255.881256103516 257.618743896484 260.293762207031 263.8125 265.868743896484 266.981262207031 269.162506103516 269.174987792969 269.762512207031 268.71875 267.618743896484 266.693756103516 265.443756103516 265.293762207031 264.768737792969 263.956237792969 262.362487792969 264.825012207031 266.387512207031 269.25 273.962493896484 280.456237792969 287.950012207031 295.581237792969 303.181243896484 313.637512207031 317.84375 317.331237792969 318.825012207031 318.931243896484 318.90625 320.0625 315.693756103516 312.5 308.212493896484 300.299987792969 297.28125 295.337493896484 
245.881256103516 251.425003051758 256.200012207031 259.03125 259.943756103516 258.368743896484 253.862503051758 246.90625 240.475006103516 240.481246948242 246.387496948242 250.893753051758 255.743743896484 259.524993896484 262.487487792969 266.181243896484 268.581237792969 269.6875 271.543762207031 274.443756103516 275.987487792969 277.043762207031 276.868743896484 274.981262207031 274.993743896484 272.024993896484 269.868743896484 268.299987792969 265.674987792969 264.193756103516 265.487487792969 269.912506103516 273.225006103516 278.96875 286.424987792969 294.737487792969 303.725006103516 312.243743896484 321.975006103516 325.71875 326.056243896484 327.012512207031 326.831237792969 326.200012207031 326.118743896484 321.649993896484 314.131256103516 306.056243896484 301.368743896484 296.237487792969 293.143737792969 
247.987503051758 252.362503051758 256.987487792969 259.712493896484 259.825012207031 257.518737792969 252.074996948242 243.125 231.293746948242 228.387496948242 238.856246948242 247.512496948242 255.625 260.024993896484 264.068756103516 268.4375 271.043762207031 272.143737792969 275.412506103516 278.381256103516 277.90625 280.487487792969 280.8125 283.34375 283.193756103516 278.924987792969 274.018737792969 270.337493896484 268.487487792969 266.456237792969 268.512512207031 273.368743896484 277.787506103516 283.893737792969 291.306243896484 301.287506103516 312.78125 321.987487792969 331.424987792969 335.106262207031 335.8125 336.03125 335.768737792969 334.337493896484 331.28125 326.075012207031 318.21875 307.893737792969 299.831237792969 292.90625 288.84375 
250.056243896484 253.350006103516 256.981262207031 259.337493896484 260.143737792969 258.231262207031 253.962493896484 246.59375 238.293746948242 236.337493896484 242.399993896484 248.3125 256.168762207031 261.625 265.649993896484 270.162506103516 273.643737792969 274.75 277.168762207031 279.799987792969 279.618743896484 282.78125 286.268737792969 291.725006103516 289.818756103516 284.806243896484 279.25 274.15625 270.3125 267.575012207031 269.03125 275.700012207031 282.162506103516 290.206237792969 298.337493896484 308.543762207031 320.137512207031 331.037506103516 340.887512207031 346.0625 347.875 348.043762207031 344.8125 338.581237792969 335.46875 331.862487792969 323.987487792969 312.243743896484 300.287506103516 291.65625 285.1875 
251.837493896484 254.581253051758 257.100006103516 259.487487792969 261.287506103516 260.912506103516 258.149993896484 252.168746948242 247.318756103516 246.649993896484 249.462493896484 254.050003051758 259.368743896484 265.100006103516 268.918762207031 272.5 275.524993896484 276.556243896484 277.524993896484 279.587493896484 281.462493896484 285.3125 291.950012207031 296.100006103516 297.950012207031 290.068756103516 283.375 279.399993896484 274.231262207031 270.206237792969 272.643737792969 278.587493896484 285.481262207031 294.331237792969 303.90625 314.21875 325.887512207031 337.556243896484 347.912506103516 355.25 357.768737792969 355.774993896484 349.8125 341.643737792969 337.112487792969 332.924987792969 322.993743896484 307.96875 296.443756103516 291.0625 281.768737792969 
253.262496948242 255.931259155273 258.393737792969 261.524993896484 262.868743896484 264.274993896484 263.8125 260.018737792969 256.962493896484 256.03125 257.493743896484 260.299987792969 263.618743896484 268.087493896484 273.5 276.831237792969 277.5625 277.331237792969 277.806243896484 278.78125 278.831237792969 283.862487792969 293.431243896484 303.09375 303.350006103516 290.712493896484 283.487487792969 280.049987792969 278.256256103516 277.899993896484 278.087493896484 282.3125 288.568756103516 296.850006103516 305.850006103516 318.256256103516 331.418762207031 343.78125 353.368743896484 361.943756103516 365.46875 361 350.418762207031 335.568756103516 326.337493896484 317.887512207031 305.850006103516 295.637512207031 289.787506103516 287.537506103516 278.362487792969 
254.53125 256.75 259.643737792969 262.112487792969 264.337493896484 267.006256103516 267.299987792969 265.9375 263.899993896484 264.331237792969 266.6875 268.418762207031 271.412506103516 273.03125 277.243743896484 279.912506103516 279.787506103516 279.537506103516 280.181243896484 279.193756103516 276.049987792969 280.524993896484 289.512512207031 296.912506103516 291.856262207031 282.118743896484 281.774993896484 282.056243896484 282.912506103516 284.28125 285.293762207031 286.931243896484 291.431243896484 298.962493896484 307.675018310547 319.443756103516 333.418762207031 346.8125 357.90625 368.118743896484 373.549987792969 366.168762207031 346.537506103516 327.356262207031 314.231262207031 308.950012207031 300.431243896484 290.706237792969 285.924987792969 285.90625 285.100006103516 
254.40625 256.956237792969 259.756256103516 262.331237792969 265.462493896484 267.337493896484 269.450012207031 270.975006103516 271.774993896484 272.90625 274.850006103516 276.450012207031 278.056243896484 280.387512207031 280.59375 282.887512207031 282.299987792969 281.15625 280.918762207031 280.618743896484 279.443756103516 281.21875 285.306243896484 287.625 283.774993896484 279.081237792969 280.993743896484 283.337493896484 285.737487792969 288.299987792969 291.268737792969 292.931243896484 294.606262207031 299.293762207031 307.118743896484 320.1875 335.825012207031 349.462493896484 360.049987792969 369.243743896484 373.774993896484 359.856262207031 341.549987792969 325.606262207031 314.024993896484 307.024993896484 300.462493896484 295.543762207031 290.850006103516 292.46875 296.399993896484 
252.943740844727 254.78125 258.118743896484 262.40625 266.387512207031 268.862487792969 272.693725585938 276.0625 277.393737792969 279.068756103516 281.837493896484 283.149993896484 284.362487792969 285.743743896484 283.725006103516 284.737487792969 283.600006103516 283.387512207031 282.431243896484 281.831237792969 281.368743896484 281.549987792969 282.575012207031 284.006256103516 283.4375 283.21875 286.0625 289.21875 293.09375 296.681243896484 297.549987792969 298.012512207031 299.606262207031 299.831237792969 304.356262207031 319.625 337.512512207031 352.143737792969 360.174987792969 364.543762207031 362.412506103516 352.637512207031 341.818756103516 327.350006103516 317.831237792969 311.493743896484 307.118743896484 302.825012207031 301.237487792969 300.118743896484 301.918762207031 
249.356246948242 251.962493896484 256.393737792969 261.393737792969 266.40625 271.287506103516 275.425018310547 279.168762207031 282.793762207031 286.024993896484 288.206237792969 290.081237792969 291.25 291.59375 289.393737792969 287.25 285.075012207031 284.912506103516 283.762512207031 283.606262207031 282.131256103516 280.793762207031 280.537506103516 282.237487792969 283.393737792969 285.90625 290.475006103516 295.668762207031 301.950012207031 305.8125 307.943756103516 307.5 305.9375 305.5 308.03125 328.987487792969 345.381256103516 353.081237792969 357.287506103516 360.268737792969 358.537506103516 350.606262207031 340.462493896484 327.756256103516 319.337493896484 313.918762207031 308.706237792969 304.450012207031 302.818756103516 301.362487792969 301.181243896484 
246 249.706253051758 253.981246948242 260.068756103516 266.524993896484 272.168762207031 278.40625 283.287506103516 287.424987792969 291.5 293.862487792969 296.418762207031 297.993743896484 297.037506103516 295.587493896484 291.587493896484 285.96875 284.081237792969 284.049987792969 283.506256103516 281.618743896484 280.056243896484 279.793762207031 282.1875 285.337493896484 287.837493896484 293.975006103516 301.518737792969 308.450012207031 314.59375 318.131256103516 318.393737792969 317.587493896484 320.837493896484 335.287506103516 353.056243896484 360.106262207031 359.881256103516 358.581237792969 358.25 359 350.90625 338.668762207031 326.375 320.212493896484 315.231262207031 309.862487792969 307.1875 306.731262207031 302.912506103516 301.737487792969 
240.612503051758 245.381256103516 251.524993896484 259.068756103516 266.462493896484 272.674987792969 278.918762207031 285.100006103516 290.350006103516 294.868743896484 298.518737792969 302.512512207031 303.143737792969 303.0625 300.549987792969 294.9375 288.706237792969 280.912506103516 283.174987792969 282.506256103516 282 280.162506103516 278.943756103516 281.818756103516 285.8125 291.46875 297.381256103516 306.96875 316.71875 323.606262207031 326.424987792969 322.012512207031 323.100006103516 331.924987792969 352.46875 379.206237792969 374.037506103516 364.149993896484 357.53125 356.306243896484 353.40625 346.068756103516 336.65625 326.287506103516 320.231262207031 316.575012207031 312.212493896484 310.3125 310.3125 305.206237792969 304.350006103516 
234.525009155273 240.506256103516 247.425003051758 256.068756103516 265.28125 273.181243896484 280.431243896484 287.256256103516 292.712493896484 297.887512207031 302.106262207031 304.100006103516 306.918762207031 308.181243896484 303.412506103516 296.25 288.46875 280.037506103516 277.618743896484 277.743743896484 279.3125 279.393737792969 274.618743896484 278.918762207031 285.081237792969 292.837493896484 301.243743896484 310.350006103516 321.6875 330.731262207031 335.337493896484 327.518737792969 322.987487792969 323.487487792969 337.018737792969 359.549987792969 360.856262207031 356.918762207031 354.587493896484 351.575012207031 348.850006103516 341.956237792969 335.075012207031 327.543762207031 321.75 318.137512207031 315.125 314.081237792969 313.493743896484 304.368743896484 307.212493896484 
226.337493896484 234.268753051758 242.25 252.03125 262.768737792969 272.618743896484 281.243743896484 289.037506103516 295.087493896484 299.950012207031 303.893737792969 305.537506103516 309.375 312.424987792969 304.600006103516 292.825012207031 281.6875 277.549987792969 273.681243896484 272.787506103516 271.987487792969 270.237487792969 270.081237792969 274.712493896484 281.875 290.087493896484 299.950012207031 311.393737792969 321.53125 328.237487792969 330.262512207031 325.59375 313.731262207031 302.399993896484 298.549987792969 315.90625 336.081237792969 345.143737792969 348.399993896484 348.337493896484 345.200012207031 339.681243896484 335.306243896484 330.193756103516 325.40625 322.125 319.262512207031 317.475006103516 314.575012207031 304.631256103516 309.762512207031 
217.668746948242 228.193756103516 238.4375 249.162490844727 260.549987792969 271.850006103516 282.475006103516 291.299987792969 297.993743896484 301.25 301.881256103516 302.21875 303.018737792969 305.331237792969 298.706237792969 286.825012207031 276.431243896484 270.212493896484 267.700012207031 265.46875 265.462493896484 265.756256103516 265.862487792969 272.34375 280.481262207031 289.443756103516 299.418762207031 309.34375 318.799987792969 325.125 325.762512207031 320.837493896484 306.774993896484 288.143737792969 270.375 291.537506103516 321.662506103516 338.887512207031 346.243743896484 347.368743896484 345.1875 341.318756103516 335.662506103516 331.081237792969 328.043762207031 325.100006103516 322.856262207031 321.037506103516 313.787506103516 308.793762207031 312.287506103516 
209.868743896484 221.199996948242 233.381256103516 245.225006103516 257.837493896484 270.8125 283 293.831237792969 300.96875 301.4375 297.206237792969 293.012512207031 289.700012207031 288.912506103516 284.987487792969 278.668762207031 273.012512207031 267.887512207031 264.381256103516 261.174987792969 258.5625 257.137512207031 259.243743896484 265.368743896484 274.100006103516 285.350006103516 299.181243896484 309.625 319 324.549987792969 324.306243896484 319.762481689453 308.793762207031 297.056243896484 291.475006103516 304.731262207031 327.881256103516 344.4375 351.450012207031 350.850006103516 347.15625 343.15625 338.274993896484 334.03125 331.725006103516 329.424987792969 327.475006103516 324.893737792969 316.5625 316.537506103516 315.21875 
204.774993896484 217.431243896484 229.606246948242 242.387496948242 255.318756103516 268.081237792969 280.475006103516 294.53125 304.543762207031 300.837493896484 292.09375 281.899993896484 274.043762207031 272.681243896484 272.825012207031 270.65625 267.043762207031 262.943756103516 259.03125 255.399993896484 252.137496948242 248.918746948242 248.643753051758 254.71875 265.806243896484 279.524993896484 294.706237792969 307.256256103516 316.943756103516 321.868743896484 323.46875 324.024993896484 321.287506103516 317.418762207031 321.09375 331.868743896484 346.625 357.431243896484 360.168762207031 356.850006103516 350.931243896484 346.081237792969 341.375 336.337493896484 334.443756103516 333.712493896484 332.850006103516 329.143737792969 323.987487792969 323.481262207031 320.100006103516 
201.581253051758 213.137496948242 225.574996948242 238.84375 252.0625 264.049987792969 277.162506103516 290.774993896484 299.262512207031 293.881256103516 283.25 273.356262207031 262.34375 262.231262207031 264.981262207031 265.131256103516 263.581268310547 260.362487792969 255.175003051758 250.449996948242 245.943756103516 241.3125 239.375 245.087493896484 254.824996948242 268.512512207031 284.700012207031 300.237487792969 312.893737792969 321.762512207031 328.600006103516 333.25 335.493743896484 338.25 345.881256103516 357.143737792969 367.681243896484 370.875 367.887512207031 362.075012207031 355.09375 348.3125 342.518737792969 335.993743896484 335.96875 336.493743896484 336.956237792969 331.78125 333.793762207031 328.568756103516 325.137512207031 
202.412506103516 211.556243896484 222.168746948242 235.387496948242 249.637496948242 261.081237792969 271.475006103516 281.493743896484 286.612487792969 284.40625 278.375 269.612487792969 263.518737792969 262.125 262.143737792969 262.950012207031 261.556243896484 258.612487792969 253.837509155273 247.056243896484 240.100006103516 233.743743896484 229.399993896484 232.518753051758 243.15625 260.056243896484 276.625 295.325012207031 310.643737792969 324.768737792969 334.868743896484 343.024993896484 349.768737792969 356.143737792969 364.068756103516 369.537506103516 376.412506103516 378.024993896484 372.881256103516 367.456237792969 359.793762207031 351.34375 342.337493896484 337.21875 333.256256103516 334.5625 334.84375 341.399993896484 343.674987792969 336.768737792969 331.075012207031 
206.600006103516 214.59375 222.493743896484 234.756256103516 246.712493896484 256.318756103516 264.831268310547 272.431243896484 275.862487792969 275.318756103516 272.356262207031 268.543762207031 265.53125 263.818756103516 263.006256103516 263.506256103516 261.475006103516 258.881256103516 254.4375 245.712493896484 238.162506103516 228.337493896484 219.875 219.600006103516 232.300003051758 252.53125 273.337493896484 292.399993896484 310.618743896484 327.862487792969 342.018737792969 354.731262207031 364.850006103516 371.162506103516 377.0625 379.543762207031 382.912506103516 383.40625 378.568756103516 371.956237792969 364.306243896484 353.793762207031 340.881256103516 333.681243896484 330.806243896484 332.387512207031 346.068756103516 354.1875 353.875 349.6875 342.5 
214.600006103516 219.043746948242 226.193756103516 235.0625 244.037506103516 251.831253051758 258.15625 263.756256103516 266.868743896484 268.662506103516 268.950012207031 267.931243896484 267.131256103516 267.049987792969 266.899993896484 266.725006103516 266.418762207031 262.774993896484 257.306243896484 249.862503051758 240.106246948242 228.800003051758 216.168746948242 213.887496948242 230.1875 250.487503051758 272.306243896484 291.556243896484 310.75 329.118743896484 345.912506103516 362.950012207031 376.600006103516 381.8125 386.137481689453 388.168762207031 391.15625 391.049987792969 386.456237792969 380.506256103516 371.03125 358.268737792969 342.850006103516 332.575012207031 337.21875 347.706237792969 361.375 366.768737792969 368.075012207031 360.668762207031 355.493743896484 
223.856246948242 226.012496948242 230.975006103516 237.081253051758 242.287506103516 247.818756103516 253.975006103516 258.318756103516 261.481262207031 264.193756103516 265.393737792969 266.34375 268.024993896484 269.799987792969 270.368743896484 270.524993896484 271.075012207031 269.543762207031 264.674987792969 257.668762207031 248.274993896484 236.649993896484 228.412506103516 228.212493896484 239.5625 256.65625 276.1875 295.431243896484 313.793762207031 330.568756103516 347.056243896484 363.256256103516 377.606262207031 384.631256103516 390.693756103516 393.8125 395.34375 397.206237792969 394.03125 390.193756103516 384.375 369.024993896484 348.518737792969 336.518737792969 350.643737792969 363.443756103516 376.3125 380.831237792969 381.381256103516 373.774993896484 367.037506103516 
232.356246948242 232.931243896484 235.612503051758 238.393753051758 242.574996948242 246.206253051758 249.550003051758 253.118743896484 256.862487792969 259.743743896484 262.756256103516 265.637512207031 268.78125 272.537506103516 274.975006103516 277.106262207031 279.831237792969 279.106262207031 275.837493896484 270.03125 261.131256103516 250.631256103516 244.268753051758 244.231246948242 253.293746948242 265.981262207031 282.618743896484 300.387512207031 317.59375 333.306243896484 347.168762207031 361.243743896484 375.706237792969 385.768737792969 394.262512207031 398.262512207031 399.743743896484 402.200012207031 399.881256103516 395.912506103516 394.549987792969 378.450012207031 357.450012207031 353.174987792969 370.25 383.112487792969 393.443756103516 398.606262207031 396.493743896484 390.200012207031 378.006256103516 
240.431243896484 239.243743896484 239.649993896484 240.393753051758 242.399993896484 243.831253051758 246.475006103516 249.40625 253.324996948242 256.456237792969 260.143737792969 265.3125 271.037506103516 276.518737792969 280.375 284.056243896484 287.924987792969 292.087493896484 290.881256103516 283.200012207031 273.850006103516 264.637512207031 258.256256103516 259.106262207031 265.456237792969 276.068756103516 290.493743896484 305.443756103516 320.049987792969 333.712493896484 346.84375 358.962493896484 373.018737792969 386.65625 397.600006103516 401.950012207031 404.543731689453 408.737487792969 402.950012207031 399.106262207031 398.856262207031 393.231262207031 382.212493896484 384.056243896484 392.618743896484 409.256256103516 421.46875 424.53125 420.131256103516 411.893737792969 398.162506103516 
246.34375 243.368743896484 241.975006103516 241.793746948242 242.418746948242 242.237503051758 244.631256103516 246.706253051758 250.274993896484 253.824996948242 258.25 264.225006103516 271.606262207031 277.987487792969 283.71875 289.793762207031 297.237487792969 302.762512207031 305.412506103516 297.443756103516 287.493743896484 277.256256103516 271.506256103516 271.90625 276.268737792969 286.174987792969 297.450012207031 309.206237792969 322.356231689453 334.53125 346.762512207031 359.450012207031 373.987487792969 388.556243896484 401.206237792969 405.387512207031 409.375 415.149993896484 408.25 397.100006103516 400.075012207031 406.381256103516 407.600006103516 411.856262207031 420.856262207031 443.399993896484 454.818756103516 456.231262207031 448.78125 435.893737792969 418.806243896484 
250.256256103516 245.9375 243.137496948242 241.550003051758 241.21875 240.4375 242.243743896484 243.231246948242 246.568740844727 250.381256103516 255.175003051758 262.050018310547 269.850006103516 278.768737792969 286.850006103516 295.15625 301.581237792969 307.018737792969 309.862487792969 306.112487792969 296.412506103516 288.09375 281.3125 281.149993896484 286.743743896484 293.981262207031 302.4375 313.424987792969 323.412506103516 335.53125 347.806243896484 360.243743896484 374.3125 389.631256103516 403.481262207031 409.212493896484 416.3125 421.981262207031 412.962493896484 407.106262207031 415.793762207031 428.662506103516 436.5 448.893768310547 462.168762207031 487.75 500.043762207031 495.450012207031 480.018737792969 460.887512207031 440.112487792969 
252.28125 248.081253051758 244.524993896484 242.0625 240.125 239.737503051758 239.931243896484 239.956253051758 242.206253051758 246.600006103516 253.818756103516 260.918762207031 270.356262207031 282.212493896484 290.887512207031 298.962493896484 304.975006103516 310.5 312.181243896484 310.075012207031 303.443756103516 295.806243896484 288.693756103516 289.450012207031 293.337493896484 298.65625 305.700012207031 314.931243896484 325.118743896484 336.725006103516 348.975006103516 361.700012207031 377.331237792969 393.462493896484 407.181243896484 416.96875 425.762512207031 431.756256103516 427.237487792969 433.331237792969 444.837493896484 459.262512207031 473.412506103516 490.299987792969 516.462524414062 551.168762207031 559.318725585938 539.625 515.962524414062 492.125 465.537506103516 
253.693756103516 249.40625 246.543746948242 243.618743896484 240.962493896484 239.125 237.800003051758 236.981246948242 238.5 242.431243896484 249.606246948242 259.881256103516 271.137512207031 282.375 291.181243896484 300.649993896484 308.774993896484 313.493743896484 313.912506103516 312.475006103516 307.950012207031 300.981262207031 295.325012207031 294.450012207031 297.181243896484 300.375 307.350006103516 315.143737792969 325.975006103516 337.375 349.043762207031 363.46875 380.825012207031 397.524993896484 414.168762207031 425.600006103516 435.212493896484 442.375 447.96875 458.806243896484 471.125 487.712493896484 508.756256103516 530.518737792969 561.893737792969 595.4375 598.793762207031 574.40625 547.599975585938 521.21875 492.293762207031 
255.362503051758 251.731246948242 248.831253051758 245.162506103516 240.668746948242 238.418746948242 235.637496948242 234.481246948242 234.25 236.84375 244.981246948242 257.818756103516 271.731262207031 284.143737792969 294.681243896484 303.262512207031 311.6875 315.787506103516 316.293762207031 314.950012207031 311.418762207031 304.587493896484 298.78125 296.899993896484 298.862487792969 301.568756103516 307.118743896484 315.231262207031 324.174987792969 336.887512207031 350.681243896484 365.868743896484 383.662506103516 402.162506103516 418.975006103516 430.581237792969 441.725006103516 456.40625 467.493743896484 480.1875 494.943756103516 511.037506103516 533.174987792969 557.412475585938 584.693725585938 604.581237792969 606.918762207031 591.987487792969 568.956237792969 543.368774414062 514.900024414062 
259.174987792969 255.018753051758 251.550003051758 247.625 243.206253051758 239.824996948242 236.893753051758 233.474990844727 231.181243896484 233.143753051758 241.100006103516 255.368743896484 272.100006103516 286.818756103516 297.162506103516 306.331237792969 313.568756103516 316.962493896484 318.418762207031 318.106262207031 313.837493896484 306.637512207031 299.850006103516 297.950012207031 298.418762207031 299.793762207031 304.793762207031 312.668762207031 321.4375 334.774993896484 350.431243896484 366.325012207031 383.631256103516 403.681243896484 421.206237792969 433.162506103516 448.387512207031 464.006256103516 474.287506103516 489.012512207031 505.950012207031 521.943725585938 540.8125 565.59375 586.856262207031 599.799987792969 603.1875 594.375 576.5 556.5 527.21875 
262.21875 258.524993896484 255.1875 250.949996948242 246.962493896484 243.643753051758 239.600006103516 235.243743896484 230.587493896484 228.356246948242 238.600006103516 258.4375 276.15625 289.643737792969 300.481262207031 308.556243896484 314.693756103516 317.450012207031 319.3125 317.287506103516 313.206237792969 306.100006103516 299.575012207031 295.806243896484 294.899993896484 295.731262207031 300.637512207031 309.03125 317.456237792969 332.518737792969 349.006256103516 365.850006103516 385.393737792969 406.325012207031 424.056243896484 438.418762207031 454.587493896484 471.15625 482.631256103516 494.381256103516 509.149993896484 524.9375 544.006225585938 566.943725585938 586.1875 596.174987792969 600.762512207031 595 582.206237792969 564.712524414062 539.006225585938 
265.450012207031 262.4375 258.768737792969 255 252.043746948242 249.162506103516 245.300003051758 240.25 236.5625 232.268753051758 249.375 270.075012207031 283.787506103516 295.331237792969 303.75 311.049987792969 315.037506103516 316.731262207031 316.950012207031 313.78125 307.981262207031 301.475006103516 296.674987792969 292.131256103516 290.606262207031 291.381256103516 296.024993896484 304.84375 314.03125 329.825012207031 346.362487792969 363.818756103516 384.174987792969 406.237487792969 424.006256103516 440.987487792969 457.649993896484 472.181243896484 485.793762207031 499.068756103516 510.131256103516 526.481262207031 542.106262207031 557.40625 574.737487792969 586.200012207031 593.537475585938 593.362487792969 583.4375 567.631225585938 547.887512207031 
265.737487792969 263.462493896484 261.306243896484 258.956237792969 257.100006103516 254.556243896484 253.137496948242 250.931243896484 252.556243896484 261.643737792969 281.237518310547 289.856262207031 296.012512207031 303.34375 309.600006103516 314.40625 316.462493896484 315.84375 313.387512207031 308.443756103516 300.831237792969 294.356262207031 289.706237792969 286.325012207031 285.456237792969 287.106262207031 292.512512207031 300.375 309.71875 325.049987792969 342.024993896484 357.681243896484 376.043731689453 396.956237792969 418.068756103516 432.987487792969 447.674987792969 463.568756103516 474.268737792969 484.256256103516 494.299987792969 509.362487792969 521.549987792969 535.09375 546.674987792969 555.84375 561.537475585938 559.599975585938 554.474975585938 547.65625 528.549987792969 
266.162506103516 264.875 264.03125 262.512512207031 262.46875 263.149993896484 262.75 265.237487792969 270.40625 279.606262207031 292 301.450012207031 307.600006103516 312.206237792969 316.756256103516 318.850006103516 318.806243896484 315.581237792969 309.875 303.618743896484 294.481262207031 287.337493896484 281.325012207031 278.462493896484 279.4375 282.106262207031 287.318756103516 295.668762207031 304.71875 318.743743896484 333.475006103516 351.125 371.268737792969 389.799987792969 408.950012207031 424.125 436.625 450.4375 461.606262207031 467.681243896484 474.850006103516 487.318756103516 497.4375 507.25 515.75 524.337524414062 531.193725585938 532.262512207031 528.25 522.487487792969 508.637512207031 
265.806243896484 266.225006103516 266.524993896484 267.03125 267.424987792969 269.137512207031 271.149993896484 276.637512207031 283.356262207031 292.46875 301.618743896484 310.118743896484 316.418762207031 320.106262207031 323.375 324.618743896484 322.549987792969 316.774993896484 308.625 298.868743896484 287.34375 278.462493896484 272.512512207031 270.25 273.462493896484 277.174987792969 282.46875 290.712493896484 300.46875 314.21875 329.325012207031 348.087493896484 365.850006103516 383.237487792969 400.418762207031 414.268737792969 425.899993896484 438.762512207031 447.318756103516 450.100006103516 456.200012207031 462.712493896484 468.75 478.512512207031 487.556243896484 496.700012207031 502.287506103516 501.46875 501.024993896484 498.325012207031 488.399993896484 
264.131256103516 265.34375 266.893737792969 268.825012207031 270.34375 273.268737792969 276.918762207031 282.556243896484 289.793762207031 297.818756103516 306.225006103516 314.987487792969 321.887512207031 325.875 328.587493896484 328.862487792969 327.193756103516 319.631256103516 310.443756103516 297.100006103516 280.524993896484 268.481262207031 262.75 262.931243896484 268.668762207031 273.125 279.081237792969 287.350006103516 298.024993896484 311.96875 323.325012207031 341.475006103516 358.081237792969 375.862487792969 393.424987792969 403.34375 412.90625 423.818756103516 430.162506103516 431.424987792969 433.743743896484 433.587493896484 436.668762207031 448.887512207031 458.106262207031 467.800018310547 472.149993896484 471.587493896484 472.793762207031 469.65625 461.337493896484 
262.743743896484 265.162506103516 267.875 269.268737792969 271.868743896484 276.5625 281.512512207031 286.024993896484 292.862487792969 300.881256103516 309.924987792969 318.706237792969 326.131256103516 331.200012207031 333.581237792969 334.231262207031 330.899993896484 325.90625 316.081237792969 296.662506103516 273.587493896484 255.8125 252.556243896484 257.956237792969 265.231262207031 271.262512207031 277.631256103516 284.25 294.681243896484 307.243743896484 319.40625 331.493743896484 346.674987792969 365.118743896484 383.631256103516 397.587493896484 402.75 409.587493896484 412.887512207031 412.668762207031 414.818756103516 414.212493896484 414.850006103516 421.918762207031 432.631256103516 438.774993896484 443.037506103516 443.493743896484 445.537506103516 443.556243896484 438.075012207031 
261.96875 265.287506103516 268.556243896484 270.325012207031 274.350006103516 278.975006103516 283.881256103516 289.606262207031 296.393737792969 304.350006103516 313.862487792969 323.231262207031 330.46875 335.487487792969 337.987487792969 337.768737792969 335.450012207031 330.943756103516 324.018737792969 302 275.53125 253.606246948242 251.518753051758 256.712493896484 263.924987792969 270.393737792969 276.350006103516 283.681243896484 292.931243896484 304.318756103516 313.4375 323.6875 337.625 354.893737792969 373.59375 391.59375 395.431243896484 397.350006103516 397.362487792969 397.537506103516 398.493743896484 398.868743896484 398.193756103516 403.100006103516 409.625 413.625 418.34375 417.524993896484 416.393737792969 418.006256103516 415.424987792969 
263.337493896484 267.34375 270.306243896484 273.168762207031 276.931243896484 281.375 286.087493896484 291.799987792969 299.212493896484 307.268768310547 315.21875 325.649993896484 334.387512207031 340.075012207031 343.056243896484 341.15625 338.09375 330.987487792969 322.106262207031 304.212493896484 281.981262207031 266.46875 259.1875 261.443756103516 267.674987792969 272.625 278.049987792969 285.512512207031 294.225006103516 305.225006103516 313.393737792969 321.375 332.862487792969 346.681243896484 363.21875 380.418762207031 386.09375 385.862487792969 384.8125 385.71875 385.506256103516 385.462493896484 386.6875 386.78125 392.450012207031 394.975006103516 396.693756103516 396.806243896484 393.875 393.793762207031 395.59375 
