ncols        51
nrows        45
xllcorner    -63.500000000000
yllcorner    -7.500000000000
cellsize     0.166666666667
NODATA_value -99
137.25 133.693756103516 128.118743896484 124.237503051758 119.300003051758 115.331253051758 110.887496948242 105.831253051758 101.96875 98.6999969482422 97.1125030517578 95.9250030517578 95.5500030517578 94.2624969482422 94.0062484741211 93.9875030517578 94.34375 94.1687469482422 95.0374984741211 95.9749984741211 97.3375015258789 98.3874969482422 99.5562515258789 101.400001525879 103.318748474121 105.243751525879 109.162498474121 113.5625 118.087501525879 122.168746948242 125.606246948242 129.949996948242 134.149993896484 138.15625 141.975006103516 147.181243896484 151.024993896484 154.518753051758 156.09375 157.862503051758 159.068756103516 158.818756103516 158.34375 156.881256103516 156.493743896484 153.806243896484 151.918746948242 148.818756103516 146.868743896484 144.350006103516 141.768753051758 
138.768753051758 135.09375 131.662506103516 128.956253051758 125.84375 121.268753051758 115.974998474121 112.243751525879 109.443748474121 106.525001525879 104.275001525879 102.193748474121 101.199996948242 100 99.3250045776367 99.0812530517578 99.28125 99.9000015258789 101.018753051758 102.974998474121 104.09375 104.912498474121 106.362503051758 107.90625 109.512496948242 111.175003051758 114.893753051758 118.875 123.037498474121 127.381248474121 130.856246948242 135.306243896484 138.962509155273 143.4375 148.399993896484 152.1875 158.199996948242 162.806259155273 163.881256103516 165.331253051758 166.225006103516 165.456253051758 164.524993896484 161.256256103516 159.293746948242 155.856246948242 153.612503051758 149.699996948242 146.893753051758 143.068740844727 140.012496948242 
137.875 134.975006103516 132.225006103516 129.725006103516 127.175003051758 123.112503051758 119.543746948242 117.150001525879 115.112503051758 112.631248474121 109.993751525879 107.90625 106.962501525879 105.756248474121 105.225006103516 104.637496948242 104.881248474121 105.331253051758 106.5 107.993751525879 108.849998474121 109.800003051758 110.981246948242 111.84375 112.856246948242 114.737503051758 118.275001525879 121.875 126.037498474121 129.137496948242 132.518753051758 136.668746948242 142.018753051758 145.975006103516 151.012496948242 156.862503051758 162.53125 167.568756103516 169.768753051758 171.399993896484 172.100006103516 170.543746948242 167.962493896484 165.550003051758 161.899993896484 156.862503051758 153.925003051758 150.337493896484 146 141.15625 137.925003051758 
135.356246948242 133.818756103516 132.40625 129.356246948242 127.431251525879 124.606246948242 122.46875 121.199996948242 119.818748474121 118.506248474121 116.137496948242 114.224998474121 112.762496948242 111.65625 110.918746948242 110.6875 110.837501525879 110.449996948242 111.368751525879 113.431251525879 114.168746948242 114.5625 114.525001525879 115.037498474121 115.21875 116.875 120.3125 123.293746948242 127.431251525879 130.774993896484 133.443756103516 136.4375 142.481246948242 148.199996948242 153.387496948242 159.725006103516 165.5 171.518753051758 175.03125 176.743743896484 176.78125 174.537506103516 171.287506103516 168.637496948242 164.018753051758 158.706253051758 154.056243896484 149.868743896484 145.462493896484 139.931243896484 135.368743896484 
138.693756103516 134.618743896484 130.706253051758 128.756256103516 127.574996948242 126.237503051758 124.900001525879 124.387496948242 124.631248474121 124.199996948242 121.712501525879 119.46875 118.574996948242 117.75 116.962501525879 116.668746948242 116.525001525879 115.931251525879 116.768753051758 118.981246948242 119.387496948242 118.543746948242 117.756248474121 117.650001525879 117.331253051758 118.618751525879 120.875 123.71875 127.543746948242 130.8125 133.362503051758 135.625 141.418746948242 147.675003051758 153.524993896484 160.975006103516 168.5 175.012496948242 178.899993896484 180.668746948242 180.6875 177.675003051758 174.231246948242 169.850006103516 165.243743896484 159.362503051758 153 148.362503051758 143.318756103516 138.581253051758 132.506256103516 
141.056243896484 137.431243896484 132.53125 128.206253051758 127.618751525879 127.887504577637 127.518753051758 126.993751525879 127.131248474121 126.949996948242 124.881248474121 123.474998474121 123.493751525879 123.175003051758 123.40625 123.481246948242 123.806251525879 122.324996948242 123.581253051758 124.587501525879 123.40625 122.3125 120.6875 120.074996948242 119.46875 119.65625 122.550003051758 125.1875 128.081253051758 130.506256103516 132.612503051758 134.962493896484 138.824996948242 143.524993896484 150.493743896484 158.243743896484 165.762496948242 174.125 178.787506103516 179.856246948242 178.006256103516 175.03125 170.362503051758 166.806243896484 162.96875 156.456253051758 149.15625 142.962493896484 139.168746948242 134.037506103516 128.481246948242 
144.712493896484 140.893753051758 136.168746948242 131.362503051758 128.918746948242 128.418746948242 128.456253051758 127.856246948242 127.21875 126.037498474121 126.21875 126.375 128.056243896484 128.581253051758 129.399993896484 130.412506103516 131.949996948242 132.324996948242 133.018753051758 131.8125 128.537506103516 126.25 123.375 121.775001525879 121.243751525879 120.65625 122.756248474121 126.162498474121 128.737503051758 129.912506103516 131.037506103516 132.425003051758 136.181243896484 139.875 144.949996948242 152.318756103516 160.693756103516 169.131256103516 176.175003051758 176.568756103516 173.699996948242 169.649993896484 165.793746948242 161.668746948242 157.149993896484 151.899993896484 145.800003051758 138.875 133.75 128.793746948242 124.618751525879 
148.40625 144.131256103516 139.743743896484 136.268753051758 133.90625 132.149993896484 130 127.056251525879 124.756248474121 124.862503051758 127.293746948242 130.006256103516 132.337493896484 134.737503051758 135.837493896484 137.574996948242 139.431243896484 140.893753051758 141.368743896484 137.181243896484 132.306243896484 128.143753051758 124.349998474121 121.974998474121 121.512496948242 121.150001525879 122.662498474121 125.481246948242 128.84375 129.681243896484 128.96875 129.368743896484 132.556243896484 135.306259155273 139.96875 145.8125 153.681243896484 161.225006103516 166.568756103516 167.96875 166.875 163.118743896484 159.524993896484 155.40625 149.943756103516 146.743759155273 142.306243896484 135.418746948242 129.375 124.368751525879 118.949996948242 
153.193756103516 148.981246948242 145.137496948242 141.96875 139.206253051758 137.75 135.362503051758 131.618743896484 127.381248474121 126.449996948242 130.393753051758 134.537506103516 137.962493896484 140.462493896484 141.399993896484 142.518753051758 143.868743896484 144.912490844727 144.806243896484 139.787506103516 133.087493896484 128.418746948242 124.599998474121 123.287498474121 122.131248474121 121.306251525879 122.618751525879 125.462501525879 128.100006103516 128.350006103516 128.568756103516 128.081253051758 130.193756103516 132.818756103516 135.956253051758 141.274993896484 147.112503051758 152.574996948242 156.506256103516 158.756256103516 157.881256103516 155.068740844727 152.800003051758 149.856246948242 145.918746948242 141.831253051758 138.4375 131.743743896484 125.418746948242 120.349998474121 117.150001525879 
156.993743896484 153.162506103516 149.9375 147.556243896484 144.9375 143.550003051758 141.550003051758 138.550003051758 136.381256103516 135.787506103516 137.90625 140.525009155273 144.5625 146.324996948242 146.837493896484 146.78125 146.568756103516 145.456253051758 143.431243896484 139.125 132.875 127.9375 124.224998474121 123.293746948242 121.800003051758 120.631248474121 121.96875 124.331253051758 127.037498474121 127.25 126.71875 126.231254577637 127.412498474121 128.712493896484 131.243743896484 136.487503051758 140.868743896484 144.9375 147.331253051758 149.193756103516 149.462493896484 148.087493896484 145.59375 143.300003051758 140.662506103516 138.293746948242 133.318756103516 126.737503051758 120.818748474121 116.231246948242 111.637496948242 
161.78125 157.868743896484 154.506256103516 151.78125 150.1875 149.949996948242 148.625 145.774993896484 144.181243896484 144.300003051758 145.96875 148.53125 151.243743896484 152.862503051758 151.668746948242 150.25 148.1875 145.462493896484 141.793746948242 137.21875 132.231246948242 127.412498474121 123.831253051758 121.512496948242 121.618751525879 120.537498474121 121.175003051758 122.393753051758 123.756248474121 123.993751525879 123.606246948242 123.574996948242 124.224998474121 124.900001525879 126.400001525879 130.193756103516 133.887496948242 137.175003051758 140.175003051758 141.681259155273 142.212493896484 141.068756103516 139.774993896484 138.443756103516 135.881256103516 135.037506103516 128.524993896484 120.831253051758 114.625 108.6875 104.568748474121 
166.481246948242 162.293746948242 159.256256103516 157.300003051758 155.818756103516 155.912506103516 155.5625 153.375 152.193756103516 153.131256103516 154.949996948242 157.0625 157.375 157.399993896484 155.587493896484 152.662506103516 149.637496948242 145.300003051758 140.9375 136.46875 130.90625 126.618751525879 124.043746948242 122.381248474121 122.118751525879 120.993751525879 120.650001525879 120.6875 120.862503051758 120.918746948242 120.518753051758 120.581253051758 121.037498474121 121.793746948242 123.224998474121 126.818748474121 130.125 133.381256103516 136.106246948242 137.987503051758 138.837493896484 137.9375 136.681243896484 135.181243896484 131.675003051758 127.118751525879 121.21875 115.449996948242 110.068748474121 105.612503051758 100.743751525879 
170.862503051758 167.012496948242 164.387496948242 162.1875 161.131256103516 160.918746948242 160.368743896484 159.387496948242 159.0625 160.768753051758 162.981246948242 164.181243896484 163.231246948242 160.800003051758 158.493743896484 154.918746948242 150.912506103516 146.512496948242 141.574996948242 136.21875 129.21875 125.543746948242 124.237503051758 123.162498474121 121.681251525879 119.699996948242 118.912498474121 118.625 118.368751525879 117.387496948242 116.793746948242 116.606246948242 116.831253051758 117.75 119.287498474121 123.318748474121 127.081253051758 130.375 133.15625 134.65625 135.40625 135.268753051758 133.287506103516 129.306243896484 125.643753051758 122.6875 116.987503051758 110.387496948242 104.681251525879 101.731246948242 98.9312515258789 
174.024993896484 170.237503051758 167.662506103516 165.793746948242 164.412506103516 164.274993896484 163.850006103516 164.212493896484 165.481246948242 167.024993896484 168.175003051758 168.074996948242 166.756256103516 163.956253051758 160.100006103516 157.100006103516 152.618743896484 147.462493896484 142.175003051758 136.793746948242 130.731246948242 126.681251525879 124.381248474121 122.612503051758 120.775001525879 118.762496948242 117.931251525879 116.206253051758 114.787498474121 113.34375 112.5625 111.949996948242 112.481246948242 113.25 115.25 119.331253051758 123.581253051758 127.90625 131.493743896484 134.03125 133.043746948242 129.9375 127.3125 125.306251525879 123.012496948242 118.693748474121 115.175003051758 109.6875 103.03125 98.7312469482422 97.7125015258789 
176.293746948242 172.556243896484 170.543746948242 168.71875 167.643753051758 167.4375 168.068756103516 168.6875 169.975006103516 171.024993896484 171.868743896484 171.243743896484 168.993743896484 166.225006103516 162 158.787506103516 153.712493896484 148.40625 143.137496948242 138.868743896484 133.081253051758 128.725006103516 125.368751525879 122.993751525879 120.987503051758 118.625 117.050003051758 114.849998474121 112.474998474121 109.762496948242 107.96875 107.418746948242 107.943748474121 109.018753051758 111.181251525879 114.556251525879 119.625 125.506248474121 130.462493896484 131.537506103516 128.618743896484 126.181251525879 124.71875 123.625 119.731246948242 115.599998474121 111.231254577637 107.300003051758 102.831253051758 97.7874984741211 94.9937515258789 
177.193756103516 173.931243896484 172.262496948242 171.199996948242 170.3125 170.643753051758 171.381256103516 171.524993896484 172.793746948242 174.675003051758 175.106246948242 173.625 171.03125 167.768753051758 163.856246948242 159.118743896484 154.03125 149.543746948242 144.46875 140.206253051758 135.21875 130.418746948242 126.643753051758 123.706253051758 121.518753051758 119.643753051758 117.34375 114.243751525879 110.474998474121 106.268753051758 103.612503051758 102.112503051758 101.71875 102.5625 104.137496948242 107.943748474121 114.087501525879 121.65625 127.78125 128.162506103516 124.21875 122.387496948242 121.481246948242 119.381248474121 116.418746948242 112.993751525879 109.65625 105.75 100.75 96.0374984741211 92.5999984741211 
177.287506103516 174.637496948242 172.40625 171.975006103516 171.862503051758 172.043746948242 173.199996948242 174.425003051758 176.324996948242 177.637496948242 177.993743896484 175.581253051758 172.418746948242 168.71875 164.881256103516 159.768753051758 153.40625 149.212493896484 145.381256103516 141.3125 136.625 132 128.09375 124.693748474121 122.443748474121 120.893753051758 118.518753051758 114 107.8125 102.387496948242 98.8874969482422 97.3375015258789 95.78125 94.46875 94.7624969482422 99.09375 106.956253051758 118.025001525879 128.75 125.675003051758 119.199996948242 117.537498474121 116.143753051758 115.787498474121 113.112503051758 110.212501525879 107.625 103.743751525879 99.8625030517578 95.6187515258789 92.8249969482422 
175.581253051758 173.431243896484 171.587493896484 171.518753051758 171.649993896484 172.675003051758 173.762496948242 174.550003051758 176.46875 178.71875 179.725006103516 177.175003051758 173.256256103516 169.456253051758 165.168746948242 159.768753051758 153.506256103516 147.399993896484 145.162490844727 141.512496948242 137.837493896484 133.587493896484 129.631256103516 126.425003051758 124.074996948242 122.487503051758 120.650001525879 114.006248474121 105.481246948242 98.3562469482422 93.7750015258789 91.7312469482422 90.8000030517578 89.8499984741211 88.0124969482422 88.2562484741211 99.3937530517578 112.431251525879 121.15625 121.112503051758 115.4375 113.493751525879 112.768753051758 112.612503051758 110.462501525879 108.731246948242 106.78125 103.574996948242 100.068748474121 96.8125 95.2062530517578 
172.637496948242 170.887496948242 169.918746948242 170.081253051758 170.550003051758 171.899993896484 172.981246948242 174.649993896484 177.037506103516 179.581253051758 180.037506103516 176.8125 173.524993896484 170.206253051758 165.381256103516 159.587493896484 153.46875 147.537506103516 143.137496948242 140.337493896484 138.149993896484 135.818756103516 130.59375 127.818748474121 125.837501525879 123.887496948242 120.668746948242 113.912498474121 104.525001525879 95.7562484741211 89.3000030517578 89.4562530517578 90.03125 88.5687484741211 86.0374984741211 87.7375030517578 96.2750015258789 105.675003051758 112.856246948242 113.900001525879 110.881248474121 109.375 108.762496948242 108.993751525879 108.175003051758 107.368751525879 105.793746948242 103.737503051758 101.224998474121 97.9625015258789 98 
168.875 167.818756103516 166.737503051758 167.206253051758 168.318756103516 170.487503051758 172.318756103516 174.25 177.293746948242 179.256256103516 180.25 178.131256103516 175.149993896484 171.043746948242 165.21875 158.243743896484 151.543746948242 146.9375 143.03125 140.087493896484 137.050003051758 133.90625 131.362503051758 129.037506103516 126.887496948242 124.412498474121 120.474998474121 114.599998474121 105.856246948242 97.3000030517578 92.0999984741211 92.53125 92.1437530517578 91.25 90.4875030517578 92.0374984741211 97.1624984741211 103.143753051758 107.9375 109.318748474121 107.487503051758 105.050003051758 105.325004577637 106.09375 106.175003051758 106.199996948242 105.900001525879 104.793746948242 103.074996948242 100.837501525879 100.724998474121 
164.431243896484 164.650009155273 164.481246948242 165.043746948242 166.393753051758 169.137496948242 171.606246948242 173.887496948242 177.399993896484 179.762496948242 180.268753051758 178.25 175.34375 171.03125 164.943756103516 157.837493896484 151.043746948242 145.71875 142.337493896484 139.100006103516 136.831253051758 134.550003051758 132.34375 130.293746948242 128.981246948242 127.087501525879 123.599998474121 117.237503051758 109.650001525879 104.287498474121 100.78125 100.025001525879 97.8937530517578 96.2874984741211 95.3375015258789 96.96875 100.199996948242 103.849998474121 106.912498474121 107.65625 106.256248474121 104.668746948242 104.349998474121 104.400001525879 104.84375 105.631248474121 106.387496948242 106.181251525879 105.037498474121 104.84375 104.4375 
160.087493896484 159.862503051758 160.581253051758 162.618743896484 164.712493896484 167.712493896484 170.943756103516 173.96875 177.34375 179.53125 179.46875 177.199996948242 174.237503051758 169.831253051758 164.175003051758 157.649993896484 151.412506103516 146.543746948242 142.631256103516 139.09375 135.731246948242 133.675003051758 132.487503051758 130.306243896484 129.037506103516 128.618743896484 127.612503051758 122.175003051758 115.387496948242 111.731246948242 109.418746948242 108.318748474121 104.556251525879 101.71875 99.3249969482422 100.175003051758 102.96875 106.456253051758 108.612503051758 108.081253051758 106.5625 105.050003051758 104.237503051758 103.931251525879 104.59375 106 107.224998474121 107.893753051758 108.59375 109.875 109.387496948242 
156.362503051758 157.262496948242 157.693756103516 159.637496948242 162.462493896484 166.574996948242 170.018753051758 173.837493896484 178.162506103516 179.543746948242 178.875 175.875 173.368743896484 169.537506103516 163.868743896484 157.550003051758 151.34375 146.324996948242 142.362503051758 138.193756103516 134.71875 132.356246948242 130.618743896484 128.53125 127.768753051758 128.71875 129.899993896484 125.743751525879 119.862503051758 117.974998474121 117.199996948242 116.550003051758 111.900001525879 107.050003051758 103.106246948242 102.125 104.668746948242 109.487495422363 111.131248474121 109.456253051758 107.206253051758 105.331253051758 104.237503051758 103.612503051758 104.168746948242 106.193748474121 107.96875 110.28125 112.893753051758 115.09375 115.112503051758 
153.668746948242 154.1875 154.324996948242 156.4375 159.887496948242 164.643753051758 169.350006103516 173.399993896484 177.4375 178.368743896484 177.762496948242 175.875 174.006256103516 171.143753051758 165.350006103516 158.887496948242 152.806243896484 147.9375 143.5625 139.050003051758 134.518753051758 131.350006103516 128.550003051758 126.568748474121 125.637496948242 126.300003051758 127.78125 126.400001525879 123.84375 123.831253051758 124.90625 124.650001525879 119.637496948242 113.518753051758 108.287498474121 105.175003051758 106.087501525879 109.675003051758 111.081253051758 109.375 106.875 105.306251525879 104.068748474121 103.400001525879 105.081253051758 107.675003051758 110.724998474121 112.881248474121 118.118751525879 122.006248474121 122.650001525879 
153.043746948242 152.737503051758 152.100006103516 155.506256103516 160.03125 164.5625 169.03125 172.418746948242 175.5 177.106246948242 177.118743896484 175.800003051758 174.543746948242 172.350006103516 166.899993896484 160.618743896484 154.493743896484 149.712493896484 145.03125 140.168746948242 134.725006103516 130.056243896484 126.381248474121 123.71875 122.956253051758 124.074996948242 126.143753051758 126.806251525879 126.59375 129.006256103516 131.90625 132.8125 127.487503051758 120.5 113.731254577637 110.018753051758 109.150001525879 108.96875 109.706253051758 108.818748474121 106.587501525879 105.28125 103.96875 104.043746948242 105.306251525879 108.849998474121 111.824996948242 116.574996948242 121.324996948242 128.78125 130.149993896484 
155.606246948242 156.818756103516 156.056243896484 158.606246948242 161.206253051758 165.106246948242 168.59375 171.393753051758 174.043746948242 175.362503051758 175.512496948242 175.5 174.987503051758 173.568756103516 168.675003051758 162.6875 156.418746948242 151.625 146.862503051758 141.631256103516 136.137496948242 129.881256103516 124.3125 120.287498474121 120.699996948242 122.78125 126.168746948242 128.287506103516 129.818756103516 133.90625 138.256256103516 141.324996948242 135.831253051758 127.387496948242 119.581253051758 114.512496948242 111.518753051758 109.224998474121 109.431251525879 108.9375 107.03125 105.21875 103.5 103.15625 105.5625 109.087501525879 117.012496948242 122.275001525879 125.525001525879 130.081253051758 130.518753051758 
157.625 159.100006103516 160.337493896484 162.818756103516 164.956253051758 167.875 169.831253051758 171.512496948242 173.15625 174.806243896484 176.15625 177.056243896484 177.256256103516 176.943756103516 172.5 167.112503051758 161.300003051758 156.493743896484 151.612503051758 145.762496948242 139.681243896484 132.84375 126.143753051758 120.900001525879 122.356246948242 124.875 128.9375 132.024993896484 135.024993896484 139.856246948242 145.425003051758 149.381256103516 143.331253051758 132.9375 123.28125 117.293746948242 112.462501525879 108.706253051758 108.75 108.78125 107.53125 105.618751525879 103.181251525879 102.887496948242 108.118751525879 116.268753051758 124.768753051758 128.237503051758 130.681259155273 131.725006103516 130.90625 
160.006256103516 161.793746948242 164.5625 167.506256103516 169.393753051758 171.3125 172.212493896484 172.293746948242 173.21875 174.425003051758 175.618743896484 177.537506103516 179.675003051758 180.637496948242 176.800003051758 171.568756103516 166.512496948242 161.581253051758 156.8125 151.03125 145.112503051758 138.725006103516 133.4375 129.056243896484 128.5625 130.056243896484 133.581253051758 136.762496948242 140.137496948242 145.350006103516 150.993743896484 154.606246948242 146.949996948242 135.943756103516 125.143753051758 118.293746948242 112.574996948242 107.993751525879 108.449996948242 109.356246948242 109.143753051758 107.849998474121 103.581253051758 103.443748474121 112.862503051758 123.800003051758 133.21875 136 136.368743896484 135.518753051758 133.537506103516 
161.949996948242 164.306243896484 168.625 173.09375 174.818756103516 174.831253051758 174.050003051758 173.143753051758 173.475006103516 173.9375 175.524993896484 178.800003051758 182.018753051758 184.399993896484 180.96875 177.024993896484 172.587493896484 168 163.274993896484 157.712493896484 152.137496948242 146.581253051758 142.412506103516 138.056259155273 136.537506103516 136.887496948242 139.850006103516 142.943756103516 146.425003051758 151.037506103516 156.018753051758 158.725006103516 149.71875 137.556243896484 126.012496948242 118.631248474121 112.34375 106.9375 107.262496948242 108.84375 110.256248474121 109.275001525879 106.150001525879 108.650001525879 118.6875 129.768753051758 139.912506103516 142.043746948242 141.981246948242 139.887496948242 136.512496948242 
167.543746948242 170.231246948242 175.8125 181.631256103516 184.168746948242 180.96875 177.631256103516 175.487503051758 174.9375 174.875 176.412506103516 179.862503051758 184.481246948242 188.262496948242 186.337493896484 183.268753051758 180.28125 177.181243896484 172.756256103516 167.106246948242 161.587493896484 156.6875 152.462493896484 148.556243896484 146.731246948242 146.612503051758 148.306243896484 151.368743896484 154.25 157.518753051758 160.824996948242 161.956253051758 152.649993896484 140.21875 128.306243896484 119.731246948242 112.206253051758 105.456253051758 104.881248474121 105.212501525879 105.243751525879 106.881248474121 107.125 110.762496948242 117.462501525879 129.418746948242 140.431243896484 144.681243896484 144.662506103516 142.1875 138.550003051758 
172.40625 175.262496948242 180.493743896484 186.550003051758 188.512496948242 183.618743896484 179.237503051758 175.862503051758 174.712493896484 175.300003051758 177.012496948242 181.21875 186.787506103516 191.318756103516 190.693756103516 189.581253051758 188.731246948242 185.699996948242 182.443756103516 177.024993896484 171.550003051758 166.850006103516 163.143753051758 159.287506103516 156.993743896484 156.293746948242 157.675003051758 160.237503051758 162.568756103516 164.550003051758 165.925003051758 165.331253051758 155.231246948242 142.837493896484 130.456253051758 120.84375 112.068748474121 103.96875 101.90625 100.418746948242 99.8125 103.074996948242 106.099998474121 109.337501525879 114.987503051758 129.581253051758 142.443740844727 147.681243896484 147.762496948242 144.956253051758 140.925003051758 
177 178.8125 182.649993896484 185.524993896484 185.412506103516 182.199996948242 178.337493896484 174.512496948242 173.84375 174.387496948242 176.637496948242 182.043746948242 188.668746948242 194.181243896484 195.774993896484 196.431243896484 195.8125 192.981246948242 189.737503051758 185.068756103516 180.618743896484 176.493743896484 172.793746948242 169.125 167.59375 166.5 167.212493896484 169.449996948242 171.475006103516 171.96875 171.481246948242 169.256256103516 157.868743896484 145.181243896484 132.649993896484 122.381248474121 111.943748474121 102.337501525879 98.9250030517578 96.34375 95.5812530517578 100.131248474121 105.21875 110.387496948242 117.925003051758 134.9375 148.25 151.875 150.481246948242 146.774993896484 142.375 
185.618743896484 185.475006103516 186.606246948242 187.8125 186.768753051758 183.568756103516 179.231246948242 175.087493896484 173.96875 174.675003051758 178.600006103516 184.625 192.362503051758 199.856246948242 202.637496948242 204.09375 204.074996948242 202.018753051758 197.71875 193.418746948242 189.668746948242 186.418746948242 183.162506103516 179.75 178.362503051758 177.881256103516 178.493743896484 179.706253051758 181.643753051758 180.350006103516 178.449996948242 174.71875 163.050003051758 150.0625 137.256256103516 126.118751525879 114.925003051758 104.456253051758 99.5500030517578 96.5625 94.3625030517578 98.4187469482422 104.143753051758 111.5 124.0625 143.40625 153.131256103516 151.65625 147.868743896484 143.875 140.1875 
194.199996948242 192.318756103516 191.887496948242 190.818756103516 187.881256103516 184.206253051758 179.949996948242 175.568756103516 173.800003051758 174.25 178.074996948242 186.768753051758 196.418746948242 204.387496948242 208.96875 211.506256103516 212.96875 210.987503051758 206.25 202.006256103516 198.75 195.643753051758 192.5 189.793746948242 188.506256103516 188.256256103516 189.293746948242 190.725006103516 192.524993896484 189.237503051758 185.418746948242 180.512496948242 168.481246948242 155.324996948242 142.018753051758 130.037506103516 118.34375 106.625 100.893753051758 96.5437469482422 93.0062484741211 95.9124984741211 100.84375 108.150001525879 121.462501525879 139.181243896484 147.274993896484 145.15625 142.137496948242 138.393753051758 136.024993896484 
202.287506103516 199.418746948242 197.350006103516 194.1875 190.212493896484 185.618743896484 180.512496948242 175.5625 172.418746948242 172.774993896484 177.875 188.568756103516 201.074996948242 211.493743896484 217.21875 220.800003051758 222.550003051758 220.024993896484 215.643753051758 210.356246948242 207.862503051758 204.412506103516 202.143753051758 199.606246948242 198.287506103516 198.474990844727 199.524993896484 201.375 202.899993896484 198.175003051758 192.774993896484 186.34375 174.1875 161.087493896484 147.4375 134.512496948242 121.8125 110.081253051758 103.3125 97.1437530517578 92.1999969482422 93.3125 96.3375015258789 101.362503051758 112.112503051758 122.893753051758 130.118743896484 132.324996948242 131.8125 130.887496948242 131.15625 
211.993743896484 208.274993896484 204.8125 200.662506103516 195.493743896484 190.262496948242 183.887496948242 177.462493896484 172.837493896484 171.606246948242 178.293746948242 192.443756103516 208.318740844727 220.262496948242 227.087493896484 231.1875 232.918746948242 230.068756103516 224.731246948242 218.899993896484 216.056243896484 213.506256103516 210.543746948242 208.412506103516 207.868743896484 208.024993896484 209.4375 211.243743896484 212.512496948242 207.306243896484 201.25 193.71875 181.981246948242 168.868743896484 155.40625 142.493743896484 130.918746948242 119.474998474121 112.262496948242 105.775001525879 100.300003051758 100.231246948242 101.15625 103.75 110.78125 117.606246948242 122.175003051758 125.21875 126.393753051758 126.699996948242 128.90625 
221.5625 217.274993896484 213.106246948242 208.475006103516 203.006256103516 197.3125 190.762496948242 182.774993896484 175.225006103516 169.537506103516 180.106246948242 201.975006103516 218.756256103516 230.118743896484 237.493743896484 241.818756103516 243.850006103516 240.193756103516 234.762496948242 228.475006103516 224.887496948242 221.618743896484 218.5 216.731246948242 216.206253051758 216.949996948242 218.149993896484 220.856246948242 222.618743896484 216.868743896484 209.762496948242 201.46875 189.887496948242 177.418746948242 164.131256103516 152.418746948242 141.149993896484 130.018753051758 122.106254577637 115.256248474121 109.181251525879 107.449996948242 106.506248474121 106.793746948242 110.300003051758 113.5 116.162498474121 119.206253051758 121.375 122.425003051758 126.631248474121 
229.899993896484 225.649993896484 221.612503051758 216.806243896484 211.824996948242 205.90625 200.100006103516 192.699996948242 185.487503051758 177.431243896484 198.693756103516 222.756256103516 234.949996948242 243.456253051758 249.699996948242 253.756256103516 254.975006103516 251.1875 244.631256103516 238.162506103516 232.96875 228.806243896484 225.731246948242 224.131256103516 223.675003051758 224.693756103516 227.056243896484 229.90625 231.762496948242 226.037506103516 217.925003051758 209.431259155273 198.3125 186.475006103516 173.756256103516 162.681243896484 151.774993896484 140.762496948242 132.856246948242 125.449996948242 118.625 115.356246948242 112.46875 110.693748474121 112.125 113.03125 114.03125 117.25 119.118751525879 121.368751525879 126.956253051758 
233.837493896484 229.981246948242 226.956253051758 223.462493896484 219.181243896484 214.75 210.768753051758 207.518753051758 207.581253051758 216.8125 243.043746948242 250.399993896484 254.118743896484 259.137512207031 263.306243896484 266.100006103516 266.412506103516 261.068756103516 253.881256103516 246.5 239.943756103516 234.268753051758 230.481246948242 229.081253051758 229.112503051758 230.287506103516 232.268753051758 235.368743896484 237.506256103516 233.024993896484 226.931243896484 218.743743896484 208.987503051758 198.431243896484 187.975006103516 177.6875 167.274993896484 156.925003051758 148.962493896484 141.425003051758 134.943756103516 131.387496948242 128.28125 126.199996948242 127.349998474121 128.418746948242 128.881256103516 132.631256103516 135.600006103516 138.168746948242 143.925003051758 
238.143753051758 234.762496948242 232.612503051758 230.21875 227.493743896484 225.668746948242 224.537506103516 225.881256103516 230.824996948242 242.300003051758 259.181243896484 268.174987792969 271.443756103516 275.162506103516 278.293762207031 279.381256103516 278.262512207031 272.625 263.931243896484 255.268753051758 245.90625 238.175003051758 233.143753051758 231.293746948242 232.449996948242 234.631256103516 237.393753051758 240.8125 243.012496948242 240.212493896484 235.112503051758 229.487503051758 221.600006103516 212.418746948242 202.9375 192.78125 183.324996948242 173.475006103516 165.512496948242 157.768753051758 150.943756103516 147.612503051758 144.90625 142.899993896484 144.399993896484 145.493743896484 146.574996948242 150.762496948242 154.15625 157.5 163.387496948242 
242.524993896484 239.962509155273 238.637496948242 237.106246948242 235.96875 235.943756103516 237.443756103516 241.6875 248.956253051758 259.412506103516 271.375 280.168762207031 285.756256103516 290.068756103516 291.868743896484 292.362487792969 290.331237792969 283.956237792969 274.3125 263.174987792969 250.800003051758 240.556243896484 234.206253051758 232.756256103516 235.181243896484 238.274993896484 241.931243896484 246.074996948242 249.1875 247.46875 245.037506103516 241.59375 234.756256103516 227.175003051758 218.356246948242 208.4375 198.84375 189.4375 181.887496948242 174.012496948242 167.106246948242 163.487503051758 160.375 158.806243896484 160.831253051758 162.837493896484 164.368743896484 168.868743896484 173.287506103516 176.475006103516 182.762496948242 
247.40625 245.287506103516 244.225006103516 243.068756103516 242.074996948242 243.131256103516 246.318756103516 251.462493896484 259.600006103516 268.774993896484 278.618743896484 287.068756103516 294.325012207031 299.024993896484 300.625 301.556243896484 300.4375 294.200012207031 284.1875 268.981262207031 251.5625 238.506256103516 231.568756103516 231.225006103516 235.0625 238.862503051758 243.300003051758 247.931243896484 253.306243896484 254.418746948242 253.393753051758 252.368743896484 247.118743896484 241.024993896484 233.287506103516 223.34375 214.449996948242 205.774993896484 198.625 190.9375 184.268753051758 179.512496948242 176.493743896484 176.368743896484 179.362503051758 181.481246948242 183.112503051758 187.46875 192.6875 197.03125 203.6875 
252.368743896484 250.131256103516 249.5 248.287506103516 248.256256103516 250.28125 254.206253051758 259.549987792969 267.075012207031 275.631256103516 285.243743896484 293.424987792969 300.84375 306.162506103516 309.4375 311.212493896484 310.106262207031 306.006256103516 297.212493896484 276.612487792969 252 232.456253051758 227.068756103516 230.318756103516 235.324996948242 240.212493896484 244.737503051758 250.649993896484 256.5 259.90625 262.200012207031 262.700012207031 259.568756103516 254.15625 247.3125 238.793746948242 230.143753051758 222.368743896484 215.46875 208.931243896484 202.381256103516 198.368743896484 195.543746948242 195.25 198.168746948242 199.818756103516 201.256256103516 205.637496948242 210.9375 215.512496948242 224 
258.4375 255.90625 254.699996948242 253.25 254.887496948242 257.393737792969 261.212493896484 267.0625 274.168731689453 282.318756103516 291.037506103516 299.78125 307.487487792969 314.112487792969 317.774993896484 318.524993896484 318.325012207031 315.056243896484 309.512512207031 286.149993896484 257.612487792969 233.625 228.387496948242 232.074996948242 237.425003051758 242.4375 247.387496948242 253.300003051758 259.456237792969 265.262512207031 269.831237792969 272.737518310547 271.012512207031 266.318756103516 260.143737792969 253.643753051758 245.337493896484 238.087493896484 232.850006103516 226.71875 221.518753051758 217.850006103516 215.743743896484 215.206253051758 216.693756103516 217.993743896484 219.393753051758 222.518753051758 226.824996948242 232.925003051758 242 
264.756256103516 262.256256103516 260.71875 259.731262207031 261.225006103516 264.462493896484 268.112487792969 273.487487792969 280.131256103516 288.75 297.618743896484 306.318756103516 314.612487792969 320.78125 323.299987792969 323.424987792969 321.518737792969 316.799987792969 308.237487792969 288.412506103516 265 247.306243896484 237.875 237.5625 241.1875 245.5 249.875 255.25 261.225006103516 267.081237792969 272.15625 276.28125 275.606262207031 271.575012207031 267.693756103516 262.393737792969 255.350006103516 249.581253051758 245 240.375 236.137496948242 233.456253051758 231.78125 231.193756103516 232.262496948242 232.887496948242 233.800003051758 236.199996948242 237.893753051758 242.737503051758 252.981246948242 
