ncols        51
nrows        45
xllcorner    -63.500000000000
yllcorner    -7.500000000000
cellsize     0.166666666667
NODATA_value -99
262.768737792969 274.112487792969 275.918762207031 283.318756103516 291.431243896484 296.018737792969 291.206237792969 289.125 283.450012207031 274.068756103516 257.049987792969 244.03125 234.225006103516 220.368743896484 209.28125 194.449996948242 183.46875 174.006256103516 164.956253051758 160.412506103516 154.8125 147.368743896484 140.618743896484 135.181243896484 128.800003051758 123.224998474121 122.34375 123.287498474121 118.15625 114.231246948242 106.224998474121 102.212501525879 99.21875 94.3937530517578 91.1750030517578 90.2375030517578 88.5562515258789 88.1937484741211 89.4250030517578 90.03125 91.21875 93.8812484741211 94.5187454223633 95.0875015258789 97.8312530517578 99.1187515258789 100.293746948242 100.75 102.425003051758 101.349998474121 104.431251525879 
250.568756103516 260.556243896484 270.350006103516 280.943756103516 293.518737792969 295.825012207031 286.643737792969 282.981262207031 277.512512207031 267.181243896484 252 240.287506103516 225.024993896484 208.762496948242 195.96875 185.237503051758 172.318756103516 163.09375 155.53125 150.03125 144.143753051758 136.737503051758 130.262496948242 126.131248474121 119.849998474121 113.599998474121 114.824996948242 114.493751525879 110.21875 105.518745422363 100.862503051758 96.625 94.2249984741211 92.3125 89.5437469482422 88.6374969482422 86.25 87.9124984741211 88.6812515258789 89.6062545776367 93.2062530517578 94.9250030517578 97.3187484741211 99.1875 102.449996948242 103.356246948242 105.037498474121 104.137496948242 104.431251525879 103.956253051758 106.137496948242 
225.625 237.993743896484 248.693756103516 261.049987792969 272.424987792969 273.75 269.450012207031 265.34375 257.206237792969 246.712493896484 236.1875 225 210.131256103516 192.643753051758 180.118743896484 169.412506103516 158.787506103516 149.537506103516 141.774993896484 134.131256103516 129.34375 124.181251525879 117.900001525879 114.556251525879 107.462501525879 102.793746948242 105.206253051758 103.987503051758 100.699996948242 97.5 92.3062515258789 88.75 87.1812515258789 86.5 83.6125030517578 81.4000015258789 81.03125 82.8312530517578 83.5562515258789 86.1999969482422 91.2249984741211 94.21875 98.5062484741211 100.331253051758 103.712501525879 104.275001525879 104.400001525879 105.668746948242 104.237503051758 103.425003051758 104.65625 
202.050003051758 209.925003051758 222.15625 234.087493896484 241.46875 242.693756103516 242.15625 240.318756103516 237.425003051758 228.25 216.074996948242 203.574996948242 191.162506103516 175.668746948242 164.162506103516 153.743743896484 144.918746948242 136.574996948242 129.03125 124.650001525879 118.506248474121 111.518753051758 104.768753051758 101.643753051758 95.8312530517578 91.3125 93.3125 91.09375 89.4562530517578 87.2937469482422 83.5250015258789 79.6750030517578 77.3687515258789 75.9499969482422 74.4000015258789 74.3125 76.4375 77.6999969482422 78 82.3375015258789 86.6624984741211 92.375 97.0999984741211 101.400001525879 104.650001525879 105.0625 104.78125 104.581253051758 102.875 102.356246948242 100.625 
198.487503051758 199.625 197.612503051758 203.449996948242 212.75 213.637496948242 212.725006103516 216.524993896484 217.287506103516 209.618743896484 196.793746948242 184.318756103516 172.887496948242 160.600006103516 149.481246948242 140.625 131.524993896484 122.681251525879 115.318748474121 111.618751525879 107.724998474121 99.1624984741211 92.9437484741211 91.0124969482422 84.5875015258789 79.9124984741211 80.2874984741211 81.4437484741211 80.6187515258789 77.1437530517578 75.7125015258789 71.9375 70.8687515258789 70.2937469482422 69.2750015258789 68.7750015258789 69.9875030517578 71.8562469482422 72.7312469482422 76.0749969482422 82.8125 88.7687530517578 96.1750030517578 101.237503051758 104.931251525879 105.800003051758 104.381248474121 101.599998474121 99.4812469482422 98.1500015258789 95.1624984741211 
187.987503051758 187.856246948242 183.037506103516 176.3125 182.893753051758 191.393753051758 192.412506103516 192.574996948242 194.1875 187.78125 174.143753051758 163.662506103516 155.387496948242 145.868743896484 136.106246948242 128.731246948242 119.543746948242 109.987503051758 104.068748474121 99.9749984741211 96.0437469482422 89.9124984741211 84.3625030517578 79.4000015258789 75.2937469482422 71.6750030517578 72.2375030517578 72.9625015258789 73.125 69.6374969482422 68.3312530517578 66.7624969482422 65 64.875 63.2874984741211 64.5562515258789 65.2437515258789 65.9499969482422 68.1624984741211 72.8874969482422 77.7312469482422 84.4312515258789 91.9187469482422 99.4875030517578 106.356246948242 105.356246948242 99.9375 95.6875 94.2437515258789 91.8625030517578 89.7624969482422 
178.662506103516 179.337493896484 174.6875 169.050003051758 168.0625 167.762496948242 167.34375 166.556243896484 160.643753051758 156.368743896484 149.125 142.912506103516 138.787506103516 131.743743896484 124.974998474121 118.443748474121 110.268753051758 101.568748474121 94.2624969482422 90.5250015258789 85.875 80.8125 75.6687469482422 71.6437530517578 67.4937515258789 64.625 65.0875015258789 65.4312515258789 64.4000015258789 63.3624992370605 61.8062515258789 59.9749984741211 59.6875 59.5875015258789 58.7874984741211 59.5812492370605 59.9000015258789 61.15625 64.125 68.8625030517578 73.4000015258789 79.65625 87.7562484741211 96.6312484741211 105.318748474121 105.099998474121 97.0562515258789 87.8874969482422 85.7375030517578 84.6437530517578 84.7437515258789 
170.8125 168.699996948242 166.899993896484 163.068756103516 162.806243896484 161.28125 152.237503051758 138.59375 129.193756103516 126.599998474121 127.4375 124.762496948242 122.112503051758 117.987503051758 113.443748474121 107.837501525879 101.65625 93.3249969482422 85.6125030517578 80.6875 77.1812515258789 72.6937484741211 67.1312484741211 63.1875 60.4937515258789 57.1875 57.3375015258789 58.1124992370605 57.9749984741211 56 55.9937515258789 54.5499992370605 53.71875 54.2125015258789 52.875 53.5875015258789 54.2750015258789 55.2874984741211 57.5187492370605 61.1062507629395 65.9562530517578 72.3187484741211 79.5374984741211 86.9375 92.5187530517578 91.9812469482422 86.3000030517578 80.2375030517578 76.9312515258789 76.0562515258789 76.2562484741211 
164.381256103516 162.1875 161.15625 156.024993896484 153.75 149.46875 142.15625 131.25 117.212501525879 109.46875 109.568748474121 108.84375 110.525001525879 107.724998474121 103.368751525879 98.1062469482422 93.90625 86.9375 81.6374969482422 75.0062484741211 70.5875015258789 66.6812515258789 61.1312484741211 59.1062507629395 56 52.0875015258789 51.25 52.7687492370605 52.9000015258789 51.2625007629395 51.28125 49.1124992370605 47.5999984741211 46.53125 46 47.75 49.1187515258789 50.46875 52.1624984741211 55.2999992370605 59.0875015258789 63.25 68.1374969482422 73.3375015258789 75.46875 75.4749984741211 71.8375015258789 68.0749969482422 65.4562530517578 65.6999969482422 68.5749969482422 
156.837493896484 154.606246948242 152.087493896484 148.887496948242 146.181243896484 141.5 136.899993896484 126.462501525879 114.800003051758 109.09375 105.1875 101.150001525879 102.181251525879 100.65625 95.0625 90.2687530517578 85.1125030517578 80.5062484741211 75.6374969482422 70.5437469482422 66.0999984741211 60.9000015258789 55.46875 53.4437484741211 50.2249984741211 46.65625 46.1624984741211 47.0812492370605 46.6312484741211 45.1937484741211 44.09375 42.6687507629395 42.4625015258789 42.2125015258789 42.2625007629395 43.7249984741211 44.6312484741211 45.6124992370605 47.8375015258789 50.5374984741211 53.28125 55.5499992370605 58.2125015258789 60.2999992370605 61.0874977111816 60.9437484741211 58.9187507629395 54.7125015258789 52.53125 53.5250015258789 54.4562492370605 
152.34375 149.3125 144.75 140.75 138.881256103516 136.606246948242 131.743743896484 120.262496948242 110.693748474121 103.943748474121 100.981246948242 97.4875030517578 95.5374984741211 92.9499969482422 86.2687530517578 80.5687484741211 76.1062469482422 72.9375 68.7687530517578 65.1937484741211 62.7625007629395 57.5750007629395 51.84375 48.1500015258789 46.2312507629395 43.1500015258789 42.8875007629395 42.9124984741211 41.4812507629395 39.6687507629395 39.3250007629395 38.3312492370605 38.8499984741211 38.875 38.2687492370605 39.2000007629395 40.0125007629395 41.3875007629395 43.0437507629395 44.8812484741211 46.5875015258789 48.1937484741211 50.53125 51.1749992370605 50.2750015258789 49.4812507629395 46.5125007629395 43.0875015258789 41.2437515258789 41.2374992370605 41.0062484741211 
147.056243896484 144.431243896484 139.78125 136.737503051758 135.100006103516 132.768753051758 128.856246948242 119.1875 109.381248474121 102.168746948242 97.96875 93.6500015258789 89.03125 83.9812469482422 80.1812515258789 74.6437530517578 69.7375030517578 65.8499984741211 63.0125007629395 60.9312515258789 58.8312492370605 54.0875015258789 48.9375 45.9187507629395 43.1062507629395 38.4187507629395 37.9000015258789 38.25 37.3312492370605 36.1062507629395 35.375 35.3312492370605 34.9437484741211 34.7937507629395 34.8875007629395 36.3187484741211 37.2437515258789 37.9812507629395 38.3499984741211 38.7749977111816 40.0687484741211 41.2874984741211 42.4312515258789 40.9375 39.125 37.5250015258789 33.6875 31.15625 31.625 32.5999984741211 30.8812503814697 
140.756256103516 136.487503051758 132.824996948242 128.462493896484 127.6875 124.487503051758 118.306251525879 111.375 102.918746948242 97.1999969482422 93.25 88.8687515258789 82.6812515258789 75.4187469482422 70.1999969482422 66.1312484741211 61.3687515258789 59.0625 56.5687484741211 53.9187507629395 52.4437484741211 48.5750007629395 44.1500015258789 40.4749984741211 36.21875 32.71875 33.4000015258789 34 34.4375 33.5999984741211 32.6812515258789 32.2000007629395 32.4249992370605 31.375 31.6749992370605 33.7125015258789 36.0250015258789 36.5187492370605 37.2999992370605 36.1187515258789 34.5499992370605 36.2125015258789 36.5 34.46875 34.2874984741211 32.9749984741211 29.2062492370605 26.3875007629395 25.8937492370605 26.9624996185303 26.8250007629395 
133.4375 127.775001525879 123.34375 120.675003051758 118.362503051758 114.068748474121 108.537498474121 103.662498474121 96.2750015258789 91.3187484741211 86.6187515258789 80.375 74.5999984741211 67.8000030517578 60.0187492370605 57.15625 53.6312484741211 51.5 48.0187492370605 45.4500007629395 44.2874984741211 41.0687484741211 37.40625 35.0125007629395 32.2000007629395 29.9562492370605 30.5437507629395 31.2999992370605 31.7437496185303 31.46875 31.125 30.125 30.0125007629395 29.3374996185303 30.2250003814697 33.0999984741211 35.625 37.9249992370605 39.2687492370605 37.3187484741211 32.3250007629395 30.9874992370605 32.7062492370605 35.40625 36.2562484741211 33.1937484741211 30.3875007629395 28.1875 26.75 27.375 27.6000003814697 
125.137496948242 121.1875 115.893753051758 111.806251525879 109.737503051758 105.425003051758 100.131248474121 94.53125 87.9499969482422 83.4749984741211 77.7750015258789 72.3812484741211 66.4937515258789 59.28125 52.0125007629395 47.6749992370605 44.6124992370605 42.1375007629395 39.7437515258789 38.0250015258789 37.2125015258789 35.0374984741211 32.6187515258789 31.8624992370605 30.7374992370605 29.7749996185303 29.9500007629395 30.2062492370605 30.1437492370605 29.8125 29.1625003814697 28.75 28.6812496185303 28.6749992370605 29.0625 32.0562515258789 35.7062492370605 40.7249984741211 43.0625 40.0750007629395 37.3125 36.0250015258789 37.8375015258789 38.3125 36.8187484741211 35.3062515258789 34.0499992370605 32.9124984741211 32.4187507629395 29.7124996185303 28.1375007629395 
115.525001525879 112.606246948242 108.550003051758 104.5625 101.34375 98.0437469482422 93.2750015258789 86.53125 80.8562469482422 76.1374969482422 70.84375 64.4749984741211 57.9812507629395 51.4187507629395 45.1687507629395 39.2687492370605 36.40625 34.5125007629395 32.5750007629395 31.4624996185303 30.9437503814697 29.96875 29.1375007629395 29.875 29.9750003814697 29.4562492370605 29.6124992370605 29.2312507629395 28.8312492370605 28.7687492370605 28.6625003814697 28.2625007629395 27.7124996185303 27.6625003814697 28.4312496185303 33.3624992370605 37.9749984741211 42.84375 45.9124984741211 45.4812507629395 44.3312492370605 42.9187507629395 41.7249984741211 39.9249992370605 37.5750007629395 35.7312507629395 34.8187484741211 33.0437507629395 32.8250007629395 31.2124996185303 29.1937503814697 
108.643753051758 106.193748474121 101.59375 98.0749969482422 93.6312484741211 90.8062515258789 86.9749984741211 81.4562530517578 74.8499984741211 70.4499969482422 65.4749984741211 58.1624984741211 51.5999984741211 45.1937484741211 39.3125 33.9812507629395 29.2062492370605 27.3125 26.5125007629395 26.0062503814697 25.3687496185303 25.4750003814697 25.9812507629395 28.3687496185303 29.7124996185303 29.3250007629395 28.5812492370605 28.1000003814697 27.2437496185303 26.9812507629395 27.5687503814697 28.28125 28.4500007629395 28.7124996185303 32.4812507629395 37.3375015258789 41.9937515258789 48.2125015258789 52.5437507629395 49.9500007629395 47.0750007629395 44.4437484741211 41.8937492370605 40.7999992370605 38.3812484741211 36.5625 36.0499992370605 35.3312492370605 35.2062492370605 32.7249984741211 31.6499996185303 
99.0500030517578 97.9562530517578 94.3125 91.40625 87.2062530517578 84.3312530517578 79.0625 74.0687484741211 68.4187469482422 63.875 59.2937507629395 52.8062515258789 45.6187515258789 39.2000007629395 33.9500007629395 29.0187492370605 24.6749992370605 21.5625 21.3812503814697 20.5187492370605 20.8250007629395 21.5874996185303 23.1499996185303 25.7937507629395 28.15625 28.5437507629395 28.3500003814697 27.6437492370605 26.3624992370605 25.7937507629395 25.1937503814697 25.5249996185303 29.1437492370605 32.9375 35.6624984741211 41.2000007629395 47.0062484741211 51.90625 53.9249992370605 52.5562515258789 47.4000015258789 45.0187492370605 42.6437492370605 41.4874992370605 38.6375007629395 37.59375 37.4812507629395 36.3125 34.9625015258789 32.6437492370605 32.6875 
89.9124984741211 89.4812469482422 86.7874984741211 84.3125 81.3812484741211 77.4937515258789 72.84375 67.625 63.9124984741211 60.1812515258789 55.4375 47.4812507629395 40.8499984741211 35.0875015258789 29.4874992370605 25.3624992370605 21.2937507629395 18.0750007629395 16.6875 16.2999992370605 17.9249992370605 20.9187507629395 19.8812503814697 22.8062496185303 25.3624992370605 27.4187507629395 27.8875007629395 26.9750003814697 26.3999996185303 24.8312492370605 24.03125 25.9874992370605 30.2875003814697 33.4000015258789 36.7374992370605 42.0875015258789 45.9625015258789 48.3812484741211 50.7937507629395 49.3812484741211 46.8250007629395 44.5499992370605 42.2437515258789 40.46875 38.46875 37.7374992370605 37.3687515258789 36.625 35.4124984741211 31.8562507629395 32.8812484741211 
81.9875030517578 81.7750015258789 79.0625 76.6875 73.3562469482422 69.875 65.6437530517578 61.2249984741211 59.0687484741211 56.0687484741211 52.3312492370605 46.2874984741211 38.9187507629395 32.2125015258789 27.0750007629395 22.40625 17.7374992370605 15.8312501907349 14.75 14.6125001907349 14.875 16.1000003814697 18.6312503814697 21.2250003814697 23.3500003814697 24.6625003814697 25.625 25.7562503814697 25.0750007629395 23.5437507629395 23.6812496185303 27.84375 30.5 33.5187492370605 37.0499992370605 40.6375007629395 43.7062492370605 46.6375007629395 48.0499992370605 47.5812492370605 45 42.9124984741211 41.5062484741211 40.0250015258789 38.2874984741211 38.1812515258789 37.1312522888184 36.2249984741211 35.0125007629395 32.2000007629395 33.65625 
72.375 74.1374969482422 73.0124969482422 70.7562484741211 66.75 63.3812522888184 60.125 56.6312484741211 54.9625015258789 52.3187484741211 49.40625 44.6687507629395 37.8250007629395 31.4312496185303 26.0062503814697 21.4125003814697 17.3500003814697 14.8874998092651 14.2250003814697 13.7562503814697 15 16.8250007629395 18.96875 21.6124992370605 24.3500003814697 25.2625007629395 25.0750007629395 25.1437492370605 25.2312507629395 25.9750003814697 27.5 30.4937496185303 31.6937503814697 33.1312484741211 36.0374984741211 39.125 42.6937484741211 45.3812484741211 46.2000007629395 46.0999984741211 44.03125 42.5125007629395 41.34375 39.4812507629395 38.0750007629395 37.6937484741211 37.3562507629395 36.3125 34.53125 33.5875015258789 34.1375007629395 
65.8000030517578 66.5875015258789 65.9250030517578 64.65625 61.7687492370605 58.15625 55.6687507629395 51.9749984741211 50.8687515258789 48.53125 46.9375 44.1937484741211 40.2312507629395 34.3937492370605 28.3250007629395 22.5562496185303 18.9312496185303 16.5375003814697 15.3125 14.7124996185303 15.1374998092651 16.6625003814697 18.8500003814697 21.2250003814697 23.2437496185303 24.6000003814697 26.4249992370605 26.46875 27.0249996185303 28.0249996185303 29.5750007629395 31.5437507629395 32.1500015258789 33.0562477111816 33.8499984741211 36.6937484741211 40.7062492370605 44.1062507629395 45.3375015258789 44.9375 43.2062492370605 41.6062507629395 39.78125 38.9625015258789 36.875 36.5499992370605 36.8499984741211 36.2374992370605 34.8250007629395 35.1812477111816 34.2312507629395 
59.7687492370605 62.5125007629395 62.3624992370605 60.1500015258789 57.6312484741211 54.3624992370605 50.6375007629395 47.0374984741211 46.7999992370605 46.4812507629395 46.3562507629395 45.15625 43.125 38.0062484741211 30.9312496185303 24.6312503814697 20.0437507629395 17.5687503814697 16.09375 15.1187496185303 15.7062501907349 17.1937503814697 19.0812492370605 20.34375 22.6875 24.7562503814697 26.5437507629395 27.6124992370605 27.9249992370605 28.5625 30.1062507629395 32.2437515258789 32.3250007629395 31.8687496185303 31.6374988555908 32.7249984741211 36.375 41.3499984741211 43.6687507629395 43.1062507629395 42.0562515258789 40.125 38.4312515258789 37.4437484741211 35.75 35.5687484741211 35.7874984741211 36.0499992370605 35.6187515258789 35.6437492370605 34.9312515258789 
55.2249984741211 58.5062484741211 58.71875 55.2312507629395 52.09375 49.6124992370605 47.3250007629395 45.1437492370605 43.8125 44.3499984741211 44.9437484741211 46.1937484741211 45.8062515258789 40.9312515258789 33.7125015258789 27.2374992370605 22.4125003814697 19.5750007629395 17.7000007629395 16.6187496185303 17.0812492370605 18.2687492370605 19.5062503814697 21.0499992370605 22.8812503814697 24.3937511444092 26.8125 27.4312496185303 28.2875003814697 29.6000003814697 31.4874992370605 33.2687492370605 32.8875007629395 31.1875 30.1749992370605 30.2625007629395 32.8687515258789 37.2999992370605 39.9874992370605 39.9937515258789 39.2312507629395 38.0125007629395 36.5562515258789 35.4625015258789 35.40625 34.7249984741211 35.7125015258789 36.2249984741211 37.1437492370605 36.7249984741211 35.6875 
51.9500007629395 54.7000007629395 54.28125 51.8812484741211 49.0125007629395 46.5374984741211 44.2249984741211 42.6062507629395 42.3062515258789 42.9625015258789 43.2562484741211 44.1312484741211 44.2562484741211 41.0875015258789 34.9249992370605 29.125 24.4375 21.4125003814697 19.2937507629395 18.0249996185303 18.3999996185303 19.1312503814697 20.0812492370605 21.46875 22.7000007629395 24.5249996185303 26.1062507629395 27.1000003814697 28.2312507629395 30.0499992370605 31.9249992370605 33.5250015258789 32.78125 31.3624992370605 29.7937507629395 29.4562492370605 31.2687492370605 33.2750015258789 35.5187492370605 36.5 36.3312492370605 35.9312515258789 35.1124992370605 34.5250015258789 34.1187515258789 34.6312484741211 34.0437507629395 36.84375 38.2000007629395 37.25 36.09375 
50.0687484741211 52.2437515258789 50.1312484741211 48.2874984741211 44.8187484741211 42.8375015258789 41.1437492370605 40.3937492370605 39.6749992370605 39.8125 40.4187507629395 41.4625015258789 41.9375 39.7249984741211 35.1437492370605 29.8687496185303 25.65625 22.9312496185303 20.5687503814697 19.3624992370605 19.625 19.9874992370605 20.8312492370605 21.6625003814697 22.65625 24.0625 25.8187503814697 27.0499992370605 28.5375003814697 30.7062492370605 32.5625 34.2312507629395 32.75 30.8187503814697 28.9437503814697 28.9562492370605 29.6937503814697 30.2625007629395 32.3500022888184 33.0437507629395 33.4812507629395 33.5499992370605 33.59375 33.6687507629395 33.2999992370605 30.8062496185303 33.7000007629395 35.9375 37.3250007629395 35.9249992370605 34.1937484741211 
48.40625 49.0437507629395 47.5875015258789 45.5374984741211 42.78125 41.1124992370605 40.1812515258789 38.9874992370605 38.0999984741211 38.9124984741211 39.7999992370605 40.2937507629395 40.9375 39.9937515258789 36.3375015258789 31.7437496185303 27.9937496185303 25.1124992370605 22.9624996185303 21.2124996185303 20.8562507629395 21.1625003814697 21.5062503814697 22.5874996185303 23.5062503814697 24.2374992370605 26.3624992370605 27.8937492370605 29.2999992370605 31.0812492370605 33.2750015258789 34.3499984741211 32.6812515258789 30.2749996185303 27.6875 27.4125003814697 27.1812496185303 27.4937496185303 28.78125 29.53125 30.1062507629395 30.7250003814697 31.9312496185303 31.9937496185303 31.8687496185303 32.4812507629395 34.3125 34.1312484741211 34.5625 32.9812507629395 30.6749992370605 
47.5250015258789 45.7687492370605 44.6937484741211 43.1437492370605 41.3125 39.5 38.625 37.78125 37.5499992370605 38.0625 38.21875 39.0625 40.2125015258789 40.5374984741211 37.0812492370605 33.3062515258789 30.1937503814697 27.3875007629395 25.1625003814697 23.1625003814697 22.6062507629395 22.0187492370605 22.4562492370605 23.3500003814697 24.0375003814697 24.5 26.65625 28.5874996185303 30.2999992370605 32.0875015258789 33.6812515258789 34.4249992370605 32.25 28.9937496185303 26.5687503814697 25.6124992370605 24.8187503814697 24.7000007629395 26.0437507629395 27.15625 27.7562503814697 29.0499992370605 30.5125007629395 32.0687484741211 32.8687515258789 33.6749992370605 34.2937507629395 33.3187484741211 31.9750003814697 29.6687507629395 28.0375003814697 
45.21875 44.0562515258789 42.5 41.28125 39.09375 37.75 36.6187515258789 35.5812492370605 36.4437522888184 36.5750007629395 36.9124984741211 38.0687484741211 39.5750007629395 40.6812515258789 38.0437507629395 34.8250007629395 32.3687515258789 29.8062496185303 27.4500007629395 25.4375 24.4874992370605 23.6062507629395 23.53125 24.0249996185303 24.7875003814697 25.0375003814697 27.3250007629395 29.2250003814697 30.8687496185303 32.4249992370605 33.6624984741211 34.4000015258789 31.25 27.4750003814697 24.7625007629395 24.0812492370605 23.3562507629395 23.0062503814697 24.2687492370605 25.0625 25.2687492370605 26.8062496185303 28.8500003814697 31.3187503814697 32.2625007629395 32.7999992370605 33.15625 31.7312507629395 29.2124996185303 26.6499996185303 24.0687503814697 
43.8624992370605 43.1375007629395 41.6749992370605 39.8125 38.3375015258789 37.3687515258789 36.2874984741211 36.03125 36.40625 36.4249992370605 37.0750007629395 38.5687484741211 40.0562515258789 41.0437507629395 39.1812515258789 36.7374992370605 34.4625015258789 32.6749992370605 30.9812488555908 28.34375 27.09375 26.4375 26.2062492370605 26.3999996185303 26.71875 27.4249992370605 29.0125007629395 30.71875 31.6312503814697 32.4000015258789 33.2000007629395 33.6187515258789 30.3624992370605 26.8312492370605 24.0062503814697 22.7749996185303 22.40625 21.9874992370605 22.6812496185303 23.8187503814697 24.5125007629395 25.6999988555908 26.7062492370605 28.4562492370605 29.5499992370605 29.9125003814697 29.9249992370605 28.8624992370605 26.1499996185303 23.7875003814697 21.4812507629395 
42.5562515258789 41.5625 39.7312507629395 38.8062515258789 38.6687507629395 37.5875015258789 36.8562507629395 36.1187515258789 36.2625007629395 36.3937492370605 36.7874984741211 39.0250015258789 41.2374992370605 42.28125 40.2312507629395 38.4375 37.4124984741211 35.8062515258789 34.3562507629395 32.0437507629395 30.4187507629395 28.78125 28.1812496185303 28.2749996185303 28.3875007629395 29.1749992370605 30.1875 31.9125003814697 32.9812507629395 33.2874984741211 33.5562515258789 33.0750007629395 29.5625 26.1000003814697 23.6437492370605 22.0874996185303 21.3250007629395 20.6749992370605 21.5812492370605 22.9187507629395 23.3937492370605 23.5625 23.9500007629395 25.75 26.3312492370605 26.5125007629395 25.8187503814697 24.9312496185303 23.3937492370605 21.2687492370605 19.6124992370605 
41.0062484741211 40.2750015258789 38.75 38 38.3250007629395 37.5125007629395 36.7000007629395 35.6937484741211 36.0875015258789 36.5374984741211 37.0562515258789 39.0187492370605 40.7125015258789 42.34375 41.3812484741211 41.21875 40.2687492370605 38.5499992370605 36.6187515258789 34.6749992370605 33.125 32.03125 30.6437492370605 29.9249992370605 30.1062507629395 30.59375 31.5375003814697 33.1375007629395 33.8312492370605 33.3624992370605 33.2937507629395 32.1124992370605 28.7437496185303 25.5874996185303 22.46875 20.6875 19.7250003814697 18.9937496185303 19.6812496185303 20.6499996185303 20.84375 20.8062496185303 21.3875007629395 22.1937503814697 23.0187492370605 23.3562507629395 22.4375 21.6312503814697 20.53125 19.4562492370605 18.0812492370605 
38.9375 38.0625 37.1937484741211 37.0812492370605 36.875 36.1937484741211 36.15625 35.8062515258789 36 36.9249992370605 38.4874992370605 39.8062515258789 41.3062515258789 43.5687484741211 43.2000007629395 43.7249984741211 43.3250007629395 41.9874992370605 39.9437484741211 37.9437484741211 36.3562507629395 35.0125007629395 33.7999992370605 33.71875 33.6749992370605 33.4312515258789 34.1500015258789 34.4312515258789 35.0374984741211 33.8312492370605 33.1624984741211 31.4249992370605 28.09375 24.7999992370605 21.7999992370605 19.9249992370605 18.7124996185303 17.6187496185303 17.78125 18.125 17.8062496185303 17.7937507629395 18.0437507629395 18.3312492370605 18.8937492370605 19.2124996185303 19.34375 18.4750003814697 17.6625003814697 17.09375 16.2437496185303 
36.8999977111816 36.6062507629395 36.0187492370605 36.4937515258789 35.3562507629395 35.3937492370605 35.9500007629395 35.9749984741211 36.2625007629395 36.9625015258789 38.1937484741211 40.1187515258789 42.40625 43.2999992370605 44.2437515258789 44.71875 45.5374984741211 43.9437484741211 41.8125 40.3250007629395 39.0812492370605 37.8687515258789 36.9375 36.3812484741211 36.53125 36.3687515258789 36.5750007629395 36.21875 36.8312492370605 35.2562484741211 33.5625 31.15625 27.3687496185303 23.7749996185303 21 19.0812492370605 17.7062492370605 16.2625007629395 15.9562501907349 15.4937496185303 15.1750001907349 15.1062498092651 14.96875 14.84375 15.1062498092651 15.4625005722046 15.6062498092651 15.4812498092651 15.1750001907349 14.7375001907349 14.5625 
35.5374984741211 35.125 35.0374984741211 34.8812484741211 34.65625 34.9437484741211 35.53125 35.90625 35.7249984741211 36.8562507629395 38.125 40.6375007629395 42.3499984741211 44.3562507629395 45.625 46.9812507629395 48.0437507629395 46.3812484741211 44.2937507629395 42.8624992370605 41.8562507629395 40.5125007629395 39.2125015258789 38.9749984741211 38.7062492370605 38.75 38.5250015258789 37.96875 38.3250007629395 36.3375015258789 33.40625 30.2562503814697 26.5062503814697 22.8500003814697 19.96875 18.0187492370605 16.25 14.9375 14.3187503814697 13.5375003814697 12.6750001907349 12.3500003814697 12.1812496185303 11.9312496185303 12.1812496185303 12.3812503814697 12.6875 12.8937501907349 12.7375001907349 12.46875 12.7062501907349 
35.4437484741211 35.1749992370605 34.7999992370605 34.5499992370605 34.5499992370605 34.5250015258789 34.9000015258789 34.9937515258789 35.3312492370605 36.7562484741211 38.9187507629395 41.0687484741211 43.71875 45.8312492370605 47.5999984741211 49.7437515258789 50.5562515258789 49.6187515258789 47.0437507629395 45.4625015258789 44.7937507629395 44.4187507629395 42.9500007629395 42.6937484741211 41.9749984741211 41.3687515258789 40.59375 40.7562484741211 39.8499984741211 36.9187507629395 33.53125 30.1000003814697 25.6312503814697 22.3812503814697 19.3687496185303 17.1187496185303 15.7124996185303 14.40625 13.4750003814697 12.7749996185303 11.8812503814697 11.6187496185303 11.0500001907349 10.6937503814697 10.7250003814697 10.5874996185303 10.6812496185303 11.1125001907349 11.1750001907349 11.1374998092651 11.5749998092651 
34.5125007629395 34.2000007629395 33.8250007629395 33.8875007629395 34.0187492370605 34.3375015258789 34.8499984741211 35.4249992370605 35.5437507629395 36.3375015258789 39.875 43.65625 46.6500015258789 48.4375 50.8375015258789 52.2625007629395 53.1937484741211 51.9000015258789 49.9249992370605 47.9000015258789 47.375 47.2000007629395 46.0750007629395 45.9812507629395 45.5187492370605 44.0437507629395 43.34375 42.7937507629395 40.6749992370605 37.2874984741211 33.8312492370605 29.7687492370605 25.5437507629395 21.8187503814697 18.8374996185303 16.7687492370605 15.34375 14.125 13.1062498092651 12.3562498092651 11.34375 10.9499998092651 10.25 9.82499980926514 9.53125 9.40625 9.5 9.8125 9.96875 10.0874996185303 10.5812501907349 
33.6124992370605 33.5187492370605 32.9812507629395 33.5812492370605 34.0062484741211 34.2999992370605 34.9187507629395 35.4812507629395 36.53125 37.3937492370605 43.4375 47.7312507629395 49.3312492370605 51.7937507629395 54.5187492370605 55.7249984741211 55.90625 53.9500007629395 53.0062484741211 50.9437484741211 50.3312492370605 49.5250015258789 48.6624984741211 48.5250015258789 48.1375007629395 47.2062492370605 46.2750015258789 45.3624992370605 43.2937507629395 38.9874992370605 34.3499984741211 30.5062503814697 26.3937492370605 21.8374996185303 18.5437507629395 16.3374996185303 15.3249998092651 14.2250003814697 13.2875003814697 12.46875 10.9937496185303 10.2749996185303 9.60000038146973 9.00625038146973 8.82499980926514 8.74374961853027 8.94999980926514 9.375 9.27499961853027 9.55624961853027 10.3999996185303 
30.7062492370605 30.4750003814697 30.8374996185303 31.3999996185303 32.53125 33.4000015258789 34.6062507629395 35.7437515258789 38.1375007629395 42.8624992370605 49.875 51.3374977111816 51.5250015258789 53.6375007629395 55.3499984741211 56.6375007629395 57.8624992370605 56.8187484741211 54.4937515258789 54.28125 53.1062507629395 51.7374992370605 51.1375007629395 50.4187507629395 49.8812484741211 48.7062492370605 47.7125015258789 47.0062484741211 44.9312515258789 40.3687515258789 35.8375015258789 32.0062484741211 27.8187503814697 22.9187507629395 19.6124992370605 18.0750007629395 16.6687507629395 15.5062503814697 14.6687498092651 13.2875003814697 11.9499998092651 11.1875 10.4375 9.83749961853027 9.875 9.91874980926514 9.79374980926514 10.4624996185303 10.6374998092651 11.1374998092651 11.96875 
27.2937507629395 27.7250003814697 28.4187507629395 29.4249992370605 30.5375003814697 32.09375 33.3062515258789 35.34375 38.8250007629395 43.9500007629395 48.8312492370605 52.1624984741211 53.8125 55.2687492370605 57.0999984741211 58.9812507629395 59.3125 58.0125007629395 56.0999984741211 56.8125 56.3687515258789 54.0374984741211 53.3250007629395 52.375 51.6437492370605 50.375 49.1187515258789 47.8937492370605 45.1812515258789 41.5999984741211 37.65625 34.5250015258789 30.0125007629395 25.3500003814697 22.375 20.3937492370605 18.375 17.2062492370605 16.1000003814697 14.3125 12.8375005722046 12.15625 11.4375 10.7124996185303 10.9812498092651 10.8374996185303 10.7562503814697 11.6062498092651 12.1499996185303 12.9812498092651 13.8312501907349 
24.1375007629395 25.1875 26.2437496185303 27.6749992370605 28.6937503814697 30.0687503814697 31.7437496185303 33.6624984741211 36.7625007629395 41.9749984741211 46.7687492370605 50.2374992370605 53.4375 55.125 57.15625 58.9124984741211 59.8624992370605 59.3250007629395 58.84375 58.9375 59.0562515258789 56.6124992370605 54.8187484741211 53.7562484741211 53.1500015258789 51.4312515258789 50.6937484741211 48.3875007629395 45.9375 42.4000015258789 38.9187507629395 36.0125007629395 32.2249984741211 28.125 25.71875 22.9937496185303 20.5750007629395 18.8812503814697 17.8187503814697 15.65625 13.6937503814697 13.1125001907349 12.3312501907349 11.8249998092651 11.75 11.9375 12.0687494277954 12.9750003814697 14.3687496185303 14.5625 15.3125 
20.0249996185303 20.9874992370605 22.0750007629395 23.2375011444092 24.0625 24.9500007629395 26.3937492370605 28.4937496185303 31.5625 35.6875 39.6687507629395 43.6312484741211 47.8187484741211 50.4500007629395 53.1875 56.2062492370605 57.8937492370605 58.7750015258789 58.3125 58.6375007629395 57.9187507629395 57.9000015258789 54.8250007629395 53.3250007629395 52.6375007629395 50.9937515258789 48.7249984741211 47.0125007629395 46.4312515258789 44.1624984741211 40.53125 37.5437507629395 34.4437522888184 32.8187484741211 30.4125003814697 26.5750007629395 23.2000007629395 21.5562496185303 19.6437492370605 17.7250003814697 15.6437501907349 14.2749996185303 13.25 13.1062498092651 13.4375 13.9375 14.0874996185303 14.8999996185303 16.7937507629395 16.4562492370605 17.3374996185303 
15.8187503814697 16.7625007629395 17.6937503814697 18.4937496185303 19.0625 19.8125 21.1749992370605 23 25.3937492370605 28.9500007629395 32.78125 36.9625015258789 40.6500015258789 44.5187492370605 49.0999984741211 52.3562507629395 55.4312515258789 56.5875015258789 57.4625015258789 57.9625015258789 57.3312492370605 58.2062492370605 55.8062515258789 53.9124984741211 52.0999984741211 49.5562515258789 48.15625 47.6687507629395 45.9874992370605 44.2999992370605 41.9874992370605 39.5062484741211 37.0687484741211 35.1437492370605 34.1312484741211 31.5499992370605 26.6187496185303 24.1187496185303 22.0125007629395 20.1187496185303 17.7875003814697 16.1749992370605 15.125 14.7687501907349 15.3375005722046 15.6812505722046 16.2000007629395 17.0187492370605 19.2875003814697 19.2000007629395 19.4624996185303 
11.9750003814697 12.8999996185303 13.9375 14.2312498092651 14.5249996185303 15.2312498092651 16.0812492370605 17.6499996185303 20.0750007629395 23.2250003814697 27.0375003814697 31.75 35.5625 40.3812484741211 45.2687492370605 49.6687507629395 53.1937484741211 54.78125 56.6312484741211 57.7312507629395 57.3125 57.5437507629395 54.2687492370605 52.5562515258789 51.8250007629395 50.4375 48.8687515258789 47.5 46.2437515258789 44.4437484741211 43.7437515258789 42.2437515258789 39.8187484741211 37.3875007629395 37.4937515258789 37.5750007629395 31.5437507629395 27.6499996185303 25.6937503814697 22.5375003814697 20.1875 18.9375 17.65625 17.3875007629395 17.1750011444092 17.5187492370605 17.7749996185303 18.4500007629395 20.3062496185303 21.4937496185303 21.1749992370605 
9.05000019073486 9.99374961853027 11.2062501907349 11.4499998092651 11.3000001907349 11.7124996185303 11.9187498092651 13.1000003814697 15.5250005722046 18.78125 22.3562507629395 26.7374992370605 31.65625 36.8250007629395 41.4562492370605 45.59375 49.6937484741211 51.7249984741211 54.2750015258789 56.3125 55.4312515258789 54.7062492370605 52.46875 51.8375015258789 51.0374984741211 49.59375 47.6124992370605 46.6749992370605 45.7750015258789 44.7062492370605 43.3687515258789 42.6187515258789 40.7312507629395 38.7124977111816 38.75 38.0625 34.1687507629395 30.3875007629395 27.4750003814697 25.1625003814697 23 21.6875 20.1687507629395 19.8187503814697 19.7937507629395 19.8624992370605 19.90625 20.5499992370605 21.2999992370605 22.4500007629395 22.2062492370605 
