ncols        51
nrows        45
xllcorner    -63.500000000000
yllcorner    -7.500000000000
cellsize     0.166666666667
NODATA_value -99
170.431243896484 165.65625 159.018753051758 155.243743896484 149.612503051758 147.53125 144.15625 138.693756103516 133.774993896484 131.449996948242 132.381256103516 132.649993896484 132.300003051758 127.650001525879 124.768753051758 122.162498474121 120.431251525879 116.21875 115.1875 114.900001525879 116.143753051758 117.675003051758 120.650001525879 124.143753051758 128.4375 133.487503051758 139.774993896484 146.65625 154.399993896484 162.412506103516 171.574996948242 181.418746948242 189.425003051758 198.03125 207.137496948242 212.487503051758 215.300003051758 217.243743896484 218.068756103516 216.699996948242 216.475006103516 215.600006103516 212.96875 213.387496948242 212.181243896484 212.34375 212.550003051758 214.03125 215.425003051758 219.918746948242 224.006256103516 
180.262496948242 175.631256103516 171.600006103516 167.037506103516 163.518753051758 164.0625 162.34375 161.274993896484 160.324996948242 158.925003051758 158.324996948242 156.081253051758 153.293746948242 148.912506103516 144.356246948242 139.787506103516 136.268753051758 132.8125 131.412506103516 130.587493896484 131.793746948242 134.293746948242 137.737503051758 141.34375 145.056243896484 150.28125 155.75 162.431243896484 169.387496948242 177.881256103516 186.53125 197.649993896484 205.981246948242 215.350006103516 223.481246948242 227.662506103516 229.6875 230.1875 230.074996948242 228.043746948242 226.793746948242 224.931243896484 221.287506103516 220.262496948242 218.356246948242 218.362503051758 218.268753051758 218.193756103516 220.662506103516 225.006256103516 227.643753051758 
190.362503051758 186.243743896484 182.850006103516 179.868743896484 178.387496948242 180.475006103516 183.243743896484 187.137496948242 190.181259155273 190.118743896484 188.112503051758 183.918746948242 178.824996948242 172.356246948242 165.462493896484 158.918746948242 153.318756103516 150.106246948242 148.1875 147.387496948242 149.149993896484 153.287506103516 156.731246948242 160.287506103516 165.387496948242 169.568756103516 174.393753051758 180.556243896484 185.71875 193.125 202.643753051758 212.956253051758 221.824996948242 229.625 238.475006103516 240.725006103516 242.587493896484 243.899993896484 242.262496948242 239.78125 237.556243896484 234.324996948242 230.03125 226.231246948242 224.850006103516 224.699996948242 224.881256103516 224.118743896484 225.962493896484 229.606246948242 232.4375 
198.568756103516 195.212493896484 194.393753051758 193.331253051758 196.012496948242 199.5 206.181243896484 215.037506103516 222.806243896484 226.043746948242 222.943756103516 214.800003051758 205.293746948242 195.975006103516 187.399993896484 179.006256103516 171.925003051758 166.856246948242 165.237503051758 166.4375 169.768753051758 173.925003051758 177.1875 181.037506103516 185.537506103516 189.712493896484 194.568756103516 199.181259155273 203.037506103516 210.556243896484 218.743743896484 229.90625 237.368759155273 245.368743896484 252.631256103516 255.550003051758 256.893737792969 257.200012207031 256.168762207031 253.46875 248.975006103516 244.53125 239.262496948242 233.668746948242 231.625 229.71875 230.162506103516 229.606246948242 229.662506103516 233.056243896484 236.956253051758 
211.518753051758 205.962493896484 203.875 205.443756103516 210.6875 217.987503051758 227 241.28125 256.481262207031 265.543762207031 257.125 243 231.850006103516 221.056243896484 209.581253051758 199.587493896484 191.356246948242 184.862503051758 184.225006103516 186.618743896484 191.287506103516 194.756256103516 198.868743896484 202.981246948242 206.856246948242 211.074996948242 213.118743896484 215.787506103516 220.949996948242 228.46875 236.756256103516 245.681243896484 254.137496948242 262.043762207031 268.625 271.100006103516 272.90625 273.293762207031 271.818756103516 267.243743896484 262.4375 255.53125 247.956253051758 241.21875 236.993743896484 235.931243896484 235.78125 235.756256103516 234.96875 237.237503051758 241.431243896484 
221.793746948242 217.774993896484 214.71875 214.893753051758 219.875 229.725006103516 241.556243896484 257.006256103516 275.118743896484 289.056243896484 277.225006103516 261.75 250.59375 240.493743896484 229.668746948242 220.975006103516 211.868743896484 206.28125 207.21875 210.71875 214.03125 217.337493896484 220.931243896484 223.606246948242 225.90625 229.96875 231.887496948242 233.40625 236.912506103516 244.050003051758 252.25 261.006256103516 267.837493896484 277.674987792969 285.0625 287.28125 289.28125 289.725006103516 288.987487792969 283.924987792969 276.21875 267.768737792969 259.112487792969 251.024993896484 243.606246948242 242.106246948242 243.5 244.0625 242.050003051758 241.512496948242 240.824996948242 
232.912506103516 229.112503051758 226.806243896484 225.231246948242 229.0625 237.831253051758 249.349990844727 261.581237792969 275.381256103516 282.418762207031 280.587493896484 272.59375 264.481262207031 256.868743896484 249.074996948242 242.143753051758 236.475006103516 235.125 236.649993896484 237.78125 237.887496948242 240.15625 241.449996948242 242.756256103516 246.5625 249.012496948242 250.356246948242 252.037506103516 252.887496948242 258.887512207031 268.112487792969 276.78125 284.393737792969 290.931243896484 298.056243896484 302.325012207031 304.03125 305.387512207031 306.34375 300.59375 289.799987792969 280.46875 271.293762207031 261.912506103516 252.65625 249.849990844727 251.074996948242 251.362503051758 246.800003051758 244.100006103516 243.806243896484 
243.462493896484 238.40625 235.993743896484 236.606246948242 239.881256103516 246.28125 253.606246948242 260.28125 266.274993896484 272.287506103516 278.862487792969 279.84375 277.206237792969 271.662506103516 266.612487792969 262.787506103516 259.981262207031 262.981262207031 267.243743896484 264.75 261.28125 261.28125 261.399993896484 262.71875 266 267.856262207031 268.59375 268.737487792969 270.024993896484 275.412506103516 282.450012207031 291.668762207031 298.8125 305.850006103516 312.075012207031 315.043762207031 316.956237792969 317.931243896484 317.393737792969 312.143737792969 302.818756103516 294.037506103516 284.6875 273.856262207031 265.481262207031 262.049987792969 259.5 254.818756103516 252.899993896484 247.056243896484 243.800003051758 
253.743743896484 248.9375 246.418746948242 247.137496948242 249.206253051758 252.768753051758 258.262512207031 261.668762207031 262.743743896484 267.831237792969 278.049987792969 284.456237792969 285.549987792969 283.018737792969 279.931243896484 279.049987792969 278.03125 280.512512207031 285.100006103516 281.381256103516 275.825012207031 275.162506103516 275.6875 279.837493896484 283.268737792969 284.993743896484 284.362487792969 283.993743896484 285.493743896484 289.912506103516 296.78125 305.28125 311.631256103516 317.493743896484 323.100006103516 326.700012207031 328.774993896484 329.706237792969 330 325.693756103516 317.243743896484 309.5 301.668762207031 292.1875 285.40625 279.9375 274.6875 267.049987792969 258.712493896484 249.399993896484 242.78125 
263.700012207031 259.200012207031 257.337493896484 257.024993896484 257.825012207031 260.243743896484 265.368743896484 268.443756103516 272.662506103516 278.46875 287.868743896484 292.25 295.487487792969 293.625 293.137512207031 292.387512207031 291.743743896484 292.700012207031 292.200012207031 289.649993896484 286.100006103516 286.762512207031 289.493743896484 296.674987792969 300.612487792969 301.899993896484 301.5 299.587493896484 301.46875 305.356262207031 309.793731689453 316.65625 322.850006103516 329.674987792969 335.693756103516 338.768737792969 340.875 340.78125 341.081237792969 338.71875 333.15625 327.200012207031 319.512512207031 309.712493896484 305.274993896484 301.924987792969 294.393737792969 282.950012207031 270.387512207031 256.625 244.175003051758 
272.456237792969 268.056243896484 266.237487792969 265.649993896484 265.581237792969 267.868743896484 272.450012207031 277.518737792969 283.799987792969 291.212493896484 300.881256103516 305.762512207031 307.443756103516 305.65625 305.793762207031 305.481262207031 303.9375 301.668762207031 298.543762207031 296.137512207031 292.956237792969 294.818756103516 301.712493896484 308.362487792969 317.168762207031 318.350006103516 316.399993896484 315.393737792969 315.424987792969 317.706237792969 322.112487792969 327.65625 332.893737792969 339.475006103516 346.956237792969 350.756256103516 351.262481689453 352.387481689453 352.84375 350.350006103516 346.143737792969 340.924987792969 334.693756103516 326.287506103516 321.950012207031 320.524993896484 310.831237792969 294 279.25 265.756256103516 249.65625 
280.306243896484 275.837493896484 273.53125 273.34375 273.987487792969 276.643737792969 281.543762207031 288.96875 295.993743896484 304.337493896484 315.043762207031 322.299987792969 323.162506103516 320.881256103516 320.78125 318.612487792969 315.975006103516 310.78125 304.668762207031 299.725006103516 295.825012207031 299.543762207031 311.149993896484 323.362487792969 331.96875 331.125 327.762512207031 326.056243896484 326.174987792969 329.049987792969 332.587493896484 336.28125 341.475006103516 347.393737792969 354.34375 358.793762207031 361.918762207031 363.875 364.681243896484 362.899993896484 359.78125 354.299987792969 345.606262207031 334.706237792969 328.356262207031 320.856262207031 309.731262207031 299.75 286.600006103516 273.024993896484 255.943756103516 
284.662506103516 281.21875 280.068756103516 279.993743896484 282.125 285.993743896484 292.331237792969 299.71875 307.049987792969 317.21875 328.09375 337.018737792969 339.043762207031 335.424987792969 334.049987792969 330.21875 326.337493896484 320.668762207031 314.456237792969 307.325012207031 299.862487792969 305.106262207031 319.299987792969 331.337493896484 337.018737792969 336.881256103516 336.3125 335.431243896484 335.299987792969 337.887512207031 341 343.981262207031 347.181243896484 353.212493896484 360.3125 364.587493896484 368.231262207031 373.043762207031 375.193756103516 374.362487792969 373.212493896484 366.325012207031 353.049987792969 339.0625 329.487487792969 322.3125 312.318756103516 299.943756103516 289.087493896484 279.787506103516 269.581237792969 
287.825012207031 285.09375 284.787506103516 285.818756103516 289.231262207031 293.931243896484 301.931243896484 310.212493896484 318.524993896484 328.03125 337.868743896484 345.887481689453 349.337493896484 349.262512207031 345.493743896484 342.043762207031 336.693756103516 331.712493896484 325.34375 320.256256103516 317.068756103516 320.962493896484 330.512512207031 337.443756103516 341.431243896484 342.181243896484 343.137512207031 342.8125 343.606262207031 344.243743896484 346.674987792969 348.356262207031 350.793762207031 356.65625 363.125 368.662506103516 375.225006103516 381.993743896484 386.756256103516 386.787506103516 382.875 370.368743896484 357.774993896484 345.625 336.5625 326.774993896484 317.387512207031 308.518737792969 296.356262207031 289.59375 285.59375 
291.887512207031 289.225006103516 290.237487792969 293.681243896484 297.125 303.706237792969 313.412506103516 322.112487792969 331.46875 341.056243896484 349.575012207031 358.5 363.1875 364.356262207031 361.212493896484 356.631256103516 352 346.881256103516 341.950012207031 339.231262207031 337.643737792969 339.118743896484 344.893737792969 348.450012207031 349.768737792969 351.293762207031 352.075012207031 350.9375 350.825012207031 351.181243896484 350.5625 349.606262207031 351.649993896484 355.456237792969 361.681243896484 367.375 377.40625 388.53125 396.087493896484 396.793762207031 388.793731689453 377.774993896484 366.231262207031 352.662506103516 342.075012207031 331.912506103516 323.181243896484 314.912506103516 306.806243896484 298.368743896484 294.637512207031 
294.431243896484 292.168762207031 294.65625 299.4375 305.018737792969 312.899993896484 323.40625 332.418762207031 343.03125 354.387512207031 363.806243896484 373.9375 380.299987792969 381.737487792969 378.237487792969 370.90625 367.956237792969 365.087493896484 361.987487792969 360.524993896484 357.643737792969 357.237487792969 359.856262207031 362.03125 360.318756103516 358.950012207031 358.149993896484 357.875 358.475006103516 358.043762207031 356.612487792969 352.168762207031 349.112487792969 349.8125 352.837493896484 360.643737792969 374.149993896484 390.693756103516 404.600006103516 407.762512207031 400.143737792969 386.162506103516 371.674987792969 356.59375 343.868743896484 333.418762207031 323.487487792969 314.806243896484 307.549987792969 300.393737792969 295.487487792969 
294.493743896484 294.362487792969 298.018737792969 304.231262207031 311.8125 321.018737792969 332.412506103516 343.262512207031 354.96875 367.6875 379.762512207031 392.193756103516 400.993743896484 404.106262207031 399.649993896484 391.568756103516 385.481262207031 381.931243896484 379.618743896484 379.59375 377.581268310547 376.100006103516 375.606262207031 375.306243896484 372.600006103516 366.643737792969 363.125 363.743743896484 365.71875 366.40625 363.0625 355.6875 347.799987792969 340.5 341.143737792969 349.362487792969 365.012512207031 390.0625 415.46875 415.274993896484 403.993743896484 388.631256103516 371.299987792969 355.081237792969 343.59375 333.46875 322.46875 314.787506103516 309.774993896484 300.943756103516 294.837493896484 
294.181243896484 295.912506103516 302.46875 311.1875 320.331237792969 331.137512207031 344.206237792969 356.706237792969 369.243743896484 382.3125 396.537506103516 413.3125 426.84375 431.612487792969 427.799987792969 419.768737792969 408.649993896484 399.506256103516 400.162506103516 400.700012207031 401.193756103516 398.100006103516 393.256256103516 387.912506103516 382.293762207031 375.081237792969 369.193756103516 370.649993896484 373.731262207031 374.631256103516 368.8125 352.537506103516 340.399993896484 329.631256103516 325.268768310547 329.34375 351.149993896484 377.3125 400.299987792969 403.975006103516 393.875 380.043762207031 365.581237792969 352.206237792969 341.78125 330.868743896484 321.84375 314.424987792969 308.287506103516 298.993743896484 294.1875 
292.9375 296.881256103516 305.293762207031 314.962493896484 326.393737792969 340.418762207031 354.331237792969 369.487487792969 383.931243896484 397.306243896484 413.612487792969 432.818756103516 451.287506103516 463.424987792969 457.756256103516 444.40625 430.487487792969 417.8125 415.568756103516 418.40625 420.706237792969 417.950012207031 406.056243896484 397.731262207031 390.212493896484 383.537506103516 379.46875 379.768737792969 383.118743896484 384.912506103516 378.587493896484 357.28125 337.762512207031 318.087493896484 306.5 312.331237792969 334.65625 359.225006103516 378.706237792969 383.793762207031 378.918762207031 367.450012207031 357.3125 347.768737792969 338.662506103516 329.606262207031 320.856231689453 313.350006103516 306.787506103516 294.25 292.887512207031 
291.987487792969 296.40625 306.418762207031 317.856262207031 332.112487792969 348.424987792969 365.318756103516 380.868743896484 395.931243896484 410.225006103516 426.256256103516 447.90625 472.756256103516 494.681243896484 484.8125 461.46875 441.793762207031 431.649993896484 429.325012207031 432.212493896484 428.700012207031 421.987487792969 415.850006103516 405.987487792969 397.106262207031 389.600006103516 387.53125 389.112487792969 389.137512207031 388.225006103516 377.96875 359.399993896484 334.200012207031 307.006256103516 287.362487792969 296.96875 324.225006103516 349.21875 364.96875 370.225006103516 365.268737792969 355.40625 350.78125 345.15625 337.549987792969 328.90625 319.368743896484 310.90625 302.737487792969 290.668762207031 289.549987792969 
288.875 296.325012207031 308.237487792969 321.712493896484 338.943756103516 355.681243896484 373.793762207031 391.987487792969 407.143737792969 420.462493896484 432.818756103516 452.375 474.850006103516 496.149993896484 488.806243896484 467.456237792969 449.8125 437.475006103516 436.5625 436.1875 434.087493896484 429.862487792969 423.206237792969 414.40625 406.049987792969 399.456237792969 396.899993896484 394.668762207031 393.774993896484 392.237518310547 382.09375 364.168762207031 338.018737792969 306.712493896484 278.087493896484 293.712493896484 325.549987792969 349.799987792969 362.956237792969 366.625 362.612487792969 356.024993896484 350.162506103516 343.743743896484 336.375 328.350006103516 318.9375 310.068756103516 298.59375 289.193756103516 284.65625 
284.40625 294.418762207031 308.606231689453 326.181243896484 344.456237792969 363.037506103516 382.350006103516 401.774993896484 417.118743896484 427.306243896484 434.587493896484 445.46875 457.75 468.037506103516 471.200012207031 464.024993896484 454.9375 447.168762207031 444.1875 443.193756103516 436.09375 430.256256103516 426.825012207031 417.181243896484 409.162506103516 404.087493896484 402.731262207031 400.725006103516 400.537506103516 399.899993896484 392.899993896484 375.356262207031 352.981262207031 330.443756103516 315.168762207031 323.975006103516 345.743743896484 362.568756103516 369.331237792969 369.174987792969 365.112487792969 359.325012207031 352.793762207031 345.412506103516 338.368743896484 330.137512207031 320.256256103516 310.03125 297.337493896484 289.137512207031 280.725006103516 
284.668762207031 297.631256103516 312.318756103516 331.21875 350.487487792969 371.262512207031 389.643737792969 410.274993896484 426.581237792969 431.481262207031 431.706237792969 433.181243896484 435.28125 442.181243896484 453.162506103516 456.712493896484 454.725006103516 451.418762207031 448.075012207031 444.131256103516 436.84375 429.225006103516 423.568756103516 413.756256103516 407.84375 405.125 404.0625 403.125 404.581237792969 405.862487792969 402.59375 392.549987792969 373.837493896484 359.3125 356.46875 365.6875 377.131256103516 383.600006103516 382.174987792969 374.993743896484 368.112487792969 361.756256103516 354.649993896484 347.225006103516 340.5 332.524993896484 322.225006103516 310.674987792969 298.418762207031 290.03125 280.918762207031 
293 307.625 322.299987792969 338.412506103516 357.012512207031 377.225006103516 396.612487792969 414.53125 428.700012207031 429.96875 427.34375 424.475006103516 417.15625 426.081237792969 440.806243896484 448.443756103516 450.71875 451.075012207031 448.337493896484 443.331237792969 433.768737792969 424.206237792969 416.46875 407.518737792969 403.368743896484 399.943756103516 401.631256103516 403.112487792969 404.375 407.075012207031 405.90625 398.606262207031 387.450012207031 380.962493896484 384.806243896484 397.162506103516 403.881256103516 400.049987792969 391.450012207031 380.737487792969 372.087493896484 363.912506103516 356.75 350.200012207031 345.256256103516 336.456237792969 324.274993896484 309.337493896484 301.993743896484 292.231262207031 283.318756103516 
307.725006103516 322.118743896484 334.956237792969 350.068756103516 368.25 384.6875 401.893737792969 416.956237792969 425.693756103516 428.012512207031 426.15625 423.737487792969 421.818756103516 426.53125 436.481262207031 445.537506103516 451.293762207031 452.181243896484 449.681243896484 443.887512207031 433.012512207031 419.868743896484 408.306243896484 398.299987792969 394.181243896484 397.581237792969 398.899993896484 402.106262207031 403.168762207031 404.456237792969 401.612487792969 394.662506103516 391.5 391.356262207031 396.706237792969 403.393737792969 407.299987792969 402.981262207031 393.25 382.462493896484 373.393737792969 364.918762207031 358.456237792969 354.125 348.143737792969 339.524993896484 324.674987792969 314.818756103516 305.700012207031 299.006256103516 291.4375 
329.9375 344.424987792969 353.306243896484 365.568756103516 380.568756103516 394.8125 407.481262207031 419.362487792969 426.075012207031 428.6875 428.15625 428.506256103516 430.21875 432.450012207031 441.21875 448.71875 454.631256103516 455.40625 454.081237792969 447.65625 433.993743896484 416.368743896484 399.737487792969 386.106262207031 387.412506103516 394.34375 399.950012207031 401.143737792969 401.90625 400.15625 395.418762207031 389.168762207031 389.8125 393 398.337493896484 402.256256103516 404.25 401.693756103516 390.756256103516 380.850006103516 372.362487792969 364.59375 357.768737792969 354.075012207031 351.28125 343.28125 334.237487792969 325.28125 314.975006103516 311.1875 304.962493896484 
350.206237792969 361.90625 368.631256103516 379.681243896484 390.887512207031 400.893737792969 411.625 419.381256103516 426.09375 431.306243896484 434.487487792969 437.737487792969 442.399993896484 447.21875 454.09375 461.587493896484 465.850006103516 465.450012207031 461.5625 452.806243896484 436.487487792969 417.318756103516 395.881256103516 379.53125 386.09375 394.5 398.993743896484 399.8125 398.1875 395.462493896484 390.918762207031 383.549987792969 386.225006103516 393.893737792969 397.987487792969 401.181243896484 402.399993896484 398.837493896484 389.612487792969 379.674987792969 370.868743896484 362.5625 355.381256103516 351.262512207031 352.84375 351.268737792969 345.824981689453 339.256256103516 333.168762207031 324.193756103516 320.299987792969 
371.125 378.537506103516 384.643737792969 392.649993896484 400.512481689453 406.59375 415.299987792969 423.450012207031 430.181243896484 437.256256103516 441.725006103516 447.674987792969 454.337493896484 460.962493896484 468.068756103516 475.268737792969 478.381256103516 478.543762207031 472.381256103516 463.106262207031 447.131256103516 427.712493896484 411.306243896484 397.325012207031 396.174987792969 401.125 402.443756103516 401.206237792969 397.4375 393.725006103516 388.168762207031 382.018737792969 387.787506103516 393.350006103516 397.575012207031 400.243743896484 399.149993896484 397.081268310547 387.581237792969 377.137512207031 368.325012207031 360.912506103516 353.806243896484 351.143737792969 356.568756103516 358.262512207031 357.024993896484 353.4375 348.381256103516 339.21875 334.193756103516 
389.787506103516 395.081237792969 398.512512207031 404.268737792969 410.443756103516 414.262512207031 420.618743896484 426.918762207031 435.075012207031 443.5625 449.862487792969 457.587493896484 465.581237792969 475.793731689453 483.756256103516 492.1875 497.075012207031 494.424987792969 489.662506103516 478.887512207031 463.600006103516 444.668762207031 431.600006103516 418.881256103516 411.90625 410.825012207031 409.143737792969 404.8125 400.487487792969 395.443756103516 387.65625 382.212493896484 386.962493896484 392.96875 398.456237792969 398.981262207031 398.90625 396.899993896484 389.443756103516 377.8125 365.90625 357.762512207031 354.262512207031 355.962493896484 364.293762207031 367.78125 367.387512207031 367.543762207031 362.887512207031 356.212493896484 348.568756103516 
403.881256103516 406.106262207031 408.056243896484 411.1875 416.837493896484 420.537506103516 425.262512207031 431.024993896484 438.649993896484 448.493743896484 457.112487792969 467.862487792969 478.46875 491.03125 501.318756103516 508.918762207031 516.4375 518.737487792969 515.506225585938 504.168762207031 486.774993896484 469.518737792969 456.212493896484 440.15625 428.118743896484 421.668762207031 415.206237792969 406.71875 399.206237792969 393.618743896484 388.649993896484 384.606262207031 388.337493896484 394.537506103516 398.950012207031 400.149993896484 398.799987792969 397.981262207031 389.768737792969 379.481262207031 373.318756103516 368.962493896484 365.950012207031 369.706237792969 372.181243896484 379.725006103516 384.162506103516 384.612487792969 380.706237792969 375.200012207031 367.137512207031 
413.737487792969 414.6875 413.6875 415.981262207031 419.337493896484 423.918762207031 428.806243896484 435.149993896484 443.512512207031 453.393768310547 466.143737792969 480.0625 494.318756103516 506.481262207031 516.875 527.693725585938 537.612487792969 542.793762207031 543.506225585938 532.331237792969 513.15625 493.862487792969 478.225006103516 458.712493896484 442.506256103516 431.575012207031 420.537506103516 408.987487792969 398.399993896484 393.337493896484 389.649993896484 387.368743896484 392.712493896484 399.024993896484 403.737487792969 402.46875 401.549987792969 401.75 394.256256103516 384.462493896484 381.125 381.600006103516 381.293762207031 381.756256103516 384.475006103516 397.412506103516 404.649993896484 405.631256103516 400.712493896484 392.256256103516 384.674987792969 
417.149993896484 417.731262207031 416.899993896484 418.943756103516 420.987487792969 425.112487792969 431.106262207031 436.399993896484 445.412506103516 458.137512207031 472.168762207031 489.181243896484 506.668731689453 522.706237792969 534.493774414062 547.787475585938 554.6875 559.299987792969 560.362487792969 553.556274414062 535.28125 516.96875 498.600006103516 476.768737792969 457.987487792969 442.331237792969 426.943756103516 412.049987792969 398.962493896484 395.581237792969 393.118743896484 391.237487792969 396.8125 402.731231689453 407.8125 406.762512207031 406.043762207031 405.100006103516 398.368743896484 394.481262207031 396.225006103516 398.34375 399.174987792969 401.693756103516 406.725006103516 424 432.693756103516 431.068756103516 421.643737792969 410.875 400.3125 
413.793762207031 415.643737792969 416.918762207031 419.112487792969 420.793762207031 425.537506103516 430.65625 437.21875 447.681243896484 461.674987792969 479.6875 499.399993896484 522.40625 543.125 555.856262207031 565.599975585938 571.387512207031 576.993713378906 575.90625 570.912475585938 556 538.081237792969 520.525024414062 497.412506103516 477.931243896484 460.693756103516 441.506256103516 424.206237792969 408.024993896484 401.549987792969 397.737487792969 393.600006103516 398.243743896484 405.4375 411.6875 412.131256103516 411.075012207031 408.40625 404.293762207031 407.612487792969 411.825012207031 415.731262207031 420.356262207031 426.887512207031 440.28125 461.299987792969 467 456.543762207031 443.193756103516 430.293762207031 416.181243896484 
410.331237792969 412.043762207031 414.306243896484 418.231262207031 420.524993896484 424.600006103516 430.318756103516 437.8125 446.181243896484 460.831237792969 481.212493896484 507.9375 538.106262207031 562.5625 575.650024414062 584.243774414062 588.956237792969 592.9375 592.056274414062 587.962524414062 573.081237792969 555.674987792969 539.918762207031 516.568725585938 496.956237792969 478.743743896484 456.90625 435.618743896484 417.125 409.112487792969 402.825012207031 396.762481689453 402.612487792969 409.668762207031 414.8125 416.03125 414.662506103516 412.674987792969 412.975006103516 418.543762207031 424.006256103516 430.887512207031 441.381256103516 452.006256103516 467.931243896484 486.256256103516 489 475.881256103516 460.637512207031 445.762512207031 431.506256103516 
406.225006103516 409.65625 413.237487792969 416.28125 420.40625 425.100006103516 429.306243896484 435.568756103516 442.268737792969 456.0625 480.731262207031 516.775024414062 555.34375 584.956237792969 596.631225585938 603.5 605.381286621094 607.418762207031 608.331237792969 603.268737792969 590.6875 572.575012207031 556.21875 531.837524414062 512.943725585938 493.131256103516 470.143737792969 447.193756103516 426.225006103516 416.1875 406.3125 399.856262207031 405.418762207031 413.3125 418.606262207031 418.399993896484 416.15625 418.106262207031 421.931243896484 426.649993896484 433.943756103516 441.28125 452.956237792969 465.737487792969 479.674987792969 490.725006103516 493.068756103516 485.231262207031 472.112487792969 458.387512207031 444.568756103516 
402.018737792969 407.831237792969 413.049987792969 417.087493896484 421.6875 427.493743896484 431.206237792969 435.368743896484 439.806243896484 452.556243896484 481.081237792969 522.799987792969 567.349975585938 600.900024414062 613.931274414062 621.40625 625.537475585938 626.393737792969 623.087524414062 619.237487792969 604.806274414062 587.993774414062 569.325012207031 546.056274414062 524.643737792969 504.549987792969 480.950012207031 459.28125 437.049987792969 422.293762207031 409.043762207031 398.631256103516 404.693756103516 413.037506103516 417.174987792969 416.006256103516 417.625 417.631256103516 421.0625 428.137512207031 437.318756103516 443.618743896484 452.71875 465.850006103516 476.15625 483.200012207031 486.456237792969 483.443756103516 475.418762207031 464.568756103516 451.350006103516 
399.631256103516 407.212493896484 413.306243896484 421.787506103516 427.674987792969 433.237487792969 436.700012207031 439.293762207031 440.09375 442.637512207031 480.600006103516 536.706237792969 580.40625 610.787475585938 627.799987792969 637.03125 642.762512207031 642.681274414062 640.756225585938 633.981262207031 616.974975585938 597.856262207031 578.787475585938 555.28125 533.143737792969 513.662475585938 490.350006103516 467.943756103516 446.368743896484 427.649993896484 409.799987792969 395.037506103516 401.774993896484 410.431243896484 415.875 417.293762207031 416.59375 416.4375 420.412506103516 426.46875 433.612487792969 440.5625 449.418762207031 460.868743896484 469.743743896484 474.787506103516 480.743743896484 480.693756103516 474.5 466.943756103516 456.893737792969 
398.518737792969 407.587493896484 416.243743896484 426.081237792969 435.149993896484 441.237487792969 446.237487792969 450.518737792969 455.1875 455.456237792969 513.3125 572.793762207031 604.424987792969 626.181274414062 642.974975585938 653.287475585938 656.924987792969 656.706237792969 651.46875 641.862487792969 623.893737792969 602.556274414062 583.9375 560.3125 539.3125 520.25 496.893737792969 475.493743896484 453.856262207031 433.0625 409.387512207031 391.09375 397.075012207031 406.46875 411.681243896484 413.981262207031 413.65625 414.012512207031 418.012512207031 422.856231689453 427.987487792969 434.774993896484 441.431243896484 450.293762207031 458.825012207031 466.337493896484 472.893737792969 475.137512207031 471.831237792969 467.399993896484 459.056243896484 
406.21875 411.53125 420.0625 432.4375 442.131256103516 451.09375 461.5 473.262512207031 490.537506103516 527.674987792969 594.950012207031 620.043762207031 635.143737792969 651.275024414062 665.53125 671.918762207031 675.056274414062 669.881225585938 659.162536621094 646.34375 623.018737792969 599.318725585938 581.224975585938 557.224975585938 536.868774414062 520.424987792969 498.256256103516 477.487487792969 456.887512207031 434.1875 410.612487792969 389.237487792969 391.587493896484 397.887512207031 404.03125 405.975006103516 405.225006103516 406.850006103516 409.462493896484 410.993743896484 415.512512207031 420.081237792969 425.96875 433.03125 439.962493896484 447.381256103516 452.731262207031 454.0625 452.200012207031 451.612487792969 445.012512207031 
415.643737792969 417.375 426.587493896484 438.149993896484 449.53125 462.212493896484 475.806243896484 495.987487792969 522.356262207031 563.393737792969 609.993774414062 639.693725585938 660.700012207031 676.743774414062 688.081237792969 694.487487792969 695.493774414062 685.212524414062 668.537475585938 651.931274414062 620.393737792969 593.243713378906 571.900024414062 549.049987792969 533.006225585938 517.631225585938 497.662506103516 478.225006103516 458.762512207031 434.899993896484 408.75 388.012512207031 389.993743896484 392.387512207031 393.450012207031 395.59375 394.96875 395.174987792969 397.75 397.59375 400.212493896484 404.149993896484 408.387512207031 412.412506103516 418.6875 425.46875 431.162506103516 434.65625 434.225006103516 435.5625 431.212493896484 
427.068756103516 425.012512207031 434.893737792969 445.487487792969 457.668762207031 470.293762207031 488.5625 513.612487792969 542.443725585938 580.450012207031 618.787475585938 648.599975585938 677.193725585938 696.5625 708.924987792969 716.318725585938 715.556274414062 702.075012207031 680.4375 653.431274414062 613.956237792969 580.918762207031 557.387512207031 538.275024414062 525.912475585938 512.849975585938 494.662506103516 477.837493896484 458.549987792969 434.862487792969 409.918762207031 389.518737792969 387.243743896484 386.493743896484 383.125 384.100006103516 384.318756103516 383.46875 385.362487792969 382.78125 384.231262207031 385.600006103516 387.181243896484 392.5625 398.443756103516 404.924987792969 410.28125 413.162506103516 416.181243896484 419.268737792969 418.181243896484 
448.8125 444.931243896484 449.862487792969 455.387512207031 463.368743896484 476.96875 494.700012207031 519.631225585938 548.006225585938 582.268737792969 618.443725585938 650.162475585938 678.637512207031 702.462524414062 715.15625 722.268737792969 722.543762207031 708.025024414062 683.368774414062 644.375 594.150024414062 553.325012207031 530.356262207031 515.400024414062 506.737487792969 497.112487792969 481.506256103516 465.299987792969 449.918762207031 429.53125 404.418762207031 386.862487792969 382.268737792969 379.768737792969 375.681243896484 373.568756103516 373.09375 372.631256103516 371.706237792969 368.799987792969 367.693756103516 365.200012207031 364.75 372.1875 378.424987792969 384.518737792969 389.106262207031 392.012512207031 396.0625 399.731262207031 401.612487792969 
472.693756103516 467.212493896484 466.131256103516 464.40625 467.556243896484 479.612487792969 496.931243896484 519.243774414062 546.818725585938 579.5625 618.337524414062 650.0625 679.581237792969 704.099975585938 719.09375 728.456237792969 729.706237792969 714.918762207031 687.731262207031 637.793762207031 573.931274414062 518.875 500.40625 493.581237792969 488.612487792969 482.225006103516 468.206237792969 451.993743896484 437.8125 421.162506103516 401.274993896484 381.537506103516 376.012512207031 370.681243896484 365.181243896484 366.493743896484 363.206237792969 360.53125 357.024993896484 354.149993896484 352.537506103516 350.018737792969 349.1875 353.450012207031 359.506256103516 364.262512207031 369.056243896484 371.899993896484 375.931243896484 380.443756103516 384.774993896484 
495.087493896484 488.625 479.237487792969 472.181243896484 471 480.137512207031 494.325012207031 515.0625 543.5625 574.668762207031 612.456237792969 648.231262207031 678.15625 704.587524414062 723.4375 732.168762207031 732.200012207031 716.150024414062 693.075012207031 639.28125 566.356262207031 503.274993896484 485.731262207031 478.137512207031 472.893737792969 467.306243896484 454.712493896484 440.012512207031 425.462493896484 411.012512207031 394.056243896484 377.674987792969 370.050018310547 361.649993896484 354.643737792969 357.537506103516 353.962493896484 349.131256103516 344.762512207031 341.424987792969 338.9375 337.337493896484 337.112487792969 339.637512207031 343.243743896484 346.575012207031 350.831237792969 352.049987792969 353.693756103516 359.518737792969 367.087493896484 
512.3125 504.549987792969 491.5625 484.112487792969 480.206237792969 484.381256103516 491.1875 505.28125 530.900024414062 562.087524414062 597.681274414062 634.025024414062 664.706237792969 692.637512207031 709.556274414062 715.40625 713.668762207031 694.118774414062 667.275024414062 620.962524414062 560.293762207031 513.662475585938 484.825012207031 468.712493896484 459.756256103516 450.143737792969 437.5 422.537506103516 408.631256103516 395.662506103516 381.068756103516 366.743743896484 359.793762207031 351.256256103516 343.375 346.90625 343.899993896484 338.40625 334.431243896484 332.206237792969 329.393737792969 328.262512207031 327.681243896484 327.737487792969 330.53125 333.212493896484 334.893737792969 334.943756103516 333.537506103516 338.418762207031 348.53125 
