ncols        51
nrows        45
xllcorner    -63.500000000000
yllcorner    -7.500000000000
cellsize     0.166666666667
NODATA_value -99
171.824996948242 177.818756103516 181.175003051758 188.856246948242 197.487503051758 205.956253051758 208.387496948242 212.9375 215.543746948242 215.475006103516 209.012496948242 205.043746948242 203.506256103516 198.068756103516 193.862503051758 185.731246948242 180.618743896484 175.318756103516 169.9375 168.931259155273 166.050003051758 160.943756103516 156.287506103516 152.050003051758 146.481246948242 141.399993896484 139.793746948242 139.956253051758 133.787506103516 132.21875 126.306251525879 124.918746948242 124.712501525879 122.068748474121 120.956253051758 120.768753051758 119.181251525879 119.106246948242 119.487503051758 118.668746948242 118.5625 120.387496948242 119.543746948242 118.462501525879 119.550003051758 118.6875 117.574996948242 115.293746948242 114.331253051758 110.243751525879 110.231246948242 
162.681243896484 167.337493896484 174.925003051758 183.649993896484 194.193756103516 200.300003051758 199.087493896484 201.806243896484 204.4375 203.631256103516 198.887496948242 196.300003051758 190.443756103516 183.181243896484 177.793746948242 173.831253051758 167.181243896484 162.081253051758 158.149993896484 156.056243896484 152.712493896484 147.550003051758 143.100006103516 140.481246948242 135.231246948242 129.612503051758 130.824996948242 130.012496948242 125.231246948242 122.9375 121.056251525879 119.4375 119.525001525879 120.03125 119.025001525879 118.006248474121 114.606246948242 116.400001525879 115.506248474121 114.568748474121 116.993751525879 117.256248474121 118.3125 118.574996948242 119.887496948242 118.331253051758 117.618751525879 114 111.737503051758 108.631248474121 107.90625 
150.643753051758 157.787506103516 166.456253051758 176.793746948242 186.774993896484 190.637496948242 190.774993896484 191.300003051758 190.456253051758 188.037506103516 185.512496948242 182.425003051758 176.056243896484 167.018753051758 161.481246948242 157.137496948242 152.318756103516 147.21875 143.131256103516 138.868743896484 137.03125 134.699996948242 130.899993896484 129.65625 123.893745422363 120.418746948242 123.068748474121 121.137496948242 117.331253051758 116.550003051758 113.71875 112.5625 113.056251525879 114.5 112.59375 109.368751525879 108.28125 109.875 108.856246948242 110.106246948242 114.25 115.762496948242 118.737503051758 118.581253051758 119.9375 117.9375 115.443748474121 114.25 110.1875 106.762496948242 104.943748474121 
139.731246948242 144.850006103516 155.231246948242 166.068756103516 173.762496948242 175.912506103516 176.618743896484 176.743743896484 178.068740844727 175 169.618743896484 164.331253051758 158.918746948242 150.612503051758 145.443756103516 140.949996948242 137.418746948242 133.206253051758 129.387496948242 128.606246948242 125.881248474121 122.099998474121 118.300003051758 117.775001525879 113.900001525879 110.887496948242 113.012496948242 109.650001525879 107.53125 107.618751525879 106.150001525879 104.15625 102.949996948242 102.662498474121 101.856246948242 101.099998474121 103.018753051758 103.643753051758 102.106246948242 105.612503051758 108.887496948242 113.487503051758 116.650001525879 119.081253051758 120.1875 117.987503051758 115.074996948242 112.275001525879 107.962501525879 104.875 99.9250030517578 
142.662506103516 143.918746948242 144.800003051758 151.868743896484 161.381256103516 162.050003051758 160.818756103516 163.556243896484 166.137496948242 162.649993896484 155.256256103516 148.84375 143.21875 136.668746948242 131.324996948242 127.712501525879 123.474998474121 118.693748474121 115.018753051758 114.918746948242 114.943748474121 109.931251525879 107.131248474121 108.493751525879 104.175003051758 101.137496948242 101.175003051758 101.762496948242 100.331253051758 98.3874969482422 99.3937530517578 97.0124969482422 96.8249969482422 97.09375 96.4187469482422 94.7375030517578 95.1437530517578 96.3499984741211 95.5875015258789 97.8874969482422 104.3125 109.081253051758 115.224998474121 118.287498474121 119.856246948242 118.206253051758 114.018753051758 108.512496948242 103.893753051758 100.068748474121 93.8375015258789 
143.068756103516 144.256256103516 142.981246948242 140.399993896484 148.018753051758 154.568756103516 154.59375 154.100006103516 156.475006103516 152.699996948242 143.137496948242 136.956253051758 132.612503051758 127.137496948242 121.793746948242 118.4375 113.137496948242 107.237503051758 104.6875 104 104.224998474121 102.118751525879 100.356246948242 98.2375030517578 96.7437515258789 95.0625 95.2062530517578 95.0250015258789 94.6374969482422 91.9499969482422 92.4187469482422 92.25 90.6500015258789 91.125 89.2125015258789 89.7375030517578 89.15625 88.5687484741211 89.6312484741211 93.8187484741211 97.90625 103.793754577637 110.3125 116.550003051758 121.9375 118.256248474121 109.800003051758 102.912498474121 99.2312469482422 94.5250015258789 89.3625030517578 
144.5 147.243743896484 146.09375 144.125 145.6875 145 143.693756103516 142.306243896484 137.556243896484 134.431243896484 128.899993896484 125 123.006248474121 118.481246948242 114.631248474121 110.962501525879 105.631248474121 100.162498474121 95.9375 95.4875030517578 95.1500015258789 94.4812469482422 93.3937530517578 92.5187530517578 90.9812469482422 90.2624969482422 90.0999984741211 89.2312469482422 86.9937515258789 86.8062515258789 86.2062530517578 84.96875 84.9875030517578 85.1374969482422 83.9812469482422 83.5437469482422 82.2249984741211 82.2062530517578 84.3312530517578 88.6125030517578 92.40625 98.03125 105.550003051758 113.650001525879 121.337501525879 118.693748474121 107.431251525879 95.3812484741211 91.2125015258789 88.1437530517578 85.3250045776367 
146.762496948242 147.987503051758 149.262496948242 148.706253051758 150.925003051758 149.131256103516 139.96875 126.662498474121 117.824996948242 115.368751525879 116.150001525879 114.393753051758 112.75 109.800003051758 107.006248474121 103.212501525879 98.9562530517578 93.4499969482422 88.5625 86.6812515258789 87.7624969482422 87.90625 86.4250030517578 85.6125030517578 85.9875030517578 84.4875030517578 83.71875 83.3000030517578 82.0062484741211 79.8625030517578 80.7874984741211 79.4749984741211 78.3499984741211 79.0687484741211 76.8187484741211 76.0562515258789 75.0749969482422 74.6187515258789 75.8187484741211 78.7312469482422 83.1312484741211 89.1875 96.0374984741211 102.793746948242 107.287498474121 104.65625 96.3812484741211 87.9749984741211 82.8874969482422 80.2687530517578 77.8562469482422 
149.306243896484 150.693756103516 152.581253051758 150.46875 150.675003051758 146.256256103516 138.456253051758 127.243751525879 113.331253051758 105.574996948242 105.4375 104.931251525879 106.837501525879 104.537498474121 101.34375 97.34375 94.53125 90.0062484741211 87.3249969482422 83.4250030517578 83.3874969482422 84.09375 82.4437484741211 84.03125 83.59375 80.9000015258789 78.5124969482422 79.1937484741211 78.1937484741211 76.2750015258789 77.0250015258789 74.375 72.09375 70.3874969482422 69.21875 69.9187469482422 69.8187484741211 69.7375030517578 70.09375 72.3375015258789 75.3499984741211 78.9437484741211 83.28125 87.8812484741211 88.8499984741211 87.3249969482422 81.7437515258789 76.21875 72.125 71.0812530517578 71.84375 
150.46875 152.0625 152.324996948242 151.78125 151.3125 146.381256103516 141.162506103516 129.90625 117.537498474121 111.268753051758 106.90625 102.650001525879 103.568748474121 102.068748474121 97.1750030517578 93.2249984741211 89.0812530517578 86.6624984741211 84.1937484741211 81.7437515258789 81.5749969482422 80.53125 78.6374969482422 79.9375 78.9749984741211 76.3312530517578 74.4000015258789 74.2062530517578 72.2937469482422 70.4000015258789 69.2375030517578 67.4562530517578 67.09375 66.6312484741211 66.2750015258789 66.4124984741211 65.4937515258789 64.7624969482422 65.7249984741211 67.2687530517578 68.9124984741211 70.2874984741211 72.1750030517578 73.3062515258789 73.1062469482422 71.84375 68.4312515258789 62.6937484741211 59.34375 59.5125007629395 58.7374992370605 
154.25 155.225006103516 153.149993896484 151.449996948242 151.6875 149.268753051758 143.643753051758 130.762496948242 119.862503051758 112.018753051758 108.287498474121 104.068748474121 101.568748474121 98.5687484741211 92.1500015258789 86.9000015258789 83.15625 81.9875030517578 79.96875 78.9937515258789 81.1875 80.0749969482422 77.5812530517578 76.0875015258789 76.7937469482422 74.5562515258789 72.8687515258789 71.1750030517578 67.6187515258789 64.84375 64.6937484741211 63.4249992370605 64.2375030517578 64.1062469482422 62.7125015258789 61.9625015258789 60.8375015258789 60.6187515258789 60.6437492370605 60.9437484741211 61.2374992370605 61.90625 63.6375007629395 63.2374992370605 61.2374992370605 59.5187492370605 55.21875 50.5562515258789 47.84375 47.1687507629395 45.59375 
155.037506103516 156.137496948242 153.768753051758 152.875 153.25 150.831253051758 146.262496948242 135.131256103516 123.474998474121 114.712501525879 109.46875 104.412498474121 99.0875015258789 93.3937530517578 89.9437484741211 84.6374969482422 80.1750030517578 77.9187469482422 77.09375 77.6687469482422 80.0687484741211 79.2437515258789 77.1750030517578 76.2562484741211 74.9375 69.21875 67.2624969482422 66.3812484741211 63.7125015258789 61.7687492370605 60.7937507629395 61 60.3375015258789 60.0499992370605 59.8875007629395 60.1375007629395 59.2999992370605 58.2125015258789 56.2000007629395 54.375 54.1062507629395 54.4562492370605 54.8624992370605 51.9562492370605 49 46.4625015258789 41.2000007629395 37.7062492370605 37.8812484741211 38.59375 35.5687522888184 
154.293746948242 153.181243896484 151.537506103516 148.899993896484 150.125 146.731246948242 139.543746948242 131.356246948242 120.837501525879 113.493751525879 108.337501525879 103.362503051758 96.3499984741211 88.1999969482422 82.90625 79.0812530517578 74.5124969482422 73.7874984741211 73.0187530517578 72.4625015258789 75.3187484741211 75.09375 73.5374984741211 70.7312469482422 65.9000015258789 61.5499992370605 61.9437484741211 61.8062515258789 61.6500015258789 60.2625007629395 58.7937507629395 58.1187515258789 58.6312484741211 56.7999992370605 57.1062507629395 58.6875 60.3624992370605 58.8499984741211 57.0750007629395 52.5187492370605 48.0062484741211 49.15625 48.5750007629395 45.0499992370605 44.2687492370605 42.1062507629395 36.8687515258789 33.0499992370605 32.1687507629395 33.1312484741211 32.1187515258789 
151.943756103516 148.743743896484 145.850006103516 144.893753051758 144.09375 139.350006103516 132.881256103516 127.043746948242 117.443748474121 110.762496948242 104.581253051758 97.5374984741211 91.1500015258789 83.5250015258789 74.8187484741211 72.2937469482422 68.9937515258789 68.1312484741211 65.6187515258789 64.6687469482422 67.3249969482422 67.2249984741211 65.9812469482422 64.4937515258789 61.4437484741211 58.8062515258789 59.21875 59.6500015258789 59.7000007629395 59.1687507629395 58.6500015258789 56.8624992370605 56.8499984741211 55.7750015258789 57.3312492370605 60.6937484741211 62.9187507629395 64.4749984741211 63.0875015258789 56.7000007629395 46.8125 43.6500015258789 45.0499992370605 47.7999992370605 48.3250007629395 43.7937507629395 39.6687507629395 36.5562515258789 34.4874992370605 34.9812507629395 34.3499984741211 
147.006256103516 145.056243896484 140.631256103516 137.518753051758 136.65625 131.862503051758 125.643753051758 118.900001525879 110.3125 104.349998474121 97.0062484741211 91.1750030517578 84.8625030517578 76.7312469482422 68.4124984741211 63.84375 61.03125 59.2999992370605 57.7625007629395 57.4500007629395 59.9187507629395 60.5812492370605 60.4375 61.2625007629395 60.9187507629395 60.3187484741211 60.1812515258789 59.9625015258789 59.2374992370605 58.4562492370605 57.1687507629395 56.3875007629395 56.5750007629395 56.8687515258789 57.6500015258789 61.6624984741211 66.4250030517578 73.3249969482422 74.3499984741211 66.4124984741211 59.5 55.1624984741211 55.5499992370605 54.2125015258789 51.2000007629395 48.4437484741211 46.0875015258789 44.2562484741211 43.2874984741211 39.3125 36.4000015258789 
139.881256103516 138.449996948242 135.043746948242 131.606246948242 128.931243896484 125.393753051758 119.78125 111.5625 104.181251525879 97.9937515258789 91.2937469482422 84.3874969482422 77.3687515258789 70.0687484741211 62.8562507629395 55.90625 53.1187515258789 51.8562507629395 50.5374984741211 50.7562484741211 52.9249992370605 54.7562484741211 56.7874984741211 60 61.5625 61.5812492370605 61.59375 60.4000015258789 59.1937484741211 58.78125 58.4375 57.5250015258789 56.8375015258789 57.1937484741211 59.0062484741211 67.4499969482422 74.5812530517578 81.8812484741211 85.6687469482422 83.0437469482422 78.8937530517578 71.9499969482422 65.6687469482422 59.4375 54.6812515258789 51.0625 48.9874992370605 46.09375 45.5125007629395 42.875 39.2874984741211 
135.618743896484 134.131256103516 129.625 126.387496948242 121.818748474121 118.881248474121 114.506248474121 107.849998474121 99.2687530517578 93.5875015258789 87.3000030517578 79.1687469482422 72.1312484741211 64.9437484741211 57.9437484741211 51.4812507629395 45.6187515258789 43.9312515258789 44.0125007629395 44.7750015258789 46.0750007629395 49.0999984741211 53.0062484741211 59.2437515258789 63.1062507629395 63.15625 61.5499992370605 60.4500007629395 58.4562492370605 57.5187492370605 58.40625 59.7437515258789 60.6812515258789 61.9437484741211 70.5500030517578 79.2249984741211 86.9187469482422 97.6875 105.574996948242 99.6875 92.46875 81 70.4187469482422 63.9312515258789 58.4812507629395 54.5437507629395 52.7750015258789 51.2312507629395 50.6187515258789 46.6500015258789 44.2937507629395 
127.268753051758 126.818748474121 123.349998474121 120.818748474121 116.543746948242 113.756248474121 107.587501525879 101.706253051758 94.25 88.1624984741211 82.25 75.0062484741211 66.6937484741211 59.15625 52.6687507629395 46.4187507629395 40.8062515258789 36.6937484741211 37.4937515258789 37.2374992370605 39.3937492370605 42.6687507629395 47.7562484741211 54.5625 60.8062515258789 62.75 62.65625 61.2937507629395 58.5374984741211 56.7625007629395 54.9437484741211 55.40625 64.0625 73.5062484741211 80.4000015258789 91.0562515258789 101.381248474121 109.525001525879 112.125 107.837501525879 95.3249969482422 84.6750030517578 74.6750030517578 68.2312469482422 61.6687507629395 58.5125007629395 57.0187492370605 54.5875015258789 51.9812507629395 48.0062484741211 47.2000007629395 
118.987503051758 118.831253051758 116.449996948242 114.474998474121 111.912498474121 107.931251525879 102.849998474121 96.7312469482422 91.7937469482422 86.625 80.2562484741211 70.5562515258789 62.6937484741211 55.6937484741211 48.2999992370605 42.9812507629395 37.3812484741211 32.65625 31.0687503814697 31.3312492370605 35.3312492370605 42.21875 41.25 48.6500015258789 55.5750007629395 61.46875 63.2125015258789 61.6124992370605 60.6187515258789 56.3812484741211 53.84375 57.8062515258789 68.4875030517578 77.0749969482422 85.9625015258789 96.65625 103.125 106.125 108.668746948242 103.162498474121 95.15625 85.7312469482422 76.8062515258789 69.8874969482422 64.3625030517578 61.3499984741211 59.1500015258789 57.1062507629395 54.4562492370605 48.3125 48.9749984741211 
111.84375 111.46875 108.96875 107.143753051758 104.043746948242 100.756248474121 96.3499984741211 91.4812469482422 88.6812515258789 84.3937530517578 79.25 72.0625 62.6749992370605 53.8312492370605 46.8125 40.1624984741211 33.0875015258789 30.3374996185303 29.1000003814697 29.6687507629395 30.4812488555908 33.15625 38.7750015258789 45.5875015258789 51.8125 56.2750015258789 59.4249992370605 60.5 59.40625 55.0062484741211 54.3624992370605 63.2874984741211 70.7437515258789 79.8062515258789 89.8874969482422 96.84375 101.900001525879 106.25 105.787498474121 101.28125 92.6500015258789 84.5875015258789 78.3625030517578 72.5687484741211 67.1437530517578 64.8375015258789 61.15625 58.5750007629395 55.6624984741211 50.3499984741211 51.6124992370605 
101.59375 103.737503051758 103.556251525879 102.125 98.1374969482422 95.0749969482422 92.0562515258789 88.4875030517578 86.3000030517578 82.34375 78.15625 72.4124984741211 63.1812515258789 54.25 46.3375015258789 39.5625 33.3375015258789 29.3062496185303 28.6375007629395 28.34375 30.8187503814697 34.3312492370605 38.7374992370605 45.8937492370605 53.8687515258789 57.9249992370605 58.7000007629395 59.8562507629395 60.6875 61.2874984741211 63.4500007629395 69.4437484741211 74.0875015258789 80 89.2874984741211 95.46875 102.081253051758 106.150001525879 104.393745422363 100.631248474121 92.9749984741211 86.34375 80.7937469482422 74.4187469482422 69.3874969482422 66.4812469482422 63.875 60.7562484741211 56.6312484741211 53.9625015258789 53.6500015258789 
95.1750030517578 95.7562484741211 96.4000015258789 96.6312484741211 94.46875 90.9812469482422 89.2125015258789 85.2125015258789 83.8499984741211 80.1687469482422 77.84375 74.7312469482422 69.65625 61.1062507629395 51.90625 42.8375015258789 37.3312492370605 33.21875 31.2875003814697 30.4812507629395 30.9812507629395 33.53125 37.6375007629395 44.3937492370605 51.1687507629395 56.53125 62.25 63.6500015258789 65.8125 66.5875015258789 68.3562469482422 71.7312469482422 75.46875 80.7750015258789 85.4437484741211 91.46875 99.5687484741211 105.71875 105.087501525879 100.737503051758 93.7562484741211 87.1812515258789 80.5062484741211 76.2687530517578 69.84375 66.9812469482422 65.4250030517578 62.7999992370605 58.9375 58.0625 55.1375007629395 
89.1125030517578 92.40625 94.1062469482422 93.3312530517578 92.0250015258789 89.0687484741211 85.1687469482422 81.1687469482422 81.1374969482422 80.65625 80.6500015258789 79.5812530517578 77.2249984741211 69.3312530517578 58.0062484741211 47.8312492370605 40.3250007629395 35.8687515258789 33.1937484741211 31.3687496185303 31.8624992370605 33.9749984741211 37.1875 41.84375 49.5499992370605 56.875 62.8062477111816 66.8812484741211 68.5999984741211 68.1624984741211 69.5437469482422 73.0500030517578 76.0687484741211 78.6875 81.2874984741211 83.34375 91.1624984741211 101.8125 104.0625 99.3625030517578 93.9187469482422 86.7624969482422 80.4749984741211 76.0062484741211 70.1999969482422 67.5749969482422 65.8000030517578 64.5374984741211 62.125 60.5 57.6500015258789 
84.375 88.3062515258789 91.2312469482422 89.1812515258789 87.53125 85.4375 83.4437484741211 81.375 79.0500030517578 79.7937469482422 80.7249984741211 83.0687484741211 82.5062484741211 74.0500030517578 62.5562515258789 52.1749992370605 44.34375 39.1187515258789 35.5625 33.4312515258789 33.6875 35.1124992370605 37.03125 42.4124984741211 48.9874992370605 55.0187492370605 62.3687515258789 65.3499984741211 68.3562469482422 69.4749984741211 71.5124969482422 74.2062530517578 76.7874984741211 77.0625 78.3125 78.6812515258789 85.0124969482422 95.5250015258789 99.03125 95.59375 90.6187515258789 84.7937469482422 78.7687530517578 73.8625030517578 71.1812515258789 67.3125 66.8000030517578 66.09375 66.1750030517578 63.8375015258789 60.4124984741211 
81.4000015258789 84.3062515258789 86.9875030517578 87.5687484741211 87.0374984741211 84.5875015258789 81.9250030517578 80.3000030517578 79.4749984741211 80.1500015258789 80.0625 80.6999969482422 79.8375015258789 73.40625 63.7125015258789 54.7062492370605 47.2687492370605 41.6375007629395 37.5562515258789 35.03125 35.0812492370605 35.7249984741211 37.1749992370605 42.1812515258789 47.5 54.125 59.46875 63.2999992370605 66.8937530517578 69.1500015258789 71.1624984741211 73.5 75.7687530517578 77.3874969482422 77.9749984741211 78.2125015258789 83.5812530517578 88.9312515258789 91.6624984741211 90.625 86.9437484741211 82.7125015258789 77.7937469482422 73.6750030517578 69.9937515258789 68.2625045776367 64.6062469482422 68.3499984741211 69.4250030517578 66.3062515258789 62.7249984741211 
80.8687515258789 82.7750015258789 83.25 85.3562469482422 84.1875 82.1500015258789 79.9625015258789 79.4250030517578 77.4124984741211 76.7249984741211 76.7874984741211 76.6062469482422 75.15625 69.4375 62.3937492370605 54.4124984741211 47.9625015258789 42.9312515258789 38.4500007629395 36.0374984741211 36.0125007629395 36.0374984741211 37.4000015258789 41.3062515258789 46.0750007629395 51.6937484741211 57.3125 61.5750007629395 65.9187469482422 69.0062484741211 71.0187530517578 73.6187515258789 74.9000015258789 76.0687484741211 76.5999984741211 78.6624984741211 82.1937484741211 84.6187515258789 87.1687469482422 85.4250030517578 83.2125015258789 79.7687530517578 76.4562530517578 73.5687484741211 69.7687530517578 61.8187484741211 64.9312515258789 67.84375 69.3062515258789 65.5374984741211 61.0625 
82.3062515258789 82.3249969482422 83.0500030517578 83.5625 82.4625015258789 80.46875 79.4499969482422 77.5999984741211 74.6937484741211 74.7874984741211 74.7000045776367 72.0437469482422 69.3874969482422 64.7249984741211 59.28125 52.75 47.4500007629395 42.8312492370605 39.2874984741211 36.3562507629395 35.5999984741211 35.9249992370605 36.6312484741211 40.8624992370605 45.1937484741211 49.1687507629395 55.25 59.90625 63.9249992370605 66.5124969482422 69.6125030517578 71.4625015258789 73.5437469482422 75 75.1687469482422 77.3000030517578 78.9000015258789 81.28125 81.875 80.3375015258789 78.4250030517578 75.96875 74.9562530517578 71.5437469482422 68.2375030517578 66.5625 67.5749969482422 66.0500030517578 66.0437469482422 62.0750007629395 56.59375 
85.5562515258789 82.0062484741211 82.2437515258789 82.1500015258789 81.2687530517578 78.4937515258789 77.2562484741211 75.7312469482422 73.5875015258789 72.5812530517578 70.4187469482422 67.0749969482422 63.9500007629395 60.3312492370605 55.1749992370605 50.2125015258789 46.1749992370605 42.3062515258789 39.28125 36.53125 35.8499984741211 35.1062507629395 36.2874984741211 39.9937515258789 43.6500015258789 46.7750015258789 52.5999984741211 57.8562507629395 62.3562507629395 65.25 67.5062484741211 69.1812515258789 71.3187484741211 72.2249984741211 74.1687469482422 75.1999969482422 75.8187484741211 77.5124969482422 78.5500030517578 78.0562515258789 76.0999984741211 74.8625030517578 73.9437484741211 73.4312515258789 71.9625015258789 70.5812530517578 69.1187515258789 66.2249984741211 62.90625 57.7249984741211 53.6312484741211 
85.8187484741211 83.8375015258789 82 81.0749969482422 78.0562515258789 75.6749954223633 73.59375 71.3249969482422 70.9000015258789 68.6750030517578 66.3062515258789 62.53125 59.03125 55.7249984741211 51.6812515258789 47.5750007629395 44.5374984741211 41.5437507629395 38.875 36.6312484741211 35.75 34.9625015258789 35.5999984741211 38.5187492370605 42.1124992370605 44.7437515258789 50.5250015258789 55.5125007629395 59.8312492370605 62.6749992370605 64.7125015258789 66.9187469482422 68.0062484741211 68.5749969482422 70.8249969482422 73.4437484741211 74.9937515258789 76.7249984741211 77.7437515258789 76.4499969482422 73.3125 72.5 72.7874984741211 74.125 72.8812484741211 70.9625015258789 69 65.2062530517578 59.5750007629395 53.84375 47.8875007629395 
84.59375 83 80.5500030517578 77.3625030517578 74.84375 72.75 70.2375030517578 69.0999984741211 67.3312530517578 64.59375 62.53125 59.1937484741211 55.4812507629395 51.8312492370605 48.21875 44.5 41.1312484741211 39.1687507629395 37.4500007629395 34.6187515258789 33.6375007629395 33.4249992370605 34.0499992370605 36.9437484741211 40.2000007629395 43.9312515258789 48.5625 53.2750015258789 56.40625 58.8250007629395 61.1375007629395 63.6749992370605 64.90625 66.3000030517578 68.7062530517578 70.6437530517578 74.5875015258789 77.3499984741211 77.5999984741211 78.4499969482422 77.4499969482422 75.8874969482422 73.6687469482422 73.6999969482422 72.9937515258789 70.5999984741211 67.7937469482422 64.3000030517578 57.4812507629395 51.53125 45.625 
82.8375015258789 80.2249984741211 76.2937469482422 74.1437454223633 73.4437484741211 70.6125030517578 68.3499984741211 65.8937530517578 63.4312515258789 60.7249984741211 58.09375 55.9000015258789 53.0750007629395 49.3562507629395 44.9625015258789 41.3812484741211 38.8250007629395 36.9312515258789 35.3937492370605 33.0750007629395 31.9874992370605 30.9249992370605 31.3312492370605 34.5062484741211 37.9187507629395 42.0499992370605 45.9124984741211 50.7062492370605 54.375 56.8250007629395 59.2437515258789 61.0374984741211 61.9937515258789 63.7937507629395 67.4250030517578 69.40625 73.3312530517578 76.6937484741211 79.1312484741211 81.9312515258789 81.2687530517578 76.875 73.3375015258789 74.1999969482422 72.2874984741211 69.375 64.6750030517578 60.90625 55.90625 49.71875 44.6875 
80.1500015258789 77.6687469482422 73.59375 71.0875015258789 70.5687484741211 67.78125 65.0687484741211 61.8125 59.5999984741211 57.3187484741211 54.7687492370605 52.0750007629395 48.6687507629395 45.5437507629395 41.9000015258789 39.4500007629395 36.5 34.3687515258789 32.3125 30.375 29.5687503814697 29.3250007629395 29.1687507629395 31.8062496185303 35.5750007629395 39.5999984741211 43.53125 48.2249984741211 51.6062507629395 53.5875015258789 56.2687492370605 57.6875 59.0875015258789 61.6124992370605 63.5 65.5562515258789 69.7062530517578 73.8687515258789 77.0687484741211 80.125 79.7687530517578 75.4437484741211 73.21875 71.9499969482422 70.8874969482422 68.4000015258789 62.7562484741211 58.4749984741211 53.8187484741211 49.375 44.4562492370605 
74.03125 71.2062530517578 68.1437530517578 66.3937530517578 64.5374984741211 61.6937484741211 59.8812484741211 57.4749984741211 54.9562492370605 53.4124984741211 52.3562507629395 48.5437507629395 44.6812515258789 41.90625 38.625 36.4124984741211 33.6875 31.75 29.5625 27.5562496185303 26.7437496185303 26.2437496185303 26.2250003814697 29.5812492370605 33.2437515258789 36.5750007629395 40.78125 44.2562484741211 48.0562515258789 49.9312515258789 52.65625 54.0999984741211 55.5374984741211 57.5 59.5625 61.71875 65.6374969482422 69.1875 72.0687484741211 74.7937469482422 74.2375030517578 71.6875 69.6750030517578 67.8937530517578 66.5812530517578 64.4375 61.9249992370605 56.8375015258789 52.2937507629395 48.7249984741211 44.2937507629395 
67.6875 66.0124969482422 63.2374992370605 62.2625007629395 58.5687484741211 56.6062507629395 55.4500007629395 53.3812484741211 51.0625 49.3187484741211 47.84375 44.6937484741211 41.4625015258789 37.1937484741211 34.875 32.4562492370605 30.5062503814697 28.3562507629395 26.1124992370605 24.4125003814697 23.7999992370605 23.3374996185303 23.5062503814697 26.4187507629395 30.1437492370605 33.6375007629395 37.7937507629395 41.1875 45.5499992370605 47.8687515258789 50.0999984741211 51.3250007629395 51.9812507629395 53.03125 55.3875007629395 57.5812492370605 61.1375007629395 64.0437469482422 66.5999984741211 67.8312530517578 69.1125030517578 67.9625015258789 66.0374984741211 63.9312515258789 62.0812492370605 60.4500007629395 58.2687492370605 55.0999984741211 51.5875015258789 47.7874984741211 44.5687484741211 
62.4625015258789 60.5375022888184 58.4812507629395 56.2625007629395 53.9000015258789 52.09375 50.6687507629395 48.9812507629395 46.1624984741211 45.0875015258789 43.7374992370605 41.2249984741211 37.3937492370605 34.03125 31.7875003814697 29.8187503814697 27.875 25.6374988555908 23.4125003814697 21.71875 21.2250003814697 20.7312507629395 20.6499996185303 23.6499996185303 26.9437503814697 30.5625 34.7437515258789 38.4375 42.9375 45.5499992370605 46.8687515258789 47.65625 48.2999992370605 48.8937492370605 50.5875015258789 52.6375007629395 54.9124984741211 58.2874984741211 60.8062515258789 61.9187507629395 62.2750015258789 61.625 61.0250015258789 59.6812515258789 58.5374984741211 56.6437492370605 55.4187507629395 53.2625007629395 49.8250007629395 46.0812492370605 43.4625015258789 
57.5374984741211 55.8187484741211 53.0625 50.46875 48.2874984741211 45.8375015258789 43.96875 41.7937507629395 39.75 38.9562492370605 38.5562515258789 36.2750015258789 33.9562492370605 31.3374996185303 29.2374992370605 27.4500007629395 25.0812492370605 23.15625 20.7124996185303 18.9375 18.7437496185303 18.875 18.9375 21.8312492370605 24.78125 27.84375 31.8374996185303 36.53125 40.1437492370605 42.2625007629395 43.6687507629395 44.6312484741211 43.9500007629395 44.9124984741211 45.78125 46.6124992370605 49.5125007629395 52.4375 53.7000007629395 55.4749984741211 55.9937515258789 56.7312507629395 55.375 54.7374992370605 53.6062507629395 51.5 50.2750015258789 49.5374984741211 47.09375 44.2874984741211 42.1500015258789 
51.4187507629395 49.5812492370605 46.7312507629395 44.4124984741211 42.21875 40.1187515258789 38.28125 36.5812492370605 34.3687515258789 32.9124984741211 33.6312484741211 33.2249984741211 31.8250007629395 29.53125 27.59375 25.1187496185303 22.6375007629395 20.46875 18.28125 16.3624992370605 16.3937492370605 16.78125 17.1749992370605 20.0249996185303 22.9937496185303 25.5125007629395 29.7562503814697 34.1312484741211 36.9375 39.1624984741211 41.0187492370605 41.5999984741211 41.2312507629395 41.0750007629395 41.5499992370605 42.5062484741211 44.8875007629395 47.7374992370605 48.6187515258789 50.1624984741211 50.4124984741211 51.2437477111816 50.2249984741211 50.1687507629395 48.7125015258789 47.7062492370605 47.5 46.7625007629395 44.96875 42.875 40.7125015258789 
46.4124984741211 44.8187484741211 41.5499992370605 39.65625 37.5374984741211 35.2437515258789 33.375 31.5687503814697 30.1437492370605 28.65625 30.8125 31.0062503814697 29.2437496185303 27.8937492370605 25.9437503814697 23.15625 20.2749996185303 17.9312496185303 16.1437492370605 14.3000001907349 14.5124998092651 14.9125003814697 15.59375 18.2999992370605 21.15625 23.9312496185303 28.2000007629395 32.5437507629395 35.8062515258789 37.6875 38.8624992370605 40.2125015258789 40.0812492370605 38.4812507629395 38.0437507629395 38.4312515258789 41.3812484741211 44.2000007629395 45.3624992370605 46.71875 45.3062515258789 45.1500015258789 44.8187522888184 44.6937484741211 44.5437507629395 44.5999984741211 45.8499984741211 45.90625 43.1124992370605 41.8875007629395 40.8562507629395 
41.8687515258789 40.0499992370605 37.5062484741211 35.0187492370605 33.15625 30.9937496185303 29.25 27.4874992370605 26.6437492370605 27.2250003814697 28.9187507629395 27.1000003814697 24.6937503814697 23.2875003814697 21.2999992370605 19.125 17.1375007629395 15.5437498092651 13.7562503814697 12.8187503814697 13.2937498092651 13.9437503814697 15.0249996185303 17.5437507629395 20.2437496185303 22.8374996185303 26.90625 31.28125 34.6062507629395 36.4187507629395 37.8375015258789 39.2750015258789 38.9937515258789 36.7562484741211 36.1624984741211 37.6687507629395 39.3875007629395 41.5625 42.90625 42.3250007629395 41.4124984741211 41.0499992370605 40.4437484741211 40.1124992370605 40.7999992370605 41.3812484741211 40.9124984741211 41.9500007629395 40.7874984741211 40.6187515258789 39.8187484741211 
37.2000007629395 36.2000007629395 33.5625 31.0750007629395 28.75 26.8062496185303 24.6749992370605 23.1749992370605 22.5874996185303 22.71875 22.4750003814697 21.5874996185303 20.03125 18.4937496185303 17.0249996185303 15.5749998092651 13.90625 12.71875 11.59375 11.2624998092651 12.3249998092651 13.21875 14.6125001907349 17.0375003814697 19.625 22.1062507629395 25.8937492370605 29.75 32.5374984741211 35.1437492370605 37.2374992370605 39.53125 38.8250007629395 37.125 37.1875 37.8562507629395 38.1624984741211 40.0562515258789 40.5625 38.9124984741211 37.7249984741211 37.5062484741211 36.90625 36.0750007629395 37.3937492370605 37.0437507629395 36.7312507629395 38.2062492370605 38.4375 39.2249984741211 38.6937484741211 
32.9187507629395 32.7562484741211 30.2625007629395 27.90625 25.2437496185303 22.8312492370605 20.7999992370605 18.9874992370605 17.8937492370605 17.6312503814697 17.03125 16.2124996185303 15.28125 14 13.0187501907349 12.0562496185303 11.0437498092651 10.5124998092651 10.1187496185303 10.0812501907349 11.6437501907349 12.90625 14.3562498092651 16.7374992370605 19.2937507629395 21.5437507629395 25.375 28.4437503814697 31.2437496185303 33.8375015258789 36.2625007629395 38.7062492370605 38.78125 37.8812484741211 38.75 38.3062515258789 37.90625 38.4874992370605 39.0374984741211 36.78125 34.4375 34.4437484741211 33.7937507629395 33.5499992370605 33.5875015258789 34.1375007629395 34.4000015258789 35.7312507629395 38.2249984741211 37.2249984741211 36.6312484741211 
27.7312507629395 27.6687507629395 26.0625 24.4249992370605 22.3999996185303 19.8312492370605 17.8250007629395 16.34375 15.3249998092651 14.65625 13.8125 13.25 12.6875 11.71875 11.1625003814697 10.7124996185303 10.1187496185303 10.2624998092651 10.3062496185303 10.6999998092651 12.2562503814697 14.1812496185303 15.3874998092651 17.6625003814697 20.1812496185303 22.3937492370605 25.0812492370605 27.9750003814697 31.5249996185303 34.6062507629395 36.4562492370605 38.2937507629395 38.8499984741211 40.8062515258789 41.65625 39.5 37.5499992370605 37.9749984741211 36.7874984741211 35.1437492370605 32.9187507629395 31.1625003814697 29.8812503814697 30.46875 31.4125003814697 32.6624984741211 32.9437484741211 33.84375 36.9812507629395 35.0125007629395 34.9437484741211 
22.4312496185303 22.6312503814697 21.8624992370605 20.875 19.5499992370605 17.1812496185303 15.3625001907349 13.9812498092651 12.7687501907349 12.0375003814697 11.3375005722046 10.9250001907349 10.3187503814697 9.76249980926514 9.80000019073486 9.59375 9.53125 10.1125001907349 10.78125 11.5749998092651 13.25 15.5124998092651 16.9874992370605 19.2000007629395 21.3562507629395 23.1062507629395 25.8125 29.0062503814697 31.4624996185303 34.3062515258789 36.6187515258789 38.4437484741211 39.2874984741211 40.5125007629395 42.6875 42.2312507629395 38.1875 37.1187515258789 35.6437492370605 34.2312507629395 31.7562503814697 29.7562503814697 28.6187496185303 28.71875 30 30.7562503814697 31.7062511444092 32.5062484741211 35.8562507629395 34.6187515258789 33.53125 
17.5375003814697 17.9812507629395 18.2000007629395 17.5375003814697 16.6749992370605 14.5749998092651 12.7437496185303 11.5437498092651 10.6687498092651 10 9.51249980926514 9.375 8.86874961853027 8.63749980926514 8.88749980926514 9.11250019073486 9.35624980926514 10.3125 11.5062503814697 12.7312498092651 14.5749998092651 16.7562503814697 17.9125003814697 20.125 22.7062492370605 24.9874992370605 27.3250007629395 29.6812496185303 32.0374984741211 34.2562484741211 37.2999992370605 39.5125007629395 40.0437507629395 40.3187484741211 43.2874984741211 45.8812484741211 40.7125015258789 37.7562484741211 36.59375 33.4625015258789 31.2250003814697 30.0562496185303 28.7687492370605 28.9187507629395 28.7374992370605 29.40625 29.8062496185303 30.2749996185303 32.5374984741211 33.5625 31.7625007629395 
13.5187501907349 14.1374998092651 14.9250001907349 14.4312496185303 13.3562498092651 11.8374996185303 10.3312501907349 9.78750038146973 9.54374980926514 9.53125 9.48124980926514 9.58125019073486 9.64999961853027 9.75625038146973 10.1812505722046 10.5375003814697 11.0500001907349 12.1499996185303 13.59375 15.0375003814697 16.7000007629395 18.4937496185303 19.8250007629395 22.2999992370605 24.7625007629395 26.8562507629395 28.6625003814697 31.0124988555908 33.3187484741211 35.5250015258789 37.46875 39.7562484741211 40.2249984741211 40.3624992370605 42.6062507629395 43.6500015258789 40.8937492370605 37.90625 35.4249992370605 33.5125007629395 31.6187496185303 30.46875 28.8999996185303 28.9249992370605 29.0125007629395 29.1499996185303 29.1875 29.6625003814697 30.1687507629395 31.1187496185303 29.8687496185303 
