ncols        51
nrows        45
xllcorner    -63.500000000000
yllcorner    -7.500000000000
cellsize     0.166666666667
NODATA_value -99
625.96875 642.28125 640 646.243774414062 645.349975585938 632.368774414062 609.96875 591.512512207031 571.362487792969 555.724975585938 536.556274414062 511.393768310547 489.518737792969 468.931243896484 446.212493896484 426.424987792969 405.549987792969 385.587493896484 369.581237792969 357.606262207031 351.412506103516 345.618743896484 343.806243896484 338.756256103516 335.368743896484 334.243743896484 333.53125 334.981262207031 333.399993896484 332.65625 327.1875 324.21875 322.375 318.799987792969 315.962493896484 318.825012207031 320.975006103516 320.881256103516 323.862487792969 329.137512207031 331.768768310547 335.581237792969 336.424987792969 341.674987792969 344.549987792969 345.712493896484 348.237487792969 346.181243896484 347.118743896484 351.4375 352.393737792969 
621.0625 637.03125 647.03125 661.956237792969 675 666.8125 646.65625 630.662475585938 614.181274414062 593.424987792969 574.1875 546.924987792969 519.96875 494.256256103516 466.850006103516 441.075012207031 416.606262207031 393.46875 377.96875 365.018737792969 359.543762207031 356.193756103516 352.743743896484 349.5625 344.462493896484 339.787506103516 339.3125 338.631256103516 336.487487792969 332.681243896484 326.725006103516 326.393737792969 321.431243896484 319.356231689453 315.299987792969 313.950012207031 318.174987792969 319.106262207031 324.568756103516 325.15625 327.762512207031 335.149993896484 335.875 335.731262207031 338.875 338.462493896484 340.556243896484 340.131256103516 342.412506103516 345.84375 348.25 
586.518737792969 606.862487792969 625.575012207031 642.637512207031 656.393737792969 657.825012207031 653.5625 650.5 639.818725585938 622.668762207031 603.549987792969 573.193725585938 542.556274414062 510.587493896484 481.037506103516 454.512512207031 426.237487792969 401.987487792969 386.625 375.299987792969 370.337493896484 369.4375 366.143737792969 359.681243896484 351.881256103516 347.443756103516 346.256256103516 341.668762207031 335.21875 329.950012207031 323.387512207031 319.856262207031 318.106262207031 313.356262207031 310.774993896484 308.424987792969 310.643737792969 312.337493896484 315.787506103516 318.543762207031 323.893737792969 326.049987792969 329.600006103516 330.125 331.225006103516 332.46875 333.387512207031 334.231262207031 332.112487792969 336.274993896484 339.375 
542.631225585938 557.224975585938 589.40625 609.118774414062 628.337524414062 636.543762207031 644.28125 655.862487792969 659.9375 650.450012207031 629.299987792969 596.137512207031 558.612487792969 524.693725585938 492.600006103516 462.21875 431.337493896484 408.78125 394.1875 387.162506103516 388.225006103516 385.46875 379.731262207031 371.78125 361.356262207031 351.9375 349 339.924987792969 331.118743896484 327.356262207031 320.475006103516 315.331237792969 311.087493896484 305.287506103516 299.725006103516 302.350006103516 305.481262207031 306.46875 310.112487792969 313.543762207031 316.71875 322.600006103516 322.350006103516 322.21875 325.681243896484 324.056243896484 324.087493896484 325.674987792969 322.575012207031 322.25 326.518768310547 
533.599975585938 540.418762207031 545.193725585938 566.375 592.768737792969 606.5625 625.787475585938 649.387512207031 668.556274414062 671.849975585938 645.912475585938 604.09375 570.456237792969 537.549987792969 503.418762207031 469.28125 435.981262207031 415.237518310547 401.931243896484 398.575012207031 400.243743896484 396.262512207031 388.506256103516 382.75 368.106262207031 355.90625 344.725006103516 337.681243896484 328.299987792969 322.043762207031 316.331237792969 308.674987792969 303.081237792969 300.024993896484 295.924987792969 295.793762207031 299.6875 302.5625 306.90625 309.28125 313.681243896484 315.537506103516 316.237487792969 318.137512207031 318.037506103516 316.600006103516 313.543762207031 312.306243896484 309.137512207031 311.774993896484 317.337493896484 
513.393737792969 519.537475585938 521.21875 519.375 545.893737792969 570.568725585938 591.856262207031 612.5625 636.362487792969 646.650024414062 628.049987792969 587.456237792969 561.53125 535.131225585938 500.631256103516 474.15625 441.706237792969 422.012512207031 413.34375 414.262512207031 411.725006103516 407.212493896484 400.84375 385.524993896484 369.975006103516 355.443756103516 343.806243896484 333.443756103516 325.168762207031 319.65625 314.09375 308.506256103516 303.306243896484 300.049987792969 295.96875 296.993743896484 298.712493896484 300.274993896484 307 308.399993896484 308.393737792969 310.293762207031 309.462493896484 310.318756103516 310.65625 305.962493896484 300.40625 299.456237792969 297 295.875 297.743743896484 
497.100006103516 498.881256103516 498.975006103516 498.412506103516 507.03125 521.087463378906 540.46875 560.400024414062 565.549987792969 579.137512207031 578.625 557.731262207031 542.368774414062 524.662475585938 499.387512207031 475.012512207031 454.193756103516 441.75 434.25 437.1875 428.006256103516 417.100006103516 402.6875 388.0625 371.856262207031 358.149993896484 343.712493896484 331.618743896484 319.162506103516 314.600006103516 310.537506103516 303.412506103516 297.993743896484 295.643737792969 293.668762207031 296.125 296.09375 297.043762207031 302.837493896484 305.487518310547 302.662506103516 301.256256103516 299.96875 301.818756103516 299.59375 298.325012207031 290.387512207031 281.356231689453 276.862487792969 279.912506103516 281.375 
479.46875 477.912506103516 477.012512207031 480.293762207031 487.581237792969 501.056243896484 503.5625 495.056243896484 486.087493896484 505.487487792969 528.481262207031 526.793762207031 525.15625 513.950012207031 497.712493896484 482.606262207031 467.393737792969 462.481262207031 458.106262207031 454.987487792969 446.21875 428.71875 410.712493896484 388.274993896484 372.381256103516 350.137512207031 339.131256103516 325.200012207031 313.081237792969 309 304.9375 298.21875 295.012512207031 291.056243896484 287.212493896484 287.84375 289.09375 291.487487792969 293.200012207031 290.399993896484 290.118743896484 288.475006103516 288.024993896484 286.543762207031 282.931243896484 277.418762207031 269.799987792969 263.5 259.831237792969 256.981262207031 257.65625 
464.231262207031 462.225006103516 463.918762207031 464.725006103516 468.943756103516 478.175018310547 480.081237792969 475.193756103516 456.887512207031 455.53125 479.056243896484 492.024993896484 502.418762207031 496.71875 488.862487792969 484.3125 477.5625 477.350006103516 478.762512207031 466.350006103516 444.53125 429.706237792969 404.081237792969 390.081237792969 366.056243896484 342.362487792969 327.712493896484 318.4375 310.868743896484 304.799987792969 302.806243896484 294.8125 286.318756103516 280.25 279.018737792969 280.756256103516 282.674987792969 285.225006103516 287.78125 282.837493896484 278.125 275.25 276.712493896484 277.768737792969 268.206237792969 262.318756103516 255.412506103516 246.243743896484 238.9375 236.175003051758 236.649993896484 
447.981262207031 448.012512207031 449.8125 452.787506103516 452.231262207031 460.787506103516 465 464.431243896484 458.987487792969 462.112487792969 473.037506103516 471.568756103516 484.512512207031 481.443756103516 483.625 482.268737792969 481.53125 482.40625 485.606262207031 481.137512207031 452.731231689453 424.15625 398.774993896484 380.981262207031 354.206237792969 331.268737792969 316.931243896484 308.1875 303.100006103516 301.225006103516 294.9375 285.862487792969 280.850006103516 276.006256103516 271.918762207031 273.012512207031 273.931243896484 276.850006103516 278.875 278.225006103516 276.475006103516 275.575012207031 269.09375 263.706237792969 257.78125 255.143753051758 246.056243896484 233.631256103516 225.125 218.1875 212.306243896484 
431.956237792969 434.012512207031 434.4375 438.03125 437.75 447.850006103516 454.024993896484 452.200012207031 451.206237792969 459.100006103516 470.887512207031 475.256256103516 468.825012207031 470.662506103516 473.662506103516 476.431243896484 481.056243896484 484.625 487.075012207031 487.693756103516 472.037506103516 434.1875 398.825012207031 359.931243896484 343.037506103516 325.568756103516 311.612487792969 302.506256103516 293.112487792969 288.125 284.3125 277.950012207031 272.59375 267.737487792969 263.09375 261.5625 262.418762207031 266.387512207031 270.850006103516 271.700012207031 270.725006103516 267.143737792969 265 255.462509155273 247.193756103516 240.918746948242 233.856246948242 219.987503051758 211.512496948242 204.40625 195.46875 
421.100006103516 421.375 423.137512207031 426.799987792969 429.256256103516 433.993743896484 443.71875 447.912506103516 451.518737792969 453.1875 463.21875 473.868743896484 461.637512207031 461.325012207031 468.350006103516 468.1875 472.412506103516 475.59375 479.743743896484 486.5625 476.1875 445.78125 406.856262207031 363.787506103516 331.649993896484 307.181243896484 292.450012207031 284.387512207031 278.875 273.950012207031 266.837493896484 260.893737792969 256.243743896484 251.774993896484 250.28125 252.262496948242 255.262496948242 257.556243896484 259.831237792969 261.549987792969 262.881256103516 258.975006103516 251.475006103516 234.081253051758 224.074996948242 213.537506103516 203.237503051758 200.912506103516 197.212493896484 191.712493896484 179.193756103516 
411.78125 409.256256103516 410.193756103516 414.3125 416.03125 423.556243896484 428.831237792969 431.399993896484 436.524993896484 444.231262207031 452.75 461.59375 459.662506103516 444.200012207031 446.799987792969 454.387512207031 458.087493896484 461.568756103516 465.043762207031 471.456237792969 466.943756103516 435.893737792969 399.206237792969 357.262512207031 309.918762207031 282.168762207031 277.03125 271.193756103516 267.418762207031 263.831237792969 255 245.425003051758 239.96875 235.068756103516 234.818756103516 239.943756103516 244.931243896484 250.637496948242 255.356246948242 256.662506103516 255.512496948242 251.449996948242 235.824996948242 221.393753051758 216.300003051758 209.293746948242 198.368743896484 187.831253051758 181.0625 182.175003051758 180.168746948242 
394.168762207031 393.174987792969 396.137512207031 399.543762207031 403.618743896484 408.131256103516 411.518768310547 415.28125 423.100006103516 429.637512207031 429.806243896484 435.306243896484 436.100006103516 431.668762207031 419.350006103516 430.850006103516 434.331237792969 435.118743896484 441.65625 448.625 439.893737792969 413.993743896484 382.90625 348.306243896484 308.756256103516 279.65625 268 258.256256103516 253.024993896484 247.024993896484 242.34375 232.162506103516 226.725006103516 222.4375 221.024993896484 229.03125 238.112503051758 246.90625 252.818756103516 251.043746948242 240.324996948242 228.225006103516 222.587493896484 219.90625 221.318756103516 211.449996948242 201.75 194.487503051758 187.324996948242 191.631256103516 193.762496948242 
378.375 380.15625 384.337493896484 387.075012207031 389.768737792969 394.299987792969 401.09375 406.893768310547 410.5 411.262512207031 409.524993896484 412.168762207031 409.431243896484 404.318756103516 385.793762207031 393.424987792969 399.631256103516 406.125 412.350006103516 417.068756103516 410.65625 392.024993896484 369.831237792969 348.40625 321.637512207031 296.481262207031 277.987487792969 264.274993896484 253.262496948242 243.987503051758 230.993743896484 219.462493896484 216.862503051758 208.943756103516 202.993743896484 208.193756103516 226.143753051758 239.987503051758 242.274993896484 235.256256103516 222.756256103516 217.981246948242 220.743743896484 218.081253051758 215.824996948242 213.456253051758 209.574996948242 207.368743896484 204.537506103516 201.731246948242 201.949996948242 
362.15625 363.875 370.206237792969 374.6875 376.4375 382.96875 390.049987792969 394.375 394.40625 395.256256103516 391.125 390.731262207031 387.143737792969 384.106262207031 370.368743896484 355.049987792969 366.03125 380.743743896484 383.299987792969 387.731262207031 383.337493896484 376.143737792969 364.706237792969 352.481262207031 330.668762207031 305.549987792969 284.637481689453 266.356262207031 252.84375 243.643753051758 233.418746948242 219.6875 206.574996948242 194.631256103516 187.324996948242 202.912506103516 214.225006103516 225.3125 228.431243896484 224.931243896484 215.868743896484 212.449996948242 212.612503051758 207.09375 205.368743896484 205.949996948242 203.28125 200.956253051758 202.824996948242 202.050003051758 205.137496948242 
348.325012207031 351.337493896484 355.274993896484 361.475006103516 367.112487792969 370.375 374.543762207031 377.106262207031 379.137512207031 378.793762207031 376.168762207031 377.287506103516 372.3125 366.825012207031 357.65625 347.293762207031 334.106262207031 345.850006103516 355.012512207031 361.287506103516 359.768737792969 355.899993896484 354.325012207031 352.456237792969 339.912506103516 307.0625 282.725006103516 264.875 250.824996948242 240.925003051758 231.606246948242 221.356246948242 209.387496948242 198.912506103516 201.462493896484 206.337493896484 216.425003051758 226.0625 231.25 220.362503051758 208.712493896484 204.050003051758 199.78125 198.418746948242 198.574996948242 200.512496948242 200.03125 202.512496948242 204.318756103516 200.5625 202.96875 
332.268737792969 338.331268310547 344.462493896484 349.668762207031 355.568756103516 362.28125 364.168762207031 364.524993896484 363.799987792969 363.9375 361.337493896484 364.662506103516 355.674987792969 351.918762207031 343.662506103516 335.712493896484 324.087493896484 311.693756103516 332.318756103516 336.662506103516 335.987487792969 336.625 338.387512207031 339.356262207031 331.325012207031 304.918762207031 276.662506103516 261.743743896484 248.837493896484 235.21875 218.28125 204.449996948242 209.050003051758 208.0625 206.043746948242 218.399993896484 227.056243896484 227.818756103516 226.524993896484 217.956253051758 201.481246948242 195.78125 191.65625 190.8125 190.806243896484 194.693756103516 196.100006103516 197.331253051758 201.46875 195.512496948242 201.956253051758 
316.46875 323.96875 329.806243896484 338.399993896484 346.387512207031 350.475006103516 353.612487792969 355.706237792969 354.518768310547 355.6875 350.40625 342.731262207031 335.743743896484 332.450012207031 325.274993896484 320.981262207031 315.174987792969 299.731262207031 298.649993896484 305.725006103516 309.112487792969 317.21875 305.043762207031 310.362487792969 305.518737792969 294.631256103516 276.299987792969 256.149993896484 243.462493896484 229.693756103516 215.868743896484 208.0625 210.125 208.668746948242 208.96875 216.643753051758 218.024993896484 215.600006103516 215.40625 205.556243896484 192.53125 185.699996948242 183.931243896484 185.074996948242 185.537506103516 187.362503051758 191.875 194.28125 196.412506103516 187.018753051758 199.925003051758 
299.362487792969 308.387512207031 315.987487792969 322.231262207031 331.524993896484 341.443756103516 346.512512207031 348.174987792969 346.643737792969 343.399993896484 341.043762207031 338.681243896484 335.78125 326.293762207031 315.993743896484 299.90625 286.912506103516 288.537506103516 286.024993896484 289.049987792969 284.006256103516 287.112487792969 294.168731689453 291.674987792969 283.231262207031 269.1875 257.387512207031 247.800003051758 231.493743896484 216.324996948242 208.162506103516 211.381256103516 209.25 205.375 207.293746948242 210.768753051758 210.387496948242 207.600006103516 202.800003051758 195.506256103516 182.456253051758 175.793746948242 176.8125 178.087493896484 181.324996948242 184.59375 186.78125 189.3125 190.056243896484 183.743759155273 197.043746948242 
273.943756103516 292.256256103516 303.987487792969 310.331237792969 316.15625 329.462493896484 338.256256103516 342.168762207031 341.743743896484 336.462493896484 332.818756103516 331.087493896484 323.668762207031 315.4375 303.049987792969 293.725006103516 279.75 275.84375 280.299987792969 279.637512207031 287.606262207031 292.637512207031 295.212493896484 291.350006103516 284.174987792969 270.293762207031 251.03125 238.524993896484 227.493743896484 219.1875 214.256256103516 212.387496948242 205.018753051758 200.199996948242 199.731246948242 202.199996948242 202.868743896484 200.668746948242 194.774993896484 186.362503051758 178.75 172.868743896484 170.518753051758 172.793746948242 176.043746948242 180.21875 184.512496948242 185.693756103516 181.637496948242 186.28125 192.931243896484 
257.912506103516 267.056243896484 283.075012207031 297.356262207031 304.487487792969 313.868743896484 325.787506103516 334.456237792969 335.881256103516 332.450012207031 327.831237792969 322.368743896484 314.225006103516 305.006256103516 299.268737792969 287.924987792969 289.356262207031 283.743743896484 287.081237792969 285.006256103516 282.043762207031 286.118743896484 289.450012207031 281.012512207031 268.481262207031 259.8125 251.443756103516 238.568756103516 232.975006103516 226.368743896484 217.3125 209.0625 205.037506103516 202.350006103516 197.425003051758 195.84375 196.350006103516 193.962493896484 188.137496948242 180.6875 174.612503051758 169.681243896484 167.106246948242 167.737503051758 170.774993896484 175.018753051758 179.274993896484 182.137496948242 180.143753051758 188.512496948242 189.962493896484 
242.6875 259.693756103516 273.6875 287.450012207031 294.700012207031 302.950012207031 305.28125 315.975006103516 326.131256103516 325.168762207031 318.875 312.493743896484 309.518737792969 301.512512207031 296.325012207031 289.206237792969 285.824981689453 284.118743896484 284.543762207031 284.231262207031 284.806243896484 281.418762207031 282.181243896484 272.674987792969 265.556243896484 255.40625 243.53125 237.143753051758 232.050003051758 224.375 214.149993896484 208.962493896484 207.050003051758 202.612503051758 198.487503051758 190.574996948242 187.199996948242 186.381256103516 184.318756103516 177.225006103516 170.087493896484 166.112503051758 163.212493896484 163.168746948242 165.962493896484 168.887496948242 172.425003051758 174.912506103516 180.462493896484 189.331253051758 190.274993896484 
223.375 241.981246948242 259.056243896484 270.237487792969 277.043762207031 282.956237792969 296.475006103516 305.09375 308.693756103516 307.743743896484 306.162506103516 307.674987792969 303.893737792969 300.162506103516 293.4375 287.381256103516 284.331237792969 286.024993896484 288.693756103516 290.725006103516 286.106262207031 283.806243896484 280.606262207031 275.293762207031 264.206237792969 249.600006103516 240.768753051758 234.875 231.337493896484 228.431243896484 223.912490844727 219.5 216.862503051758 210.162506103516 203.262496948242 191.293746948242 188.9375 184.762496948242 180.168746948242 173.774993896484 166.0625 163.456253051758 161.40625 159.643753051758 162.112503051758 164.768753051758 167.831253051758 166.5625 176.856246948242 185.975006103516 190.543746948242 
209.681243896484 227.850006103516 242.387496948242 257.1875 266.668762207031 274.818756103516 280.799987792969 290.368743896484 293.475006103516 295.943756103516 294.943756103516 294.518737792969 296.15625 292.962493896484 286.96875 284.556243896484 286.106262207031 287.881256103516 289.387512207031 292.268737792969 291.600006103516 286.575012207031 285.262512207031 276.956237792969 264.75 257.131256103516 247.606246948242 241.925003051758 236.981246948242 237.768753051758 234.137496948242 234.65625 229.768753051758 220.925003051758 207.881256103516 196.456253051758 190.5 181.268753051758 175.53125 169.331253051758 162.837493896484 159.231246948242 157.331253051758 154.162506103516 153.981246948242 156.743743896484 155.712493896484 163.425003051758 169.5 180.237503051758 185.868743896484 
201.662506103516 220.024993896484 228.231246948242 241.1875 247.475006103516 255.056243896484 261.256256103516 270.318756103516 271.3125 271.612487792969 279.512481689453 283.393737792969 282.424987792969 281.793762207031 283.6875 282.549987792969 285.162506103516 288.131256103516 290.475006103516 292.606262207031 292.65625 288.481262207031 287.424987792969 275.625 267.193756103516 258.674987792969 255.274993896484 249.162506103516 243.112503051758 244.375 245.96875 252.574996948242 247.175003051758 230.381256103516 213.643753051758 201.587493896484 190.050003051758 180.206253051758 170.206253051758 163.399993896484 157.831253051758 153.21875 149.743743896484 148.800003051758 150.40625 149.175003051758 157.712493896484 161.268753051758 166.3125 175.024993896484 176.943756103516 
192.100006103516 201.399993896484 212.262496948242 222.40625 228.668746948242 236.693756103516 242.9375 248.056243896484 252.100006103516 261.456237792969 268.087493896484 269.787506103516 273.03125 275.481262207031 278.081237792969 280.6875 281.568756103516 283.03125 291.581237792969 293.231262207031 291.006256103516 289.456237792969 288.931243896484 281.975006103516 273.106262207031 265.018737792969 260.556243896484 253.962509155273 248.675003051758 247.381256103516 252.556243896484 258.84375 256.787506103516 234.681243896484 213.899993896484 199.331253051758 189.256256103516 176.518753051758 166.543746948242 159.662506103516 153.34375 149.5 146.787506103516 144.587493896484 146.225006103516 150.568756103516 156.287506103516 157.637496948242 162 162.868743896484 163.362503051758 
183.731246948242 187.774993896484 196.168746948242 202.612503051758 209.931243896484 219.237503051758 226.868743896484 230.787506103516 237.84375 247.449996948242 253.731246948242 256.706237792969 261.637512207031 265.118743896484 270.756256103516 271.587493896484 276.756256103516 284.399993896484 293.106262207031 296.78125 295.306243896484 292.356262207031 295.493743896484 286.799987792969 278.53125 268.462493896484 263.912506103516 256.6875 251.662506103516 250.787506103516 253.40625 256.024993896484 249.018753051758 229.737503051758 212.606246948242 197.5625 184.393753051758 173.631256103516 165.168746948242 156.212493896484 148.787506103516 147.037506103516 145.231246948242 144.40625 143.737503051758 144.712509155273 148.881256103516 153.925003051758 154.550003051758 152.09375 150.756256103516 
173.25 175.112503051758 180.206253051758 186.21875 192.618743896484 197.975006103516 204.262496948242 213.5 225 232.125 239.774993896484 245.893753051758 251.100006103516 258.643737792969 267.15625 273.612518310547 279.106262207031 284.981262207031 292.03125 297.168762207031 297.3125 295.068756103516 296.53125 287.662506103516 278.837493896484 266.487487792969 262.012512207031 257.006256103516 251.300003051758 248.324996948242 248.956253051758 246.331253051758 236.15625 220.34375 207.375 193.09375 180.668746948242 168.28125 160.018753051758 151.300003051758 141.9375 139.412506103516 141.262496948242 144.40625 145.375 145.237503051758 149.162506103516 152.600006103516 149.731246948242 146.043746948242 141.068756103516 
170.381256103516 169.4375 171.006256103516 172.587493896484 176.356246948242 184.043746948242 190.731246948242 201.6875 211.300003051758 217.481246948242 226.71875 234.612503051758 242.15625 251.768753051758 260.8125 268.362487792969 274.456237792969 284.950012207031 290.481262207031 292.543762207031 293.887512207031 295.331237792969 296.318756103516 285.950012207031 273.700012207031 267.237487792969 258.543762207031 249.106246948242 242.943756103516 239.993743896484 239.274993896484 234 223.925003051758 211.925003051758 200.399993896484 185.675003051758 176.881256103516 165.28125 156.125 150.681243896484 143.868759155273 140.856246948242 139.84375 140.25 141.918746948242 145.4375 147.987503051758 151.018753051758 149.068756103516 144.59375 137.612503051758 
168.393753051758 164.481246948242 162.918746948242 164.256256103516 167.256256103516 173.587493896484 181.956253051758 189.681243896484 199.043746948242 207.425003051758 216.612503051758 223.949996948242 235.568756103516 242.71875 252.28125 262.606262207031 271.274993896484 279.068756103516 286.506256103516 291.943756103516 290.28125 290.399993896484 292.018737792969 279.274993896484 267.587493896484 263.5625 253.193756103516 241.850006103516 235.231246948242 230.431243896484 229.293746948242 221.699996948242 211.912506103516 201.84375 190.887496948242 176.762496948242 168.087493896484 159.65625 153.518753051758 147.09375 143.125 140.018753051758 138.600006103516 136.893753051758 139.618743896484 144.90625 148.84375 149.725006103516 147.368743896484 144.368743896484 137.731246948242 
163.581253051758 157.806243896484 155.887496948242 156.806243896484 159.850006103516 164.268753051758 173.78125 178.506256103516 187.024993896484 194.837493896484 203.78125 210.943756103516 222.306243896484 233.75 243.106246948242 254.850006103516 260.387512207031 267.456237792969 275.006256103516 281.481262207031 279.731262207031 281.268737792969 282.274993896484 272.306243896484 265.631256103516 257.53125 247.1875 234.350006103516 224.106246948242 220.112503051758 214.193756103516 208.131256103516 198.34375 189.206253051758 180.5 168.418746948242 159.324996948242 152.09375 146.168746948242 143.493743896484 139.768753051758 138.09375 137.543746948242 138.412506103516 140.800003051758 150.331253051758 156.375 153.96875 148.975006103516 144.993743896484 138.912506103516 
163.4375 158.600006103516 155.668746948242 156.400009155273 156.412506103516 159.362503051758 165.850006103516 170.3125 177.625 186.106246948242 197.6875 205.137496948242 215.537506103516 227.925003051758 235.8125 243.149993896484 248.806243896484 258.399993896484 262.306243896484 267.75 265.518737792969 268.381256103516 267.668762207031 261.456237792969 254.837493896484 248.412506103516 236.556243896484 225.056243896484 213.137496948242 207.25 202.074996948242 195.012496948242 184.637496948242 178.931243896484 170.274993896484 162.074996948242 151.824996948242 145.268753051758 140.225006103516 139.668746948242 136.15625 136.3125 136.40625 138.4375 145.268753051758 155.324996948242 159.731246948242 155.231246948242 149.012496948242 144.5 138.637496948242 
164.118743896484 158.800003051758 157.287506103516 156.393753051758 156.487503051758 157.037506103516 160.043746948242 162.25 167.768753051758 175.175003051758 184.962493896484 196.21875 205.462493896484 215.15625 224.487503051758 233.699996948242 240.300003051758 247.449996948242 248.693756103516 251.037506103516 252.556243896484 255.462493896484 254.918746948242 247.287506103516 242.143753051758 235.037506103516 223.199996948242 211.650009155273 202.493743896484 195.9375 190.137496948242 182.837493896484 174.1875 166.512496948242 159.84375 151.96875 144.443756103516 136.3125 134.181243896484 132.887496948242 130.043746948242 131.993743896484 134.4375 136.731246948242 145.631256103516 155.15625 157.356246948242 149.787506103516 144.75 141.199996948242 136.481246948242 
163.231246948242 158.618743896484 157.3125 156.850006103516 156.256256103516 155.399993896484 153.975006103516 155.118743896484 156.912506103516 163.762496948242 173.987503051758 185.487503051758 198.293746948242 210.293746948242 218.137496948242 225.237503051758 230.175003051758 236.131256103516 237.012496948242 235.831253051758 237.168746948242 237.675003051758 239.043746948242 232.206253051758 226.912506103516 220.899993896484 212.675003051758 202.925003051758 193.649993896484 187.425003051758 179.8125 172.181243896484 162.318756103516 155.824996948242 145.65625 139.918746948242 132.21875 129.237503051758 127.506248474121 125.706253051758 123.78125 124.193748474121 126.493751525879 129.96875 137.399993896484 143.956253051758 146.668746948242 144.0625 139.375 136.237503051758 133.800003051758 
165.131256103516 162.212493896484 159.425003051758 157.949996948242 156.112503051758 154.149993896484 150.96875 151.175003051758 152.175003051758 155.068756103516 162.8125 177.643753051758 192.893753051758 203.15625 211.387496948242 216.40625 219.931243896484 221.618743896484 223.987503051758 221.931243896484 222.762496948242 222.818756103516 222.756256103516 217.6875 212.068756103516 206.012496948242 201.399993896484 193.625 183.375 176.668746948242 169.975006103516 162.381256103516 152.899993896484 143.65625 135.606246948242 130.106246948242 128.15625 123.068748474121 121.943748474121 122.681251525879 120.637496948242 122.5 123.293746948242 125.981246948242 129.106246948242 133.824996948242 136.431243896484 135.475006103516 134.65625 131.625 129.375 
167.84375 166.293746948242 163.118743896484 161.131256103516 159.6875 155.487503051758 151.84375 148.568756103516 147.4375 145.006256103516 157.449996948242 179.125 192.012496948242 199.581253051758 205.050003051758 208.362503051758 208.787506103516 208.743743896484 209.899993896484 206.081253051758 207.206253051758 207.181243896484 205.131256103516 200.75 196.443756103516 193.475006103516 188.337493896484 181.425003051758 173.018753051758 167.274993896484 161.550003051758 155.09375 145.456253051758 134.850006103516 127.931251525879 125.137496948242 122.793746948242 120.181251525879 118.574996948242 117.881248474121 116.25 116.3125 119.612503051758 122.400001525879 124.356246948242 125.349998474121 130.637496948242 127.731246948242 126.03125 124.981246948242 124.0625 
170.881256103516 169.212493896484 167.725006103516 164.975006103516 164.1875 160.068756103516 155.71875 150.637496948242 148.5625 145.175003051758 166.5 187.71875 195.03125 199.868743896484 201.800003051758 202.381256103516 200.59375 200.193756103516 197.875 195.34375 192.600006103516 191.856246948242 189.806243896484 185.893753051758 182.15625 179.318756103516 173.493743896484 171.71875 166.050003051758 159.09375 152.337493896484 146.40625 138.487503051758 127.800003051758 119.412498474121 117.824996948242 117.768753051758 115.724998474121 116.443748474121 114.612503051758 113.543746948242 113.793746948242 113.168746948242 113.556251525879 115.762496948242 118.431251525879 120.800003051758 121.599998474121 118.775001525879 117.931251525879 118.306251525879 
171.856246948242 170.149993896484 168.587493896484 167.112503051758 163.96875 161.112503051758 159.443756103516 158.800003051758 162.331253051758 173.612503051758 198.256256103516 203.068756103516 200.449996948242 201.387496948242 200.862503051758 199.356246948242 196.981246948242 194.456253051758 191.387496948242 186.368743896484 180.774993896484 176.6875 175.337493896484 173.556243896484 169.199996948242 166.53125 164.543746948242 163.568756103516 157.84375 153.46875 145.868743896484 137.293746948242 131.681243896484 125.306251525879 120.956253051758 118.612503051758 116.775001525879 116.706253051758 114.456253051758 111.300003051758 111.699996948242 111.431251525879 109.675003051758 110.912498474121 111.612503051758 113.8125 113.90625 114.8125 115.59375 115.400001525879 115.1875 
175.237503051758 172.668746948242 172.15625 170.506256103516 168.737503051758 166.481246948242 164.443756103516 169.106246948242 175.856246948242 186.725006103516 197.856246948242 204.006256103516 201.350006103516 199.46875 199.768753051758 195.4375 190.774993896484 186.481246948242 181.212493896484 176.568756103516 168.893753051758 164.425003051758 159.793746948242 158.212493896484 156.524993896484 155.65625 153.956253051758 153.181243896484 149.512496948242 145.6875 140.918746948242 136.506256103516 131.3125 126.962501525879 123.362503051758 120.324996948242 117.78125 117.324996948242 114.712501525879 109.487503051758 108.474998474121 108.037498474121 105.375 104.431251525879 106.949996948242 108.0625 109.481246948242 111.049995422363 112.518745422363 112.137496948242 112.987503051758 
177.6875 176.356246948242 176.050003051758 175.449996948242 172.53125 169.356246948242 170.399993896484 177.5625 182.268753051758 188.987503051758 196.368743896484 198.774993896484 199.681243896484 197.043746948242 195.600006103516 191.15625 185.40625 179.0625 172.806243896484 166.731246948242 158.568756103516 151.668746948242 145.881256103516 144.393753051758 144.856246948242 144.537506103516 143.893753051758 144.293746948242 142.71875 138.931243896484 138.09375 136.3125 134.118743896484 130.956253051758 126.006248474121 124.349998474121 123.074996948242 121.212501525879 115.199996948242 110.212501525879 105.849998474121 101.800003051758 99.7375030517578 100.981246948242 103.34375 105.46875 106.118751525879 106.59375 110.737503051758 111.631248474121 111.90625 
180.931243896484 179.693756103516 180.412506103516 179.768753051758 176.875 176.824996948242 178.574996948242 182.100006103516 186.756256103516 189.012496948242 193.506256103516 195.287506103516 197.056259155273 193.518753051758 189.5 186.137496948242 180.175003051758 174.537506103516 168.818756103516 159.481246948242 150.618743896484 142.550003051758 134.556243896484 133.875 134.412506103516 134.537506103516 135.0625 137.78125 139.574996948242 137.068756103516 134.0625 135.306243896484 134.206253051758 136.331253051758 132.40625 127.756248474121 124.456253051758 120.443748474121 116.412498474121 110.618751525879 104.637496948242 97.8687515258789 94.71875 98.0187530517578 102.150001525879 103.612503051758 103.943748474121 104.956253051758 107.675003051758 108.362503051758 109.28125 
183.606246948242 184.368743896484 186.050003051758 181.262496948242 182.487503051758 182.800003051758 182.318756103516 183.768753051758 186.287506103516 187.78125 191.09375 192.09375 191.681243896484 189.774993896484 186 181.0625 173.737503051758 170.824996948242 164.368743896484 151.018753051758 139.912490844727 130.150009155273 124.943748474121 127.050003051758 127.581253051758 128.649993896484 129.862503051758 132.856246948242 134.306243896484 134.71875 134.100006103516 133.225006103516 135.012496948242 138.65625 140.568756103516 137.1875 129.125 124.837501525879 118.53125 112.875 106.543746948242 99.9499969482422 95.2624969482422 97.5124969482422 100.893753051758 102.162498474121 102.75 104.137496948242 107.981246948242 106.618751525879 107.806251525879 
189.056243896484 189.09375 191.106246948242 187.331253051758 188.331253051758 187.743743896484 185.331253051758 187.006256103516 188.800003051758 189.856246948242 190.506256103516 190.824996948242 190.324996948242 187.78125 184.712493896484 178.581253051758 171.550003051758 167.568756103516 163.175003051758 149.631256103516 135.081253051758 122.125 117.787498474121 120.287498474121 122.099998474121 122.643753051758 123.849998474121 126.818748474121 128.637496948242 129.03125 130.625 130.774993896484 133.793746948242 139.881256103516 144.881256103516 146.756256103516 139.106246948242 130.518753051758 123.956253051758 115.800003051758 108.074996948242 103.137496948242 100.800003051758 101.456253051758 102 102.537498474121 104.15625 103.662498474121 104.349998474121 106.506248474121 106.206253051758 
190.931243896484 194.387496948242 194.875 193.887496948242 193.412506103516 191.887496948242 186.5 186.8125 186.418746948242 187.918746948242 188.225006103516 188.712509155273 187.84375 184.618743896484 181.106246948242 175.981246948242 168.024993896484 161.293746948242 155.84375 143.375 131.425003051758 119.34375 114.581253051758 115.5 117.875 119.1875 121.0625 122.25 124.349998474121 125.918746948242 127.987503051758 128.837493896484 132.162506103516 135.949996948242 142.425003051758 147.418746948242 140.5625 132.050003051758 125.393753051758 118.668746948242 110.881248474121 107.387496948242 104.087501525879 103.862503051758 104.068748474121 103.118751525879 104.043746948242 104.006248474121 103.21875 106.150001525879 105.824996948242 
