ncols        51
nrows        45
xllcorner    -63.500000000000
yllcorner    -7.500000000000
cellsize     0.166666666667
NODATA_value -99
238.399993896484 238.800003051758 234.668746948242 234.537506103516 230.21875 222.106246948242 213.050003051758 200.975006103516 192.399993896484 187.149993896484 184.774993896484 184.762496948242 184.262496948242 182.849990844727 184.381256103516 186.90625 190.443756103516 192.212493896484 196.15625 199.96875 202.350006103516 205.431243896484 208.899993896484 219.362503051758 229.237503051758 242.412506103516 259.262512207031 279.25 298.5625 317.881256103516 338.425018310547 359.65625 377.762512207031 398.325012207031 418.024993896484 432.34375 442.84375 452.84375 461.368743896484 466.424987792969 471.200012207031 474.612487792969 473.362487792969 474.618743896484 471.549987792969 467.850006103516 462.443756103516 453.125 446.725006103516 442.03125 432.96875 
249.875 250.337493896484 252.6875 254.106246948242 254.287506103516 245.012496948242 234.28125 225.300003051758 217.3125 210.837493896484 207.050003051758 204.956253051758 203.306243896484 201.131256103516 200.462493896484 202.399993896484 203.78125 208.293746948242 214.043746948242 218.90625 221.831253051758 224.806243896484 230.056243896484 239.5625 251.0625 263.693756103516 279.950012207031 299.712493896484 317.256256103516 336.893737792969 359.662506103516 383.975006103516 402.8125 424.756256103516 443.15625 456.431243896484 469.450012207031 479.231262207031 485.368743896484 487.1875 488.837493896484 491.975006103516 490.350006103516 487.649993896484 482.412506103516 477.549987792969 473.681243896484 464.15625 458.243743896484 452.918762207031 446.231262207031 
258.018737792969 260.850006103516 262.212493896484 265.518737792969 267.075012207031 260.643737792969 253.287506103516 247.074996948242 242.75 236.524993896484 230.543746948242 226.350006103516 223.712493896484 219.137496948242 217.725006103516 218.243743896484 218.675003051758 222.181243896484 225.962493896484 230.612503051758 235.081253051758 239.949996948242 245.331253051758 257.056243896484 271.725006103516 286.712493896484 304.924987792969 321.65625 337.643737792969 359.418762207031 382.806243896484 406.899993896484 431.087493896484 454.368743896484 473.1875 486.412506103516 503.206237792969 516.918762207031 521.268737792969 523.099975585938 524.012512207031 522.037475585938 518.043762207031 514.106262207031 507.412506103516 500.993743896484 494.350006103516 485.181243896484 477.462493896484 471.375 462.856262207031 
261.556243896484 265.318756103516 270.268737792969 271.881256103516 273.475006103516 272.006256103516 269.1875 266.875 266.418762207031 263.268737792969 256.25 249.0625 242.650009155273 237.637496948242 234.925003051758 234.581253051758 234.681243896484 236.206253051758 238.050003051758 241.46875 247.899993896484 254.074996948242 259.837493896484 275.256256103516 292.71875 309 328.662506103516 343.993743896484 359.987487792969 384.668762207031 409.181243896484 434.368743896484 456.975006103516 481.700012207031 502.837493896484 521.337524414062 538.831237792969 554.181274414062 561.931274414062 561.131225585938 561.237487792969 558.756225585938 548.400024414062 539.224975585938 533.325012207031 521.8125 514.549987792969 505.049987792969 495.706237792969 491.056243896484 481.181243896484 
277.625 277.03125 274.462493896484 276 280.274993896484 281.293762207031 280.387512207031 282.424987792969 286.774993896484 288.412506103516 279.299987792969 267.024993896484 259.606262207031 254.256256103516 250.681243896484 249.274993896484 247.918746948242 248.131256103516 248.168746948242 249.987503051758 258.368743896484 265.443756103516 273.362487792969 292.96875 311.012512207031 329.806243896484 347.700012207031 366.924987792969 385.693756103516 408.768737792969 434.306243896484 456.274993896484 479.756256103516 506.962493896484 531.693725585938 551.700012207031 569.356262207031 587.268737792969 596.581237792969 596.724975585938 598.818725585938 587.775024414062 576.224975585938 567.5625 557.625 544.125 530.412475585938 521.15625 512.03125 506.28125 497.806243896484 
285.337493896484 285.987487792969 283.53125 278.8125 281.924987792969 284.5625 284.274993896484 286.881256103516 291.924987792969 296.537506103516 285.299987792969 273.981262207031 267.649993896484 262.950012207031 258.625 257.206237792969 253.912506103516 253.237503051758 254.418746948242 256.662506103516 265.318756103516 274.325012207031 286.5625 306.03125 326.53125 347.568756103516 365.143737792969 383.518737792969 401.743743896484 423.9375 448.337493896484 473.149993896484 492.424987792969 518.075012207031 545.275024414062 564.875 587.412475585938 607.206237792969 617.481262207031 623.262512207031 620.474975585938 609.387512207031 599.631225585938 592.0625 583.5625 566.556274414062 548.59375 535.756225585938 524.59375 513.849975585938 500.112487792969 
294.268737792969 294.318756103516 291.681243896484 285.71875 281.068756103516 279.674987792969 279.293762207031 280.662506103516 281.924987792969 281.681243896484 278.806243896484 274.768737792969 273.112487792969 269.049987792969 265.524993896484 264.618743896484 261.393737792969 257.706237792969 256.856262207031 260.131256103516 271.850006103516 284.543762207031 298.806243896484 317.424987792969 339.831237792969 362.75 381.518737792969 397.537506103516 414.856262207031 437.125 462.006256103516 484.84375 505.3125 525.993774414062 551.15625 572.049987792969 592.943725585938 615.84375 632.837524414062 639.618774414062 632.618774414062 624 616.59375 609.837524414062 603.924987792969 582.837524414062 563.599975585938 545.212524414062 529.1875 518.793762207031 504.299987792969 
303.856262207031 301.25 296.325012207031 291.818756103516 287.131256103516 282.924987792969 275.712493896484 268.399993896484 263.293762207031 263.162506103516 268.931243896484 273.40625 275.575012207031 274.881256103516 272.881256103516 270.581237792969 266.743743896484 262.46875 259.081237792969 262.618743896484 277.887512207031 294.056243896484 309.712493896484 329.831237792969 354.893737792969 376.149993896484 394.15625 410.424987792969 428 450.537506103516 471.106262207031 492.681243896484 511.918762207031 531.668762207031 553.549987792969 569.881225585938 591.856262207031 613.349975585938 627.84375 633.993774414062 633.481262207031 629.700012207031 623.081237792969 615.150024414062 605.637512207031 585.762512207031 561.681274414062 541.65625 528.568725585938 515.368774414062 500.162506103516 
310.46875 307.806243896484 302.274993896484 296.006256103516 290.825012207031 284.543762207031 277.612487792969 268.393737792969 257.787506103516 253.34375 262.581237792969 270.662506103516 279.037506103516 279.893737792969 276.462493896484 273.712493896484 270.256256103516 267.431243896484 266.21875 268.487487792969 280.462493896484 300.193756103516 317.274993896484 340.950012207031 365.84375 385.40625 401.737487792969 418.337493896484 435.118743896484 455.068756103516 475.475006103516 491.043762207031 505.768737792969 519.53125 539.099975585938 555.868774414062 577.356262207031 594.599975585938 609.674987792969 616.856262207031 619.806274414062 615.693725585938 613.825012207031 610.631225585938 594.537475585938 574.368774414062 555.724975585938 533.825012207031 515.28125 502.225006103516 491.387512207031 
316.418762207031 311.587493896484 306.618743896484 300.643737792969 294.256256103516 288.381256103516 282.274993896484 273.5625 267.9375 267.21875 272.706237792969 277.375 283.600006103516 284.75 281.793762207031 276.881256103516 272.762512207031 271.662506103516 271.356262207031 276.512512207031 289.912506103516 307.481231689453 325.237487792969 351.274993896484 372.950012207031 390.512512207031 405.743743896484 421.306243896484 438.887512207031 459.46875 472.893737792969 483.118743896484 494.162506103516 505.868743896484 521.381225585938 539.012512207031 555.099975585938 571.556274414062 586.231262207031 598.918762207031 607.775024414062 606.53125 604.150024414062 595 583.362487792969 572.118774414062 551.400024414062 526.068725585938 504.21875 489.475006103516 473.862487792969 
322.375 317.96875 312.09375 305.537506103516 297.487487792969 292.287506103516 287.206237792969 280.225006103516 278.481262207031 279.737487792969 284.774993896484 290.475006103516 291.112487792969 291.225006103516 285.3125 278.568756103516 274.09375 274.618743896484 276.668762207031 282.075012207031 300.856262207031 318.868743896484 334.831237792969 351.112487792969 376.75 394.943756103516 406.681243896484 420.393737792969 434.887512207031 452.40625 462.875 469.981262207031 479.46875 488.931243896484 501.693756103516 513.387512207031 527.599975585938 543.706237792969 560.84375 576.043762207031 586.299987792969 586.775024414062 590.387512207031 587.368774414062 573.974975585938 561.375 541.099975585938 510.59375 491.293762207031 478.193756103516 456.899993896484 
325.143737792969 319.768737792969 313.612487792969 310.212493896484 303.78125 297.318756103516 294.225006103516 290.5625 291.174987792969 293.481262207031 298.424987792969 303.381256103516 298.8125 294.743743896484 287.831237792969 281.212493896484 275.96875 276.975006103516 280.1875 286.943756103516 305.987487792969 324.875 342.243743896484 361.59375 378.049987792969 389.4375 399.337493896484 409.918762207031 423.143737792969 434.899993896484 443.575012207031 450.193756103516 456.53125 465.0625 475.850006103516 487.837493896484 502.856262207031 519.0625 532.612487792969 544.931274414062 558.150024414062 562.368774414062 565.549987792969 558.174987792969 545.181274414062 524.556213378906 497.762512207031 480.056243896484 468.431243896484 460.875 437.831237792969 
328.600006103516 322.674987792969 316.962493896484 312.512512207031 307.837493896484 305.318756103516 301.299987792969 297.606262207031 298.375 303.231262207031 307.950012207031 311.256256103516 305.9375 293.868743896484 286.306243896484 281.506256103516 275.381256103516 276.712493896484 281.518737792969 287.387512207031 307.012512207031 324.831237792969 339.418762207031 357.037506103516 364.293762207031 372.3125 385.0625 394.631256103516 408.174987792969 416.581237792969 423.024993896484 427.325012207031 431.993743896484 439.256256103516 447.15625 461.037506103516 475.887512207031 491.381256103516 507.625 521.287475585938 527.349975585938 536.118774414062 536.206237792969 531.474975585938 525.46875 512.012512207031 488.943756103516 461.362487792969 445.537506103516 443.825012207031 433.612487792969 
330.756256103516 324.537506103516 317.862487792969 313.087493896484 310.587493896484 308.262512207031 304.512512207031 302.03125 304.5 308.231262207031 310.006256103516 307.90625 302.612487792969 292.9375 282.518737792969 278.600006103516 272.625 272.543762207031 277.912506103516 282.681243896484 301.118743896484 317.143737792969 332.537506103516 343.712493896484 352.418762207031 361.118743896484 370.975006103516 380.518737792969 391.112487792969 398.350006103516 402.675018310547 406.512512207031 407.243743896484 413.049987792969 421.59375 436.112487792969 450.450012207031 467.9375 487.537506103516 499.606262207031 500.768737792969 500.737487792969 511.037506103516 521.90625 521.887512207031 504.28125 484.943756103516 465.850006103516 447.381256103516 446.75 442.268737792969 
330.618743896484 324.787506103516 319.024993896484 314.881256103516 313.143737792969 310.84375 308.568756103516 306.237487792969 306.75 308.168762207031 308.706237792969 305.581237792969 298.725006103516 289.450012207031 278.181243896484 271.15625 266.59375 269.65625 274.106262207031 279.018737792969 295.274993896484 312.912506103516 326.03125 335.506256103516 343.362487792969 352.693756103516 360.568756103516 369.881256103516 379.737487792969 384.162506103516 384.53125 383.131256103516 387.243743896484 390.393737792969 396.387512207031 409.268737792969 430.637512207031 453.65625 472.431243896484 480.337493896484 482.706237792969 490.012512207031 507.956237792969 514.174987792969 509.375 498.512512207031 486.725006103516 470.456237792969 458.981262207031 447.556243896484 437.068756103516 
328.362487792969 322.5 319.075012207031 316.600006103516 314.424987792969 312.46875 310.212493896484 308.424987792969 310.21875 309.987487792969 308.875 304.318756103516 297.21875 286.549987792969 273.662506103516 261.143737792969 260.174987792969 266.6875 269.9375 275.243743896484 291.443756103516 307.131256103516 319.268737792969 328.006256103516 334.493743896484 343.987487792969 349.774993896484 359.1875 368.043762207031 372.450012207031 374.806243896484 372.03125 367.493743896484 367.556243896484 369.46875 390.75 412.1875 436.212493896484 456.362487792969 471.556243896484 478.575012207031 489.756256103516 501.012512207031 504.087493896484 496.268737792969 485.03125 473.71875 460.393737792969 448.96875 437.518737792969 423.262512207031 
324.537506103516 320.368743896484 318.625 317.231262207031 315.024993896484 313.362487792969 313.206237792969 311.643737792969 311.325012207031 311.09375 308.6875 303.600006103516 295.200012207031 284.681243896484 273.837493896484 264.137512207031 256.793762207031 260.924987792969 266.356262207031 272.674987792969 288.53125 305.056243896484 316.850006103516 320.875 326.399993896484 333.493743896484 339.9375 348.356262207031 358.106262207031 363.537506103516 364.631256103516 361.912506103516 358.1875 357.024993896484 366.043762207031 381.806243896484 404.299987792969 430.012512207031 457.356262207031 470.387512207031 479.725006103516 488.456237792969 491.543762207031 493.34375 483.28125 472.950012207031 463.556243896484 453.693756103516 444.274993896484 427.456237792969 412.475006103516 
318.987487792969 317.587493896484 316.131256103516 317.25 315.637512207031 315.262512207031 316.09375 313.4375 312.512512207031 310.53125 306.674987792969 301.125 292.850006103516 284.287506103516 274.65625 266.587493896484 258.90625 254.40625 262.174987792969 268.700012207031 286.149993896484 301.381256103516 312.806243896484 316.09375 321.600006103516 328.174987792969 330.987487792969 342.012512207031 352.75 356.543762207031 352.318756103516 340.600006103516 345.075012207031 350.262512207031 357.168762207031 377.887512207031 400.543762207031 424.793762207031 448.668762207031 469.418762207031 475.293762207031 480.618743896484 482.737487792969 482.200012207031 473.46875 463.375 454.837493896484 445.299987792969 435.524993896484 416.412506103516 406.725006103516 
312.100006103516 312.950012207031 314.106262207031 314.587493896484 314.262512207031 315.612487792969 315.943756103516 315.931243896484 315.174987792969 312.318756103516 306.381256103516 297.4375 290.024993896484 283.981262207031 272.568756103516 264.831237792969 258.362487792969 254.6875 255.125 261.21875 283.15625 300.799987792969 303.225006103516 310.462493896484 318.375 327.643737792969 334.056243896484 342.21875 353.075012207031 354.575012207031 349.931243896484 339.875 338.5 334.168762207031 339.706237792969 361.212493896484 385.831237792969 409.518737792969 436.962493896484 455.181243896484 468.924987792969 473.768737792969 473.149993896484 471.481262207031 463.774993896484 453.168762207031 446.206237792969 436.868743896484 428.012512207031 402.912506103516 402.331237792969 
304.706237792969 308.018737792969 309.350006103516 309 311.512512207031 316.1875 319.037506103516 317.549987792969 316.568756103516 313.412506103516 306.037506103516 298.712493896484 291.143737792969 283.78125 271.331237792969 258.756256103516 250.09375 251.981246948242 251.487503051758 256.318756103516 272.850006103516 287.34375 300.487487792969 308.09375 315.962493896484 324.331237792969 332.743743896484 344.299987792969 351.59375 348.993743896484 340.5625 337.862487792969 331.262512207031 320.575012207031 318.168762207031 339.274993896484 371.256256103516 401.78125 427.174987792969 447.443756103516 459.856231689453 464.012512207031 463.487487792969 461.09375 450.162506103516 439.956237792969 435.987487792969 426.493743896484 417.100006103516 394.893737792969 397.206237792969 
295.5 302.8125 306.568756103516 308.868743896484 309.424987792969 315.981262207031 321.625 321.9375 320.087493896484 314.131256103516 305.356262207031 294.575012207031 284.262512207031 275.787506103516 263.681243896484 253.518753051758 245.899993896484 244.21875 245.362503051758 247.606246948242 264.181243896484 280.649993896484 294.299987792969 305.09375 319.149993896484 332.200012207031 340.137512207031 346.837493896484 350.456237792969 350.662506103516 345.049987792969 340.143737792969 329.231262207031 315.487487792969 305.075012207031 330.637512207031 367.768737792969 400.024993896484 424.431243896484 441.118743896484 450.743743896484 455.899993896484 452.5 451.0625 441.25 434.149993896484 428.725006103516 420.643737792969 404.131256103516 392.787506103516 390.387512207031 
288.8125 293.59375 298.693756103516 306.549987792969 310.950012207031 315.950012207031 322.243743896484 325.756256103516 324.362487792969 315.5 301.762512207031 285.112518310547 272.03125 263.431243896484 257 249.300003051758 245.21875 242.443756103516 242.387496948242 243.137496948242 252.875 266.399993896484 281.549987792969 293.862487792969 309.125 328.681243896484 351.668762207031 358.200012207031 360.65625 359.75 352.575012207031 344.481262207031 336.981262207031 331.024993896484 331.712493896484 348.606262207031 378.46875 406.993743896484 426.387512207031 439.537506103516 448.581237792969 450.899993896484 447.087493896484 443.674987792969 433.037506103516 425.831268310547 422.106262207031 414.418762207031 399.03125 397.125 387.049987792969 
283.431243896484 294.587493896484 301.293762207031 308.5 313.356262207031 318.706237792969 322.46875 328.424987792969 333.09375 318.231262207031 297.5625 276.068756103516 260.306243896484 253.4375 250.637496948242 247.550003051758 243.193756103516 239.125 236.625 234.956253051758 243.231246948242 253.625 263.78125 276.987487792969 296.381256103516 319.581237792969 345.112487792969 356.637512207031 361.899993896484 360.049987792969 356.15625 351.768737792969 353.225006103516 354.818756103516 361.606262207031 373.893737792969 395.424987792969 418.381256103516 432.987487792969 440.200012207031 445.631256103516 444.043762207031 439.681243896484 435.100006103516 425.09375 417.15625 412.837493896484 405.325012207031 397.256256103516 398.993743896484 388.53125 
280.756256103516 293.149993896484 302.231262207031 307.274993896484 311.387512207031 316.693756103516 323.15625 327.068756103516 328.806243896484 312.850006103516 291.506256103516 272.381256103516 252.100006103516 248.606246948242 247.550003051758 244.40625 239.4375 236.306243896484 231.712493896484 229.25 234.181243896484 239.675003051758 246.84375 261.143768310547 279.356262207031 297.174987792969 318.71875 339.081237792969 352.081237792969 358.84375 362.131256103516 366.587493896484 373.131256103516 377.28125 385.887512207031 397.731262207031 415.774993896484 430.568756103516 438.381256103516 440.618743896484 443.462493896484 439.237487792969 433.8125 427.375 419.424987792969 411.806243896484 404.075012207031 391.512512207031 398.600006103516 398.462493896484 391.299987792969 
281.737487792969 295.125 302.668762207031 308.706237792969 313.856262207031 317.293762207031 320.612487792969 322.200012207031 318.049987792969 307.725006103516 289.96875 271.706237792969 259.462493896484 250.912506103516 246.606246948242 242.5 239.118743896484 234.712493896484 229.175003051758 223.668746948242 225.068756103516 227.300003051758 231.9375 243.168746948242 258.543762207031 280.318756103516 303.649993896484 325.256256103516 344.693756103516 361.28125 372.78125 384.149993896484 394.399993896484 399.59375 405.34375 412.356262207031 425.556243896484 433.637512207031 438.975006103516 441.931243896484 442.368743896484 435.962493896484 431.237487792969 422.5 405.825012207031 397.100006103516 387.350006103516 392.462493896484 395.40625 398.875 393.018737792969 
291.59375 303.6875 305.081237792969 309.456237792969 311.887512207031 314.274993896484 316.018737792969 315.25 307.587493896484 297.012512207031 285.637512207031 274.506256103516 264.225006103516 256.96875 249.706253051758 245.868743896484 241.0625 235.243743896484 227.375 218.837493896484 219.087493896484 217.362503051758 217.3125 223.081253051758 240.943756103516 265.112487792969 293.368743896484 316.868743896484 342.043762207031 361.174987792969 381.443756103516 400.924987792969 414.731262207031 416.375 416.481262207031 421.53125 430.231262207031 436.381256103516 439.043762207031 440.993743896484 441.662506103516 433.143737792969 425.262512207031 413.981231689453 399.743743896484 384.831237792969 395.799987792969 399.487518310547 397.950012207031 401.299987792969 392.543762207031 
298.024993896484 305.631256103516 308.21875 310.168762207031 309.818756103516 311.981262207031 311.0625 307.181243896484 299.931243896484 294.850006103516 287.825012207031 278.075012207031 269.756256103516 263.225006103516 256.274993896484 250.993743896484 245.149993896484 237.212493896484 229.574996948242 221.34375 216.912506103516 211.981246948242 207.318756103516 211.462493896484 231.356246948242 253.862503051758 282.743743896484 308.012512207031 335.387512207031 357.481262207031 382.518737792969 407.181243896484 425.825012207031 425.049987792969 422.837493896484 425.424987792969 431.731262207031 436.506256103516 436.931243896484 438.424987792969 436.6875 430.056243896484 421.543762207031 412.787506103516 407.274993896484 407.731262207031 414.5 411.399993896484 406.956237792969 397.412506103516 386.212493896484 
306.225006103516 310.3125 310.887481689453 310.731262207031 310.537506103516 309.46875 308.125 301.962493896484 297.268737792969 293.418731689453 285.825012207031 279.681243896484 273.131256103516 268.631256103516 262.262512207031 255.199996948242 249.618759155273 243.643753051758 234.03125 226.118743896484 220.587493896484 213.09375 211.09375 215.600006103516 230.368743896484 250.59375 275.34375 300.950012207031 327.075012207031 350.293762207031 373.143737792969 395.631256103516 412.53125 417.162506103516 420.59375 423.118743896484 430.350006103516 435.662506103516 436.581237792969 437.068756103516 436.262512207031 430.28125 422.631256103516 417.568756103516 424.412506103516 429.53125 433.543762207031 423.9375 412.174987792969 394.206237792969 382.731262207031 
311.418762207031 314.168762207031 312.262512207031 311.375 309.200012207031 304.768737792969 301.375 298.637512207031 296.799987792969 291.96875 287.28125 282.3125 276.443756103516 272.912506103516 268.799987792969 264.606262207031 259.493743896484 250.262496948242 242.068756103516 232.893753051758 226.393753051758 218.018753051758 215.181243896484 221.34375 232.78125 249.931243896484 272.618743896484 295.868743896484 319.881256103516 341.0625 359.1875 377.818756103516 391.09375 402 410.112487792969 416.493743896484 425.856262207031 433.256256103516 435.806243896484 434.6875 430.381256103516 425.387512207031 421.337493896484 429.768737792969 439.262512207031 440.725006103516 443.793762207031 431.056243896484 412.931243896484 395.837493896484 376.462493896484 
313.625 315.0625 312.40625 307.268737792969 305.106262207031 301.993743896484 299.100006103516 297.262512207031 294.700012207031 290.512512207031 287.8125 284 282.174987792969 279.84375 276.068756103516 271.556243896484 266.737487792969 260.96875 251.787506103516 240.693756103516 231.493743896484 224.912506103516 222.412506103516 226.481246948242 234.78125 248.71875 269.450012207031 288.981262207031 310.350006103516 328.387512207031 344.443756103516 358.568756103516 371.956237792969 385.5625 397.168762207031 405.806243896484 417.725006103516 427.112487792969 428.59375 432.043762207031 433.418762207031 431.487487792969 428.112487792969 436.8125 438.712493896484 443.78125 441.356262207031 429.6875 412.306243896484 394.181243896484 370.806243896484 
312.575012207031 312.418762207031 308.887512207031 304.762512207031 303.131256103516 299.325012207031 297.337493896484 293.899993896484 291.600006103516 289.737487792969 288.331237792969 286.581237792969 287.568756103516 284.568756103516 282.293762207031 278.90625 276.299987792969 270.9375 263.018768310547 252.581253051758 241.881256103516 232.668746948242 227.662506103516 228.731246948242 233.774993896484 248.318756103516 264.149993896484 282.46875 300.731262207031 314.881256103516 329.481262207031 342.450012207031 357.25 371.181243896484 382.806243896484 393.912506103516 403.762512207031 414.737487792969 422.1875 427.762512207031 431.606262207031 430.137512207031 430.368743896484 433.493743896484 436.875 438.862487792969 435.850006103516 424.318756103516 408.387512207031 387.9375 365.325012207031 
308.431243896484 307.524993896484 304.337493896484 302.868743896484 300.71875 295.087493896484 292.962493896484 289.131256103516 287.237487792969 285.737487792969 286.225006103516 288.84375 289.143737792969 288.731262207031 286.96875 285.081237792969 280.649993896484 276.231262207031 268.381256103516 261.475006103516 250.581253051758 240.162506103516 232.193756103516 232.356246948242 238.362503051758 247.668746948242 260.056243896484 276.46875 290.856262207031 304.200012207031 318.056243896484 330.137512207031 342.024993896484 355.556243896484 368.006256103516 379.212493896484 391.231262207031 400.337493896484 408.131256103516 414.637512207031 425.299987792969 426.981262207031 427.231262207031 430.481262207031 434.450012207031 439.418762207031 437.481262207031 423.668762207031 404.706237792969 383.768737792969 359.668762207031 
301.037506103516 298.25 296.081237792969 294.075012207031 293.412506103516 288.21875 283.731262207031 281.4375 279.512512207031 280.462493896484 285.65625 287.825012207031 291.643737792969 294.131256103516 292.475006103516 289.756256103516 286.931243896484 283.131256103516 274.618743896484 266.762512207031 258.231262207031 248.268753051758 239.637496948242 239.175003051758 243.868743896484 248.287506103516 259.231262207031 271.043762207031 283.075012207031 295.65625 306.293762207031 315.606262207031 326.049987792969 338.993743896484 351.168762207031 363.512512207031 374.512512207031 384.399993896484 388.918762207031 401.887512207031 409.831237792969 411.487487792969 414.306243896484 419.6875 424.787506103516 433 431.018737792969 412.59375 393.5625 372.737487792969 349.381256103516 
291.543762207031 289.962493896484 288.612487792969 286.475006103516 284.612487792969 281.587493896484 277.737518310547 273.6875 272.018737792969 273.712493896484 278.174987792969 285.600006103516 292.618743896484 294.712493896484 294.737487792969 291.881256103516 290.149993896484 286.456237792969 279.3125 271.84375 263.737487792969 254.893753051758 247.006256103516 243.287506103516 246.793746948242 249.024993896484 256.012512207031 264.931243896484 274.90625 284.006256103516 292.9375 302.443756103516 311.956237792969 323.325012207031 334.943756103516 345.71875 356.731262207031 362.637512207031 372.337493896484 382.618743896484 388.231262207031 392.40625 397.268737792969 404 410.899993896484 416.762512207031 413.237487792969 395.443756103516 378.243743896484 359.856262207031 339.28125 
280.381256103516 280.8125 281.056243896484 277.8125 275.399993896484 271.793762207031 267.6875 264.837493896484 261.875 262.287506103516 270.337493896484 282.306243896484 293.862487792969 301.056243896484 300.118743896484 297.506256103516 293.78125 287.725006103516 283.212493896484 274.537506103516 268.662506103516 259.112487792969 251.824996948242 245.881256103516 246.550003051758 249.043746948242 254.168746948242 259.368743896484 267.143737792969 275.837493896484 282.493743896484 290.818756103516 297.962493896484 308.649993896484 317.931243896484 326.59375 334.112518310547 347.256256103516 355.256256103516 361.975006103516 366.024993896484 370.90625 376.987487792969 383.018737792969 386.518737792969 388.03125 384.774993896484 373.356262207031 360.950012207031 344.725006103516 324.837493896484 
271.243743896484 272.993743896484 272.399993896484 269.53125 266.268737792969 261.543762207031 258.006256103516 253.949996948242 248.793746948242 247.975006103516 255.181243896484 271.068756103516 288.424987792969 298.081237792969 298.71875 297.118743896484 294.618743896484 289.681243896484 285.225006103516 279.837493896484 272.643737792969 264.768737792969 254.524993896484 249.693756103516 248.081253051758 249.300003051758 253.662506103516 258.325012207031 264.100006103516 269.787506103516 274.987487792969 280.181243896484 285.756256103516 295.262512207031 301.443756103516 305.524993896484 316.887512207031 328.049987792969 333.193756103516 339.337493896484 345.09375 348.543762207031 352.256256103516 357.6875 358.287506103516 357.731262207031 355.568756103516 349.318756103516 337.818756103516 326.1875 310.893737792969 
262.993743896484 265.674987792969 264.149993896484 261.825012207031 258.15625 253.837493896484 250.612503051758 244.181243896484 236.056243896484 231.600006103516 241.806243896484 264.962493896484 281.068756103516 289.506256103516 293.868743896484 294.362487792969 291.106262207031 287.806243896484 284.84375 278.306243896484 272.418762207031 264.625 255.243743896484 251.037506103516 248.262496948242 248.643753051758 252.862503051758 257.03125 260.731262207031 263.9375 268.418762207031 272.824981689453 276.90625 282.068756103516 285.831237792969 290.987487792969 300.262512207031 310.331237792969 316.46875 318.53125 323.09375 325.112487792969 329.237487792969 332.649993896484 333.75 330.887512207031 331.075012207031 325.625 317.600006103516 308.512512207031 298.943756103516 
257.962493896484 258.418762207031 255.887496948242 254.3125 250.893753051758 247.681243896484 243.71875 236.868743896484 230.568756103516 224.550003051758 241.149993896484 263.981262207031 276.681243896484 284.362487792969 288.481262207031 290.162506103516 286.956237792969 285.193756103516 280 273.1875 267.875 260.350006103516 254.106246948242 250.050003051758 246.993743896484 248.350006103516 249.481246948242 254.25 257.793762207031 260.399993896484 261.431243896484 264.643737792969 268.96875 271.556243896484 271.606262207031 279.006256103516 286.243743896484 292.268737792969 299.193756103516 301.350006103516 302.568756103516 304.556243896484 305.087493896484 306 307.78125 307.206237792969 305.65625 306.668762207031 300.375 293.112487792969 286.056243896484 
253.125 250.868743896484 248.75 247.881256103516 246.237503051758 242.012496948242 239.03125 235.425003051758 235.550003051758 242.337493896484 259.393737792969 269.65625 274 280.0625 283.8125 283.818756103516 281.850006103516 279.3125 272.231262207031 267.424987792969 261.78125 254.65625 249.381256103516 247.431243896484 245.693756103516 244.787506103516 246.524993896484 250.425003051758 253.350006103516 257.162506103516 259.131256103516 259.387512207031 262.649993896484 266.106262207031 270.768737792969 274.056243896484 277.649993896484 283.3125 286.34375 285.731262207031 287.112487792969 289.34375 288.59375 290.518737792969 291.712493896484 293.075012207031 291.956237792969 292 289.03125 286.162506103516 279.743743896484 
247.637496948242 245.774993896484 244.199996948242 243.762496948242 242.550003051758 240.262496948242 236.568756103516 237.65625 241.206253051758 248.212493896484 258.274993896484 267.393737792969 271.375 275.931243896484 278.768768310547 278.356262207031 276.674987792969 273.912506103516 266.424987792969 260.293762207031 254.018753051758 249.918746948242 242.90625 240.862503051758 242.106246948242 242.199996948242 244.112503051758 247.6875 250.493743896484 253.78125 253.949996948242 258.768737792969 263.881256103516 266.681243896484 270.5625 272.118743896484 273.293762207031 276.543762207031 276.793762207031 273.25 272.668762207031 274.306243896484 272.34375 273.412506103516 276.287506103516 278.5625 280.9375 282.625 282.6875 282.137512207031 277.068756103516 
241.543746948242 241.293746948242 240.28125 239.800003051758 237.931243896484 235.831253051758 234.987503051758 239.506256103516 242.899993896484 246.881256103516 254.818756103516 261.96875 267.774993896484 270.193756103516 272.9375 272.943756103516 271.087493896484 268.075012207031 260.8125 253.59375 246.237503051758 242.693756103516 236.774993896484 234.493743896484 238.287506103516 239.59375 240.975006103516 244.668746948242 248.25 250.28125 253.231246948242 261.662506103516 264.46875 268.299987792969 272.018737792969 274.024993896484 274.3125 273.700012207031 272.256256103516 264.443756103516 261.625 260.274993896484 258.524993896484 259.024993896484 264.174987792969 268.8125 270.756256103516 273.59375 277.575012207031 277.087493896484 274.368743896484 
236.012496948242 236.137496948242 236.106246948242 234.699996948242 232.756256103516 232.131256103516 232.756256103516 234.956253051758 239.65625 242.574996948242 249.712493896484 255.28125 261.206237792969 264.256256103516 266.725006103516 267.556243896484 266.5625 263.306243896484 257.143737792969 248.449996948242 239.206253051758 232.412506103516 227.4375 227.368743896484 231.181243896484 234.168746948242 236.09375 241.725006103516 247.443740844727 252.756256103516 252.131256103516 261.537506103516 266.618743896484 272.856262207031 276.956237792969 275.149993896484 275.71875 274.475006103516 269.537506103516 260.943756103516 255.824996948242 250.375 247.556243896484 251.662490844727 258.337493896484 263.662506103516 266.46875 268.975006103516 273.174987792969 273.15625 272.59375 
230.425003051758 229.981246948242 230.456253051758 227.46875 226.837493896484 227.5 228.606246948242 230.962493896484 233.875 236.537506103516 242.03125 247.475006103516 253.481246948242 255.787506103516 259.862487792969 261.681243896484 262.818756103516 261.899993896484 255.231246948242 244.662506103516 230.987503051758 220.337509155273 217.543746948242 221.793746948242 226.706253051758 230.693756103516 233.931243896484 237.943756103516 244.381256103516 249.350006103516 253.362503051758 258.700012207031 266.100006103516 273.712493896484 279.737487792969 282.631256103516 278.118743896484 276.1875 267.981262207031 259.768737792969 255.225006103516 249.449996948242 245.100006103516 248.524993896484 255.237503051758 258.424987792969 259.743743896484 265.887512207031 272.03125 270.8125 270.84375 
225.618743896484 225.056243896484 225.362503051758 221.712493896484 222.800003051758 222.212493896484 222.618743896484 224.837493896484 227.90625 230.831253051758 235.774993896484 241.131256103516 245.699996948242 249.493743896484 253.462509155273 256.90625 258.6875 257.53125 255.306243896484 244.925003051758 229.231246948242 215.806243896484 214.1875 218.637496948242 223.962493896484 228.03125 231.0625 234.731246948242 240.100006103516 246.75 249.931243896484 255.806243896484 262.350006103516 270.887512207031 283.53125 291.575012207031 284.506256103516 276.768737792969 268.737487792969 261.231262207031 255.050003051758 249.074996948242 247.4375 248.668746948242 253.643753051758 255.78125 259.362487792969 263.53125 265.443756103516 268.212493896484 269.225006103516 
219.925003051758 219.5 219.5 216.637496948242 217.393753051758 217.100006103516 215.46875 218.337493896484 221.350006103516 224.737503051758 228.118743896484 233.362503051758 238.59375 243.5 246.268753051758 249.34375 251.46875 251.34375 250.493743896484 243.862503051758 231.050003051758 220.28125 216.668746948242 219 223.3125 227.0625 230.25 233.5625 239.649993896484 244.800003051758 250.675003051758 254.15625 259.40625 266.412506103516 278.543762207031 289.225006103516 283.712493896484 274.850006103516 269.024993896484 262.09375 256.731262207031 253.175003051758 249.71875 249.162506103516 253.356246948242 255.399993896484 257 261.212493896484 261.462493896484 264.456237792969 267.137512207031 
