ncols        51
nrows        45
xllcorner    -63.500000000000
yllcorner    -7.500000000000
cellsize     0.166666666667
NODATA_value -99
167.300003051758 165.912506103516 160.381256103516 157.306243896484 152.125 149.274993896484 144.899993896484 138.331253051758 131.800003051758 127.756248474121 126.887496948242 125.393753051758 123.306251525879 117.324996948242 113.587501525879 110.243751525879 107.800003051758 103.831253051758 102.837501525879 102.387496948242 102.693748474121 103.118751525879 104.868751525879 107.550003051758 110.981246948242 115.243751525879 121.75 129.043746948242 136.649993896484 141.143753051758 145.90625 151.09375 154.962493896484 159.199996948242 164.09375 168.199996948242 170.731246948242 172.737503051758 175.056243896484 175.84375 177.637496948242 179.21875 179.399993896484 182.112503051758 183.087493896484 185.193756103516 187.193756103516 189.331253051758 191.262496948242 195.8125 199.21875 
175.118743896484 174.331253051758 171.768753051758 168.306243896484 165.53125 165.037506103516 161.931243896484 159.331253051758 155.96875 152.018753051758 148.831253051758 144.375 139.487503051758 133.337493896484 127.918746948242 122.681251525879 118.581253051758 115.612503051758 114.612503051758 113.949996948242 114.012496948242 114.993751525879 116.84375 119.21875 121.762496948242 125.762496948242 131.512496948242 138.600006103516 145.300003051758 148.875 151.649993896484 156.431243896484 160.337493896484 165.118743896484 169.300003051758 173.056243896484 175.681243896484 177.293746948242 179.149993896484 179.6875 180.887496948242 181.8125 181.306243896484 182.9375 183.581253051758 185.84375 187.84375 188.818756103516 191.818756103516 196.40625 199.149993896484 
180.731246948242 180.318756103516 178.012496948242 175.681243896484 174.524993896484 175.274993896484 176.3125 178.206253051758 178.268753051758 175.1875 170.356246948242 163.987503051758 156.987503051758 149.037506103516 141.75 135 129.225006103516 126.150001525879 124.287498474121 123.150001525879 122.956253051758 124.462501525879 125.4375 127.193748474121 130.231246948242 132.893753051758 138.356246948242 145.324996948242 150.831253051758 153.34375 156.53125 160.368743896484 164.649993896484 168.324996948242 173.106246948242 175.912506103516 178.975006103516 181.737503051758 182.631256103516 182.975006103516 183.556243896484 183.350006103516 182.300003051758 181.581253051758 182.625 184.662506103516 186.818756103516 187.274993896484 189.768753051758 193.850006103516 197.53125 
183.800003051758 183.831253051758 183.381256103516 182.206253051758 184.362503051758 186.100006103516 190.518753051758 196.637496948242 200.587493896484 200.125 194.125 184.375 173.756256103516 163.612503051758 155.21875 147.268753051758 140.418746948242 135.375 133.118743896484 132.90625 133.006256103516 133.412506103516 133.25 134.574996948242 136.506256103516 138.631256103516 144.40625 150.637496948242 155.606246948242 158.231246948242 160.34375 164.725006103516 168.018753051758 171.899993896484 175.662506103516 179.418746948242 182.65625 185.231246948242 186.78125 187.131256103516 186.143753051758 185.006256103516 183.125 180.949996948242 181.356246948242 181.837493896484 184.037506103516 184.731246948242 185.78125 189.725006103516 195.118743896484 
190.78125 188.518753051758 186.262496948242 186.831253051758 190.59375 195.456253051758 201.5625 212.03125 222.03125 226.21875 215.643753051758 201.175003051758 189.518753051758 178.53125 168.181243896484 159.243743896484 151.681243896484 144.912506103516 142.668746948242 142.493743896484 142.581253051758 141.412490844727 140.84375 141.681243896484 142.550003051758 144.25 148.318756103516 153.612503051758 159.949996948242 162.662506103516 164.856246948242 167.631256103516 171.612503051758 175.475006103516 178.899993896484 182.743743896484 186.824996948242 189.956253051758 191.387496948242 190.587493896484 189.556243896484 186.600006103516 183.012496948242 179.956253051758 178.612503051758 179.600006103516 181.237503051758 182.399993896484 182.925003051758 186.112503051758 192.481246948242 
194.606246948242 193.375 190.09375 189.237503051758 192.4375 199.024993896484 207.024993896484 217.756256103516 229.787506103516 237.824996948242 224.743743896484 209.850006103516 198.78125 188.831253051758 179.231246948242 171.493759155273 163.231246948242 156.212493896484 153.96875 153.431243896484 151.706253051758 149.743743896484 148.162506103516 147.6875 147.193756103516 148.518753051758 152.712493896484 157.4375 162.818756103516 165.481246948242 167.887496948242 170.693756103516 173.568756103516 178.512496948242 182.34375 186.03125 190.243743896484 193.481246948242 195.543746948242 194.631256103516 191.793746948242 187.837493896484 183.587493896484 179.637496948242 175.962493896484 176.5 179.118743896484 181.087493896484 181.112503051758 182.53125 185.618743896484 
198.618743896484 197.100006103516 194.418746948242 191.975006103516 193.9375 199.0625 206.15625 213.568756103516 221.774993896484 224.274993896484 219.800003051758 211.649993896484 203.662506103516 196.21875 189.149993896484 182.837493896484 177.137496948242 172.074996948242 168.75 165.087493896484 160.387496948242 157.125 153.5 151.881256103516 152.056243896484 152.143753051758 156.125 161.199996948242 165.024993896484 167.243743896484 170.600006103516 173.643753051758 176.893753051758 179.600006103516 183.074996948242 187.9375 191.899993896484 195.668746948242 198.887496948242 197.71875 193.09375 188.699996948242 184.262496948242 179.550003051758 174.637496948242 174.137496948242 176.518753051758 178.643753051758 177.356246948242 177.668746948242 181.537506103516 
201.831253051758 198.756256103516 195.875 195.168746948242 196.481246948242 199.162506103516 202.3125 204.881256103516 206.912506103516 208.868743896484 211.331253051758 210.662506103516 207.481246948242 202.143753051758 197.15625 193.087493896484 189.206253051758 186 183.050003051758 175.612503051758 167.9375 162.643753051758 157.862503051758 155.956253051758 155.543746948242 155.087493896484 158.831253051758 163.143753051758 167.46875 169.662490844727 171.993743896484 175.643753051758 178.53125 181.356246948242 184.131256103516 188.0625 191.987503051758 195.412506103516 197.699996948242 197.043746948242 193.625 189.743743896484 185.3125 179.806243896484 175.649993896484 174.643753051758 174.431243896484 173.587509155273 174.706253051758 173.331253051758 175.53125 
205.449996948242 202.175003051758 199.100006103516 198.324996948242 198.487503051758 198.850006103516 200.518753051758 200.543746948242 199.018753051758 200.5 205.931243896484 209.71875 209.725006103516 206.875 202.274993896484 199.118743896484 195.393753051758 191.337493896484 188.206253051758 179.731246948242 170.543746948242 164.587493896484 159.787506103516 159.362503051758 158.868743896484 158.181243896484 161.193756103516 165.237503051758 169.756256103516 171.675003051758 174.268753051758 177.787506103516 180.087509155273 182.043746948242 184.300003051758 188.393753051758 192.237503051758 195.524993896484 198.300003051758 198.368743896484 195.768753051758 192.737503051758 189.431243896484 185.037506103516 182.125 179.962493896484 178.125 175.918746948242 173.287506103516 170.125 170.28125 
208.631256103516 205.137496948242 202.4375 200.712493896484 199.756256103516 199.28125 200.6875 200.5625 201.5625 203.706253051758 208.618743896484 211.231246948242 213.243743896484 211.068756103516 207.074996948242 202.475006103516 197.6875 192.362503051758 185.893753051758 178.256256103516 170.3125 164.975006103516 161.237503051758 162.293746948242 161.912506103516 160.875 164.018753051758 167.262496948242 172.043746948242 174 175.612503051758 178.481246948242 180.59375 182.90625 185.225006103516 188.831253051758 192.506256103516 195.050003051758 197.862503051758 199.193756103516 198.518753051758 196.706253051758 193.693756103516 189.3125 188.012496948242 187.399993896484 184.393753051758 180.487503051758 175.893753051758 170.412506103516 167.024993896484 
210.743743896484 206.90625 204.074996948242 202.012496948242 200.268753051758 199.743743896484 200.793746948242 202.21875 204.837493896484 208.25 213.418746948242 216.53125 217.59375 215.518753051758 210.712493896484 205.037506103516 198.5625 191.0625 183.074996948242 175.725006103516 168.03125 163.293746948242 161.637496948242 162.243743896484 164.268753051758 163.112503051758 165.493743896484 169.21875 172.975006103516 174.443756103516 176.4375 178.943756103516 180.449996948242 182.4375 185.331253051758 189.15625 191.774993896484 194.849990844727 197.75 199.068756103516 199.331253051758 198.074996948242 196.050003051758 192.699996948242 191.681243896484 192.356246948242 188.375 181.912506103516 176.675003051758 172.050003051758 166.75 
213.600006103516 209.493743896484 206.112503051758 204.206253051758 202.8125 202.475006103516 203.606246948242 206.643753051758 209.875 214.037506103516 219.824996948242 223.337493896484 222.449996948242 218.875 213.59375 206.581253051758 199.375 190.362503051758 181.037506103516 172.606246948242 164.643753051758 160.912506103516 161.631256103516 165.181243896484 167.231246948242 165.225006103516 166.8125 170.03125 173.71875 175.756256103516 177.668746948242 179.449996948242 180.8125 182.287506103516 184.725006103516 188.712493896484 192.59375 196.018753051758 199.181243896484 201.050003051758 202.09375 200.743743896484 197.356246948242 192.71875 190.899993896484 188.381256103516 184.012496948242 182.100006103516 178.262496948242 174.024993896484 168.418746948242 
213.96875 210.393753051758 207.712493896484 205.71875 205.225006103516 205.637496948242 207.668746948242 210.487503051758 214.018753051758 219.568756103516 225.306243896484 228.425003051758 226.574996948242 220.71875 214.493743896484 206.568756103516 198.84375 190.037506103516 181.118743896484 171.881256103516 162.087493896484 159.112503051758 161.018753051758 164.587493896484 165.399993896484 164.03125 166.84375 170.25 173.6875 175.862503051758 177.875 179.5625 179.806243896484 181.21875 183.518753051758 187.268753051758 191.25 196.024993896484 199.975006103516 202.493743896484 204.768753051758 202.699996948242 196.818756103516 190.587493896484 187.350006103516 185.5 182.225006103516 179.212493896484 177.09375 175.824996948242 175.068756103516 
213.181243896484 209.943740844727 207.706253051758 206.318756103516 206.5625 207.412506103516 210.4375 213.71875 217.931243896484 223.050003051758 227.893753051758 228.868743896484 226.3125 221.399993896484 213.637496948242 206.149993896484 197.774993896484 189.856246948242 181.362503051758 173.6875 166.25 162.425003051758 161.818756103516 163.050003051758 163.356246948242 162.731246948242 166.112503051758 169.581253051758 173.287506103516 174.756256103516 176.768753051758 178.106246948242 177.893753051758 179.037490844727 180.881256103516 185.068756103516 190.337509155273 195.949996948242 201.199996948242 204.193756103516 205.050003051758 200.068756103516 194.743743896484 189.78125 187.324996948242 184.518753051758 182.074996948242 181.512496948242 179.012496948242 179.6875 183.21875 
212.274993896484 208.987503051758 207.456253051758 207.5 207.431243896484 209.350006103516 213.287506103516 216.5625 221.087493896484 225.868743896484 229.300003051758 229.612503051758 226.600006103516 221.425003051758 213.949996948242 205.893753051758 198.081253051758 190.518753051758 183.300003051758 177.318756103516 171.225006103516 166.612503051758 164.574996948242 164.675003051758 164.268753051758 164.475006103516 167.637496948242 170.493743896484 173.574996948242 175.199996948242 176.056243896484 176.375 175.875 175.818756103516 177.34375 181.356246948242 188.050003051758 195.5 201.574996948242 204.337493896484 202.612503051758 199.081253051758 195.131256103516 190.175003051758 187.462493896484 184.975006103516 183.418746948242 183.65625 184.03125 184.118743896484 188.024993896484 
210.118743896484 207.012496948242 206.256256103516 206.856246948242 207.962493896484 210.493743896484 214.681243896484 217.84375 222.78125 228.21875 231.649993896484 231.46875 228.168746948242 222.137496948242 214.368743896484 204.818756103516 198.074996948242 192.15625 186.331253051758 181.368743896484 175.306243896484 170.40625 167.46875 167.5 166.300003051758 165.681243896484 167.96875 170.9375 174.193756103516 175.743743896484 176.612503051758 175.506256103516 172.393753051758 170.681243896484 170.493743896484 175.237503051758 183.293746948242 193 201.550003051758 204.856246948242 202.931243896484 198.556243896484 193.96875 189.006256103516 185.737503051758 183.59375 181.831253051758 182.206253051758 183.425003051758 184.600006103516 187.806243896484 
205.806243896484 204.100006103516 203.837493896484 205.050003051758 207.106246948242 210.193756103516 214.587493896484 218.587493896484 223.800003051758 229.649993896484 234.199996948242 234.243743896484 231.168746948242 225.0625 216.581253051758 206.649993896484 198.274993896484 192.318756103516 187.237503051758 183.381256103516 178.5 173.899993896484 170.306243896484 169.899993896484 168.918746948242 166.793746948242 167.712493896484 170.90625 174.637496948242 177.106246948242 177.512496948242 175.349990844727 169.793746948242 164.0625 162.587493896484 167.25 175.96875 189.350006103516 202.912506103516 204.043746948242 199.981246948242 195.487503051758 190.100006103516 185.193756103516 183.050003051758 181.518753051758 179.543746948242 180.806243896484 183.643753051758 184.043746948242 186.46875 
199.231246948242 198.649993896484 199.8125 202.037506103516 204.399993896484 207.8125 212.431243896484 216.743759155273 222.318756103516 228.318756103516 234.09375 236.293746948242 235.506256103516 229.993759155273 221.462493896484 211.287506103516 200.087493896484 191.1875 187.262496948242 183.524993896484 181 177.068756103516 172.850006103516 171.199996948242 169.850006103516 167.987503051758 168.050003051758 171.681243896484 176.106246948242 179.28125 179.199996948242 173.268753051758 165.481246948242 157.856246948242 153.793746948242 156.149993896484 167.368743896484 180.856246948242 193.25 196.481246948242 193.21875 189.381256103516 185.287506103516 181.774993896484 180.3125 178.518753051758 177.787506103516 179.1875 181.306243896484 181.362503051758 184.168746948242 
191.881256103516 192.568756103516 194.368743896484 196.524993896484 199.600006103516 204.181243896484 208.462493896484 213.5625 220.112503051758 226.324996948242 233.256256103516 236.53125 238.118743896484 236.243743896484 226.337493896484 213.237503051758 200.550003051758 189.793746948242 184.193756103516 181.350006103516 180.893753051758 178.706253051758 172.993743896484 171.087509155273 169.875 169.137496948242 170.237503051758 173.493743896484 178.231246948242 182.537506103516 183.03125 175.300003051758 163.706253051758 151.543746948242 143.881256103516 146.774993896484 157.837493896484 170.175003051758 180.96875 185.137496948242 184.662506103516 181.774993896484 179.581253051758 177.762496948242 177.050003051758 176.350006103516 175.912506103516 177.168746948242 178.9375 176.893753051758 181.306243896484 
184.868743896484 185.693756103516 187.90625 190.462493896484 194.462493896484 199.600006103516 204.806243896484 209.362503051758 216.131256103516 222.84375 229.556243896484 234.043746948242 238.762496948242 241.53125 229.324996948242 211.462493896484 196.199996948242 186.618743896484 180.800003051758 177.931243896484 176.231246948242 173.800003051758 171.925003051758 170.324996948242 169.431243896484 169.125 171.393753051758 175.356246948242 178.856246948242 182.606246948242 182.03125 176.274993896484 161.71875 145.768753051758 134.149993896484 138.518753051758 151.53125 163.706253051758 172.787506103516 177.206253051758 176.856246948242 174.524993896484 174.78125 174.75 174.818756103516 174.425003051758 173.606246948242 174.28125 175.0625 173.199996948242 177.287506103516 
176.399993896484 178.824996948242 181.412506103516 184.256256103516 188.987503051758 193.912506103516 199.368743896484 205 211.606246948242 217.668746948242 222.456253051758 226.581253051758 231.006256103516 234.362503051758 223.637496948242 207.006256103516 192.981246948242 182.9375 178.131256103516 174.293746948242 173.487503051758 172.431243896484 170.681243896484 169.962493896484 169.737503051758 170.287506103516 172.856246948242 175.662506103516 179.356246948242 183.868743896484 184.512496948242 180.043746948242 164.768753051758 146.431243896484 130.28125 137.237503051758 152.087493896484 163.625 171.21875 174.649993896484 174.524993896484 173.537506103516 172.943756103516 172.25 172.193756103516 171.90625 170.993743896484 171.618743896484 170.743743896484 170.668746948242 172.793746948242 
167.393753051758 171.081253051758 174.225006103516 178.393753051758 182.731246948242 188.193756103516 193.949996948242 199.868743896484 206.387496948242 210.756256103516 213.15625 213.962493896484 214.725006103516 214.168746948242 208.899993896484 199.056243896484 189.043746948242 181.456253051758 176.287506103516 172.625 170.037506103516 168.46875 168.175003051758 167.4375 167.65625 169.193756103516 172.756256103516 176.231246948242 180.90625 186.993743896484 190.462493896484 187.300003051758 173.550003051758 158.837493896484 148.418746948242 151.850006103516 161.731246948242 169.456253051758 173.78125 175.100006103516 174.6875 173.856246948242 172.725006103516 171.324996948242 171.149993896484 170.524993896484 169.193756103516 169.324996948242 168.0625 168.962493896484 168.975006103516 
160.850006103516 165.668746948242 168.4375 172.537506103516 176.618743896484 182.925003051758 188.006240844727 194.318756103516 201.181243896484 203.118743896484 202.425003051758 199.899993896484 197.28125 196.46875 195.1875 190.337493896484 183.643753051758 178.393753051758 173.556243896484 169.181243896484 166.6875 164.574996948242 163.512496948242 162.899993896484 164.175003051758 166.899993896484 171.012496948242 175.462493896484 181.512496948242 189.543746948242 196.0625 197.774993896484 185.456253051758 173.96875 168.793746948242 171.925003051758 176.506256103516 178.925003051758 179.168746948242 176.925003051758 174.912506103516 173.631256103516 172.03125 170.40625 170.206253051758 169.524993896484 167.868743896484 167.518753051758 166.800003051758 167.837493896484 167.675003051758 
155.25 159.362503051758 162.362503051758 165.581253051758 169.912506103516 176.449996948242 182.625 188.287506103516 194.475006103516 195.175003051758 193.824996948242 190.5625 185.074996948242 186.393753051758 187.418746948242 184.875 180.443756103516 176.962493896484 172.662506103516 168.087493896484 164.65625 161.662506103516 159.681243896484 159.28125 161.149993896484 163.537506103516 169.199996948242 175.21875 181.78125 191.15625 199.481246948242 203.256256103516 194.431243896484 186.356246948242 183.762496948242 187.300003051758 188.425003051758 184.987503051758 181.600006103516 177.581253051758 174.600006103516 172.5 170.949996948242 169.862503051758 170.699996948242 169.78125 167.350006103516 165.274993896484 167.300003051758 167.637496948242 167.774993896484 
152.368743896484 154.568740844727 157.043746948242 160.493743896484 165.337493896484 170.787506103516 176.668746948242 181.837493896484 186.018753051758 187.699996948242 187.337493896484 185.487503051758 183.662506103516 184.181243896484 183.712493896484 182.262496948242 179.693756103516 176.712493896484 172.712493896484 168.018753051758 163.96875 159.456253051758 155.837493896484 154.912506103516 156.606246948242 161.643753051758 167.524993896484 174.800003051758 181.868743896484 191.181243896484 199.293746948242 203.743743896484 198.793746948242 193.512496948242 191.143753051758 190.831253051758 189.331253051758 184.556243896484 180.356246948242 176.162506103516 172.868743896484 170.706253051758 169.600006103516 169.706253051758 170.225006103516 169.649993896484 166.125 166.787506103516 167.887496948242 170.0625 171.193756103516 
153.274993896484 154.037506103516 155.012496948242 157.806243896484 161.84375 166.956253051758 171.59375 176.068756103516 179.706253051758 181.862503051758 182.550003051758 182.78125 183.46875 183.818756103516 183.40625 181.868743896484 179.887496948242 177.237503051758 174.068756103516 169.431243896484 164.28125 157.981246948242 152.356246948242 149.850006103516 153.53125 159.893753051758 167.931243896484 174.893753051758 182.368743896484 190.743743896484 198.368743896484 203.5625 200.25 196.212493896484 193.3125 190.618759155273 187.137496948242 182.15625 177.15625 173.237503051758 170.100006103516 168.324996948242 167.143753051758 167.600006103516 169.793746948242 169.65625 169.25 170.543746948242 171.181243896484 175.143753051758 177.399993896484 
156.475006103516 156.024993896484 156.293746948242 158.8125 161.537506103516 165.181243896484 169.34375 172.381256103516 175.643753051758 178.40625 180.199996948242 181.262496948242 182.756256103516 183.949996948242 183.743743896484 183.431243896484 182.037506103516 180.243743896484 177.337493896484 172.899993896484 167.168746948242 160.5625 153.275009155273 149.65625 155.368743896484 162.431243896484 170.449996948242 177.737503051758 184.568756103516 192.393753051758 199.912506103516 204.112503051758 200.612503051758 197.381256103516 192.524993896484 188.956253051758 184.768753051758 179.043746948242 174.637496948242 170.556243896484 167.175003051758 165.168746948242 163.831253051758 164.0625 167.881256103516 170.46875 171.556243896484 174.131256103516 177.162506103516 178.53125 182.75 
160.09375 158.118743896484 158.40625 159.899993896484 161.53125 163.862503051758 167.481246948242 170.887496948242 173.675003051758 176.606246948242 178.350006103516 179.862503051758 181.506256103516 183.006256103516 184 184.899993896484 184.443756103516 184.350006103516 182.050003051758 178.675003051758 173.574996948242 167.193756103516 162.175003051758 159.5625 162.324996948242 168.137496948242 175.34375 182.287506103516 188.574996948242 195.800003051758 202.581253051758 206.981246948242 203.625 197.637496948242 191.368743896484 187.162506103516 181.681243896484 176.449996948242 171.787490844727 167.337493896484 163.837493896484 162.225006103516 160.956253051758 161.762496948242 166.899993896484 170.5 173.199996948242 177.237503051758 180.912506103516 182.375 186.662506103516 
162.949996948242 160.524993896484 160.012496948242 160.887496948242 162.131256103516 163.762496948242 166.643753051758 169.40625 172.306243896484 175.206253051758 177.118743896484 178.743743896484 180.318756103516 182.831253051758 185.09375 187.625 189.03125 189.137496948242 188.662506103516 185.868743896484 181.637496948242 175.912506103516 172.668746948242 170.90625 171.662506103516 175.40625 182.018753051758 188.287506103516 194.918746948242 201.262496948242 206.462493896484 210.606246948242 205.337509155273 198.118743896484 191.168746948242 185.556243896484 180.28125 174.800003051758 170.824996948242 165.649993896484 160.581253051758 158.5625 158.824996948242 161.518753051758 167.456253051758 171.356246948242 173.993743896484 179.712493896484 183.5625 186.518753051758 190.143753051758 
167.831253051758 164.475006103516 163.550003051758 163.556243896484 164.681243896484 165.856246948242 167.587493896484 169.65625 171.787506103516 174.712493896484 177.012496948242 179.668746948242 182.125 185.418746948242 188.493743896484 190.637496948242 193.012496948242 194.912506103516 194.949996948242 192.074996948242 187.90625 183.793746948242 181.487503051758 180.3125 181.018753051758 184.475006103516 190.493743896484 196.337493896484 202.506256103516 207.068740844727 211.625 214.637496948242 208.118743896484 200.537506103516 192.581253051758 186.837493896484 180.506256103516 175.087493896484 170.037506103516 164.6875 161.462493896484 160.574996948242 160.587493896484 163.643753051758 166.456253051758 171.675003051758 176.056243896484 181.481246948242 185.337493896484 188.78125 193.037506103516 
171.637496948242 168.106246948242 166.175003051758 165.975006103516 166.231246948242 167.28125 168.456253051758 170.131256103516 172.037506103516 174.425003051758 177.837493896484 181.59375 185.387496948242 188.431243896484 191.3125 194.40625 197.393753051758 199.993759155273 201.175003051758 198.306243896484 194.431243896484 190.618743896484 188.59375 188.274993896484 189.662506103516 193.524993896484 199.199996948242 205.225006103516 211.037506103516 214.087493896484 216.993743896484 218.743743896484 212.493743896484 204.587493896484 196.381256103516 188.925003051758 182.300003051758 176.78125 171.199996948242 165.262496948242 162.412506103516 163.024993896484 163.643753051758 164.668746948242 167.100006103516 174.125 179.212493896484 184.375 187.368743896484 189.162506103516 194.456253051758 
173.375 170.050003051758 168.231246948242 167.9375 167.59375 167.887496948242 168.862503051758 169.475006103516 171.175003051758 174.181243896484 177.668746948242 182.46875 187.362503051758 191.71875 194.881256103516 198.643753051758 200.268753051758 202.318756103516 203.306243896484 201.918746948242 199.181243896484 196.71875 194.706253051758 195.537506103516 198.081253051758 202.050003051758 207.449996948242 213.493743896484 219.293746948242 221.90625 223.631256103516 223.893753051758 217.212493896484 208.731246948242 200.331253051758 192.425003051758 185.324996948242 178.693756103516 172.59375 168.28125 166.731246948242 167.375 167.837493896484 169.09375 172.03125 180.34375 185.556243896484 189.0625 189.59375 190.112503051758 194.693756103516 
176.012496948242 173.199996948242 171.443756103516 170.274993896484 168.893753051758 168.518753051758 168.231246948242 168.53125 170.65625 174.131256103516 179.024993896484 184.524993896484 191.125 196.881256103516 200.28125 202.662506103516 203.800003051758 205.949996948242 205.893753051758 204.949996948242 203.524993896484 201.356246948242 199.818756103516 200.568756103516 203.256256103516 207.125 212.375 219.024993896484 225.037506103516 227.587493896484 230.199996948242 230.612503051758 223.300003051758 215.1875 206.993743896484 199.193756103516 191.262496948242 183.137496948242 177.056243896484 174.693756103516 173.037506103516 173.512496948242 174.631256103516 176.71875 182.743743896484 192.21875 195.774993896484 195.09375 193.487503051758 192.756256103516 196.143753051758 
179.199996948242 176.268753051758 173.975006103516 172.475006103516 170.3125 168.668746948242 167.662506103516 167.518753051758 168.78125 172.537506103516 178.293746948242 186.081253051758 194.949996948242 201.6875 205.100006103516 207.056243896484 207.737503051758 209.0625 208.824996948242 207.993743896484 206.524993896484 204.475006103516 203.612503051758 204.337493896484 207.050003051758 210.768753051758 216.34375 222.862503051758 229.612503051758 233.487503051758 237.006256103516 238.300003051758 231.643753051758 223.043746948242 213.850006103516 205.800003051758 197.068756103516 188.506256103516 183.181243896484 180.550003051758 178.25 178.956253051758 181.487503051758 184.287506103516 190.925003051758 198.856246948242 200.824996948242 198.543746948242 195.643753051758 193.6875 197.324996948242 
182.287506103516 179.893753051758 177.112503051758 174.09375 171.600006103516 169.318756103516 166.862503051758 165.487503051758 166.0625 169.506256103516 176.818756103516 187.768753051758 199.324996948242 207.568756103516 210.356246948242 211.568756103516 211.1875 211.618743896484 211.800003051758 210.443756103516 209.743743896484 207.46875 206.368743896484 206.75 209.818756103516 213.106246948242 219.487503051758 226.824996948242 234.043746948242 239.231246948242 243.262496948242 246.675003051758 239.899993896484 231.418746948242 221.893753051758 212.475006103516 202.65625 195.212493896484 190.3125 186.106246948242 183.431243896484 183.375 185.456253051758 188.225006103516 193.612503051758 198.262496948242 199.6875 199.09375 196.612503051758 194.75 198.762496948242 
186.743759155273 184.143753051758 180.443756103516 176.231246948242 172.512496948242 170.15625 167.168746948242 164.712493896484 164.199996948242 167.050003051758 175.568756103516 188.537506103516 202.231246948242 211.831253051758 214.6875 215.668746948242 215.668746948242 215.675003051758 214.425003051758 213.574996948242 212.481246948242 210.96875 209.34375 210.506256103516 212.975006103516 216.493743896484 222.987503051758 231.368743896484 238.856246948242 244.893753051758 251.118743896484 255.943756103516 250.024993896484 241.78125 231.475006103516 221.024993896484 212.59375 203.618743896484 197.875 194.081253051758 191.59375 190.487503051758 190.956253051758 193.381256103516 197.106246948242 199.893753051758 201.481246948242 202.887496948242 202.574996948242 201.918746948242 205.731246948242 
192.256256103516 189.006256103516 183.96875 179.893753051758 175.175003051758 172.256256103516 168.881256103516 165.568756103516 163.443756103516 162.306243896484 174.018753051758 192.1875 205.581253051758 214.056243896484 217.856246948242 218.962493896484 219.09375 218.775009155273 218.087493896484 216.34375 214.637496948242 212.631256103516 211.1875 212.618743896484 215.149993896484 219.306243896484 226.037506103516 234.181243896484 242.706253051758 250.262496948242 258.212493896484 264.487487792969 259.743743896484 251.78125 242.131256103516 232.550003051758 222.274993896484 212.631256103516 206.512496948242 201.699996948242 197.78125 196.418746948242 196.262496948242 197.568756103516 200.456253051758 202.15625 204.699996948242 207.481246948242 208.074996948242 208.899993896484 213.5625 
197.5 193.981246948242 188.524993896484 183.487503051758 178.699996948242 175.493743896484 172.375 169.356246948242 168.34375 166.043746948242 184.543746948242 203.706253051758 212.737503051758 218.087493896484 221.431243896484 222.46875 221.556243896484 221.237503051758 219.5625 217.018753051758 215.324996948242 212.856246948242 211.881256103516 213.5625 216.856246948242 221.493743896484 228.28125 237.012496948242 246.106246948242 255.881256103516 264.412506103516 272.368743896484 268.256256103516 261.418762207031 252.006240844727 242.600006103516 232 222.131256103516 215.46875 209.512496948242 204.199996948242 202.306243896484 200.725006103516 200.5625 203.143753051758 205.75 208.425003051758 212.375 214.40625 216.649993896484 221.581253051758 
201.725006103516 198.300003051758 192.71875 188.375 183.449996948242 180.875 179.3125 178.587493896484 181.625 192.087493896484 213.118743896484 219.331253051758 221.981246948242 224.962493896484 227.274993896484 226.881256103516 225.824996948242 224.243743896484 221.149993896484 217.962493896484 215.0625 212.387496948242 212.1875 213.962493896484 217.71875 223.6875 231.112503051758 240.337493896484 250.318756103516 260.1875 270.306243896484 278.143737792969 274.899993896484 269.556243896484 263.806243896484 254.568756103516 243.631256103516 234.412506103516 226.943756103516 219.225006103516 213.65625 210.893753051758 209.21875 208.5625 210.84375 213.84375 216.412506103516 220.193756103516 223.018753051758 227.193756103516 232.399993896484 
205.918746948242 203.199996948242 198.037506103516 193.118743896484 188.649993896484 187.043746948242 186.162506103516 188.018753051758 193.800003051758 204.981246948242 217.856246948242 225.143753051758 229.356246948242 231.8125 233.037506103516 232.662506103516 230.949996948242 228.09375 223.487503051758 219.537506103516 214.46875 211.237503051758 210.40625 212.756256103516 218.381256103516 225.03125 233.5625 243.550003051758 254.425003051758 264.431243896484 273.975006103516 283.875 284.200012207031 280.243743896484 274.662506103516 266.09375 255.1875 245.131256103516 237.731246948242 229.018753051758 222.556243896484 219.768753051758 217.568756103516 215.756256103516 218.231246948242 221.53125 224.706253051758 229.962493896484 233.725006103516 239.106246948242 245.0625 
209.731246948242 207.4375 203.193756103516 198.15625 194.237503051758 192.256256103516 192.793746948242 196.043746948242 202.149993896484 211.612503051758 220.931243896484 227.806243896484 234.199996948242 237.431243896484 238.949996948242 238.912506103516 236.706253051758 233.237503051758 227.456253051758 220.493743896484 213.268753051758 208.462493896484 207.300003051758 211.143753051758 218.387496948242 226.212493896484 235.574996948242 246.949996948242 258.162506103516 268.899993896484 280.143737792969 291.837493896484 292.875 290.837493896484 285.681243896484 276.924987792969 266.668762207031 256.03125 248.268753051758 238.050003051758 231.106246948242 227.112503051758 223.737503051758 223.118743896484 225.868743896484 229.493743896484 233 238.193756103516 244.118743896484 250.731246948242 258.149993896484 
210.6875 208.231246948242 205.137496948242 201.606246948242 199.118743896484 198.268753051758 198.899993896484 202.375 208.131240844727 215.96875 224.300003051758 231.725006103516 237.943756103516 242.568756103516 244.375 244.462493896484 242.824996948242 239.475006103516 233.162506103516 222.4375 211.643753051758 204.137496948242 203.262496948242 208.699996948242 217.600006103516 227.068756103516 237.393753051758 248.831253051758 261.875 273.90625 284.21875 297.674987792969 299.912506103516 300.143737792969 297.662506103516 287.743743896484 277.806243896484 268.206237792969 259.174987792969 249.137496948242 241.037506103516 234.949996948242 230.712493896484 231.912506103516 235.199996948242 238.849990844727 242.068756103516 247.318756103516 253.899993896484 260.837493896484 269.631256103516 
211.100006103516 208.34375 206.493743896484 204.193756103516 203.449996948242 202.881256103516 203.831253051758 206.737503051758 212.09375 219.193756103516 228.337493896484 235.6875 242.199996948242 247.006256103516 249.837493896484 250.931243896484 249.875 246.987503051758 240.25 226.006256103516 210.331253051758 197.4375 198.306243896484 207.024993896484 217.712493896484 228.975006103516 239.893753051758 250.975006103516 264.381256103516 277.712493896484 290.450012207031 301.668762207031 306.075012207031 307.59375 307.243743896484 301.4375 290.143737792969 279.737487792969 269.362487792969 259.850006103516 252 246.068756103516 241.824996948242 241.543746948242 244.975006103516 247.9375 251.443756103516 256.612487792969 263.21875 270.681243896484 280.71875 
211.231246948242 208.443756103516 206.381256103516 205.625 206.418746948242 205.868743896484 206.462493896484 209.631256103516 215.556243896484 222.137496948242 231.050003051758 239.956253051758 246.606246948242 252.081253051758 256.568756103516 257.731262207031 256.493743896484 253.625 248.806243896484 233.3125 214.256256103516 198.162506103516 199.600006103516 208.300003051758 219.25 231.237503051758 242.668746948242 254.3125 267.075012207031 280.806243896484 294.225006103516 307.125 312.399993896484 314.524993896484 315.831237792969 312.918762207031 302.287506103516 290.893737792969 280.40625 271.125 263.09375 258.118743896484 254.556243896484 253.462493896484 255.4375 257.543762207031 260.806243896484 264.693756103516 269.418762207031 277.84375 289.943756103516 
212.793746948242 209.318756103516 205.987503051758 205.287506103516 205.487503051758 205.893753051758 206.856246948242 210.543746948242 217.193756103516 225.53125 235.337493896484 245.237503051758 252.71875 259.21875 263.512512207031 263.993743896484 262.387512207031 258.212493896484 251.806243896484 238.449996948242 223.274993896484 213.168746948242 210.199996948242 215.618743896484 225.262496948242 235.581253051758 246.649993896484 257.575012207031 270.050018310547 283.037506103516 296.03125 308.424987792969 314.143737792969 316.375 317.237487792969 316.350006103516 307.587493896484 296.8125 287.618743896484 280.1875 272.700012207031 268.487487792969 265.068756103516 262.537506103516 264.174987792969 266.043762207031 267.493743896484 270.056243896484 271.831237792969 279.075012207031 292.65625 
