ncols        51
nrows        45
xllcorner    -63.500000000000
yllcorner    -7.500000000000
cellsize     0.166666666667
NODATA_value -99
423.46875 427.293762207031 430.049987792969 440.493743896484 446.631256103516 447.006256103516 441.112487792969 437.59375 430.856262207031 427.268737792969 420.668762207031 407.631256103516 396.78125 386.850006103516 374.59375 364.637512207031 353.78125 343.668762207031 337.037506103516 333.350006103516 330.850006103516 328.068756103516 328.987487792969 326.024993896484 324.543762207031 325.225006103516 325.674987792969 328.174987792969 327.818756103516 328.737487792969 325.09375 324.125 325.362487792969 325.043762207031 324.806243896484 326.037506103516 325.768737792969 322.443756103516 318.149993896484 315.368743896484 309.96875 305.431243896484 298.1875 295.181243896484 291.681243896484 287.075012207031 283.9375 278.581237792969 276.012512207031 276.5 276.475006103516 
416.1875 418.331237792969 426.5 439.668762207031 452.206237792969 453.274993896484 446.65625 442.5625 436.793762207031 427.737487792969 419.5625 404.681243896484 389.71875 375.712493896484 361.143737792969 347.743743896484 335.174987792969 323.799987792969 318.5625 314.731262207031 312.3125 310.875 309.662506103516 310.512512207031 310.049987792969 310.049987792969 314.350006103516 318.631256103516 321.368743896484 320.96875 318.237487792969 321.34375 321.618743896484 325.21875 325.837493896484 323.006256103516 324.793762207031 322.46875 320.424987792969 312.868743896484 307.40625 306.618743896484 299.681243896484 292.462493896484 289.90625 284.674987792969 281.75 277.331237792969 275.293762207031 274.456237792969 274.168762207031 
396.450012207031 402.337493896484 413.487518310547 424.618743896484 433.75 436.162506103516 435.024993896484 434.75 429.524993896484 420 409.293762207031 391.712493896484 373.931243896484 355.487487792969 340.712493896484 328.21875 314.075012207031 301.662506103516 295.600006103516 291.956237792969 289.262512207031 289.131256103516 287.756256103516 287.912506103516 287.700012207031 290.65625 298.162506103516 303.212493896484 306.149993896484 306.881256103516 305.875 307.9375 312.443756103516 314.231262207031 317.212493896484 313.700012207031 313.681243896484 312.375 308.318756103516 302.931243896484 300.056243896484 294.549987792969 290.381256103516 283.950012207031 279.943756103516 276.46875 272.837493896484 269.424987792969 263.825012207031 263.518737792969 263.881256103516 
371.256256103516 374.581237792969 392.1875 401.6875 410.587493896484 412.118743896484 413.193756103516 416.818756103516 417.293762207031 409.412506103516 394.737487792969 375.024993896484 352.924987792969 333.487487792969 318.537506103516 304.943756103516 290.34375 278.856262207031 272.325012207031 270.493743896484 271.34375 268.981262207031 265.537506103516 266.34375 266.487487792969 268 277.674987792969 283.112487792969 287.975006103516 292.556243896484 293.643737792969 296.318756103516 299.200012207031 300.612487792969 301.131256103516 302.993743896484 304.118743896484 302.362487792969 298.537506103516 293.78125 288.825012207031 286.725006103516 279.337493896484 272.543762207031 270.799987792969 265.212493896484 261.087493896484 258.393737792969 252.081253051758 248.350006103516 250.012496948242 
369.956237792969 368.881256103516 365.981262207031 373.756256103516 384.306243896484 384.875 388.225006103516 394.256256103516 400.112487792969 396.712493896484 376.793762207031 351.78125 332.212493896484 313.768737792969 298.743743896484 284.0625 268.931243896484 258.075012207031 251.206253051758 250.231246948242 250.587493896484 246.975006103516 242.162506103516 245.756256103516 245.106246948242 246.881256103516 253.493743896484 263.9375 271.806243896484 276.212493896484 280.262512207031 282.325012207031 284.368743896484 288.543762207031 290.806243896484 290.231262207031 292.387512207031 292.725006103516 289.837493896484 284.387512207031 280.84375 275.362487792969 269.056243896484 264.274993896484 259.90625 254.875 248.675003051758 243.931243896484 237.793746948242 236.59375 239.631256103516 
362.399993896484 362.024993896484 356.84375 349.012512207031 359.512512207031 365.393737792969 367.9375 369.987487792969 376.456237792969 374.993743896484 357.512481689453 332.46875 316.581237792969 301.106262207031 284.631256103516 273.100006103516 257.162506103516 244.125 236.837493896484 235.337493896484 233.487503051758 230.84375 228.3125 227.975006103516 228.743743896484 230.90625 238.712493896484 248.0625 257.993743896484 263.287506103516 267.5 271.325012207031 272.012512207031 273.993743896484 274.506256103516 275.243743896484 275.831237792969 275.674987792969 276.875 272.674987792969 267.256256103516 263.049987792969 256.606262207031 252 248.84375 242.0625 234.8125 231.225006103516 226.568756103516 223.331253051758 224.112503051758 
357.837493896484 355.5625 349.399993896484 342.40625 341 338.818756103516 338.887512207031 339.181243896484 333.131256103516 332.237487792969 323.856262207031 309.056243896484 298.243743896484 286.6875 273.737487792969 261.643737792969 250.524993896484 238.449996948242 228.21875 224.368743896484 219.756256103516 215.131256103516 209.912506103516 211.681243896484 213.962493896484 218.487503051758 225.78125 235.056243896484 242.699996948242 248.574996948242 253.693756103516 255.743743896484 254.293746948242 254.643753051758 254.975006103516 257.075012207031 256.643737792969 256.737487792969 259.137512207031 258.462493896484 252.918746948242 247.362503051758 241.8125 239.162506103516 234.9375 231.8125 223.600006103516 214.837493896484 209.662506103516 210.449996948242 211.475006103516 
352.106262207031 348.506256103516 341.737487792969 337.381256103516 334.837493896484 331.018737792969 318.931243896484 300.756256103516 285.681243896484 287.5625 291.674987792969 286.774993896484 282.71875 273.75 263.737487792969 254.600006103516 244.412506103516 233.28125 221.431243896484 211.831253051758 208.099990844727 201.756256103516 196.28125 195.637496948242 199.543746948242 200.637496948242 210.793746948242 219.512496948242 228 233.918746948242 238.6875 240.46875 239.043746948242 236.043746948242 233.087493896484 233.643753051758 234.706253051758 236.5625 237.40625 234.46875 233.25 229.037506103516 225.506256103516 221.462493896484 217.168746948242 211.675003051758 204.706253051758 199 195.356246948242 192.568756103516 193.456253051758 
347.268737792969 343.506256103516 338.450012207031 332.125 327.368743896484 320.8125 308.487487792969 292.637481689453 271.918762207031 262.037506103516 267 270.243743896484 272.6875 266.018737792969 256.618743896484 248.787506103516 239.237503051758 229.362503051758 219.581253051758 205.199996948242 196.100006103516 191.550003051758 183.306243896484 187.106246948242 187.287506103516 187.850006103516 195.387496948242 206.5 217.631256103516 221.412506103516 226.84375 226.893753051758 220.168746948242 214.268753051758 212.212493896484 213.3125 214.756256103516 216.78125 219.706253051758 217.03125 214.206253051758 210.887496948242 210.618743896484 210.131256103516 202.256256103516 197.306243896484 191.662506103516 184.625 179.056243896484 176.975006103516 177.987503051758 
341.456268310547 339.293762207031 334.131256103516 329.15625 320.850006103516 314.09375 303.587493896484 290.556243896484 277.362487792969 269.850006103516 267.487487792969 262.712493896484 266.581237792969 260.6875 252.53125 241.699996948242 231.274993896484 221.231246948242 212.043746948242 201.112503051758 189.78125 179.987503051758 172.46875 174.606246948242 173.512496948242 174.381256103516 181.418746948242 192.018753051758 203.912506103516 209.743743896484 211.206253051758 209.581253051758 204.574996948242 198.618743896484 193.556243896484 193.875 194.337493896484 196.5625 200.25 202.425003051758 203.512496948242 203.456253051758 198.949996948242 195.231246948242 191.018753051758 189.1875 182.637496948242 173.956253051758 168.193756103516 163.618743896484 160.056243896484 
335.575012207031 335.006256103516 328.631256103516 323.931243896484 315.649993896484 310.287506103516 301.387512207031 287.71875 277.25 272.568756103516 270.618743896484 268.668762207031 261.262512207031 257.174987792969 245.818756103516 233.243743896484 222.100006103516 212.756256103516 203.125 194.193740844727 188.612503051758 175.699996948242 164.612503051758 157.793746948242 161.09375 164.53125 171.381256103516 181.137496948242 189.462493896484 192.306243896484 194.625 194.1875 188.1875 181.487503051758 175.387496948242 173.71875 173.975006103516 176.800003051758 183.074996948242 187.5625 190.612503051758 190.1875 190.46875 185.25 180.074996948242 176.168746948242 171.706253051758 162.606246948242 157.449996948242 153.225006103516 147.587493896484 
332.65625 330.331237792969 324.831237792969 320.075012207031 313.78125 305.399993896484 299.774993896484 290.71875 283.506256103516 275.443756103516 272.618743896484 271.90625 258.462493896484 250.768753051758 240.706253051758 226.112503051758 214.418746948242 205.006240844727 196.287506103516 189.90625 186.03125 175.893753051758 163.337493896484 155 151.475006103516 150.975006103516 156.199996948242 165.068756103516 174.412506103516 176.59375 176.112503051758 175.412490844727 169.881256103516 163.59375 159.618743896484 160.162506103516 161.71875 163.412506103516 168.574996948242 174.149993896484 179.375 179.818756103516 177.456253051758 167.587493896484 161.387496948242 154.481246948242 147.756256103516 147.175003051758 145.606246948242 142.675003051758 134.756256103516 
330.825012207031 325.768737792969 319.475006103516 315.037506103516 308.256256103516 302.793762207031 295.112487792969 285.9375 280.53125 276.918762207031 273.399993896484 268.981262207031 258.193756103516 239.625 227.149993896484 216.78125 205.087493896484 196.143753051758 187.481246948242 181.143753051758 179.068756103516 168.21875 156.262496948242 148.40625 137.931243896484 135.143753051758 143.837493896484 152.681243896484 161.887496948242 164.368743896484 162.331253051758 158.90625 153 146.675003051758 143.606246948242 146.037506103516 148.681243896484 152.418746948242 159.425003051758 165.125 169.28125 170.556243896484 163.587509155273 156.706253051758 154.15625 149.84375 142.78125 136.243743896484 132.443756103516 134.456253051758 134.793746948242 
322 317.762512207031 313.024993896484 308.03125 303.131256103516 296.381256103516 288.431243896484 281.0625 278.162506103516 274.518737792969 266.143737792969 257.618743896484 245.912506103516 231.337493896484 211.3125 203.4375 192.168746948242 182.600006103516 175.737503051758 169.987503051758 165.856246948242 156.556243896484 146.375 141.212493896484 134.074996948242 130.512496948242 135.293746948242 140.993743896484 148.243743896484 148.743743896484 148.949996948242 144.943756103516 139.225006103516 133.512496948242 129.875 133.875 138.850006103516 144.293746948242 152.356246948242 156.693756103516 155.21875 151.693756103516 152.074996948242 153.987503051758 156.125 149.831253051758 143.668746948242 139.600006103516 135.581253051758 140 143.887496948242 
313.162506103516 310.850006103516 307.125 301.681243896484 295.918762207031 289.881256103516 285.118743896484 279.700012207031 274.25 267.106262207031 257.6875 246.925003051758 232.612503051758 217.368743896484 194.987503051758 186.193756103516 177.199996948242 170.712493896484 164.225006103516 158.025009155273 154.506256103516 147.550003051758 140.324996948242 139.78125 137.71875 135.831253051758 137.25 140.618743896484 144.181243896484 142.987503051758 138.46875 133.893753051758 130.243743896484 122.699996948242 116.818748474121 119.381248474121 129.618743896484 138.206253051758 144.681243896484 146.487503051758 144.287506103516 145.100006103516 150.600006103516 152 151.137496948242 149.75 147.399993896484 146.712493896484 145.625 144.675003051758 146.806243896484 
303.587493896484 300.912506103516 299.068756103516 295.143737792969 288.856262207031 284.956237792969 281.081237792969 275.231262207031 267.581237792969 260.681243896484 249.800003051758 236.881256103516 221.800003051758 207.556243896484 188.081253051758 168.893753051758 163.050003051758 160.71875 153.199996948242 147.28125 144.28125 141.274993896484 137.731246948242 140.21875 139.78125 137.606246948242 137.524993896484 138.175003051758 139.96875 139.074996948242 136.668746948242 131.231246948242 121.606246948242 112.143753051758 105.837501525879 114.518753051758 121.118751525879 128.368743896484 135.806243896484 140.393753051758 141.037506103516 142.181243896484 145.143753051758 143.800003051758 142.787506103516 143.012496948242 141.118743896484 139.949996948242 141.824996948242 141.962493896484 145.574996948242 
295.868743896484 293.975006103516 290.193756103516 287.768737792969 284.618743896484 278.762512207031 273.34375 266.825012207031 260.806243896484 253.368743896484 243.625 231.412506103516 215.168746948242 199.46875 182.712493896484 166.3125 149.824996948242 146.743743896484 142.518753051758 137.725006103516 135.550003051758 133.425003051758 133.106246948242 138.943756103516 141.75 135.8125 133.631256103516 133.925003051758 134.987503051758 134.03125 132.581253051758 129.649993896484 120.981246948242 112.606254577637 111.993751525879 114.837501525879 120.981246948242 127.712501525879 137 137.818756103516 137.293746948242 137.100006103516 136.350006103516 137.175003051758 137.006256103516 137.737503051758 136.90625 138.8125 140.331253051758 138.081253051758 140.675003051758 
286.268737792969 286.606262207031 284.356262207031 280.806243896484 277.543762207031 274.168731689453 266.899993896484 258.75 251.181243896484 244.46875 235.199996948242 225.300003051758 207.574996948242 193.606246948242 177.837493896484 162.956253051758 147.431243896484 133.993743896484 134.824996948242 129.4375 127.125 126.125 126.40625 132.362503051758 135.993743896484 132.043746948242 127.8125 129.162506103516 130.65625 128.28125 123.199996948242 118.662498474121 119.962501525879 117.231246948242 114.256248474121 121.643753051758 127.481246948242 129.625 134.762496948242 136.28125 131.975006103516 130.75 129.824996948242 130.774993896484 130.231246948242 132.012496948242 132.25 133.15625 136.1875 132.487503051758 137.868743896484 
276.668762207031 277.956268310547 275.175018310547 274.068756103516 272.112487792969 266.462493896484 259.90625 252.8125 245.206253051758 239.543746948242 228.96875 213.224990844727 197.975006103516 185.381256103516 170.78125 158.225006103516 145.699996948242 130.75 122.712501525879 118.706253051758 117.543746948242 118.8125 113.28125 119.6875 123.324996948242 124.856246948242 124.637496948242 123.34375 124.71875 122.90625 120.25 119.875 120.006248474121 117.224998474121 115.824996948242 121.037498474121 123.275001525879 123.90625 128.824996948242 128.431243896484 125.306251525879 123.050003051758 123.543746948242 125.643753051758 125.1875 125.324996948242 127.387496948242 129.043746948242 130.668746948242 124.768753051758 134.600006103516 
266.03125 268.46875 266.931243896484 263.587493896484 262.393737792969 261.100006103516 255.681259155273 248.012496948242 240.362503051758 231.993743896484 223.737503051758 212.225006103516 200.162506103516 184.568756103516 168.493743896484 150.243743896484 134.806243896484 127.650001525879 118.9375 113.212501525879 108.449996948242 107.375 108.493751525879 111.074996948242 112.287498474121 111.474998474121 113.412498474121 116.443748474121 115.78125 113.668746948242 114.637496948242 121.09375 119.125 115.262496948242 115.043746948242 118.331253051758 119.981246948242 120.631248474121 122.0625 122.262496948242 118.206253051758 115.731246948242 117.856246948242 119.831253051758 120.962501525879 121.75 122.012496948242 123.693748474121 124.393753051758 120.625 130.78125 
249.556243896484 260.543762207031 262.225006103516 258.350006103516 253.868743896484 254.975006103516 252.037506103516 245.600006103516 238.5 228.550003051758 219.431243896484 209.225006103516 195.337493896484 181.337493896484 164.231246948242 149.487503051758 133.387496948242 123.293746948242 117.15625 109.550003051758 109.393753051758 108.59375 107.599998474121 109.081253051758 110.175003051758 108.993751525879 107.881248474121 109.699996948242 111.762496948242 114 117.756248474121 122.28125 117.662498474121 113.493751525879 112.206253051758 115.068748474121 117.431251525879 118.418746948242 118.762496948242 117.65625 116.5 114.074996948242 113.537498474121 115.71875 116.318748474121 117.106246948242 118.268753051758 119.03125 116.712501525879 120.168754577637 126.275001525879 
241.524993896484 244.425003051758 249.90625 252.506256103516 248.487503051758 246.262496948242 245.462493896484 242.162506103516 236.118743896484 227.206253051758 217.356246948242 205.518753051758 192.137496948242 178.293746948242 164.899993896484 148.831253051758 139.962493896484 128.068756103516 120.493751525879 111.525001525879 106.731246948242 105.25 104.15625 103.331253051758 101.693748474121 101.949996948242 105.40625 107.393753051758 112.512496948242 116.699996948242 119.381248474121 121.199996948242 118.806251525879 116.106246948242 112.493751525879 113.150001525879 115.493751525879 116.381248474121 116.3125 115.324996948242 114.71875 112.418746948242 111.268753051758 111.893753051758 111.787498474121 112.043746948242 112.643753051758 114.4375 113.506248474121 119.387496948242 122.606246948242 
233.943756103516 244.425003051758 247.706253051758 249.375 244.881256103516 241.362503051758 233.03125 231.231246948242 231.368743896484 223.956253051758 212.912506103516 201.287506103516 192.012496948242 179.524993896484 166.231246948242 152.037506103516 140.362503051758 129.537506103516 119.962501525879 111.137496948242 107.224998474121 102.574996948242 100.181251525879 98.4375 98.2624969482422 97.5500030517578 99.7062530517578 104.631248474121 110.337501525879 114.824996948242 117.743751525879 122.081253051758 121.237503051758 117.699996948242 114.71875 111.762496948242 111.806251525879 113.587501525879 115.487503051758 114.331253051758 112.643753051758 110.606246948242 108.90625 108.662498474121 107.793746948242 106.587501525879 106.200004577637 107.712501525879 111.525001525879 117.75 121.006248474121 
223.056243896484 235.387496948242 241.725006103516 241.006256103516 236.006256103516 230.71875 231.256256103516 227.850006103516 223.087493896484 215.475006103516 207.5625 201.681243896484 192.4375 182.881256103516 168.1875 154.025009155273 141.981246948242 132.006256103516 122.587501525879 113.918746948242 107.287498474121 102.368751525879 97.9875030517578 97.5437469482422 95.8000030517578 93.3375015258789 97.0500030517578 102.668746948242 109.618751525879 117.168746948242 124.03125 129.762496948242 128.731246948242 123.96875 119.400001525879 113.768753051758 114.143753051758 113.618751525879 113.900001525879 113.150001525879 111.050003051758 110.056251525879 109.068748474121 107.693748474121 105.662498474121 103.237503051758 101.643753051758 100.775001525879 107.46875 113.775001525879 119.206253051758 
217.431243896484 229.774993896484 233.800003051758 236.375 233.431243896484 229.856246948242 224.306243896484 221.78125 216.475006103516 211.09375 203.456253051758 196.774993896484 191.6875 182.837493896484 168.168746948242 155.550003051758 145.324996948242 134.53125 123.837501525879 114.8125 108.918746948242 102.25 97.9124984741211 96.2874984741211 94.1062469482422 94.2874984741211 98.4187469482422 104.956253051758 112.125 122.381248474121 130.787490844727 140.462493896484 138.331253051758 132.368743896484 124.150001525879 118.5 116.331253051758 112.387496948242 111.90625 111.262496948242 109.993751525879 108.543746948242 107.868751525879 105.568748474121 100.900001525879 97.5999984741211 92.7687530517578 97.1437530517578 101.243751525879 108.456253051758 114.287498474121 
217.981246948242 230.975006103516 228.612503051758 229.606246948242 223.737503051758 219.762496948242 214.581253051758 211.850006103516 204.862503051758 197.862503051758 196.550003051758 193.350006103516 187.143753051758 180.425003051758 170.262496948242 157.875 147.706253051758 136.725006103516 125.71875 115.6875 109.325004577637 102.199996948242 97.3000030517578 94.3625030517578 93.4499969482422 93.3874969482422 100.449996948242 107.699996948242 115.224998474121 126.574996948242 138.78125 153.175003051758 150.899993896484 140.037506103516 129.493743896484 123.131248474121 117.275001525879 112.65625 109.443748474121 108.362503051758 107.668746948242 105.618751525879 103.993751525879 103.199996948242 99.0124969482422 92.40625 92.6624984741211 94.4187469482422 97.8125 103.65625 107 
219.206253051758 224.181243896484 225.137496948242 223.762496948242 218.106246948242 214.262496948242 208.649993896484 202.449996948242 197.368743896484 196.681243896484 194.043746948242 189.581253051758 186.543746948242 182.081253051758 172.381256103516 162.006256103516 150.731246948242 138.6875 130.168746948242 119.462501525879 111.118751525879 103.956253051758 98.3249969482422 97.0812530517578 96.1937484741211 96.5625 103.949996948242 111.818748474121 120.543746948242 130.862503051758 145.256256103516 159.662506103516 158.831253051758 143.875 130.212493896484 122.400001525879 117.599998474121 111.3125 108.037498474121 106.84375 105.481246948242 103.481246948242 101.912498474121 99.875 96.0687484741211 93.3937530517578 92.15625 92.2624969482422 94.75 95.46875 97.5812530517578 
222.3125 222.925003051758 221.631256103516 216.71875 212.34375 209.4375 204.600006103516 196.824996948242 193.643753051758 192.725006103516 189.399993896484 186.050003051758 184.53125 181.037506103516 173.46875 162.143753051758 153.362503051758 144.274993896484 135.368743896484 124.924995422363 115.675003051758 106.706253051758 101.431251525879 99.6062469482422 99.1750030517578 99.0437469482422 107.125 115.518753051758 125.09375 135.725006103516 148.681243896484 160.706253051758 156.03125 141.931243896484 129.787490844727 121.793746948242 115.3125 110.449996948242 108.125 105.46875 103.199996948242 102.112503051758 100.556251525879 99.0812530517578 94.1812515258789 89.96875 88.3812484741211 90.2624969482422 90.0374984741211 88.3000030517578 88.9875030517578 
221.868743896484 221.418746948242 216.706253051758 211.612503051758 206.6875 199.681243896484 193.524993896484 190.331253051758 190.675003051758 187.362503051758 184.818740844727 183.931243896484 182.818756103516 182.431243896484 176.975006103516 169.143753051758 160.387496948242 149.956253051758 139.993743896484 129.71875 120.037498474121 110.168746948242 103.418746948242 101.537498474121 101.0625 100.287498474121 108.793746948242 118.699996948242 128.462493896484 137.725006103516 149.068756103516 157.212493896484 149.881256103516 137.262496948242 127.118751525879 119.65625 113.800003051758 108.043746948242 105.724998474121 103.03125 99.1875 97.0124969482422 97.4250030517578 98.2437515258789 94.7874984741211 90.34375 88.9250030517578 89.4812469482422 86.7249984741211 83.9312515258789 82.2375030517578 
223.78125 221.074996948242 213.443756103516 204.743743896484 198.518753051758 194.731246948242 189.350006103516 188.149993896484 186.9375 182.800003051758 181.568756103516 181.918746948242 182.306243896484 183.412506103516 179.324996948242 173.362503051758 165.899993896484 158.337493896484 147.631256103516 135.899993896484 126.206253051758 117.137496948242 109.712501525879 107.175003051758 105.362503051758 106.806251525879 113.643753051758 121.387496948242 130.456253051758 138.100006103516 146.793746948242 151.443756103516 143.831253051758 133.493743896484 124.118751525879 116.287498474121 112.675003051758 107.300003051758 103.974998474121 103.09375 100.612503051758 97.46875 95.2437515258789 93.71875 91.0187530517578 89.2125015258789 87.1937484741211 87.4250030517578 85.09375 81.7624969482422 79.0374984741211 
225.512496948242 220.15625 210.043746948242 202.681243896484 197.037506103516 192.318756103516 189.112503051758 185.131256103516 183.856246948242 181.65625 180.356246948242 180.024993896484 183.368743896484 182.512496948242 180.081253051758 177.375 172.675003051758 164 154.618743896484 144.568756103516 132.868743896484 122.712501525879 115.193748474121 111.53125 109.775001525879 112.150001525879 118.0625 124.53125 132.824996948242 137.662506103516 144.131256103516 145.4375 137.768753051758 128.662506103516 119.612503051758 111.993751525879 108.362503051758 104.875 103.09375 101.056251525879 100.056251525879 96.1999969482422 93.0562515258789 89.6062469482422 87.8249969482422 87.3937530517578 86.3937530517578 85.3125 82.71875 80.1937484741211 77.875 
221.887496948242 215.037506103516 206.100006103516 199.956253051758 196.006256103516 189.762496948242 188.618743896484 182.081253051758 180.3125 177.800003051758 176.5 175.912490844727 179.03125 181.568756103516 180.237503051758 179.96875 174.481246948242 166.1875 157.556243896484 148.587493896484 136.637496948242 126.949996948242 119.056251525879 116.28125 116.462501525879 116.993751525879 122.512496948242 127.662498474121 133.1875 136.725006103516 138.206253051758 138.631256103516 130.706253051758 122.243751525879 114.631248474121 108.081253051758 103.962501525879 101.043746948242 98.8187484741211 98.7624969482422 97.3812484741211 93.9437484741211 90.8125 88.6125030517578 86.7312469482422 89.03125 89.3499984741211 86.3000030517578 82.15625 79.1125030517578 77.3125 
215.850006103516 210.643753051758 202.706253051758 198.818756103516 193.412506103516 187.712493896484 185.449996948242 180.681243896484 178.600006103516 177.381256103516 178.9375 178.5 180.681243896484 184.050003051758 182.75 180.706253051758 176.65625 171.149993896484 161.168746948242 152.600006103516 141.193756103516 133.056243896484 125.043746948242 123.618751525879 123.474998474121 124.337501525879 127.987495422363 132.587493896484 135.612503051758 135.90625 135.625 133.381256103516 124.631248474121 118.337501525879 110.543746948242 105.900001525879 100.34375 97.15625 94.5625 94.90625 92.8499984741211 90.5562515258789 87.875 86.4124984741211 87.4437484741211 90.1374969482422 89.6374969482422 85.4937515258789 80.7624969482422 77.5500030517578 76.21875 
210.106246948242 204.493743896484 200.631256103516 197.09375 194.131256103516 187.774993896484 183.737503051758 178.606246948242 175.65625 174.199996948242 174.943756103516 178.112503051758 179.306243896484 180.675003051758 181.875 182.762496948242 180.699996948242 174.587493896484 163.768753051758 154.324996948242 146.081253051758 139.0625 131.881256103516 129.375 129.524993896484 129.456253051758 131.6875 134.668746948242 137.831253051758 135.681243896484 132.850006103516 128.5625 120.637496948242 112.881248474121 106.231246948242 101.131248474121 96.6875 91.6999969482422 90.1062469482422 88.9250030517578 86.4437484741211 85.375 84.3000030517578 83.0749969482422 85.5250015258789 88.09375 86.6062469482422 80.9749984741211 77.0500030517578 74.5062484741211 74.1687469482422 
202.693756103516 198.112503051758 196.337493896484 195.368743896484 193.574996948242 187.574996948242 180.387496948242 176 170.125 169.193756103516 171.412506103516 175.243743896484 179.931243896484 183.537506103516 184.537506103516 185 182.824996948242 177 166.850006103516 156.006256103516 148.806243896484 141.518753051758 136.293746948242 133.8125 133.40625 133.268753051758 136.324996948242 139.012496948242 140.606246948242 136.893753051758 130.9375 124.693748474121 115.5 108.474998474121 99.2624969482422 94.9812469482422 89.6875 87.46875 85.28125 82.9187469482422 80.3000030517578 78.3062515258789 77.2937469482422 76.9375 78.8499984741211 80.1374969482422 79.3812484741211 76.6937484741211 73.1624984741211 71.0374984741211 72.2062530517578 
197.818756103516 195.393753051758 192.262496948242 190.587493896484 188.03125 182.506256103516 175.243759155273 171.618743896484 166.618743896484 163.350006103516 164.962493896484 173.331253051758 181.28125 184.21875 186.506256103516 186.074996948242 183.668746948242 175.956253051758 168.318756103516 158.050003051758 151.837493896484 145.5625 140.46875 138.868743896484 137.931243896484 137.25 141.181243896484 143.524993896484 142.612503051758 137.012496948242 130.231246948242 122.712501525879 113.243751525879 103.925003051758 95.75 90.7624969482422 88.4437484741211 83.8562469482422 81.5250015258789 80.3062515258789 77.1750030517578 76.1812515258789 74.4250030517578 73.8312530517578 73.7375030517578 74.5687484741211 74.3249969482422 73.0562515258789 72.0749969482422 70.375 71.6999969482422 
194.125 193.350006103516 190.081253051758 188.112503051758 186.481246948242 179.9375 173.881256103516 167.956253051758 162.368743896484 155.193756103516 163.506256103516 180.024993896484 186.612503051758 187.787506103516 188.399993896484 187.256256103516 183.018753051758 175.162490844727 168.068756103516 157.693756103516 153.068756103516 147.993743896484 142.625 141.256256103516 140.862503051758 141.8125 143.943756103516 145.106246948242 143.725006103516 137.537506103516 130.206253051758 122.393753051758 112.181251525879 101.393753051758 93.6500015258789 89.6937484741211 86.1999969482422 82.4250030517578 79.2750015258789 76.6999969482422 73.5124969482422 71.5500030517578 71.5500030517578 71.2249984741211 70.9250030517578 70.1437530517578 71.9000015258789 70.1062469482422 69.1500015258789 68.9124984741211 71.0187530517578 
191.537506103516 190.600006103516 189.487503051758 186.875 186.356246948242 181.28125 175.818756103516 169.212493896484 163.981246948242 157.106246948242 176.387496948242 193.412506103516 195.112503051758 194.381256103516 192.362503051758 189.362503051758 183.75 176.856246948242 168.131256103516 159.862503051758 153.425003051758 149.074996948242 144.587493896484 143.306243896484 142.868743896484 143.425003051758 143.443756103516 147.150009155273 146.387496948242 138.006256103516 128.824996948242 120.506248474121 111.181251525879 99.9000015258789 90.6312484741211 86.9499969482422 84.3812484741211 80.3187484741211 78.3687515258789 74.7249984741211 71.6062469482422 69.9124984741211 67.7312469482422 66.2750015258789 66.5749969482422 67.2312469482422 67.8499984741211 68.5562515258789 67.4000015258789 67.6125030517578 70.4437484741211 
188.918746948242 187.756256103516 186.399993896484 185.125 181.881256103516 178.418746948242 176.181243896484 174.856246948242 176.481246948242 186.074996948242 209.275009155273 209.90625 202.631256103516 199.181243896484 195.40625 190.956253051758 185.412506103516 177.899993896484 169.856246948242 160.675003051758 152.912506103516 146.881256103516 143.8125 143.768753051758 142.125 142.037506103516 143.78125 146.612503051758 144.356246948242 138.193756103516 128.425003051758 117.987503051758 110.4375 102.356246948242 96.0187530517578 91.5062484741211 87.3937530517578 84.5812530517578 80.5250015258789 75.9250030517578 73.8812484741211 72.0437469482422 69.3625030517578 68.6812515258789 68.4499969482422 69.2437515258789 68.9250030517578 70.0124969482422 71.1812515258789 71.9562530517578 74.2312469482422 
189.381256103516 187.131256103516 186.737503051758 185.074996948242 183.212493896484 180.431243896484 177.800003051758 182.243743896484 187.949996948242 197.681243896484 207.375 210.8125 204.987503051758 200.043746948242 197.756256103516 191.050003051758 183.912490844727 176.118743896484 167.456253051758 159.875 151.175003051758 145.706253051758 140.5625 140.225006103516 140.125 140.868743896484 141.456253051758 142.975006103516 141.212493896484 135.725006103516 128.837493896484 122.268753051758 114.862503051758 108.162498474121 102.199996948242 96.8874969482422 92.0250015258789 88.8062515258789 84.4499969482422 78.3312530517578 75.4000015258789 73.65625 70.4937515258789 68.6875 69.9375 70.4124984741211 71.2437515258789 73.0437469482422 74.90625 75.7312469482422 78.5187530517578 
188.912506103516 187.875 187.537506103516 186.818756103516 183.625 179.856246948242 180.550003051758 187.606246948242 191.675003051758 197.699996948242 204.243743896484 205.106246948242 204.274993896484 199.787506103516 196.449996948242 190.131256103516 182.518753051758 173.975006103516 165.587493896484 157.78125 149.349990844727 142.349990844727 136.625 135.931243896484 137.274993896484 137.875 138.231246948242 139.606246948242 138.706253051758 133.40625 130.550003051758 126.675003051758 121.787498474121 115.925003051758 108.5625 104.1875 100.131248474121 95.6500015258789 88.5687484741211 82.5374984741211 77.2062530517578 72.9875030517578 70.3937530517578 70.3249969482422 71.8000030517578 73.2437515258789 73.7937469482422 75.0374984741211 79.0187530517578 80.9250030517578 83.1687469482422 
189.087493896484 188.125 188.918746948242 188.225006103516 185.118759155273 184.774993896484 186.237503051758 189.512496948242 193.668746948242 195.25 199.043746948242 199.731246948242 200.337493896484 195.53125 190.225006103516 185.59375 178.393753051758 171.40625 164.387496948242 154.118743896484 145.181243896484 137.149993896484 129.324996948242 129.118743896484 130.212493896484 130.868743896484 131.925003051758 135.131256103516 137.21875 133.487503051758 129.043746948242 128.574996948242 125.118751525879 124.46875 118.262496948242 111.493751525879 105.987503051758 100.050003051758 94.6374969482422 87.96875 81.4312515258789 75.1437530517578 71.8000030517578 73.4625015258789 76.4250030517578 77.4812469482422 77.8187484741211 79.4250030517578 82.4499969482422 84.0500030517578 86.5437469482422 
188.800003051758 189.918746948242 191.731246948242 186.850006103516 188.09375 188.206253051758 187.456253051758 188.65625 190.6875 191.618743896484 194.368743896484 194.625 193.387496948242 190.643753051758 186.143753051758 180.537506103516 172.574996948242 169.068756103516 162.081253051758 148.462493896484 137.356246948242 127.681251525879 122.493751525879 124.787498474121 125.568748474121 126.875 128.350006103516 131.568756103516 133.125 132.668746948242 131.043746948242 128.987503051758 128.831253051758 130.199996948242 129.787506103516 124.375 114.793746948242 108.8125 101.481246948242 94.9250030517578 88.0437469482422 81.6812515258789 77.0562515258789 78.1437530517578 80.6999969482422 81.6312484741211 82.1687469482422 84.0250015258789 88 87.84375 90.2937469482422 
191.4375 191.824996948242 194.012496948242 190.243743896484 191.3125 190.587493896484 187.993743896484 189.487503051758 190.90625 191.518753051758 191.724990844727 191.556243896484 190.59375 187.59375 184.293746948242 177.962493896484 170.806243896484 166.943756103516 162.675003051758 149.28125 134.756240844727 121.831253051758 117.512496948242 120.012496948242 121.849998474121 122.4375 123.6875 126.668754577637 128.443756103516 128.3125 129.293746948242 128.737503051758 130.293746948242 134.612503051758 137.693756103516 137.475006103516 128.362503051758 118.556251525879 110.993751525879 102.193748474121 94.0250015258789 88.9187469482422 86.1750030517578 86.0687484741211 86.3687515258789 86.7624969482422 88.15625 88.3874969482422 89.7249984741211 92.40625 93.4000015258789 
190.425003051758 194.206253051758 194.793746948242 193.893753051758 193.475006103516 191.856246948242 186.381256103516 186.568756103516 185.956253051758 187.1875 187.274993896484 187.618743896484 186.631256103516 183.318756103516 179.912506103516 174.899993896484 167.131256103516 160.693756103516 155.512496948242 143.274993896484 131.387496948242 119.337493896484 114.574996948242 115.5 117.875 119.1875 121.0625 122.25 124.287498474121 125.556251525879 127.262496948242 127.637504577637 129.956253051758 132.600006103516 137.712493896484 141.018753051758 132.96875 123.46875 115.962501525879 108.556251525879 100.349998474121 96.5125045776367 92.9312515258789 92.1687469482422 92.2312469482422 91.3312530517578 92.1937484741211 92.6437530517578 92.5687484741211 95.8562469482422 96.53125 
