ncols        51
nrows        45
xllcorner    -63.500000000000
yllcorner    -7.500000000000
cellsize     0.166666666667
NODATA_value -99
217.356246948242 217.881256103516 216.481246948242 218.493743896484 218.668746948242 216.4375 211.006256103516 205.725006103516 199.96875 196.237503051758 194.831253051758 191.225006103516 186.481246948242 179.306243896484 171.987503051758 164.625 157.418746948242 149.306243896484 142.493743896484 136.112503051758 132.143753051758 128.018753051758 124.40625 120.887496948242 117.875 115.275001525879 112.362503051758 109.768753051758 107.887496948242 107.268753051758 107.206253051758 107.381248474121 108.418746948242 109.918746948242 111.956253051758 114.443748474121 116.993751525879 119.362503051758 121.293746948242 122.956253051758 124.512496948242 125.21875 124.724998474121 123.181251525879 121.21875 118.0625 114.681251525879 109.493751525879 104.349998474121 98.5437469482422 93.5875015258789 
211.824996948242 212.84375 215.612503051758 221.868743896484 228.100006103516 225.206253051758 220.6875 217.881256103516 215.056243896484 211.78125 208.643753051758 202.662506103516 195.806243896484 188.037506103516 179.34375 171.318756103516 162.175003051758 153.25 145.175003051758 138.231246948242 133.631256103516 129.9375 126.506248474121 123.300003051758 120.287498474121 117.03125 114.706253051758 112.331253051758 110.275001525879 109.568748474121 110.775001525879 112.556251525879 114.712501525879 117.631248474121 120.106246948242 122.743751525879 126.262496948242 129.118743896484 131.512496948242 133.293746948242 135.262496948242 136.300003051758 135.96875 134.3125 132.081253051758 128.356246948242 124.28125 118.143753051758 111.431251525879 104.3125 98.2874984741211 
199.8125 202.043746948242 206.068756103516 214.425003051758 222.59375 223.824996948242 224.831253051758 227.337493896484 228.074996948242 226.131256103516 221.71875 213.425003051758 204.643753051758 195.112503051758 185.199996948242 175.899993896484 166.956253051758 158.53125 150.837493896484 144.318756103516 139.881256103516 136.987503051758 133.6875 129.8125 126.099998474121 122.787498474121 119.84375 117.106246948242 113.875 113.875 115.78125 117.5 120.106246948242 123.800003051758 127.224998474121 130.40625 133.981246948242 137.787506103516 140.824996948242 142.987503051758 145.237503051758 146.387496948242 146.40625 145.550003051758 142.462493896484 136.6875 131.606246948242 124.993751525879 116.668746948242 108.231246948242 101.193748474121 
185.837493896484 187.931243896484 194.824996948242 202.125 211.612503051758 217.175003051758 224.462493896484 233.018753051758 239.65625 240.387496948242 233.96875 222.643753051758 211.324996948242 200.668746948242 190.806243896484 180.506256103516 171.018753051758 163.981246948242 157.556243896484 152.106246948242 148.274993896484 144.731246948242 140.78125 136.625 132.206253051758 127.987503051758 124.4375 120.84375 117.431251525879 117.568748474121 119.65625 122.212501525879 124.568748474121 128.012496948242 131.387496948242 136.456253051758 141.274993896484 145.78125 149.65625 152.493743896484 154.09375 155.800003051758 156.431243896484 156.443756103516 151.568756103516 145.662506103516 138.112503051758 129.96875 120.84375 111.243751525879 103.449996948242 
180.59375 178.518753051758 181.024993896484 188.112503051758 199.381256103516 209.243743896484 220.493743896484 233.550003051758 247.237503051758 254.212493896484 244.118743896484 227.881256103516 215.537506103516 205.412506103516 194.862503051758 184.0625 174.981246948242 168.056243896484 162.418746948242 157.84375 155.118743896484 151.412506103516 147.362503051758 142.981246948242 137.931243896484 133.09375 128.274993896484 124.643753051758 121.53125 120.974998474121 122.9375 125.375 128.65625 132.481246948242 136.9375 142.09375 147.768753051758 153.6875 157.699996948242 160.862503051758 162.699996948242 163.90625 165.556243896484 165.993743896484 161.337493896484 153.100006103516 143.143753051758 133.574996948242 123.131248474121 114.012496948242 104.800003051758 
175.600006103516 173.71875 172.5625 174.012496948242 186.34375 199.699996948242 212.03125 225.581253051758 240.0625 251.40625 239.518753051758 223.925003051758 213.943756103516 204.9375 195.543746948242 187.175003051758 178.731246948242 172.987503051758 168.90625 165.100006103516 162.25 158.71875 154.793746948242 148.875 143.318756103516 137.862503051758 132.368743896484 127.59375 124.5625 123.618751525879 125.237503051758 128.399993896484 131.512496948242 135.856246948242 140.78125 146.818756103516 153.175003051758 160.518753051758 166.40625 168.637496948242 167.987503051758 169.40625 170.6875 172.175003051758 170.512496948242 159.368743896484 145.956253051758 134.21875 124.962501525879 115.5625 107.112503051758 
174.493743896484 172.300003051758 170.90625 171.081253051758 179.71875 189.8125 199.943756103516 209.149993896484 216.118743896484 219.462493896484 218.793746948242 213.1875 208.087493896484 202.643753051758 195.53125 189.212493896484 182.787506103516 177.868743896484 174.368743896484 172.162506103516 169.706253051758 166.324996948242 161.875 155.574996948242 149.425003051758 143.162506103516 137.381256103516 131.5625 126.9375 126.375 127.71875 130.018753051758 133.21875 138.118743896484 143.78125 149.449996948242 156.268753051758 164.149993896484 172.231246948242 172.362503051758 170.65625 170.318740844727 171.912506103516 174.462493896484 173.612503051758 162.443756103516 146.587493896484 132.862503051758 123.556251525879 115.174995422363 108.006248474121 
174.837509155273 171.993743896484 172.456253051758 175.306243896484 180.506256103516 187.231246948242 190.90625 190.768753051758 186.568756103516 188.037506103516 196.28125 199.381256103516 200.493743896484 198.818756103516 195.71875 191.381256103516 186.818756103516 183.149993896484 180.824996948242 180.043746948242 177.987503051758 174.256256103516 169.53125 162.856246948242 155.862503051758 148.256256103516 141.225006103516 134.0625 128.53125 126.712501525879 128.018753051758 130.512496948242 134.168746948242 139.368743896484 144.643753051758 150.024993896484 155.34375 162.056243896484 166.756256103516 167.300003051758 165.456253051758 164.199996948242 164.256256103516 165.362503051758 163.331253051758 153.537506103516 140.543746948242 128.518753051758 119.456253051758 112.775001525879 106.881248474121 
176.8125 175.606246948242 177.756256103516 180.568756103516 184.800003051758 188.375 189.0625 183.631256103516 171.668746948242 168.393753051758 181.043746948242 188.918746948242 193.774993896484 194.5625 194.824996948242 194.074996948242 192.206253051758 191.15625 190.925003051758 189.975006103516 187.193756103516 183.481246948242 176.90625 170.143753051758 161.331253051758 151.981246948242 143.106246948242 136.5625 130.65625 127.837501525879 128.793746948242 130.699996948242 133.506256103516 137.675003051758 141.862503051758 147.050003051758 152.100006103516 156.225006103516 157.931243896484 157.800003051758 155.375 152.231246948242 150.943756103516 148.737503051758 143.28125 136.375 127.837501525879 118.5 111.71875 107.4375 105.356246948242 
179.681243896484 179.425003051758 181.725006103516 185.637496948242 190.393753051758 193.300003051758 192.737503051758 186.681243896484 177.256256103516 174.243743896484 179.868743896484 184.8125 189.837493896484 192.268753051758 195.362503051758 197.824996948242 198.681243896484 200.087493896484 201.537506103516 203.087493896484 199.1875 193.862503051758 185.5625 176.050003051758 164.550003051758 154.074996948242 145.550003051758 137.706253051758 131.787506103516 128.918746948242 128.231246948242 129.662506103516 132.037506103516 135.912506103516 140.087493896484 144.262496948242 147.625 149.96875 150.293746948242 148.006256103516 144.375 139.75 135.225006103516 130.837493896484 124.606246948242 117.743751525879 111.90625 106.650001525879 102.15625 99.40625 96.6062469482422 
182.693756103516 183.024993896484 185.387496948242 189.537506103516 194.681259155273 200.59375 201.143753051758 194.293746948242 186.350006103516 183.125 184.737503051758 186.787506103516 188.925003051758 192.012496948242 196.975006103516 201.168746948242 205.106246948242 208.418746948242 212.0625 215.625 213.606246948242 205.949996948242 194.893753051758 180.600006103516 168.875 158.5625 149.875 141.756240844727 134.168746948242 130.837509155273 129.6875 130.143753051758 132.193756103516 135.237503051758 138.056243896484 140.662506103516 142.6875 142.78125 141.537506103516 137.949996948242 133.025009155273 127.181251525879 121.949996948242 115.28125 107.949996948242 102.125 97.2562484741211 93.9437484741211 90.4937515258789 87.375 83.21875 
185.006256103516 185.524993896484 188.324996948242 193.256256103516 199.106246948242 205.806243896484 208.425003051758 200.537506103516 193.456253051758 189.131256103516 188.318756103516 189.850006103516 191.350006103516 194.71875 200.743743896484 205.137496948242 209.800003051758 213.743743896484 218.256256103516 224.056243896484 225.237503051758 216.71875 203.212493896484 186.568756103516 171.931243896484 159.412506103516 149.712493896484 142.643753051758 136.256256103516 133.193756103516 130.637496948242 130.100006103516 130.9375 133.125 135.412506103516 136.59375 136.899993896484 136.300003051758 133.206253051758 128.8125 122.081245422363 115.400001525879 109.368751525879 103.087501525879 94.6187515258789 87.3187484741211 83.7687530517578 81.1500015258789 79.3625030517578 77.15625 72.125 
186.175003051758 187.300003051758 190.300003051758 194.581253051758 200.03125 205.018753051758 205.387496948242 201.481246948242 195.893753051758 193.050003051758 191.925003051758 192.818756103516 195.231246948242 197.15625 202.912506103516 208.574996948242 212.662506103516 217.443756103516 222.550003051758 227.743759155273 231.387496948242 223.800003051758 209.231246948242 191.868743896484 171.237503051758 157.162506103516 151.337493896484 144.59375 139.074996948242 135.387496948242 132.012496948242 129.587493896484 130.037506103516 130.806243896484 132.25 132.837493896484 132.175003051758 131.381256103516 128.262496948242 121.243751525879 113.981246948242 107.84375 100.724998474121 89.4000015258789 80.1312484741211 78.25 76.3125 73.6937484741211 71.1624984741211 68.6937484741211 64.1750030517578 
185.918746948242 187.15625 190.3125 194.137496948242 198.175003051758 201.59375 201.912506103516 200.618743896484 197.46875 194.462493896484 192.9375 194.293746948242 196.862503051758 200.143753051758 203.706253051758 209.449996948242 213.087493896484 217.050003051758 221.043746948242 225.012496948242 227.09375 221.162506103516 211.175003051758 196.256256103516 178.71875 165.28125 157.3125 149.318756103516 142.449996948242 136.743743896484 131.84375 128.862503051758 128.368743896484 128.649993896484 129.612503051758 130 129.493743896484 129.231246948242 126.137496948242 119.9375 110.618751525879 100.962501525879 93.2687530517578 85.4875030517578 78.0250015258789 75.4562530517578 75.0374984741211 72.9312515258789 68.8812484741211 64.9625015258789 59.4562492370605 
184.256256103516 186.106246948242 188.487503051758 192.1875 195.800003051758 198.318756103516 200.4375 200.456253051758 197.475006103516 195.131256103516 193.987503051758 195.1875 197.431259155273 200.643753051758 203.324996948242 208.34375 210.8125 212.625 214.556243896484 218.087493896484 219.987503051758 217.831253051758 212.96875 204.25 192.856246948242 180.274993896484 168.199996948242 156.59375 146.581253051758 138.125 131.256256103516 126.768753051758 125.931251525879 126.806251525879 127.581253051758 127.325004577637 127.943748474121 130.456253051758 130.543746948242 123.643753051758 112.525001525879 102.587501525879 95.375 88.5625 81.25 76.8187484741211 73.8375015258789 71.3499984741211 67.9749984741211 63.3187484741211 57.5125007629395 
181.074996948242 182.887496948242 185.71875 189.506256103516 192.956253051758 196.056243896484 198.175003051758 198.487503051758 196.699996948242 195.1875 193.306243896484 193.331253051758 195.506256103516 198.831253051758 202.112503051758 205.224990844727 205.1875 205.693756103516 206.662506103516 208.862503051758 210.699996948242 212.824996948242 214.418746948242 213.71875 206.612503051758 194.106246948242 179.818756103516 165.074996948242 151.487503051758 139.512496948242 130.556259155273 124.03125 122.337501525879 123.018753051758 122.862503051758 121.631248474121 125.493751525879 129.737503051758 132.981246948242 127.881248474121 119.21875 109.368751525879 100.612503051758 92.25 85.6437530517578 80.5437469482422 77.0500030517578 72.8062515258789 68.4124984741211 63.9500007629395 59.125 
175.943756103516 178.412506103516 182.568756103516 187.149993896484 190.693756103516 193.893753051758 196.399993896484 197.324996948242 196.131256103516 193.768753051758 191.443756103516 190.9375 191.675003051758 193.78125 195.850006103516 197.381256103516 195.137496948242 194.568756103516 195.512496948242 198.006256103516 200.712493896484 205.774993896484 213.550003051758 220.512496948242 219.743743896484 204.231246948242 188.5625 170.412506103516 153.449996948242 139.350006103516 129.431243896484 123.275001525879 118.6875 115.900001525879 114.412498474121 116.606246948242 122.106246948242 133.574996948242 144.431243896484 137.225006103516 127.368751525879 116.762496948242 105.775001525879 97.34375 90.7874984741211 85.4312515258789 80.3687515258789 76.0124969482422 72.4625015258789 67.1374969482422 62.7625007629395 
169.806243896484 173.350006103516 178.912506103516 184.25 188.793746948242 193.106246948242 196.300003051758 197.393753051758 195.987503051758 193.662506103516 191.074996948242 188.606246948242 187.1875 186.34375 186.3125 185.643753051758 182.918746948242 181.175003051758 182.787506103516 184.887496948242 188.618743896484 195.231246948242 205.15625 214.962493896484 217.15625 206.431243896484 193.643753051758 173.943756103516 154.0625 136.981246948242 125.381248474121 118.556251525879 116.737503051758 116.237503051758 111.693748474121 106.28125 117.943748474121 132.706253051758 141.350006103516 140.206253051758 132.024993896484 122.331253051758 111.693748474121 103.175003051758 96.125 90.6999969482422 85.4937515258789 80.6500015258789 77.09375 71.7874984741211 67.9499969482422 
162.399993896484 168 174.887496948242 181.625 187.762496948242 192.412506103516 195.943756103516 197.887496948242 197.362503051758 194.125 189.506256103516 185.774993896484 181.706253051758 178.068756103516 176.412506103516 175.649993896484 172.762496948242 169.975006103516 171.118743896484 172.449996948242 176.399993896484 186.362503051758 193.324996948242 202.731246948242 206.225006103516 202.737503051758 191.012496948242 173.362503051758 155.09375 135.71875 121.050003051758 118.231246948242 122.618751525879 121.5 117.775001525879 114.856246948242 121.8125 131.225006103516 137.731246948242 138.587493896484 133.962493896484 128.71875 117.943748474121 109.349998474121 102.237503051758 95.9312515258789 91.4000015258789 87.2937469482422 83.2874984741211 76.0250015258789 74.3625030517578 
154.306243896484 161.856246948242 169.84375 177.931243896484 185.6875 191.956253051758 196.84375 199.75 198.800003051758 195.581253051758 189.881240844727 183.587493896484 177.237503051758 171.181243896484 168.375 166.862503051758 163.168746948242 162.868743896484 163.875 166.581253051758 168.887496948242 175.34375 186.212493896484 194.381256103516 197.649993896484 194.425003051758 185.143753051758 173.112503051758 155.756256103516 138.118743896484 126.087501525879 126.893753051758 130.5625 134.225006103516 135.887496948242 132.743743896484 132.71875 135.868743896484 138.237503051758 138.40625 136.606246948242 132.5625 123.787498474121 115.224998474121 108.425003051758 102.599998474121 97.78125 93.5749969482422 88.6312484741211 82.8062515258789 80.9499969482422 
144.918746948242 154.612503051758 165.0625 175.287506103516 184.862503051758 191.824996948242 198.137496948242 202.087493896484 201.737503051758 197.743743896484 191.643753051758 183.975006103516 176.449996948242 168.456253051758 165.037506103516 162.362503051758 159.162506103516 158.418746948242 161.668746948242 164.324996948242 169.34375 176.399993896484 183.6875 189.34375 193.193756103516 192.487503051758 185.006256103516 171.949996948242 159.024993896484 148.806243896484 141.462493896484 140.037506103516 142.875 148.074996948242 153.824996948242 149.449996948242 144.118743896484 142.71875 141.71875 140.712493896484 138.787506103516 134.856246948242 127.987503051758 121.15625 115.006248474121 109.474998474121 105.318748474121 100.90625 95.0875015258789 91.375 88.7249984741211 
136.162506103516 147.975006103516 160.137496948242 172.0625 183.631256103516 192.09375 199.25 204.75 205.987503051758 201.637496948242 194.199996948242 185.418746948242 177.125 170.193756103516 166.006256103516 163.399993896484 161.637496948242 161.574996948242 163.787506103516 166.899993896484 169.675003051758 175.274993896484 182.393753051758 186.4375 188.306243896484 187.90625 183.631256103516 175.050003051758 166.899993896484 159.831253051758 154.149993896484 151.887496948242 153.806243896484 158.125 160.512496948242 157.824996948242 152.287506103516 148 145.181243896484 143.5625 141.225006103516 137.493743896484 132.493743896484 126.418746948242 121.574996948242 116.731246948242 113.256248474121 109.118751525879 104.212501525879 101.412498474121 97.8499984741211 
129.75 143.699996948242 157.356246948242 170.556243896484 182.399993896484 191.46875 199.75 207.356246948242 211.487503051758 205.662506103516 196.981246948242 186.699996948242 178.90625 173.149993896484 168.806259155273 165.868743896484 164.175003051758 165.274993896484 167.1875 169.5625 172.875 176.53125 181.3125 184.524993896484 185.587493896484 183.449996948242 181.350006103516 178.168746948242 172.40625 167.806243896484 164.693756103516 163.199996948242 163.743743896484 166.28125 167.006256103516 163.800003051758 158.449996948242 152.456253051758 148.912506103516 148.5625 146.912506103516 143.431243896484 138.78125 132.856246948242 128.175003051758 124.712501525879 122.043746948242 118.606246948242 113.90625 110.974998474121 108.6875 
125.46875 140.425003051758 155.975006103516 168.856246948242 180.768753051758 189.762496948242 197.587493896484 205.625 209.375 204.681243896484 195.943756103516 187.293746948242 180.350006103516 175.125 171.987503051758 169.556243896484 168.637496948242 169.8125 171.524993896484 173.506256103516 176.6875 180.550003051758 183.206253051758 184.8125 184.300003051758 180.381256103516 176.6875 176.643753051758 175.875 173.975006103516 172.137496948242 170.943756103516 171.481246948242 172.606246948242 172.956253051758 171.074996948242 166.600006103516 160.543746948242 157.581253051758 156.368743896484 154.681243896484 151.324996948242 146.412506103516 140.074996948242 137.431243896484 135.181243896484 132.931243896484 128.78125 126.900001525879 120.724998474121 118.349998474121 
125.275001525879 139.318756103516 155.493743896484 167.418746948242 179 187.1875 193.987503051758 200.006256103516 202.506256103516 200.443756103516 195.256240844727 188.40625 182.78125 178.350006103516 175.725006103516 174.412506103516 173.725006103516 175.162506103516 176.912506103516 179.03125 181.668746948242 183.6875 186.518753051758 186.862503051758 186.068756103516 184.600006103516 181.28125 180.600006103516 180.256256103516 179.09375 177.493743896484 175.475006103516 177.006256103516 177.762496948242 178.381256103516 176.581253051758 174.475006103516 171.693756103516 168.556243896484 167.368743896484 165.40625 161.462493896484 156.050003051758 150.5625 145.556243896484 143.818756103516 141.581253051758 144.75 143.28125 133.543746948242 130.71875 
126.662498474121 138.556243896484 151.606246948242 164.5625 175.712493896484 182.993743896484 188.918746948242 193.956253051758 196.8125 197.006256103516 192.912506103516 188.668746948242 184.21875 180.699996948242 179.65625 178.987503051758 179.225006103516 180.556243896484 182.65625 184.743743896484 187.143753051758 188.600006103516 190.756256103516 191.012496948242 190.731246948242 190.131256103516 187.987503051758 186.118743896484 185 183.925003051758 180.925003051758 179.975006103516 182.056243896484 182.768753051758 184.193756103516 183.456253051758 182.699996948242 182.237503051758 180.362503051758 179.324996948242 177.668746948242 173.793746948242 167.918746948242 162.637496948242 157.493743896484 151.962493896484 160.21875 165.318756103516 162.681243896484 155.487503051758 149.462493896484 
130.262496948242 137.987503051758 148.762496948242 159.662506103516 169.375 176.768753051758 182.537506103516 187.606246948242 190.206253051758 190.681243896484 190.300003051758 188.143753051758 185.550003051758 183.481246948242 182.862503051758 183.293746948242 183.28125 185.481246948242 187.475006103516 189.443756103516 191.887496948242 193.206253051758 194.806243896484 196.462493896484 195.625 195.100006103516 192.524993896484 190.199996948242 188.831253051758 187.050003051758 185.256256103516 183.068756103516 186.043746948242 188.15625 189.625 190.356246948242 191.037506103516 191.8125 191.78125 192.756256103516 192.300003051758 189.78125 185.100006103516 180.081253051758 177.737503051758 181.649993896484 189.274993896484 187.09375 181.612503051758 172.331253051758 164.675003051758 
133.462493896484 138.368743896484 146.675003051758 155.475006103516 163.412506103516 170.337493896484 176.699996948242 181.46875 184.34375 186.418746948242 187.074996948242 186.668746948242 186.412506103516 185.193756103516 185.78125 186.850006103516 188.118743896484 189.668746948242 192.199996948242 195.037506103516 196.8125 198.018753051758 200.425003051758 200.899993896484 200.100006103516 199.806243896484 197.53125 195.068756103516 192.043746948242 189.818740844727 187.199996948242 185.631256103516 189.274993896484 192.262496948242 195.793746948242 196.96875 198.112503051758 201.274993896484 202.556243896484 205.875 209.368743896484 207.4375 201.956253051758 199.206253051758 204.925003051758 214.256256103516 218.412506103516 210.581253051758 200.243743896484 188.618743896484 178.574996948242 
136.518753051758 139.225006103516 144.850006103516 151.818740844727 158.149993896484 164.0625 169.737503051758 175.074996948242 178.837493896484 182.462493896484 185.012496948242 186.0625 186.818756103516 186.8125 188.625 190.28125 192.449996948242 194.356246948242 196.78125 199.75 201.137496948242 202.774993896484 204.893753051758 204.862503051758 203.931243896484 203.893753051758 201.381256103516 198.362503051758 196.125 193.018753051758 189.306243896484 187.668746948242 191.975006103516 196.037506103516 200.475006103516 203 205.09375 208.362503051758 210.256256103516 214.762496948242 220.887496948242 219.943756103516 215.875 217.199996948242 227.043746948242 237.306243896484 239.881256103516 228.643753051758 217.387496948242 205.356246948242 190.543746948242 
139.493743896484 140.318756103516 144.068756103516 148.368743896484 153.350006103516 158.125 163.787506103516 169.637496948242 174.699996948242 178.625 182.925003051758 184.800003051758 187.306243896484 188.800003051758 190.806243896484 193.368743896484 194.943756103516 197.925003051758 200.118743896484 201.831253051758 203.881240844727 205.756256103516 207.256256103516 206.287506103516 205.693756103516 206.3125 203.331253051758 199.725006103516 196.381256103516 193.725006103516 191.418746948242 190.206253051758 194.6875 199.975006103516 204.631256103516 207.574996948242 210.03125 214.212493896484 214.337493896484 217.206253051758 222.743743896484 227.106246948242 227.618743896484 233.118743896484 240.706253051758 249.100006103516 251.34375 245.006256103516 233.725006103516 220.681259155273 204.018753051758 
142.006256103516 140.800003051758 143.15625 145.037506103516 148.612503051758 153.962493896484 159.356246948242 165.168746948242 170.362503051758 174.987503051758 180.625 184.350006103516 188.65625 191.46875 193.1875 195.918746948242 198.475006103516 200.731246948242 202.743743896484 204.78125 206.131256103516 208.024993896484 209.537506103516 208.106246948242 207.306259155273 206.975006103516 203.800003051758 199.881256103516 196.143753051758 194.024993896484 193.037506103516 192.662506103516 197.581253051758 203.643753051758 208.962493896484 211.393753051758 214.637496948242 219.225006103516 218.112503051758 215.21875 221.21875 230.699996948242 237.756256103516 244.262496948242 251.431243896484 260.825012207031 263.493743896484 258.806243896484 248.356246948242 234.181259155273 219.487503051758 
143.506256103516 140.712493896484 140.993743896484 142.431243896484 145.756256103516 149.649993896484 154.668746948242 160.40625 166.018753051758 171.618743896484 177.8125 183.306243896484 188.262496948242 192.84375 196 198.793746948242 200.524993896484 201.856246948242 204.90625 206.881256103516 208.006256103516 209.543746948242 211 208.9375 207.962493896484 206.856246948242 203.3125 199.337493896484 195.350006103516 194.456253051758 194.300003051758 194.318756103516 199.893753051758 207.018753051758 212.125 215.34375 219.181243896484 223.787506103516 221.362503051758 220.225006103516 227.518753051758 239.012496948242 247.743743896484 257.100006103516 264.893737792969 276.587493896484 280.643737792969 275.387512207031 262.625 248.381256103516 233.837493896484 
145.743743896484 142.087493896484 141.368743896484 142.143753051758 143.587493896484 146.693756103516 150.587493896484 155.149993896484 160.612503051758 166.918746948242 176.125 181.993743896484 188.931243896484 195.625 198.574996948242 200.475006103516 201.181243896484 202.712493896484 205.050003051758 206.912506103516 207.5625 208.612503051758 209.206253051758 207.525009155273 205.949996948242 204.393753051758 200.824996948242 196.5 192.893753051758 193.912506103516 194.893753051758 196.256256103516 200.800003051758 208.399993896484 215.706253051758 221.256256103516 225.243743896484 228.65625 228.581253051758 233.006256103516 241.131256103516 251.449996948242 261.256256103516 270.825012207031 282.943756103516 298.118743896484 302.537506103516 290.768737792969 278.299987792969 262.981262207031 247.543746948242 
146.987503051758 143.350006103516 142.212493896484 141.949996948242 141.375 143.737503051758 146.625 150.268753051758 154.893753051758 161.712493896484 170.412506103516 180 190.274993896484 196.725006103516 200.262496948242 201.4375 201.831253051758 203.456253051758 204.46875 206.625 206.71875 206.96875 207.106246948242 204.237503051758 202.856246948242 201.068756103516 196.975006103516 192.75 189.893753051758 192.050003051758 195.056243896484 198.243759155273 204.25 210.868759155273 219.5 225.65625 230.006256103516 234.199996948242 237.787506103516 244.774993896484 252.118743896484 262.450012207031 274.3125 285.206237792969 298.443756103516 312.362487792969 313.712493896484 301.962493896484 288.487487792969 275 259.581237792969 
148.237503051758 144.918746948242 142.449996948242 141.274993896484 139.612503051758 141.018753051758 142.768753051758 145.643753051758 149 155.574996948242 165.412506103516 177.212493896484 190.09375 199.512496948242 201.100006103516 201.774993896484 202.050003051758 203.193756103516 204.225006103516 205.087493896484 205.09375 204.418746948242 203.9375 200.399993896484 198.543746948242 196.537506103516 192.981246948242 189.618743896484 187.09375 190.149993896484 194.212493896484 199.306243896484 206.018753051758 214.037506103516 222.012496948242 227.699996948242 232.706253051758 239.956253051758 245.65625 252.993759155273 261.162506103516 270.493743896484 282.649993896484 293.6875 305.15625 313.112487792969 315.21875 307.524993896484 296.268737792969 283.143737792969 269.399993896484 
149.71875 146.493743896484 144.393753051758 142.162506103516 140.193756103516 140.787506103516 140.987503051758 142.081253051758 144.231246948242 149.149993896484 159.443756103516 172.600006103516 187.375 197.5625 200.09375 200.600006103516 200.462493896484 201.65625 202.456253051758 202.600006103516 202.318756103516 201.587493896484 199.399993896484 195.949996948242 193.5 190.837509155273 187.5 184.731246948242 182.800003051758 187.274993896484 192.268753051758 198.149993896484 205.337493896484 214.418746948242 221.725006103516 227.018753051758 235.418746948242 242.381240844727 248.962493896484 256.4375 265.53125 274.837493896484 283.106262207031 294 304.037506103516 308.4375 309.756256103516 306.256256103516 298.09375 286.443756103516 272.612487792969 
151.337493896484 148.412506103516 146.143753051758 143.831253051758 141.643753051758 140.868743896484 139.731246948242 139.149993896484 139.681243896484 141.600006103516 152.681243896484 170.09375 183.731246948242 192.956253051758 196.899993896484 198.40625 198.168746948242 199.231246948242 199.231246948242 198.675003051758 197.731246948242 196.231246948242 194.399993896484 190.3125 187.168746948242 184.518753051758 181.493743896484 179.350006103516 178.587493896484 183.84375 190.25 196.21875 205.137496948242 214.481246948242 220.943756103516 228.612503051758 236.881256103516 245.4375 252.21875 259.212493896484 267.762512207031 274.268737792969 282.799987792969 293.325012207031 301.700012207031 304.556243896484 307.625 305.106262207031 297.493743896484 287.975006103516 275.581237792969 
153.0625 150.487503051758 148.024993896484 145.706253051758 143.524993896484 141.8125 140.618743896484 139.199996948242 139.475006103516 139.268753051758 154.4375 171.71875 182.506256103516 190.90625 194.456253051758 196.03125 195.693756103516 196.1875 196.050003051758 194.612503051758 192.668746948242 189.806243896484 187.443756103516 183.100006103516 180.456253051758 177.993743896484 175.243743896484 173.837493896484 173.75 180.181243896484 186.587493896484 194.018753051758 203.524993896484 212.5 220.456253051758 227.556243896484 237.1875 245.337493896484 253.75 261.606262207031 267.3125 274.206237792969 279.956237792969 287.549987792969 293.9375 297.293731689453 301.568756103516 301.90625 294.78125 286.475006103516 275.881256103516 
155.318756103516 152.699996948242 150.78125 148.675003051758 146.581253051758 145.012496948242 144 144.431243896484 146.756256103516 154.287506103516 169.787506103516 178.087493896484 183.912506103516 189.868743896484 193.487503051758 195.300003051758 195.087509155273 194.581253051758 192.793746948242 191.106246948242 187.206253051758 183.418746948242 180.675003051758 176.78125 173.8125 172.324996948242 171.181243896484 171.037506103516 171.456253051758 177.425003051758 184.6875 191.643753051758 199.831253051758 208 217.262496948242 225.65625 233.143753051758 241.225006103516 248.981246948242 253.168746948242 259.206237792969 264.837493896484 268.6875 274.693756103516 280.012512207031 283.100006103516 283.75 284.649993896484 280.381256103516 276.268737792969 266.306243896484 
158 155.493743896484 154.03125 152.418746948242 150.3125 149.71875 148.975006103516 150.75 154.600006103516 162.256256103516 171.856246948242 179.800003051758 185.618743896484 189.987503051758 193.524993896484 194.78125 194.868759155273 193.556243896484 190.306243896484 186.681243896484 181.675003051758 176.731246948242 172.875 169.506256103516 168.012496948242 166.90625 166.862503051758 168.106246948242 169.625 175.399993896484 181.612503051758 188.962493896484 198.256256103516 206.03125 215.212493896484 222.106246948242 228.15625 235.274993896484 242.418746948242 244.337493896484 248.3125 253.300003051758 255.956253051758 260.21875 263.418762207031 265.737487792969 267.806243896484 268.693756103516 266.8125 263.649993896484 255.537506103516 
160.824996948242 158.84375 157.481246948242 155.90625 154.743743896484 153.662506103516 154.212493896484 155.943756103516 159.918746948242 166.081253051758 173.231246948242 180.074996948242 186.6875 190.774993896484 194.28125 195.600006103516 194.918746948242 192.787506103516 188.199996948242 182.637496948242 175.918746948242 169.362503051758 165.068756103516 162.568756103516 162.637496948242 161.96875 162.762496948242 164.899993896484 167.306243896484 172.712493896484 179.993743896484 188.675003051758 196.881256103516 204.65625 212.675003051758 218.612503051758 224.4375 229.943756103516 234.962493896484 236.481246948242 238.587493896484 241.21875 242.399993896484 245.699996948242 248.856246948242 252.768753051758 254.4375 252.631256103516 253.774993896484 251.21875 244.8125 
163.78125 163.274993896484 161.931243896484 160.212493896484 158.862503051758 157.725006103516 158.425003051758 160.050003051758 164.362503051758 169.581253051758 176.112503051758 182.493743896484 189.25 193.668746948242 196.456253051758 197.662506103516 197.331253051758 193.856246948242 189.081253051758 180.943756103516 171.8125 165.25 160.40625 158.443756103516 159.818756103516 159.725006103516 160.475006103516 162.806243896484 166.600006103516 173.556243896484 178.837493896484 187.068756103516 195.050003051758 204.399993896484 211.956253051758 215.337493896484 219.3125 223.90625 226.612503051758 226.793746948242 228.050003051758 226.649993896484 226.650009155273 231.131256103516 235 239.375 239.993759155273 238.324996948242 240.862503051758 237.993743896484 232.581253051758 
167.731246948242 167.100006103516 167.03125 165.15625 162.368743896484 160.831253051758 161.274993896484 162.524993896484 166.143753051758 171.868743896484 178.675003051758 185.581253051758 192.475006103516 196.71875 199.800003051758 200.550003051758 199.537506103516 197.5 191.693756103516 180.481246948242 168.768753051758 159.550003051758 155.537506103516 156.287506103516 157.631256103516 158.5625 159.643753051758 162.037506103516 166.21875 172.3125 178.037506103516 183.774993896484 191.09375 199.618743896484 209.131256103516 214.53125 214.943756103516 217.425003051758 218.106246948242 217.800003051758 217.543746948242 216.34375 215.831253051758 218.662506103516 222.1875 224.056243896484 226.399993896484 225.899993896484 228.306243896484 226.443756103516 221.487503051758 
171.050003051758 171.381256103516 171.668746948242 169.550003051758 165.743743896484 163.131256103516 162.193756103516 163.850006103516 167.193756103516 173.206253051758 181.231246948242 189.081253051758 195.337493896484 200.306243896484 203.449996948242 203.618743896484 202.118743896484 199.306243896484 195.0625 182.631256103516 168.649993896484 157.137496948242 153.262496948242 154.449996948242 156.050003051758 158.050003051758 159.112503051758 162.050003051758 165.774993896484 171.231246948242 175.568756103516 180.143753051758 186.418746948242 194.725006103516 204.449996948242 213.449996948242 212.556243896484 211.425003051758 210.762496948242 209.0625 208.331253051758 207.024993896484 206.28125 209.0625 210.774993896484 210.975006103516 213.131256103516 214.043746948242 213.618743896484 214.399993896484 210.787506103516 
173.462493896484 175.256256103516 176.993743896484 173.706253051758 168.518753051758 164.893753051758 161.737503051758 162.068756103516 166.118743896484 173.4375 182.462493896484 191.543746948242 199.21875 204.456253051758 207.693756103516 206.962493896484 204.493743896484 200.149993896484 193.918746948242 183.912506103516 170.899993896484 162.25 156.125 155.1875 157.0625 158.625 160.3125 162.75 166.856246948242 171.78125 175.337493896484 179.737503051758 185.112503051758 191.287506103516 199.331253051758 207.78125 208.5 206.481246948242 204.712493896484 203.831253051758 202.756256103516 201.125 200.8125 201.106246948242 202.287506103516 202.762496948242 204.037506103516 205.28125 204.256256103516 205.899993896484 203.324996948242 
