ncols        51
nrows        45
xllcorner    -63.500000000000
yllcorner    -7.500000000000
cellsize     0.166666666667
NODATA_value -99
235.112503051758 236.393753051758 238.043746948242 244.762496948242 247.524993896484 247.631256103516 246.774993896484 241.793746948242 239.518753051758 240.987503051758 245.649993896484 249.96875 253.068756103516 254.275009155273 255.431243896484 257.268737792969 260.3125 259.743743896484 261.918762207031 264.287506103516 267.012512207031 271.118743896484 274.350006103516 278.806243896484 280.96875 285.899993896484 288.912506103516 293.6875 296.950012207031 299.049987792969 301.475006103516 303.975006103516 304.125 305.918762207031 307.450012207031 310.762512207031 312.162506103516 313.837493896484 319.125 322.756256103516 326.337493896484 329.575012207031 329.662506103516 331.700012207031 331.78125 331.575012207031 330.087493896484 325.493743896484 322.881256103516 321.731262207031 318.84375 
241.537506103516 241.881256103516 248.868743896484 256.018737792969 262.512512207031 261.287506103516 258.606262207031 257.4375 256.856262207031 257.806243896484 261.462493896484 263.756256103516 265.993743896484 266.962493896484 266.206237792969 268.25 268.943756103516 269.799987792969 271.556243896484 272.725006103516 274.887512207031 277.65625 282.149993896484 285.118743896484 289.131256103516 293.3125 296.381256103516 301.75 303.793762207031 304.806243896484 307.5625 311.149993896484 311.762512207031 314.518737792969 315.200012207031 317.962493896484 321.362487792969 323.274993896484 327.799987792969 330.25 332.643737792969 336.212493896484 336.556243896484 336.337493896484 335.325012207031 334.756256103516 334.662506103516 329.356262207031 326.381256103516 324.03125 322.024993896484 
246.418746948242 249.1875 255.1875 264.100006103516 271.774993896484 272.518737792969 272.318756103516 273.325012207031 276.53125 277.518737792969 278.268737792969 278.162506103516 279.431243896484 277.662506103516 276.5 277.21875 277.331237792969 278.412506103516 279.318756103516 281.5 284.625 288.387512207031 291.450012207031 294.362487792969 299.024993896484 303.193756103516 307.706237792969 309.768737792969 310.1875 312.225006103516 314.475006103516 316.837493896484 320.331237792969 322.756256103516 322.600006103516 324.600006103516 329.8125 333.737487792969 337.174987792969 339.918762207031 342.256256103516 343.606231689453 343.774993896484 344.012512207031 342.575012207031 341.3125 339.581237792969 334.331237792969 329.8125 326.712493896484 323.831237792969 
247.175003051758 251.193756103516 260.693756103516 267.96875 275.524993896484 279.975006103516 283.081237792969 286.918762207031 293.450012207031 297.274993896484 296.337493896484 292.899993896484 289.881256103516 287.831237792969 285.575012207031 285.662506103516 286.081237792969 286.90625 287.931243896484 290.581237792969 295.149993896484 299.03125 300.899993896484 304.78125 309.03125 311.543762207031 316.756256103516 317.306243896484 317.487487792969 321.15625 323.325012207031 325.543762207031 326.418762207031 328.443756103516 328.643737792969 333.231262207031 338 342.206237792969 347.706237792969 348.962493896484 351.106262207031 353.493743896484 351.206237792969 349.450012207031 349.0625 344.8125 342.931243896484 337.356231689453 331.5 329.21875 326.012512207031 
259.981262207031 260.306243896484 262.731262207031 270.012481689453 280.056243896484 285.806243896484 289.524993896484 296.575012207031 307.174987792969 315.3125 311.493743896484 302.456237792969 298.393737792969 296.15625 293.34375 292.637512207031 291.987487792969 293.331237792969 294.506256103516 297.049987792969 302.8125 306.21875 308.799987792969 314.325012207031 316.018737792969 318.462493896484 321.40625 325.399993896484 327.762512207031 329.268737792969 331.475006103516 330.606262207031 331.21875 333.993743896484 335.662506103516 340.431243896484 344.543762207031 349.65625 355.84375 357.606262207031 361.049987792969 359.287506103516 357.556243896484 357.262512207031 354.762512207031 349.637512207031 343.875 338.424987792969 332.662506103516 329.549987792969 327.84375 
266.606262207031 268.700012207031 271.518737792969 272.84375 281.856262207031 289.424987792969 293.987487792969 301.774993896484 312.568756103516 323.231262207031 316.412506103516 307.912506103516 304.575012207031 302.631256103516 299.174987792969 298.693756103516 296.137512207031 297.174987792969 300.462493896484 303.90625 308.049987792969 311.287506103516 316.53125 320.387512207031 323.387512207031 326.84375 329.03125 331.950012207031 333.706237792969 334.625 336.21875 337.862487792969 336.731262207031 339.850006103516 344.337493896484 348.943756103516 355.96875 361.9375 367.487487792969 371.256256103516 370.462493896484 367.924987792969 366.674987792969 366.556243896484 365.03125 357.96875 349.774993896484 342.549987792969 336.012512207031 330.262512207031 325.59375 
274.631256103516 276.856262207031 279.743743896484 280.075012207031 281.5625 285.381256103516 290.1875 296.90625 303.03125 307.549987792969 309.043762207031 307.856262207031 309.087493896484 307.34375 304.943756103516 305.299987792969 303.112487792969 301.131256103516 302.575012207031 307.368743896484 312.962493896484 317.887512207031 322.975006103516 324.818756103516 328.831237792969 333.237487792969 336.15625 336.768737792969 337.649993896484 339.018737792969 341.450012207031 342.34375 343.65625 345.256256103516 350.112487792969 355.84375 361.924987792969 369.681243896484 377.850006103516 380.587493896484 375.737487792969 373.587493896484 372.75 372.274993896484 372.306243896484 362.90625 354.199981689453 344.09375 335.131256103516 330.1875 325.506256103516 
283.424987792969 283.818756103516 284.762512207031 286.587493896484 288.225006103516 289.612487792969 287.71875 285.412506103516 284.043762207031 287.84375 298.018737792969 305.618743896484 310.443756103516 312.049987792969 311.643737792969 310.799987792969 308.28125 306.024993896484 304.831237792969 309.943756103516 317.524993896484 323.868743896484 328.15625 330.475006103516 336.09375 338.149993896484 340.15625 340.862487792969 341.993743896484 344.181243896484 344.149993896484 345.137512207031 347.362487792969 350.25 354.700012207031 357.9375 364.899993896484 371.825012207031 377.200012207031 378 375.487487792969 375.012512207031 373.512512207031 371.318756103516 369.012512207031 360.431243896484 348.831237792969 338.268737792969 331.731262207031 325.53125 320.762512207031 
290.34375 291.137512207031 291.543762207031 291.587493896484 292.643737792969 292.018737792969 290.5 286.237487792969 278.793762207031 277.674987792969 291.456237792969 302.850006103516 314.493743896484 317.862487792969 316.825012207031 316.65625 315.556243896484 314.568756103516 315.381256103516 318.237487792969 320.125 328.393737792969 332.34375 337.1875 341.737487792969 341.518737792969 342.149993896484 343.412506103516 344.431243896484 346.668762207031 348.875 347.831237792969 348.9375 349.768737792969 354.643737792969 358.856262207031 366.125 370.756256103516 375.362487792969 375.300018310547 373.299987792969 370.9375 370.549987792969 369.6875 362.96875 353.924987792969 345.512512207031 334.018737792969 324.34375 318.518737792969 316.700012207031 
296.818756103516 296.018737792969 296.893737792969 297.106262207031 296.856262207031 296.674987792969 296.112487792969 292.46875 290.46875 293.518737792969 303.274993896484 310.862487792969 320.049987792969 323.868743896484 324.543762207031 323.25 322.450012207031 323 324.09375 329.46875 330.850006103516 334.537506103516 337.325012207031 343.46875 344.050018310547 341.556243896484 341.53125 342.325012207031 344.625 349.774993896484 349.399993896484 347.081237792969 347.662506103516 349.075012207031 353.081237792969 358.606262207031 363.043762207031 367.568756103516 370.868743896484 372.818756103516 372.975006103516 370.59375 368.174987792969 362.149993896484 357.618743896484 353.793762207031 343.881256103516 330.431243896484 318.9375 312.237487792969 307.475006103516 
303.337493896484 303.34375 303.34375 302.881256103516 300.881256103516 301.40625 301.943756103516 300.243743896484 302.46875 307.78125 317.181243896484 326.018737792969 329.03125 331.862487792969 330.293762207031 328.075012207031 327.825012207031 329.737487792969 332.862487792969 337.549987792969 343.125 344.981262207031 343.9375 339.543762207031 343.59375 341.362487792969 338.78125 338.65625 339.399993896484 344.625 344.762512207031 342.75 344.15625 345.825012207031 349.700012207031 352.024993896484 355.893737792969 360.700012207031 364.6875 367.012512207031 366.71875 363.825012207031 363.462493896484 359.743743896484 353.700012207031 348.806243896484 338.950012207031 322.381256103516 312.668762207031 307.1875 298.706237792969 
306.950012207031 306.200012207031 305.850006103516 308.4375 307.96875 307.112487792969 309.674987792969 311.443756103516 316.143737792969 322.568756103516 331.924987792969 340.700012207031 338.674987792969 337.549987792969 335.15625 333.306243896484 332.243743896484 334.049987792969 337.787506103516 343.149993896484 347.674987792969 349.1875 348.4375 346.9375 342.362487792969 334.674987792969 331.71875 330.331237792969 331.518737792969 334.418762207031 335.424987792969 335.049987792969 335.543762207031 337.8125 341.549987792969 345.149993896484 350.612487792969 356.299987792969 357.25 356.831237792969 357.549987792969 355.825012207031 354.006256103516 346.46875 340.324981689453 330.131256103516 315.856262207031 307.168762207031 302.293762207031 300.293731689453 290.018737792969 
311.256256103516 310.087493896484 310.118743896484 311.606262207031 312.850006103516 315.90625 317.387512207031 319.012512207031 323.75 332.8125 341.887512207031 349.6875 347.837493896484 338.387512207031 335.331237792969 335.65625 333.456237792969 334.931243896484 339.737487792969 343.21875 347.40625 346.850006103516 342.649993896484 339.993743896484 327.9375 318.4375 319.375 318.581237792969 321.543762207031 323.787506103516 325.100006103516 324.862487792969 325.28125 327.75 330.537506103516 336.612487792969 343.09375 349.193756103516 351.46875 351.137512207031 346.231262207031 346.40625 341.587493896484 334.725006103516 332.6875 326.793762207031 314.662506103516 299.524993896484 291.881256103516 293.706237792969 291.306243896484 
314.262512207031 312.943756103516 311.987487792969 313.0625 316.375 319.487487792969 321.09375 323.818756103516 330.25 337.899993896484 343.700012207031 346.131256103516 345.075012207031 339.056243896484 332.706237792969 334.037506103516 331.875 331.018737792969 335.818756103516 337.243743896484 339.493743896484 336.53125 332.981262207031 325.106262207031 315.600006103516 307.868743896484 307.649993896484 308.193756103516 310.162506103516 313.225006103516 314.612487792969 315.631256103516 314.056243896484 316.399993896484 320.625 328.237487792969 335.40625 343.856262207031 348.28125 346.293762207031 337.424987792969 330.856231689453 331.606262207031 333.731262207031 335.306243896484 326.649993896484 316.78125 307.149993896484 297.850006103516 300.543762207031 301.725006103516 
314.84375 313.931243896484 313.875 315.612487792969 319.743743896484 322.806243896484 325.868743896484 328.693756103516 333.006256103516 338.118743896484 342.512512207031 344.049987792969 341.512512207031 336.149993896484 328.693756103516 326.149993896484 325.487487792969 328.368743896484 331.9375 333.368743896484 332.487487792969 330.637512207031 324.518737792969 316.587493896484 307.975006103516 302.299987792969 301.581237792969 303.049987792969 305.518737792969 307.256256103516 306.34375 303.9375 305.387512207031 306 308.662506103516 315.581237792969 328.756256103516 342.125 347.393737792969 343.787506103516 336.549987792969 333.618743896484 337.837493896484 335.399993896484 333.668762207031 329.243743896484 324.256256103516 316.668762207031 312.287506103516 308.018737792969 305.418762207031 
313.34375 312.381256103516 314.65625 318.068756103516 321.787506103516 325.15625 328.174987792969 331.481262207031 337.181243896484 340.493743896484 343.106262207031 343.237487792969 340.637512207031 333.8125 324.331237792969 314.943756103516 318.450012207031 325.524993896484 327.612487792969 329.443756103516 327.887512207031 323.337493896484 316.024993896484 308.975006103516 300.856262207031 296.875 295.46875 298.106262207031 300.793762207031 303.21875 304.524993896484 301.556243896484 296.256256103516 294.612487792969 294.356262207031 308.412506103516 322.256256103516 337.200012207031 345.118743896484 348.46875 345.475006103516 343.84375 341.762512207031 335.618743896484 331.612487792969 326.831237792969 322.03125 316.575012207031 312.475006103516 308.450012207031 303.387512207031 
310.3125 311 314.950012207031 319.5 323.262512207031 326.856262207031 332.012512207031 335.549987792969 338.950012207031 342.237487792969 343.418762207031 343.081237792969 339.174987792969 332.606262207031 325.4375 319.331237792969 315.024993896484 319.28125 324.225006103516 327.256256103516 324.706237792969 320.34375 312.381256103516 302.149993896484 294.78125 290.206237792969 290.418762207031 293.15625 297.524993896484 301.431243896484 302.243743896484 299.71875 295.143768310547 292.556243896484 298.168762207031 308.137512207031 323.225006103516 340.106262207031 354.837493896484 357.706237792969 357.174987792969 352.6875 343.5625 335.450012207031 329.625 325.256256103516 321.674987792969 318.75 316.231262207031 308.5 303.056243896484 
305.59375 308.893737792969 313.287506103516 320.606262207031 325.231262207031 330.337493896484 336.649993896484 339.087493896484 341.799987792969 343.081237792969 342.493743896484 341.393737792969 337.34375 332.793762207031 326.912506103516 322.693756103516 318 312.393737792969 321.056243896484 325.143737792969 324.306243896484 318.287506103516 309.90625 300.256256103516 294.293762207031 290.481262207031 288.168762207031 293.793762207031 299.59375 302.274993896484 298.649993896484 288.443756103516 290.518737792969 292.956237792969 296.59375 310.3125 325.100006103516 340.412506103516 352.368743896484 361.075012207031 357.918762207031 352.443756103516 344.34375 336.049987792969 330.918762207031 326.287506103516 322.899993896484 319.981262207031 317.075012207031 307.293762207031 305.318756103516 
299.549987792969 304.9375 312.075012207031 319.049987792969 325.225006103516 332.243743896484 338.168762207031 343.575012207031 346.418762207031 346.643737792969 343.625 338.381256103516 334.975006103516 333.03125 324.868743896484 320.881256103516 317.649993896484 313.856262207031 314.524993896484 318.975006103516 323.5 319.96875 302.306243896484 297.899993896484 295.606262207031 295.424987792969 296.8125 300.4375 306.78125 307.5625 303.443756103516 294.356262207031 291.118743896484 285.1875 287.475006103516 301.512512207031 317.493743896484 331.950012207031 346.587493896484 353.15625 356.03125 352.118743896484 344.212493896484 336.918762207031 332.350006103516 326.84375 324.162506103516 321.125 318.637512207031 303.975006103516 308.368743896484 
293.09375 300.674987792969 308.168762207031 314.512512207031 323.856262207031 334.487487792969 343.181243896484 347.125 349.637512207031 349.443756103516 344.662506103516 340.962493896484 337.049987792969 333.293762207031 323.743743896484 313.768737792969 307.731262207031 311.543762207031 311.899993896484 315.59375 314.5625 308.174987792969 302.231262207031 299.3125 298.193756103516 298.225006103516 301.90625 309 312.59375 309.737487792969 302.087493896484 299.243743896484 291.024993896484 279.143737792969 274.318756103516 287.825012207031 309.75 329.449981689453 342.299987792969 350.237487792969 352.112487792969 349.418762207031 343.5625 337.362487792969 330.331237792969 324.662506103516 323.837493896484 320.4375 317.28125 304.331237792969 310.625 
285.306243896484 296.381256103516 306.424987792969 315.75 323.368743896484 335.987487792969 347.725006103516 353.600006103516 355.143737792969 351.774993896484 345.287506103516 337.21875 329.600006103516 324.018737792969 314.606262207031 307.387512207031 302.537506103516 302.287506103516 305.112487792969 306.424987792969 308.137512207031 306.618743896484 303.21875 303.981231689453 309.087493896484 313.65625 316.818756103516 319.362487792969 319.524993896484 318.84375 313.318756103516 308.075012207031 295.393737792969 280.174987792969 267.918762207031 285.087493896484 311.200012207031 332.081237792969 343.950012207031 348.850006103516 348.493743896484 347.299987792969 340.118743896484 335.350006103516 329.3125 326.112487792969 324.350006103516 321.693756103516 312.65625 307.65625 310.168762207031 
279.9375 288.106262207031 299.575012207031 314.787506103516 326.756256103516 337.75 350.125 359.462493896484 361.5 354.831237792969 342.5625 327.28125 315.850006103516 309.5625 306.606262207031 302.181243896484 301.618743896484 300.350006103516 302.043731689453 302.237487792969 298.5625 296.993743896484 297.981262207031 301 307.774993896484 319.018737792969 336.487487792969 338.549987792969 337.25 335.181243896484 327.743743896484 319.056243896484 308.768737792969 299.787506103516 296.674987792969 305.518737792969 324.868743896484 342.131256103516 349.506256103516 351.262512207031 350.256256103516 347.368743896484 340.412506103516 334.6875 328.306243896484 325.28125 324.993743896484 322.337493896484 313.693756103516 315.806243896484 312.193756103516 
275.956237792969 289.975006103516 303.243743896484 318.21875 331.024993896484 342.393737792969 351.96875 363.931243896484 372.700012207031 359.231262207031 338.943756103516 317.612487792969 302.537506103516 297.768737792969 298.893737792969 299.862487792969 298.950012207031 296.443756103516 295.518737792969 293.456268310547 290.84375 288.681243896484 286.893737792969 291.856262207031 303.556243896484 319.018737792969 339.28125 346.049987792969 347.09375 343.700012207031 338.825012207031 333.09375 330.450012207031 327.649993896484 329.299987792969 333.075012207031 344.350006103516 356.125 358.962493896484 355.412506103516 351.237487792969 345.643737792969 338.631256103516 332.40625 326.875 323.674987792969 323.256256103516 320.40625 317.162506103516 321.9375 317.993743896484 
275.537506103516 290.081268310547 305.618743896484 318.412506103516 330.387512207031 341.393737792969 353.506256103516 362.887512207031 368.262512207031 353.418762207031 332.225006103516 313.193756103516 292.475006103516 291.274993896484 294.387512207031 295.293762207031 293.700012207031 293.03125 290.274993896484 288.206237792969 283.975006103516 278.8125 276.15625 283.399993896484 294.881256103516 305.875 322.487487792969 337.931243896484 346.15625 350.537506103516 351.875 353.96875 355.762512207031 355.006256103516 357.899993896484 360.21875 367.450012207031 371.337493896484 367.493743896484 358.993743896484 352.018737792969 343.674987792969 335.174987792969 327.15625 324.237487792969 322.568756103516 320.556243896484 313.549987792969 322.118743896484 325.231262207031 323.918762207031 
278.850006103516 293.668762207031 307.556243896484 321.375 334.356262207031 343.087493896484 351.393737792969 357.756256103516 356.387512207031 347.71875 330.456237792969 312.087493896484 300.356262207031 293.024993896484 292.34375 292.15625 292.631256103516 291.149993896484 288 283.137512207031 276.868743896484 270.375 267.0625 272.018737792969 281.506256103516 297.700012207031 316.399993896484 333.0625 347.481262207031 361.125 369.956237792969 378.143737792969 383.212493896484 383.112487792969 382.899993896484 379.743743896484 381.725006103516 378.899993896484 372.012512207031 363.225006103516 353.5 342.543762207031 333.806243896484 323.524993896484 314.950012207031 313.693756103516 311.143737792969 318.256256103516 323.262512207031 329.125 328.881256103516 
291.075012207031 303.881256103516 311.412506103516 323.306243896484 333.200012207031 340.450012207031 346.643737792969 350.018737792969 344.549987792969 335.493743896484 325.293762207031 314.787506103516 305.018737792969 298.981262207031 294.893737792969 295.162506103516 294.143737792969 291.600006103516 286.356231689453 278.568756103516 273.168762207031 264.149993896484 257.431243896484 257.131256103516 270.493743896484 290.431243896484 314.693756103516 333.299987792969 353.46875 369.287506103516 386.4375 402.231262207031 410.59375 406.743743896484 400.78125 394.856262207031 391.893737792969 386.631256103516 376.524993896484 366.049987792969 355.706237792969 342.25 330.293762207031 317.537506103516 311.587493896484 306.462493896484 321.524993896484 327.65625 329.043731689453 334.837493896484 332.206237792969 
300.431243896484 307.981262207031 315.575012207031 323.662506103516 329.337493896484 336.068756103516 339.3125 339.174987792969 334.21875 331.475006103516 326.318756103516 317.1875 309.450012207031 304.075012207031 300.456237792969 299.118743896484 296.993743896484 292.325012207031 287.8125 281.21875 272.181243896484 261.581237792969 251.375 250.012496948242 266.712493896484 285.768737792969 311.181243896484 331.78125 354.28125 372.943756103516 394.6875 415.450012207031 428.96875 422.862487792969 414.75 406.243743896484 400.975006103516 394.3125 381.637512207031 370.162506103516 357.274993896484 344.743743896484 331.631256103516 320.181243896484 320.131256103516 326.3125 337.575012207031 339.3125 339.725006103516 336 331.674987792969 
311.774993896484 314.956237792969 319.206237792969 323.587493896484 328 331.09375 333.90625 331.3125 329.34375 328.075012207031 322.399993896484 317.162506103516 311.174987792969 307.950012207031 305.081237792969 301.712493896484 300.043762207031 298.193756103516 291.8125 286.337493896484 278.237487792969 266.818756103516 261.799987792969 261.362487792969 272.643737792969 289.806243896484 310.84375 331.887512207031 353.081237792969 372.818756103516 392.043762207031 410.443756103516 422.8125 422.65625 420.512512207031 412.043762207031 407.700012207031 401.518737792969 388.693756103516 375.71875 363.024993896484 350.324981689453 337.287506103516 327.993743896484 336.524993896484 345.299987792969 353.512512207031 351.287506103516 347.28125 337.837493896484 333.706237792969 
319.9375 320.868743896484 321.293731689453 323.475006103516 324.475006103516 323.825012207031 324.362487792969 325.481262207031 326.737487792969 324.53125 322.256256103516 318.118743896484 312.71875 310.424987792969 310.125 310.225006103516 309.287506103516 303.950012207031 299.818756103516 293.581237792969 286.487487792969 276.356262207031 272.325012207031 274.5 282.318756103516 296.506256103516 315.287506103516 333.693756103516 352.618743896484 370.068756103516 384.193756103516 398.59375 407.912506103516 414.887512207031 418.100006103516 413.806243896484 411.912506103516 407.912506103516 396.212493896484 381.368743896484 365.318756103516 353.112487792969 342.5625 343.537506103516 353.162506103516 357.799987792969 364.293762207031 360.493743896484 352.424987792969 344.806243896484 334.056243896484 
323.237487792969 322.068756103516 320.793762207031 317.674987792969 317.799987792969 318.231262207031 319.106262207031 321.018737792969 321.462493896484 319.993743896484 319.943756103516 317.231262207031 316.53125 315.643737792969 315.481262207031 314.799987792969 313.899993896484 312.862487792969 307.774993896484 299.600006103516 290.712493896484 284.518768310547 282.456237792969 283.018737792969 287.981262207031 299.262512207031 316.087493896484 330.481262207031 346.837493896484 361.456237792969 373.987487792969 384.356262207031 394.868743896484 405.768737792969 413.649993896484 413.100006103516 415.149993896484 414.299987792969 402.643737792969 392.837493896484 382.362487792969 373.299987792969 363.793762207031 365.712493896484 368.649993896484 375.518737792969 376.637512207031 372.825012207031 364.375 354.868743896484 339.825012207031 
322.893737792969 319.368743896484 316.393737792969 313.450012207031 313.350006103516 312.768737792969 314.393737792969 314.387512207031 315.03125 316.106262207031 317.46875 317.206237792969 319.774993896484 318.274993896484 319.393737792969 319.581237792969 320.875 320.381256103516 316.981262207031 310.056243896484 300.90625 293.081237792969 289.381256103516 287.318756103516 289.356262207031 302.53125 313.850006103516 327.206237792969 340.412506103516 351.331237792969 363.03125 372.925018310547 386.0625 398.456237792969 407.524993896484 411.087493896484 412.700012207031 415.049987792969 410.549987792969 403.956237792969 396.799987792969 389.049987792969 383.612487792969 381.668762207031 385.431243896484 388.943756103516 388.549987792969 383.581237792969 374.912506103516 361.862487792969 346.537506103516 
319.399993896484 314.549987792969 311.181243896484 310.212493896484 308.856262207031 306.024993896484 307.174987792969 306.456237792969 307.424987792969 308.787506103516 312.125 316.743743896484 318.6875 320.09375 321.350006103516 322.693756103516 321.481231689453 321.981262207031 318.6875 316.337493896484 308.293762207031 300.475006103516 294.46875 292.443756103516 296.8125 304.600006103516 312.193756103516 323.625 332.899993896484 343.700012207031 355.381256103516 365.206237792969 376.262512207031 389.362487792969 400.518737792969 405.875 411.456237792969 413.556243896484 411.206237792969 407.337493896484 408.256256103516 404.662506103516 400.350006103516 399.568756103516 403.53125 409.09375 408.737487792969 400.274993896484 387.237487792969 372.112487792969 354.168762207031 
313.162506103516 306.556243896484 303.75 301.631256103516 301.21875 298.112518310547 296.043731689453 296.206237792969 296.674987792969 300.256256103516 308.299987792969 312.325012207031 318.006256103516 322.506256103516 323.356231689453 323.212493896484 323.318756103516 324.318756103516 320.181243896484 316.556243896484 311.375 304.149993896484 297.462493896484 295.693756103516 299.450012207031 302.262512207031 309.118743896484 316.25 324.012512207031 335.643737792969 345.543762207031 354.125 365.131256103516 379.131256103516 391.575012207031 400.1875 406.65625 411.71875 409.356262207031 415.53125 417.024993896484 415.200012207031 415.087493896484 417.918762207031 423.206237792969 432.075012207031 431.174987792969 416.443756103516 401.318756103516 384.149993896484 364.3125 
304.793762207031 299.725006103516 297.356262207031 294.556243896484 292.368743896484 290.731262207031 288.5 286.075012207031 286.356262207031 290.268737792969 297.112487792969 306.575012207031 315.59375 319.475006103516 321.643737792969 320.731262207031 321.46875 322.299987792969 319.587493896484 316.231262207031 311.231262207031 305.081237792969 299.256256103516 294.475006103516 297.837493896484 299.043762207031 302.368743896484 307.34375 314.056243896484 323.537506103516 333.443756103516 344.15625 355.662506103516 369.412506103516 382.875 391.737487792969 400.287506103516 403.106262207031 410.068756103516 417.512512207031 420.075012207031 422.899993896484 426.756256103516 432.768737792969 440.368743896484 447.049987792969 444.09375 427.881256103516 412.5 395.487487792969 375.6875 
294.556243896484 291.943756103516 290.868743896484 286.524993896484 283.3125 280.325012207031 277.0625 275.181243896484 273.65625 275.768737792969 285.893737792969 299.912506103516 313.581237792969 322.6875 323.28125 322.068756103516 320.081237792969 317.981262207031 317.956237792969 313.018737792969 310.21875 302.918762207031 297.643737792969 291.112487792969 291.924987792969 294.337493896484 296.587493896484 298.393737792969 303.899993896484 314.681243896484 323.912506103516 335.100006103516 345.393737792969 359.924987792969 372.268737792969 380.643737792969 387.212493896484 400.493743896484 408.96875 416.193756103516 420.399993896484 426.087493896484 433.231262207031 440.356262207031 444.668762207031 446.756256103516 443.59375 432.481262207031 420.3125 403.5 381.450012207031 
286.212493896484 285.506256103516 283.668731689453 279.71875 275.537506103516 270.850006103516 267.512512207031 263.78125 259.306243896484 259.475006103516 268.03125 285.643737792969 304.881256103516 316.081237792969 317.75 317.012512207031 315.75 314.399993896484 313.931243896484 312.25 307.493743896484 301.700012207031 292.693756103516 287.337493896484 285.318756103516 286.200012207031 288.40625 290.600006103516 294.950012207031 304.3125 314.006256103516 323.756256103516 334.012512207031 348.850006103516 359.325012207031 364.431243896484 377.78125 391.056243896484 398.1875 406.65625 414.756256103516 420.431243896484 426.581237792969 434.768737792969 436.9375 437.681243896484 436.475006103516 430.337493896484 417.71875 404.512512207031 384.981262207031 
278.693756103516 279.524993896484 276.893737792969 273.575012207031 269.012512207031 264.168762207031 260.600006103516 253.743743896484 245.612503051758 241.331253051758 252.381256103516 277 294.362487792969 303.731262207031 308.71875 309.575012207031 306.962493896484 306.756256103516 307.337493896484 303.899993896484 300.068756103516 293.875 285.46875 280.575012207031 276.943756103516 276.668762207031 279.462493896484 282.012512207031 285.112487792969 293.649993896484 304.693756103516 315.625 325.887512207031 337.325012207031 346.612487792969 355.118743896484 368.28125 382.556243896484 392.612487792969 397.762481689453 406.068756103516 411.556243896484 419.799987792969 427.168762207031 431.256256103516 430.143737792969 432.84375 426.8125 417.09375 405.5 390.293762207031 
274.825012207031 273.787506103516 270.193756103516 267.700012207031 263.331237792969 259.181243896484 254.28125 246.456253051758 239.618743896484 233.1875 250.243743896484 274.012512207031 287.268737792969 295.318756103516 299.481262207031 301.0625 297.962493896484 298.806243896484 296.456237792969 292.125 288.399993896484 282.056243896484 276.681243896484 271.756256103516 267.612487792969 268.200012207031 268.34375 272.3125 276.106262207031 285.600006103516 294.443756103516 305.65625 317.674987792969 327.462493896484 333.700012207031 346.9375 359.681243896484 371.024993896484 383.662506103516 390.34375 395.806243896484 402.493743896484 407.318756103516 412.568756103516 418.506256103516 421.168762207031 422.106262207031 424.037506103516 415.381256103516 404.743743896484 390.381256103516 
272.600006103516 268.674987792969 265.356262207031 263.512512207031 260.793762207031 255.25 251.050003051758 246.21875 245.568756103516 251.881256103516 268.84375 279.037506103516 283.131256103516 288.993743896484 292.443756103516 292.018737792969 289.899993896484 289.200012207031 284.09375 281.162506103516 276.524993896484 270.162506103516 265.493743896484 262.881256103516 260.306243896484 258.637512207031 259.893737792969 263.456237792969 266.96875 277.262512207031 286.606262207031 294.018737792969 304.78125 315.75 327.962493896484 337.125 346.424987792969 358.3125 366.556243896484 370.149993896484 376.193756103516 382.918762207031 385.668762207031 391.768737792969 395.956237792969 400.262512207031 400.78125 400.4375 395.568756103516 390.268737792969 376.731262207031 
269.831237792969 266.268737792969 263.393737792969 261.793762207031 259.306243896484 255.543746948242 250.225006103516 250.043746948242 252.449996948242 258.399993896484 267.512512207031 276.03125 279.231262207031 283.0625 285.331237792969 284.28125 282.200012207031 280.543762207031 274.25 269.231262207031 263.481262207031 259.856262207031 253.037506103516 250.431259155273 251.137496948242 250.693756103516 252.568756103516 256.21875 259.868743896484 268.818756103516 275.287506103516 286.931243896484 299.612487792969 309.899993896484 321.356262207031 329.256256103516 336.575012207031 346.3125 351.518737792969 351.681243896484 355.368743896484 360.799987792969 361.318756103516 365.575012207031 370.799987792969 375.037506103516 379.056243896484 380.049987792969 378.512512207031 375.662506103516 364.274993896484 
266.674987792969 264.868743896484 262.393737792969 260.568756103516 257.206237792969 253.324996948242 250.8125 253.931243896484 255.675003051758 257.950012207031 264.387512207031 270.34375 274.956237792969 276.131256103516 278.006256103516 277.125 274.549987792969 271.962493896484 265.206237792969 258.431243896484 251.193756103516 247.774993896484 241.850006103516 239.112503051758 242.524993896484 243.46875 245.087493896484 249.175003051758 253.774993896484 260.612487792969 269.118743896484 283.725006103516 293.618743896484 304.931243896484 316.181243896484 325.368743896484 332.475006103516 338.21875 341.71875 336.837493896484 337.825012207031 338.918762207031 339.162506103516 342.018737792969 349.293762207031 355.556243896484 357.975006103516 359.78125 362.681243896484 359.381256103516 351.293762207031 
265.856262207031 264.543762207031 263.137512207031 260.21875 256.668762207031 254.243743896484 253.137496948242 253.681243896484 256.662506103516 257.59375 262.993743896484 266.881256103516 271.137512207031 272.399993896484 273.40625 272.762512207031 270.443756103516 266.8125 260.450012207031 251.518753051758 242.212493896484 235.418746948242 230.387496948242 230.056243896484 233.587493896484 236.362503051758 238.512496948242 244.449996948242 251 260.0625 263.506256103516 277.831237792969 289.087493896484 302.09375 312.84375 317.100006103516 324.018737792969 328.59375 327.59375 321.6875 319.587493896484 315.299987792969 313.975006103516 321.181243896484 330.075012207031 336.90625 340.287506103516 341.493743896484 344.512512207031 341.912506103516 337.006256103516 
265.212493896484 263.431243896484 262.556243896484 257.793762207031 255.65625 254.543746948242 253.875 254.512496948242 255.393753051758 255.899993896484 259.393737792969 262.768737792969 266.587493896484 266.568756103516 268.600006103516 268.318756103516 267.46875 265.462493896484 257.831237792969 246.393753051758 232.512496948242 221.824996948242 218.931243896484 223.100006103516 227.887496948242 231.787506103516 235.125 239.300003051758 246.25 253.675003051758 260.549987792969 269.15625 281.5625 294.71875 306.387512207031 315.125 315.649993896484 318.762512207031 313.706237792969 308.25 306.631256103516 301.987487792969 298.799987792969 304.825012207031 313.431243896484 317.493743896484 318.943756103516 324.631256103516 329.975006103516 326.081237792969 322.293762207031 
265.393737792969 263.5625 262.549987792969 256.899993896484 256.674987792969 254.043746948242 252.487503051758 252.90625 253.793746948242 254.431243896484 257.1875 260.024993896484 261.868743896484 262.893737792969 264.225006103516 265 264.181243896484 261.225006103516 257.40625 245.600006103516 229.600006103516 216.074996948242 214.356246948242 218.774993896484 224.087493896484 228.162506103516 231.212493896484 234.887496948242 240.475006103516 248.449996948242 253.193756103516 260.96875 271.181243896484 283.881256103516 301.268737792969 314.649993896484 311.831237792969 307.893737792969 302.862487792969 298.100006103516 294.4375 289.637512207031 289.625 292.768737792969 299.006256103516 301.706237792969 305.850006103516 309.068756103516 309.331237792969 310.306243896484 308.075012207031 
263.75 262.225006103516 260.918762207031 256.212493896484 255.6875 253.362503051758 249.387496948242 250.537506103516 251.28125 252.268753051758 253.125 255.5 257.674987792969 259.475006103516 259.0625 258.987487792969 258.100006103516 255.850006103516 253.037506103516 244.693756103516 231.462509155273 220.4375 216.6875 219 223.3125 227.0625 230.25 233.5625 239.756256103516 245.731246948242 252.587493896484 257.262512207031 265.006256103516 274.837493896484 290.28125 305.181243896484 303.137512207031 297.293762207031 294.225006103516 289.706237792969 286.612487792969 284.481262207031 282.237487792969 283.075012207031 288.162506103516 290.625 292.34375 295.700012207031 294.287506103516 295.831237792969 295.950012207031 
