ncols        51
nrows        45
xllcorner    -63.500000000000
yllcorner    -7.500000000000
cellsize     0.166666666667
NODATA_value -99
298.649993896484 296.362518310547 294.399993896484 297.831237792969 298.618743896484 297.618743896484 292.8125 289.956237792969 287.131256103516 286.75 284.787506103516 281.056243896484 279.174987792969 278.162506103516 277.443756103516 278.618743896484 278.725006103516 278.043762207031 279.768737792969 283.475006103516 285.512481689453 286.862487792969 291.787506103516 295.012512207031 299.899993896484 306.987487792969 314.575012207031 324.318756103516 331.5 340.950012207031 345.881256103516 353.756256103516 363.943756103516 372.518737792969 381.056243896484 389.868743896484 396.818756103516 399.825012207031 399.881256103516 401.568756103516 399.887512207031 398.71875 393.943756103516 394.456237792969 392.875 389.524993896484 388.09375 383.618743896484 382.837493896484 385.6875 384.268737792969 
296.774993896484 293.225006103516 294.90625 300.081237792969 305.049987792969 304.887512207031 299.993743896484 297.174987792969 295.387512207031 291.71875 289.0625 284.287506103516 279.712493896484 275.893737792969 273.15625 271.306243896484 269.875 269.5 274.143737792969 279.368743896484 282.024993896484 284.975006103516 288.356231689453 294.306243896484 299.168762207031 304.524993896484 314.100006103516 323.737487792969 332.237487792969 339.5625 344.799987792969 356.412506103516 364.28125 375.924987792969 384.200012207031 388.268737792969 398.03125 402.5 405.200012207031 400.612487792969 398.493743896484 401.787506103516 396.96875 391.393737792969 390.450012207031 385.618743896484 384.049987792969 381.737487792969 382.818756103516 385.081237792969 385.193756103516 
289.5 288.950012207031 293.081237792969 297.112487792969 300.112487792969 301.399993896484 300.756256103516 301.024993896484 299.9375 296.193756103516 291.950012207031 284.931243896484 277.875 270.231262207031 266.65625 264.768737792969 261.21875 258.768737792969 261.537506103516 266.024993896484 268.875 273.78125 277.737487792969 283.8125 289.71875 298.612487792969 310.318756103516 319.231262207031 326.325012207031 333.556243896484 339.412506103516 348.700012207031 360.799987792969 369.962493896484 380.743743896484 384.818756103516 393.387481689453 400.100006103516 401.200012207031 400.131256103516 402.075012207031 398.700012207031 396.856262207031 391.612487792969 388.243743896484 385.3125 382.443756103516 381.631256103516 377.862518310547 381.043762207031 381.881256103516 
278.256256103516 276.262512207031 285.693756103516 289.118743896484 292.481262207031 293.768737792969 295.299987792969 299.043762207031 302.424987792969 300.112487792969 293.068756103516 283.950012207031 272.893737792969 263.743743896484 259.15625 255.493743896484 250.431243896484 247.087493896484 247.837493896484 252.75 259.418762207031 263.09375 265.924987792969 273.75 281.075012207031 289.306243896484 302.212493896484 309.899993896484 317.387512207031 327.481262207031 334.237487792969 343.006256103516 352.899993896484 361.21875 368.918762207031 380.462493896484 391.6875 398.993743896484 401.431243896484 402.237487792969 402.28125 403.131256103516 396.012512207031 389.450012207031 388.806243896484 382.456237792969 378.46875 378.612487792969 373.700012207031 371.8125 374.006256103516 
284.356262207031 279.243743896484 273.887512207031 276.587493896484 281.768737792969 282.975006103516 286.875 293.143737792969 301.03125 302.431243896484 291.399993896484 277.46875 267.600006103516 258.4375 252.84375 247.306243896484 240.6875 236.418746948242 235.493743896484 240.1875 246.981246948242 250.199996948242 252.4375 264.100006103516 271.456237792969 280.575012207031 288.918762207031 300.581237792969 309.887512207031 318.612487792969 327.537506103516 334.512512207031 343.125 354.799987792969 364.693756103516 374.006256103516 387.700012207031 398.893737792969 403.549987792969 404.25 406.931243896484 402.524993896484 396.125 391.712493896484 386.700012207031 380.493743896484 372.881256103516 369.731262207031 364.71875 366.368743896484 370.056243896484 
284.59375 279.868743896484 272.743743896484 263.806243896484 269.231262207031 274.725006103516 278.387512207031 282.0625 290.799987792969 293.881256103516 284.618743896484 270.024993896484 262.618743896484 255.368743896484 247.649993896484 243.975006103516 235.774993896484 229.118743896484 227.581253051758 231.856246948242 237.181243896484 242.106246948242 247.375 254.800003051758 263.487487792969 272.71875 281.6875 291.337493896484 302.318756103516 311.837493896484 320.856262207031 329.90625 338.106262207031 348.5 357.518737792969 369.174987792969 381.268737792969 392.15625 402.493743896484 404.668762207031 404.168762207031 401.0625 393.737487792969 388.924987792969 384.725006103516 374.6875 364.174987792969 361.5 357.412506103516 354.725006103516 354.149993896484 
286.981262207031 280.512512207031 272.5 264.09375 260.5625 260.1875 262.21875 264.787506103516 263.831268310547 267.34375 265.0625 258.15625 254.493743896484 250.043746948242 244.53125 239.524993896484 235.050003051758 229.1875 224.987503051758 227.356246948242 230.612503051758 234.199996948242 237.012496948242 246.506256103516 256.475006103516 268.112487792969 275.768737792969 284.612487792969 292.274993896484 302.462493896484 312.59375 319.674987792969 326.381256103516 336.262512207031 346.524993896484 360.543762207031 371.443756103516 382.862487792969 394.674987792969 401.450012207031 399.981262207031 394.049987792969 387.412506103516 385.006256103516 377.931243896484 372.306243896484 358.931243896484 346.456237792969 340 342.53125 341.506256103516 
288.131256103516 280.4375 271.837493896484 265.393737792969 261.012512207031 259.587493896484 252.362503051758 240.40625 231.9375 237.53125 245.387496948242 246.268753051758 248.043746948242 245.493743896484 241.787506103516 238.725006103516 234.53125 229.681243896484 224.137496948242 221.074996948242 226.018753051758 228.387496948242 231.399993896484 237.743743896484 249.256256103516 256.112487792969 266.71875 274.299987792969 282.475006103516 292.731262207031 302.512512207031 309.412506103516 317.368743896484 324.174987792969 331.15625 343.25 356.350006103516 370.4375 379.331237792969 381.631256103516 385.956237792969 381.375 377.212493896484 371.743743896484 363.331237792969 352.65625 339.850006103516 330.806243896484 325.462493896484 320.893737792969 318.962493896484 
288.306243896484 280.506256103516 273.443756103516 265.674987792969 259.762512207031 256.106262207031 248.456253051758 238.112503051758 224.8125 220.543746948242 228.887496948242 236.393753051758 243.550003051758 242.649993896484 238.875 236.412506103516 232.462493896484 229.193740844727 226.274993896484 218.806243896484 218.425003051758 223.28125 223.25 234.881256103516 241.46875 247.212493896484 254.5625 265.34375 277 284.881256103516 295.918762207031 300.875 302.34375 305.743743896484 314.475006103516 327.450012207031 341.081237792969 355.350006103516 366.850006103516 368.274993896484 368.668762207031 364.524993896484 364.931243896484 364.612487792969 349.049987792969 338.306243896484 326.725006103516 314.106262207031 304.21875 299.793762207031 297.6875 
287.387512207031 280.9375 274.0625 267.631256103516 259.081237792969 255.143753051758 248.712493896484 240.425003051758 233.21875 230.993743896484 233.300003051758 233.681243896484 241.993743896484 241.46875 238.28125 232.475006103516 227.28125 224.199996948242 222.356246948242 219.050003051758 216.78125 215.987503051758 216.893753051758 226.243743896484 230.793746948242 236.568756103516 243.418746948242 253.84375 266.837493896484 277.743743896484 283.931243896484 286.924987792969 291.087493896484 294.90625 299.6875 311.418762207031 323.418762207031 337.856262207031 349.875 358.450012207031 364.575012207031 365.018737792969 357 349.956237792969 339.737487792969 333.606262207031 319.493743896484 302.662506103516 291.206237792969 281.506256103516 271.34375 
286.268737792969 281.262512207031 273.59375 267.681243896484 259.350006103516 256.424987792969 251.125 242.074996948242 237.099990844727 237.34375 240.100006103516 242.925003051758 240.881256103516 241.725006103516 235.074996948242 227.125 220.925003051758 218.818756103516 216.912506103516 216.268753051758 221.118743896484 217.231246948242 214.006256103516 211.300003051758 221.131256103516 230.131256103516 236.887496948242 246.506256103516 255.137496948242 262.356262207031 269.856262207031 274.606262207031 277.631256103516 280.568756103516 283.9375 292.15625 303.487487792969 318.737487792969 334.618743896484 346.431243896484 355.056243896484 353.875 353.450012207031 342.475006103516 329.693756103516 319.15625 307.975006103516 289.168762207031 277.78125 267.818756103516 253.587493896484 
287.149993896484 280.799987792969 274.024993896484 268.21875 261.649993896484 256.243743896484 253.612503051758 248.368743896484 246.181243896484 243.493743896484 245.493743896484 249.15625 241 238.0625 232.662506103516 222.774993896484 216.056243896484 213.962493896484 213.125 215.5 223.0625 223.231246948242 218.743743896484 213.46875 213.393753051758 216.28125 221.318756103516 230.59375 241.356246948242 247.699996948242 251.149993896484 255.300003051758 258.193756103516 260.818756103516 266.743743896484 278.081237792969 291.15625 303.868743896484 317.256256103516 330.481262207031 342.606262207031 342.350006103516 336.225006103516 315.8125 301.100006103516 285.181243896484 269.950012207031 266.443756103516 261.25 253.4375 234.662506103516 
288.887512207031 280.3125 273.012512207031 267.65625 260.787506103516 257.8125 253.425003051758 248 247.274993896484 248.493743896484 249.793746948242 249.606246948242 243.350006103516 229.625 221.881256103516 216.149993896484 209.456253051758 207.8125 206.993743896484 209.431243896484 219.537506103516 219.1875 215.556243896484 210.137496948242 199.243743896484 198.1875 208.925003051758 219 230.34375 237.125 238.256256103516 238.056243896484 239.5 241 247.481246948242 261.362487792969 275.818756103516 291.868743896484 308.350006103516 321.387512207031 330.887512207031 331.5625 315.862487792969 300.393737792969 292.612487792969 281.549987792969 265.512512207031 251.018753051758 241.768753051758 242.756256103516 237.993743896484 
284.325012207031 276.649993896484 270.837493896484 265.206237792969 260.075012207031 255.993743896484 251.331253051758 247.40625 248.837493896484 249.918746948242 246.59375 242.09375 234.399993896484 223.96875 208.71875 205.4375 199.125 196.568756103516 197.412506103516 200.3125 207.956253051758 209.4375 207.956253051758 205.612503051758 198.675003051758 195.962493896484 201.481246948242 207.737503051758 216.974990844727 220.787506103516 224.975006103516 223.475006103516 224.443756103516 226 230.712493896484 246.962493896484 265.325012207031 284.443756103516 302.799987792969 312.693756103516 310.450012207031 301.137512207031 299.206237792969 300.293762207031 301.475006103516 286.512512207031 272.087493896484 261.862487792969 251.943756103516 257.237487792969 257.950012207031 
278.6875 272.825012207031 268.106262207031 262.274993896484 256.575012207031 253.21875 251.40625 249.306243896484 248.399993896484 246.162506103516 241.65625 234.925003051758 224.550003051758 213.25 195.368743896484 191.050003051758 186.8125 187.0625 187.824996948242 189.668746948242 197.537506103516 201.587493896484 203.831253051758 207.899993896484 208.21875 207.962493896484 208.893753051758 212.231246948242 216.587493896484 217.5625 214.03125 210.987503051758 214.481246948242 212.256240844727 211.993743896484 224.78125 252.537506103516 277.5 293.012512207031 298.0625 294.350006103516 293.306243896484 301.0625 300.674987792969 296.299987792969 291.106262207031 284.075012207031 280.350006103516 275.90625 271.299987792969 269.274993896484 
272.15625 266.106262207031 263.256256103516 258.962493896484 252.993743896484 251.637496948242 250.71875 248.318756103516 245.28125 243.118743896484 237.03125 228.149993896484 216.925003051758 206.5 191.362503051758 176.21875 175.043746948242 179.350006103516 178.431243896484 180.043746948242 188.087493896484 196.962493896484 204.274993896484 212.818756103516 215.5 214.737503051758 213.856246948242 213.65625 215.78125 216.918746948242 216.074996948242 211.137496948242 204.399993896484 197.962493896484 196.050003051758 219.787506103516 240.243743896484 262.1875 279.956237792969 291.100006103516 293.375 292.518737792969 294.731262207031 288.46875 284.212493896484 282.618743896484 276.850006103516 272.600006103516 274.206237792969 272.037506103516 273.649993896484 
267.131256103516 261.90625 257.512481689453 254.743743896484 251.725006103516 248.737503051758 246.59375 243.625 241.981246948242 239.143753051758 233.9375 225.706253051758 213.306243896484 201.337493896484 188.850006103516 176.506256103516 163.856246948242 166.856246948242 169.118743896484 171.512496948242 180.087493896484 189.725006103516 201.512496948242 215.149993896484 222.8125 216.037506103516 212.375 212.206253051758 213.637496948242 214.212509155273 214.262496948242 212.831253051758 207.418746948242 202.774993896484 211.5625 224.443756103516 244.118743896484 265.106231689453 287.212493896484 290.84375 290.806243896484 286.850006103516 281.200012207031 279.199981689453 276.981262207031 276.899993896484 273.668762207031 275.59375 276.762512207031 270.256256103516 270.84375 
260.0625 256.793762207031 253.868743896484 250.243743896484 247.262496948242 246.6875 243.068756103516 238.768753051758 235.706253051758 233.512496948242 228.743743896484 222.787506103516 208.824996948242 198.574996948242 186.956253051758 176.068756103516 164.256256103516 155.15625 162.956253051758 164.068756103516 171.756256103516 182.149993896484 194.143753051758 208.143753051758 217.46875 214.074996948242 207.381256103516 209.337493896484 211.756256103516 209.243743896484 202.368743896484 197.306243896484 208.287506103516 213.699996948242 218.4375 240.5 259.8125 271.450012207031 284.875 289.893737792969 281.799987792969 276.512481689453 271.487518310547 270.587493896484 267.887512207031 270.15625 269.143737792969 268.981262207031 272.950012207031 263.175018310547 269.306243896484 
252.875 250.381256103516 247.087493896484 245.793746948242 244.162506103516 241.71875 238.949996948242 235.806243896484 232.774993896484 231.631256103516 225.59375 213.831253051758 202.25 193.287506103516 182.65625 174.081253051758 165.393753051758 154.262496948242 151.03125 153.175003051758 161.462493896484 174.068756103516 176.324996948242 191.074996948242 200.612503051758 206.34375 206.587493896484 204.518753051758 207 204.487503051758 200.606246948242 201.662506103516 210.6875 216.162506103516 223.925003051758 241.737503051758 253.5 261.518737792969 274.262512207031 274.96875 269.28125 262.787506103516 261.856262207031 264.424987792969 262.143737792969 261.206237792969 264.112487792969 265.21875 266.075012207031 251.362503051758 266.375 
244.706253051758 243.231246948242 241.206253051758 238.050003051758 237.237503051758 238.96875 237.487503051758 233.993743896484 230.949996948242 227.1875 223.412506103516 215.912506103516 207.606246948242 195.53125 183.25 168.231246948242 155.850006103516 153.337493896484 148.949996948242 148.65625 151.25 159.600006103516 170.962493896484 179.90625 185.831253051758 187.887496948242 191.949996948242 197.487503051758 196.65625 192.756256103516 193.987503051758 205.793746948242 211.143753051758 214.587493896484 224.512496948242 238.293746948242 248.543746948242 256.200012207031 261.412506103516 263.225006103516 255.487503051758 249.481246948242 253.143753051758 256.449981689453 257.918762207031 258.643737792969 257.975006103516 258.84375 257.475006103516 246.637496948242 262.256256103516 
231.418746948242 237.912506103516 239.03125 235.637496948242 232.112503051758 236.274993896484 237.300003051758 235.168746948242 232.524993896484 227.024993896484 222.1875 215.725006103516 205.3125 194.606246948242 180.949996948242 169.556243896484 156.21875 150.006256103516 148.600006103516 145.59375 153.956253051758 162.231246948242 170.050003051758 178.100006103516 184.962493896484 187.287506103516 186.206253051758 189.581253051758 193.112503051758 195.524993896484 200.268753051758 207.768753051758 208.3125 211.068756103516 218.693756103516 231.300003051758 242.675003051758 250.850006103516 253.949996948242 253.387496948242 252.399993896484 247.449996948242 246.375 251.206253051758 252.481246948242 254.181243896484 256.181243896484 254.774993896484 246.493743896484 250.018753051758 256.34375 
225.949996948242 225.050003051758 229.90625 232.768753051758 229.925003051758 231.231246948242 234.512496948242 235.550003051758 233.762496948242 229.037506103516 223.1875 214.84375 204.5625 193.71875 183.887496948242 170.875 165.881256103516 157.643753051758 154.612503051758 149.862503051758 151.362503051758 157.84375 164.862503051758 169.931243896484 173.125 178.637496948242 185.512496948242 188.981246948242 197.637496948242 202.162506103516 203.768753051758 205.568756103516 209.84375 215.274993896484 218.581253051758 226.662506103516 237.706253051758 245.46875 248.118743896484 248.225006103516 248.931243896484 245.237503051758 243.868743896484 246.300003051758 247.03125 248.625 250.274993896484 250.837493896484 244.912506103516 253.037506103516 251.987503051758 
220.850006103516 227.137496948242 230.243743896484 232.493743896484 229.443756103516 229.71875 225.856246948242 228.412506103516 232.53125 229.024993896484 221.625 213.162506103516 206.956253051758 197.274993896484 187.4375 176.431243896484 168.118743896484 161.112503051758 155.493743896484 150.768753051758 153.068756103516 154.318756103516 158.768753051758 163.006256103516 169.537506103516 174.162506103516 178.675003051758 187.212493896484 196.65625 200.618743896484 201.4375 206.524993896484 213.393753051758 217.53125 222.149993896484 223.112503051758 229.4375 238.912506103516 246.056243896484 246.206253051758 244.987503051758 242.581253051758 240.743743896484 242.112503051758 242.175003051758 241.5 241.875 241.631256103516 245.706253051758 254.162506103516 252.050003051758 
213.287506103516 222.225006103516 228.225006103516 228.087493896484 224.3125 222.618743896484 227.074996948242 227.800003051758 226.725006103516 222.625 218.09375 215.306243896484 208.768753051758 201.943756103516 190.40625 179.331253051758 170.481246948242 164.375 158.931243896484 154.399993896484 152.96875 153.84375 155.243743896484 162.074996948242 166.456253051758 168.350006103516 175.28125 184.706253051758 195.893753051758 204.425003051758 211.15625 217.824996948242 224.837493896484 227.4375 229.774993896484 226.600006103516 234.768753051758 240.543746948242 244.318756103516 245.162506103516 242.90625 242.237503051758 241.431243896484 239.956253051758 238.556243896484 236.506256103516 235.368743896484 230.006256103516 240.862503051758 249.800003051758 252.525009155273 
210.699996948242 220.65625 224.481246948242 227.293746948242 225.199996948242 224.84375 223.056243896484 224.287506103516 222.318756103516 220.212493896484 215.606246948242 211.5625 209.081253051758 202.668746948242 190.9375 181.46875 174.699996948242 167.487503051758 160.306243896484 155.21875 154.918746948242 153.393753051758 155.056243896484 160.412506103516 164.53125 171.524993896484 178.887496948242 189.456253051758 200.5 212.949996948242 221.300003051758 233.756256103516 239.5625 240.931243896484 237.3125 235.587493896484 240.0625 239.824996948242 242 242.875 242.09375 239.681243896484 238.787490844727 234.787506103516 228.506256103516 225.71875 218.112503051758 225.456253051758 230.78125 242.225006103516 246.537506103516 
213.550003051758 224.887496948242 222.581253051758 223.78125 218.6875 217.606246948242 215.756256103516 216.40625 212.337493896484 208.125 209.806243896484 209.106246948242 204.975006103516 200.475006103516 193.59375 184.256256103516 177.4375 169.931243896484 162.206253051758 155.737503051758 154.800003051758 152.706253051758 153.693756103516 157.212493896484 163.931243896484 170.75 183.074996948242 194.40625 205.543746948242 219.131256103516 233.056243896484 252.606246948242 259.231262207031 253.243743896484 246.418746948242 244.787506103516 243.106246948242 242.556243896484 238.71875 238.475006103516 238.675003051758 234.274993896484 230.537506103516 229.412506103516 225.018753051758 215.59375 220.925003051758 222.506256103516 226.581253051758 235.487503051758 234.949996948242 
213.637496948242 217.225006103516 218.5 217.818756103516 213.293746948242 212.318756103516 209.9375 206.881256103516 204.606246948242 206.856246948242 207 204.556243896484 203.518753051758 201.193756103516 194.600006103516 187.46875 179.237503051758 170.4375 165.875 158.5625 155.0625 152.956253051758 153 159.287506103516 166.024993896484 173.587493896484 185.981246948242 197.84375 210.5625 222.362503051758 240.006256103516 259.837493896484 271.012512207031 260.399993896484 249.875 245.90625 246.768753051758 242.881256103516 238.837493896484 238.137496948242 236.743743896484 232.206253051758 228.324996948242 224.143753051758 219.96875 218.96875 220.40625 218.793746948242 221.806243896484 219.987503051758 217.59375 
215.012496948242 214.268753051758 213.787506103516 210.168746948242 207.337493896484 207.287506103516 205.618743896484 200.881256103516 200.456253051758 202.331253051758 201.643753051758 200.081253051758 200.331253051758 198.712493896484 194.256240844727 185.831253051758 180.324996948242 175.056243896484 170.181243896484 163.375 158.824996948242 154.425003051758 155.125 160.53125 167.9375 174.537490844727 187.59375 199.793746948242 213.506256103516 225.96875 241.506256103516 257.931243896484 264.493743896484 257.412506103516 251.668746948242 247.774993896484 245.25 244.5 242.412506103516 238.3125 234.662506103516 232.043746948242 228.074996948242 224.893753051758 217.356246948242 211.824996948242 211.618743896484 215.099990844727 212.806243896484 206.362503051758 201.518753051758 
212.331253051758 210.643753051758 207.287506103516 204.012496948242 201 196.962493896484 193.912506103516 193.78125 196.868743896484 196.175003051758 196.168746948242 196.962493896484 197.381256103516 198.887496948242 196.556243896484 191.9375 186.368743896484 179.618743896484 173.462493896484 167 161.918746948242 156.393753051758 154.96875 160.137496948242 167.206253051758 172.425003051758 185.774993896484 200.068756103516 213.71875 224.443756103516 238.018753051758 249.106246948242 252.456253051758 249.368743896484 248.762496948242 246.21875 245.206253051758 242.587493896484 240.475006103516 236.256256103516 228.9375 223.78125 224.300003051758 226.237503051758 221.300003051758 214.399993896484 213.993743896484 215.018753051758 207.543746948242 199.231246948242 189.399993896484 
208.699996948242 205.449996948242 199.762496948242 193.412506103516 189.512496948242 188.981246948242 187.149993896484 189.393753051758 191.006256103516 189.524993896484 190.962493896484 193.087493896484 195.137496948242 198.193756103516 197.043746948242 194.100006103516 189.668746948242 186.131256103516 179.056243896484 170.681243896484 165.28125 160.600006103516 157.90625 161.612503051758 165.987503051758 174.337493896484 184.625 195.243743896484 207.925003051758 218.199996948242 230.03125 237.949996948242 241.28125 242.287506103516 243.53125 240.668746948242 244.956253051758 243.925003051758 240.431243896484 241.268753051758 237.9375 231.149993896484 226.212493896484 223.231246948242 219.53125 218.324996948242 216.018753051758 216.106246948242 209.449996948242 199.475006103516 186.53125 
204.425003051758 199.475006103516 191.993743896484 187.268753051758 184.300003051758 183.349990844727 184.131256103516 184.09375 185.756256103516 186.381256103516 187.824996948242 189.306243896484 194.550003051758 195.524993896484 195.756256103516 195.949996948242 194.237503051758 189.256256103516 183.618743896484 177.21875 169.012496948242 162.524993896484 159.262496948242 160.75 164.59375 173.662506103516 182.393753051758 191.024993896484 202.737503051758 210.831253051758 221.756256103516 226.774993896484 230.149993896484 233.15625 234.96875 232.875 237.518753051758 241.3125 242.393753051758 241.631256103516 242.962493896484 235.206253051758 228.8125 221.78125 219.9375 221.706253051758 221.506256103516 217.96875 210.106246948242 201.625 188.637496948242 
195.449996948242 189.818756103516 183.837493896484 180.5625 179.418746948242 177.425003051758 180.506256103516 178.337493896484 179.668746948242 180.15625 181.762496948242 183.09375 188.162506103516 192.78125 193.856246948242 196.262496948242 193.256256103516 188.387496948242 183.368743896484 177.981246948242 168.987503051758 162.568756103516 158.237503051758 160.306243896484 166.306243896484 171.949996948242 180.056243896484 186.850006103516 194.71875 202.837493896484 208.506256103516 214.25 217.106246948242 220.806243896484 225.037506103516 225.349990844727 229.387496948242 235.012496948242 236.024993896484 241.225006103516 242.725006103516 236.912506103516 231.393753051758 228.15625 225.793746948242 234.381256103516 237.306243896484 228.131256103516 215.65625 205.206253051758 192.393753051758 
183.956253051758 180.087493896484 175.131256103516 173.824996948242 171.318756103516 169.756256103516 171.506256103516 170.981246948242 172.637496948242 175.162506103516 180.418746948242 182.574996948242 187.306243896484 193.337493896484 194.199996948242 194.268753051758 192.412506103516 190.287506103516 183.443756103516 178.056243896484 169.118743896484 163.899993896484 158.65625 161.556243896484 166.018753051758 171.25 176.850006103516 183.181243896484 188.106246948242 193.443756103516 198.737503051758 202.418746948242 203.912506103516 210.84375 214.481246948242 219.037506103516 220.618743896484 226.375 227.787506103516 235.425003051758 236.75 234.9375 231.556243896484 231.1875 236.581253051758 246.4375 247.112503051758 234.34375 219.649993896484 208.024993896484 194.956253051758 
173.112503051758 169.175003051758 167.699996948242 166.65625 166.237503051758 164.018753051758 164.012496948242 163.018753051758 164.462493896484 167.462493896484 172.574996948242 178.96875 183.34375 187.800003051758 191.03125 193.806243896484 193.71875 190.574996948242 182.487503051758 175.706253051758 169.837493896484 165.268753051758 160.350006103516 160.925003051758 164.668746948242 167.756256103516 171.637496948242 176.137496948242 181.71875 185.387496948242 189.037506103516 191.462493896484 194.100006103516 198.081253051758 203.362503051758 207.193756103516 211.53125 213.731246948242 218.668746948242 223.912506103516 225.493743896484 227.899993896484 229.899993896484 231.199996948242 240.806243896484 250.53125 248.199996948242 230.568756103516 217.431243896484 206.993743896484 195.087493896484 
161.712493896484 158.818756103516 159.018753051758 160.043746948242 160.556243896484 158.59375 155.743743896484 155.356246948242 154.53125 158.425003051758 165.368743896484 172.862503051758 181.268753051758 188.568756103516 191.493743896484 193.581253051758 193.15625 189.975006103516 182.3125 173.649993896484 168.387496948242 162.856246948242 159.587493896484 159.306243896484 161.324996948242 163.506256103516 168.506256103516 172.837493896484 176.768753051758 179.831253051758 180.850006103516 181.925003051758 182.487503051758 186.96875 186.887496948242 192.012496948242 194.399993896484 203.012496948242 207.412506103516 210.725006103516 213.037506103516 213.818756103516 216.912506103516 221.487503051758 229.71875 235.756256103516 235.225006103516 225.53125 212.899993896484 203.100006103516 194.193756103516 
154.287506103516 153.012496948242 152.037506103516 152.337493896484 152.074996948242 150.387496948242 147.300003051758 147.34375 147.081253051758 148.5 154.40625 166.34375 178.306243896484 185.418746948242 190.112503051758 191.768753051758 191.456253051758 185.981246948242 180.581253051758 172.175003051758 167.524993896484 162.668746948242 159.03125 158.9375 159.46875 160.231246948242 166.112503051758 170.012496948242 171.037506103516 172.512496948242 173.381256103516 173.475006103516 173.193756103516 173.149993896484 174 177.068756103516 185.137496948242 188.181243896484 192.368743896484 198.8125 200.287506103516 204.268753051758 205.762496948242 210.050003051758 212.487503051758 217.03125 217.875 211.943756103516 206.262496948242 197.287506103516 189.03125 
148.25 148.112503051758 146.956253051758 146.918746948242 147.25 144.681243896484 142.512496948242 140.456253051758 139.40625 137.018753051758 148.5 168.081253051758 179.112503051758 185.050003051758 188.625 190.118743896484 188.387496948242 182.506256103516 177.274993896484 168.387496948242 165.0625 161.106246948242 156.6875 156.100006103516 156.456253051758 158.393753051758 161.899993896484 164.381256103516 164.993743896484 166.287506103516 167.237503051758 167.587493896484 166.006256103516 163.087493896484 163.912506103516 168.537506103516 173.681243896484 178.193756103516 180.625 183.925003051758 185.431243896484 187.018753051758 193.412506103516 198.712493896484 200.524993896484 200.475006103516 206.96875 199.106246948242 193.09375 188.03125 182.25 
142.71875 142.431243896484 142.90625 142.381256103516 143.600006103516 142.237503051758 140.587493896484 138.043746948242 137.274993896484 135.081253051758 155.925003051758 176.125 183.199996948242 187.875 189.40625 189.612503051758 186.949996948242 181.862503051758 174.631256103516 167.706253051758 162.100006103516 158.537490844727 154.712493896484 153.631256103516 153.331253051758 154.212493896484 155.206253051758 160.3125 161.643753051758 160.75 159.774993896484 159.675003051758 158.868743896484 154.600006103516 152.25 156.493743896484 162.743743896484 166.106246948242 171.106246948242 172.050003051758 173.899993896484 176.268753051758 176.993743896484 179.056243896484 182.318756103516 186.012496948242 188.975006103516 187.875 181.024993896484 177.050003051758 173.762496948242 
134.243743896484 134.368743896484 135.21875 136.25 135.981246948242 136.300003051758 137.662506103516 139.868743896484 145.212493896484 157.662506103516 182.59375 188.600006103516 187.581253051758 189.712493896484 189.856246948242 188.918746948242 186.59375 180.850006103516 174.256256103516 166.306243896484 159.068756103516 153.481246948242 150.887496948242 150.899993896484 149.168746948242 149.193756103516 151.925003051758 156.006256103516 155.537506103516 156.21875 153.40625 149.475006103516 149.5625 148.762496948242 149.974990844727 152.356246948242 155.199996948242 160.3125 160.712493896484 159.475006103516 163.168746948242 164.600006103516 163.675003051758 166.975006103516 168.037506103516 171.131256103516 170.824996948242 170.34375 169.512496948242 167.068756103516 163.368743896484 
127.768753051758 127.787498474121 129.943756103516 131.337493896484 132.712493896484 134.143753051758 135.793746948242 143.068756103516 152.243743896484 165.368743896484 178.975006103516 187.28125 187.381256103516 187.981246948242 189.712493896484 186.818756103516 183.112503051758 177.106246948242 169.84375 163.456253051758 155.074996948242 149.875 144.887496948242 144.475006103516 144.262496948242 145.024993896484 146.475006103516 149.074996948242 148.925003051758 149.118743896484 148.40625 148.043746948242 147.274993896484 147.487503051758 148.34375 149.100006103516 150.331253051758 154.118743896484 153.787506103516 149.725006103516 151.087493896484 152.175003051758 149.90625 149.893753051758 153.568756103516 155.03125 156.806243896484 157.618743896484 158.043746948242 155.725006103516 154.018753051758 
120.293746948242 121.706253051758 124.356254577637 126.931251525879 127.912498474121 129.162506103516 133.756256103516 143.40625 151.725006103516 162.068756103516 173.21875 179.131256103516 183.568756103516 184.574996948242 185.587493896484 183.462493896484 179.618743896484 173 166.125 159.581253051758 151.34375 144.431259155273 138.71875 137.868743896484 139.006256103516 139.556243896484 140.668746948242 142.949996948242 143.449996948242 142.793746948242 145.362503051758 146.981246948242 148.375 148.725006103516 146.925003051758 148.712493896484 150.949996948242 152.393753051758 147.668746948242 143.918746948242 140.725006103516 136.831253051758 135.362503051758 138.231246948242 141.631256103516 144.5 145.206253051758 144.71875 149.024993896484 148.693756103516 146.587493896484 
110.125 111.556251525879 114.881248474121 117.462501525879 118.631248474121 122.443748474121 127.756248474121 134.5625 143.006256103516 150.006256103516 158.918746948242 165.306243896484 171.731246948242 173.462493896484 173.706253051758 174.318756103516 172.012496948242 167.837493896484 163.206253051758 154.856246948242 146.243743896484 138.300003051758 130.5 130.181243896484 131.143753051758 131.762496948242 133.300003051758 137.118743896484 140.256256103516 139.993743896484 139.412506103516 143.293746948242 145.106246948242 150.59375 149.425003051758 147.362503051758 146.737503051758 145.106246948242 142.731246948242 137.9375 132.59375 125.262496948242 122.324996948242 127.599998474121 133.149993896484 135.087493896484 135.418746948242 135.737503051758 138.081253051758 137.643753051758 136.75 
99.6374969482422 102.150001525879 105.84375 105.956253051758 109.706253051758 113.887496948242 117.787498474121 123.143753051758 130.081253051758 136.643753051758 144.837493896484 151.506256103516 157.21875 161.618743896484 163.762496948242 164.649993896484 162.78125 162.918746948242 159.21875 148.318756103516 137.693740844727 128.118743896484 123.03125 125.287498474121 126.006248474121 127.324996948242 129.006256103516 132.537506103516 134.662506103516 136.537506103516 137.475006103516 138.28125 142.456253051758 148.856246948242 153.587493896484 152.662506103516 146.431243896484 144.231246948242 139.112503051758 134.518753051758 128.8125 121.918746948242 117.131248474121 120.756248474121 125.15625 126.837501525879 127.493751525879 128.331253051758 132.050003051758 129.225006103516 128.887496948242 
91.3874969482422 93.3562469482422 96.9937515258789 97.8000030517578 101.324996948242 105.050003051758 107.96875 113.46875 120.087501525879 126.643753051758 133.175003051758 140.181243896484 146.862503051758 152 156.25 157.662506103516 157.693756103516 158.356246948242 158.15625 148.306243896484 134.462493896484 121.724998474121 117.574996948242 120.087501525879 121.900001525879 122.474998474121 123.75 126.787498474121 128.774993896484 129.824996948242 132.237503051758 133.28125 138.074996948242 146.324996948242 153.612503051758 158.006256103516 152.131256103516 145 139.631256103516 132.212493896484 124.962501525879 120.193748474121 118.337501525879 119.868751525879 120.71875 121.46875 123.356246948242 122.006248474121 121.918746948242 123.425003051758 121.587501525879 
83.1374969482422 86.3562469482422 88.9250030517578 91.0124969482422 93.4937515258789 96.65625 98.0812530517578 102.606246948242 107.993751525879 114.856246948242 121.393753051758 129.212493896484 136.524993896484 142.143753051758 147.15625 150.675003051758 151.143753051758 150.106246948242 149.65625 141.518753051758 130.606246948242 118.974998474121 114.537498474121 115.5 117.875 119.1875 121.0625 122.25 124.381248474121 126.375 128.943756103516 130.337493896484 134.84375 140.024993896484 148.143753051758 155.168746948242 149.793746948242 142.449996948242 136.793746948242 130.881256103516 123.568748474121 120.5 117.506248474121 117.918746948242 118.268753051758 117.275001525879 118.306251525879 117.637496948242 116.037498474121 118.5625 116.974998474121 
