ncols        51
nrows        45
xllcorner    -63.500000000000
yllcorner    -7.500000000000
cellsize     0.166666666667
NODATA_value -99
281.243743896484 282.862487792969 284.481262207031 290.856262207031 293.043762207031 292.100006103516 283.643737792969 272.274993896484 263.962493896484 256.643737792969 252.649993896484 248.768753051758 244.518753051758 236.850006103516 228.34375 218.043746948242 210.106246948242 198.675003051758 189.287506103516 179.25 173.893753051758 166.550003051758 160.71875 154.856246948242 148.449996948242 144.324996948242 139.949996948242 135.356246948242 130.262496948242 132.768753051758 135.125 138.806243896484 144.21875 147.09375 150.931243896484 153.78125 158.268753051758 162.131256103516 162.550003051758 163.081253051758 163.912506103516 163.625 161.418746948242 159.668746948242 158.925003051758 155.75 155.40625 153.774993896484 153.375 150.443756103516 148.118743896484 
269.075012207031 269.0625 275.612487792969 286.918762207031 299.1875 292.481262207031 281.575012207031 276.081237792969 268.706268310547 261.431243896484 256.924987792969 251.568756103516 246.262496948242 237.012496948242 227.818756103516 219.25 209 197.074996948242 185.375 174.543746948242 168.081253051758 163.568756103516 157.993743896484 154.381256103516 148.375 144.8125 141.987503051758 138.524993896484 133.143753051758 135.631256103516 138.774993896484 143.75 147.831253051758 152.643753051758 156.850006103516 159.212493896484 162.918746948242 166.793746948242 166.362503051758 166.256256103516 166.881256103516 166.90625 166.3125 163.237503051758 162.243743896484 159.625 159.081253051758 158.199996948242 158.550003051758 155.925003051758 154.193756103516 
249.199996948242 252.262496948242 259.28125 271.493743896484 282.631256103516 282.262512207031 276.018737792969 271.331237792969 266.862487792969 261.693756103516 257.762512207031 251.875 246.237503051758 236.568756103516 225.868743896484 217.693756103516 207.143753051758 196.493743896484 185.899993896484 176.65625 171.574996948242 167.399993896484 163.893753051758 161.375 156.568756103516 152.537506103516 151.856246948242 147.556243896484 142.731246948242 145.137496948242 147.943756103516 153 159.487503051758 164.787506103516 169.574996948242 171.050003051758 174.3125 178.462493896484 178.831253051758 179.524993896484 180.662506103516 179.256256103516 179.037506103516 176.262496948242 173.78125 171.043746948242 169.824996948242 169.606246948242 167.987503051758 165.268753051758 163.943756103516 
225.262496948242 229.050003051758 243.106246948242 251.806243896484 260.850006103516 263.818756103516 264.368743896484 267.0625 266.075012207031 263.693756103516 259.193756103516 252.887496948242 243.587493896484 235.362503051758 224.631256103516 215.287506103516 205.899993896484 196.868743896484 189.75 183.118743896484 179.256256103516 174.300003051758 170.287506103516 168.550003051758 163.875 161.112503051758 159.256256103516 153.3125 149.824996948242 153.643753051758 158.262496948242 162.3125 167.956253051758 173.693756103516 178.143753051758 183.368743896484 188.268753051758 192.15625 193.8125 193.5625 193.550003051758 191.475006103516 190.143753051758 187.981246948242 186.350006103516 182.524993896484 179.862503051758 181.037506103516 178.881256103516 174.331253051758 170.693756103516 
225.206253051758 221.893753051758 222.53125 229.712493896484 242.393753051758 249.118743896484 252.793746948242 258.924987792969 262.668762207031 262.268737792969 258.762512207031 249.512496948242 241.981246948242 236.181243896484 225.668746948242 215.543746948242 205.543746948242 197.856246948242 192.106246948242 185.96875 185.106246948242 179.074996948242 176.78125 175.512496948242 171.543746948242 168.887496948242 164.300003051758 160.106246948242 156.524993896484 159.574996948242 165.106246948242 168.5 173.5 180.600006103516 187.331253051758 191.412506103516 196.262496948242 202.243759155273 205.100006103516 205.725006103516 205.637496948242 202.212493896484 198.90625 197.606246948242 195.893753051758 192.237503051758 188.043746948242 187.637496948242 185.862503051758 182.0625 176.324996948242 
224.15625 219.256240844727 215.71875 211.362503051758 223.587493896484 238.725006103516 246.712493896484 251.893753051758 255.9375 258.825012207031 255.3125 246.318756103516 239.731246948242 234.925003051758 224.606246948242 216.725006103516 208.056243896484 201.287506103516 196.893753051758 193.40625 190.387496948242 186.037506103516 183.149993896484 180.162506103516 177.699996948242 174.068756103516 169.043746948242 165.487503051758 161.28125 163.3125 168.050003051758 175.350006103516 179.868743896484 185.475006103516 190.543746948242 196.53125 201.293746948242 208.850006103516 213.774993896484 214.587509155273 209.137496948242 205.962493896484 203.181243896484 203.274993896484 205.206253051758 200.4375 193.106246948242 189.75 189.762496948242 186.237503051758 181.71875 
226.318756103516 221.600006103516 217.293746948242 212.537506103516 216.625 224.212493896484 234.862503051758 243.443756103516 245.818756103516 246.393753051758 246.46875 240.962493896484 236.693756103516 231.887496948242 224.09375 217.574996948242 211.012496948242 207.949996948242 204.293746948242 200.449996948242 196.46875 192.356246948242 187.25 183.850006103516 182.212493896484 179.493743896484 174.643753051758 170.612503051758 165.125 166.087493896484 170.84375 175.774993896484 180.868743896484 187.056243896484 192.387496948242 195.706253051758 200.662506103516 210.600006103516 219.862503051758 216.631256103516 210.350006103516 205.387496948242 203.125 204.818756103516 208.206253051758 203.856246948242 195.256256103516 188.643753051758 187.918746948242 189.662506103516 188.137496948242 
229.331253051758 223.912506103516 219.699996948242 219.056243896484 222.568756103516 230.581253051758 234.037506103516 232.068756103516 229.662506103516 232.131256103516 236.862503051758 234.725006103516 232.331253051758 228.231246948242 224.231246948242 217.293746948242 212.418746948242 212.53125 211.337493896484 205.4375 202.431243896484 197.550003051758 192.431243896484 187.681243896484 185.131256103516 182.350006103516 176.524993896484 171.006256103516 166.837493896484 167.399993896484 171.381256103516 175.274993896484 179.418746948242 185.681243896484 188.487503051758 190.606246948242 194.375 201.112503051758 205.425003051758 204.068756103516 198.637496948242 194.112503051758 192.912506103516 193.53125 196.568756103516 193.550003051758 187.712493896484 183.487503051758 182.931243896484 185.818756103516 185.756256103516 
233.743743896484 229.6875 227.487503051758 226.806243896484 229.543746948242 234.693756103516 237.712493896484 235.662506103516 229.168746948242 224.918746948242 229.024993896484 227.600006103516 228.21875 224.274993896484 221.9375 217.893753051758 214.862503051758 215.493743896484 216.118743896484 210.262496948242 204.912506103516 201.5625 193.600006103516 191.09375 186.543746948242 181.706253051758 175.850006103516 171.537506103516 168.731246948242 167.737503051758 171.431243896484 170.100006103516 169.75 170.5 172.387496948242 176.25 179.899993896484 182.943756103516 183.637496948242 182.168746948242 177.868743896484 173.793746948242 173.231246948242 174.262496948242 173.800003051758 172.362503051758 170.293746948242 166.40625 166.9375 172.4375 179.1875 
235.537506103516 232.675003051758 231.649993896484 231.5 235.556243896484 240.537506103516 243.043746948242 239.949996948242 234.837493896484 231.46875 230.481246948242 225.65625 223.987503051758 222.087493896484 219.537506103516 218.981246948242 215.96875 216.462493896484 217.03125 214.662506103516 210.0625 203.649993896484 194.84375 190.337493896484 183.625 178.731246948242 173.706253051758 169.587493896484 166.868743896484 166.425003051758 164.850006103516 161.256256103516 158.762496948242 159.068756103516 159.475006103516 160.975006103516 163.53125 164.600006103516 162.462493896484 160.381256103516 156.649993896484 154.231246948242 149.643753051758 149.693756103516 150.337493896484 151.375 149.212493896484 145.787506103516 144.912506103516 147.65625 151.850006103516 
240.393753051758 237.649993896484 237.087493896484 236.887496948242 240.043746948242 246.768753051758 249.387496948242 242.956253051758 236.118743896484 232.737503051758 231.706253051758 227.837493896484 222.300003051758 217.78125 215.625 215.368743896484 212.925003051758 213.762496948242 214.600006103516 214.774993896484 214.868743896484 208.96875 198.837493896484 185.456253051758 180.631256103516 180.5625 175.987503051758 169.487503051758 164 161.456253051758 158.625 153.543746948242 149.943756103516 147.556243896484 146.168746948242 145.75 146.175003051758 145.550003051758 144.493743896484 140.356246948242 135.012496948242 131.793746948242 130.506256103516 127.5 126.5 130.975006103516 126.831253051758 121.881248474121 119.668746948242 118.71875 112.831253051758 
241.225006103516 238.837493896484 238.699996948242 240.5 243.393753051758 248.8125 252.449996948242 246.231246948242 236.931243896484 230.71875 229.056243896484 226.868759155273 218.975006103516 212.475006103516 212.787506103516 211.087493896484 209.356246948242 208.149993896484 209.3125 213.543746948242 217.837493896484 212.643753051758 201.28125 185.53125 178.106246948242 174.868743896484 169.024993896484 162.831253051758 155.993743896484 152.399993896484 147.818756103516 142.09375 137.78125 135.8125 135.287506103516 133.800003051758 132.381256103516 130.84375 125.925003051758 119.681251525879 113.587501525879 109.743751525879 108.662498474121 105.6875 101.381248474121 99.2312469482422 97.8562469482422 96.09375 95.34375 92.3249969482422 82.7375030517578 
239.975006103516 237.84375 237.193756103516 237.15625 238.537506103516 242.350006103516 243.143753051758 237.96875 231.925003051758 226.681243896484 222.868743896484 221.943756103516 216.925003051758 206.587493896484 203.600006103516 203.524993896484 201.606246948242 201.462493896484 203.368743896484 207.181243896484 213.606246948242 211.712493896484 201.21875 186.868743896484 173.5625 167.818756103516 163.381256103516 157.893753051758 151.543746948242 145.525009155273 137.831253051758 130.681243896484 126.631248474121 122.650001525879 121.018753051758 120.668746948242 121.612503051758 121.037498474121 117.71875 107.381248474121 97.2937469482422 95.1687469482422 92.7249984741211 82.8312530517578 77.5625 80.5999984741211 80.9812469482422 78.3937530517578 74.59375 73.0562515258789 65.4312515258789 
236.9375 234.300003051758 231.918746948242 230.975006103516 232.081253051758 232.337493896484 231.199996948242 228.681243896484 223.274993896484 219.34375 213.918746948242 210.03125 206.518753051758 199.287506103516 192.262496948242 192.762496948242 191.300003051758 190.699996948242 191.112503051758 194.949996948242 201.025009155273 199.881256103516 194.574996948242 186.643753051758 175.881256103516 167.449996948242 160.662506103516 153.193756103516 145.018753051758 137.887496948242 131.34375 122.381248474121 116.537498474121 111.918746948242 110.168746948242 112.162498474121 115.756248474121 119.543746948242 118.125 110.106246948242 92.7874984741211 83.2125015258789 81.0500030517578 78.3000030517578 75.1125030517578 74.34375 75.8812484741211 74.0812530517578 69.7624969482422 67.3187484741211 60.6437492370605 
233.03125 228.756256103516 225.524993896484 224.149993896484 224.612503051758 220.856246948242 220.737503051758 217.456253051758 212.356246948242 209.893753051758 203.324996948242 199.006256103516 194.506256103516 188.018753051758 179.293746948242 176.287506103516 175.862503051758 176.956253051758 176.375 180.018753051758 187.043746948242 190.268753051758 190.131256103516 187.318756103516 182.899993896484 175.600006103516 165.449996948242 153.331253051758 142.037506103516 133.975006103516 123.050003051758 113.599998474121 108.775001525879 103.568748474121 99.1937484741211 104.043746948242 114.387496948242 126.668754577637 131.71875 122.925003051758 108.481246948242 96.0812530517578 90.4937515258789 84.4187469482422 78.2437515258789 75.4499969482422 73.8062515258789 73.3062515258789 71.7125015258789 66.1750030517578 59.71875 
226.887496948242 221.712493896484 219.243743896484 216.987503051758 214.631256103516 212.831253051758 210.643753051758 206.712493896484 203.206253051758 200.993743896484 194.40625 188.581253051758 183.118743896484 177.237503051758 168.993743896484 161.375 160.206253051758 163.149993896484 163.149993896484 167.293746948242 173.912506103516 181.881240844727 188.793746948242 191.662506103516 189.975006103516 181.431243896484 167.918746948242 155 143.131240844727 132.037490844727 122.856246948242 111.074996948242 103.737503051758 99.3062515258789 93.2375030517578 102.618751525879 119.050003051758 133.181243896484 144.78125 141.125 131.78125 114.793746948242 100.006248474121 88.0374984741211 81.4187469482422 76.59375 75.0562515258789 72.9937515258789 69.8312530517578 66.1374969482422 62.6124992370605 
218.012496948242 213.762496948242 212.199996948242 210.068756103516 207.006256103516 205.28125 202.543746948242 199.449996948242 195.850006103516 192.037506103516 186.837493896484 180.574996948242 173.262496948242 166.550003051758 161.106246948242 154.762496948242 147.587493896484 148.96875 151.824996948242 155.362503051758 162.1875 172.524993896484 185.65625 195.131256103516 197.118743896484 185.012496948242 170.09375 156.506256103516 144.46875 133.631256103516 125.818748474121 118.25 109.393753051758 103.15625 105.043746948242 112.431251525879 125.900001525879 148.868743896484 171.268753051758 159.5625 141.293746948242 121.699996948242 102.506248474121 91.0437469482422 83.3312530517578 78.5062484741211 75.5124969482422 74.71875 74 69.2562484741211 67.2562484741211 
210.181243896484 206.75 203.737503051758 201.956253051758 200.949996948242 199.681243896484 196.425003051758 192.625 189.887496948242 184.818756103516 179.118743896484 172.693756103516 165.050003051758 158.137496948242 152.487503051758 147.449996948242 141.237503051758 135.6875 140.231246948242 142.662506103516 150.975006103516 160.518753051758 174.96875 187.1875 192.262496948242 182.574996948242 170.387496948242 157.324996948242 144.056243896484 131.225006103516 121.9375 114.418746948242 117.868751525879 121.699996948242 119.237503051758 118.900001525879 135.818756103516 155.9375 166.337509155273 158.46875 136.149993896484 117.068748474121 100.84375 92.8062515258789 85.7687530517578 81.3562469482422 79.5187530517578 77.0062484741211 76.1062469482422 71.0062484741211 70.6937484741211 
202.068756103516 198.043746948242 195.118759155273 194.662506103516 193.5625 192.956253051758 190.212493896484 188.512496948242 184.962493896484 179.743743896484 173.431243896484 165.806243896484 157.356246948242 150.581253051758 144.100006103516 140.774993896484 136.34375 129.668746948242 128.4375 130.581253051758 141.818756103516 159.649993896484 161.668746948242 172.175003051758 179.925003051758 180.493743896484 171.981246948242 158.59375 148.675003051758 133.875 121.900001525879 122.506248474121 135.84375 140.543746948242 140.993743896484 141.074996948242 146.643753051758 152.456253051758 153.668746948242 143.743743896484 126.125 110.587501525879 98.2375030517578 91.9625015258789 87.4875030517578 84.9000015258789 83.0500030517578 81.2750015258789 78.6437530517578 69.8687515258789 72.8125 
192.393753051758 190.206253051758 187.418746948242 186.606246948242 186.28125 187.425003051758 186.600006103516 184.024993896484 182.418746948242 177.612503051758 171.581253051758 164.912506103516 156.868743896484 148.612503051758 140.756256103516 135.006256103516 127.46875 127.025001525879 124.443748474121 128.256256103516 134.09375 143.081253051758 157.949996948242 166.887496948242 172.050003051758 171.199996948242 166.100006103516 160.706253051758 148.712493896484 135.90625 128.162506103516 138.25 149.668746948242 165.524993896484 175.962493896484 169.425003051758 160.65625 153.6875 146.143753051758 134.28125 118.375 102.743751525879 97.28125 95.6999969482422 92.1125030517578 90.2750015258789 88.5124969482422 85.5124969482422 80.5625 72.8000030517578 75.5437469482422 
179.9375 179.556243896484 179.306243896484 179.512496948242 179.743743896484 180.162506103516 181.012496948242 180.512496948242 180.731246948242 178.262496948242 172.831253051758 167.649993896484 159.4375 149.212493896484 142.4375 133.993743896484 126.768753051758 123.231246948242 124.731246948242 124.587501525879 134.256256103516 146.274993896484 157.743743896484 166.199996948242 173.806243896484 175.006256103516 168.537506103516 159.8125 151.3125 147.268753051758 144.818756103516 151.949996948242 164.556243896484 182.956253051758 203.118743896484 189.649993896484 167.668746948242 153.168746948242 141.693756103516 130.75 119.862503051758 109.268753051758 103.393753051758 100.862503051758 97.9875030517578 96.34375 93.7125015258789 90.2750015258789 82.125 79.5875015258789 79.65625 
170.012496948242 167.712493896484 168.168746948242 169.4375 172.043746948242 174.831253051758 176.25 178.306243896484 179.631256103516 178.65625 175 170.956253051758 165.393753051758 156.693756103516 149 139.043746948242 131.793746948242 127.75 128.587493896484 128.550003051758 133.262496948242 143.34375 153.662506103516 161.337493896484 167.206253051758 170.706253051758 170.65625 164.0625 160.918746948242 158.649993896484 156.574996948242 159.368743896484 169.756256103516 184.256256103516 190.612503051758 181.762496948242 163.1875 150.09375 139.018753051758 130.75 123.875 117.25 113.931251525879 111.243751525879 107.462501525879 105.425003051758 101.512496948242 95.8312530517578 88.125 87.2624969482422 84.5124969482422 
161.456253051758 161.043746948242 160.618743896484 162.625 165.412506103516 168.806243896484 172.40625 175.887496948242 179.818756103516 179.068756103516 179.175003051758 176.875 174.962493896484 167.675003051758 156.387496948242 145.774993896484 136.774993896484 133.481246948242 131.625 131.262496948242 135.506256103516 143.600006103516 151.137496948242 155.931243896484 162.90625 167.024993896484 166.981246948242 167.199996948242 164.975006103516 161.793746948242 161.331253051758 164.081253051758 170.237503051758 176.5625 176.362503051758 164.931243896484 153.53125 143.431243896484 136.162506103516 132.9375 131.112503051758 126.537498474121 123.775001525879 121.181251525879 116.974998474121 115.118751525879 110.387496948242 104 97.4937515258789 94.7937469482422 92.8249969482422 
155.981246948242 153.75 154.475006103516 155.5625 157.206253051758 162.725006103516 167.487503051758 171.237503051758 175.306243896484 176.181243896484 176.362503051758 178.137496948242 180.456253051758 172.96875 160.493743896484 149.418746948242 141.043746948242 137.65625 135.75 134.181243896484 137.731246948242 143.0625 150.506256103516 155.262496948242 160.287506103516 162.412506103516 162.262496948242 162.706253051758 164.743743896484 163.100006103516 162.024993896484 164.181243896484 167.056243896484 169.625 168.425003051758 157.28125 149.956253051758 145.162506103516 140.793746948242 141.087493896484 140.462493896484 137.3125 136.331253051758 134.699996948242 132.581253051758 128.162506103516 122.212501525879 111.5 108.606246948242 102.318748474121 101.368751525879 
152.668746948242 149.431243896484 148.84375 149.15625 154.6875 159.293746948242 163.40625 167.462493896484 170.787506103516 173.068756103516 174.431243896484 174.1875 173.887496948242 168.899993896484 160.256256103516 150.899993896484 143.993743896484 140.037506103516 137.581253051758 136.881256103516 140.112503051758 143.875 151.331253051758 155.800003051758 157.34375 161.131256103516 160.9375 161.918746948242 163.818756103516 163.350006103516 161.59375 161.918746948242 165.71875 167.043746948242 164.53125 157.412506103516 154.818756103516 152.59375 149.637496948242 150.012496948242 150.231246948242 149.606246948242 149.824996948242 152.193756103516 150.568756103516 145.850006103516 128.524993896484 124.949996948242 118.78125 110.625 111.449996948242 
152.356246948242 150.75 147.793746948242 149.012496948242 151.399993896484 155.324996948242 159.956253051758 163.693756103516 166.537506103516 169.362503051758 169.168746948242 168.6875 167 162.293746948242 156.831253051758 150.53125 144.550003051758 141.850006103516 139.418746948242 138.362503051758 141 143.78125 150.587493896484 154.949996948242 156.824996948242 158.481246948242 160.618743896484 163.350006103516 164.149993896484 163.606246948242 161.693756103516 162.3125 163.21875 164.1875 164.387496948242 164.056243896484 162.287506103516 161.818756103516 162.175003051758 162.056243896484 164.118743896484 163.225006103516 163.850006103516 167.824996948242 170.050003051758 152.993743896484 144.774993896484 139.043746948242 131.568756103516 126.337501525879 123.699996948242 
153 149.375 147.387496948242 148.356246948242 149.256256103516 153.024993896484 156.443756103516 158.893753051758 159.987503051758 162.568756103516 164.15625 163.556243896484 160.793746948242 157.087493896484 153.337493896484 148.743743896484 145.462493896484 142.1875 140.237503051758 139.225006103516 141.875 144.081253051758 149.074996948242 155.481246948242 156.581253051758 158.637496948242 160.631256103516 161.456253051758 162.40625 161.481246948242 159.725006103516 158.762496948242 163.3125 166.081253051758 166.800003051758 169.175003051758 170.837493896484 171.206253051758 172.493743896484 173.943756103516 174.868759155273 175.212493896484 176.943756103516 177.9375 173.831253051758 170.712493896484 163.112503051758 151.625 144.462493896484 135.481246948242 129.668746948242 
153.131256103516 149.237503051758 148.056243896484 147.03125 148.09375 150.40625 153.381256103516 155.449996948242 155.643753051758 158.175003051758 159.168746948242 157.943756103516 155.287506103516 153.168746948242 150 146.8125 144.0625 141.725006103516 140.15625 140.337493896484 142.131256103516 144.381256103516 148.53125 153.581253051758 156.8125 158.175003051758 159.274993896484 159.956253051758 160.600006103516 160.612503051758 157.699996948242 157.112503051758 163.59375 167.693756103516 171.206253051758 174.606246948242 180.106246948242 183.600006103516 185.618743896484 187.40625 189.112503051758 189.962493896484 187.431243896484 189.550003051758 187.943756103516 185.087493896484 176.362503051758 166.356246948242 155.350006103516 143.268753051758 136.256256103516 
153.637496948242 149.018753051758 146.462493896484 144.931243896484 145.03125 146.337493896484 148.40625 150.774993896484 151.668746948242 153.125 153.662506103516 151.806243896484 150.875 148.024993896484 145.606246948242 145.5625 145.618743896484 140.75 139.199996948242 139.868743896484 142.050003051758 144.662506103516 148.681243896484 153.431243896484 154.881256103516 157.237503051758 157.956253051758 159.3125 161.287506103516 159.175003051758 155.675003051758 155.050003051758 161.443756103516 168.4375 176.356246948242 180.837493896484 189.193756103516 196.193756103516 200.268753051758 202.306243896484 199.418746948242 196.337493896484 196.90625 200.425003051758 201.737503051758 195.5625 187.600006103516 177.681243896484 164.737503051758 152.1875 139.756256103516 
153.731246948242 148.800003051758 144.274993896484 141.831253051758 140.931243896484 142.506256103516 144.662506103516 146.75 147.412506103516 148.012496948242 148.206253051758 147.84375 146.731246948242 144.743743896484 144.356246948242 143.181243896484 141.875 139.818756103516 137.587493896484 138.125 141.006256103516 144.618743896484 147.268753051758 150.28125 153.331253051758 156.712493896484 156.375 156.181243896484 156.043746948242 155.818756103516 155.337493896484 156.024993896484 162.1875 169.731246948242 178.918746948242 185.862503051758 195.800003051758 206.8125 208.131256103516 214.512496948242 215.5625 210.456253051758 206.787506103516 208.631240844727 204.962493896484 200.149993896484 194.375 184.681243896484 170.568756103516 157.993743896484 144.449996948242 
150.699996948242 146.050003051758 142.931243896484 138.912506103516 137.975006103516 139.90625 140.731246948242 142.362503051758 143.412506103516 144.40625 144.418746948242 143.800003051758 145.387496948242 143.300003051758 142.087493896484 140.712493896484 140.9375 139.53125 137.587493896484 139.168746948242 141.625 145.600006103516 148.543746948242 150.15625 151.725006103516 154.618743896484 153.71875 152.662506103516 152.231246948242 151.0625 153.137496948242 155.6875 162.050003051758 172.606246948242 182.512496948242 188.600006103516 199.762496948242 213.25 219.787506103516 226.462493896484 227.762496948242 221.087493896484 215.487503051758 214.199996948242 208.125 204.543746948242 198.418746948242 188.737503051758 176.206253051758 163.887496948242 151.362503051758 
148.512496948242 142.293746948242 138.625 135.806243896484 135.931243896484 136.5 137.587493896484 139.106246948242 140.518753051758 140.975006103516 141.556243896484 140.949996948242 140.256256103516 140.462493896484 140.918746948242 141.900009155273 141.125 140.412506103516 140.612503051758 143.40625 146.087493896484 146.824996948242 149.443756103516 149.375 152.300003051758 151.706253051758 149.356246948242 149.399993896484 148.53125 148.84375 151.737503051758 153.787506103516 161.550003051758 171.96875 181.774993896484 188.84375 200.15625 211.856246948242 219.956253051758 228.074996948242 232.962493896484 226.606246948242 221.743743896484 218.21875 214.243743896484 213.600006103516 207.231246948242 197.487503051758 182.856246948242 169.21875 157.756256103516 
142.618743896484 138.175003051758 134.175003051758 131.943756103516 131.587493896484 132.300003051758 133.731246948242 134.100006103516 135.387496948242 135.600006103516 139.987503051758 138.387496948242 138.618743896484 141.518753051758 141.912506103516 143.625 143.818756103516 145.649993896484 146.5625 149.318756103516 150.318756103516 150.462493896484 150.0625 149.393753051758 150.5 148.418746948242 145.743743896484 144.699996948242 143.681243896484 146.668746948242 149.131256103516 152.356246948242 158.918746948242 168.668762207031 179.137496948242 186.112503051758 195.393753051758 203.481246948242 211.318740844727 221.356246948242 227.074996948242 223.125 220.3125 216.668746948242 215.774993896484 218.28125 215.199996948242 200.018753051758 186.118743896484 172.893753051758 161.337493896484 
135.274993896484 132.737503051758 130.412506103516 128.368743896484 127.181251525879 127.675003051758 129.149993896484 129.612503051758 130.25 132.149993896484 134.725006103516 137.28125 138.100006103516 138.881256103516 141.425003051758 143.475006103516 146.475006103516 149.600006103516 152.40625 155.3125 155.375 153.643753051758 151.731246948242 148.643753051758 146.649993896484 143.743743896484 140.668746948242 139.056243896484 137.381256103516 140.893753051758 145.168746948242 149.556243896484 156.268753051758 164.556243896484 174.25 183.9375 190.193756103516 196.731246948242 204.5 211.318756103516 216.381256103516 217.481246948242 218.006256103516 216.056243896484 216.149993896484 216.71875 211.956253051758 198.899993896484 185.212493896484 171.637496948242 161.606246948242 
129.131256103516 127.518753051758 125.931251525879 125.037498474121 124.131248474121 123.675003051758 125.137496948242 125.525001525879 125.418746948242 127.756248474121 131.931243896484 136.137496948242 137.887496948242 139.568756103516 142.337493896484 145.449996948242 148.425003051758 151.568756103516 157.449996948242 160.181243896484 160.237503051758 157.225006103516 152.337493896484 147.018753051758 141.893753051758 139.21875 136.53125 133.53125 131.556243896484 135.100006103516 140 144.324996948242 151.149993896484 159.181243896484 167.03125 174.081253051758 181.59375 190.65625 196.0625 202.768753051758 204.431243896484 204.75 208.568756103516 207.212493896484 207.975006103516 207.568756103516 203.90625 193 182.056259155273 169.231246948242 158.881256103516 
122.856246948242 121.150001525879 120.574996948242 120.068748474121 119.456253051758 119.637496948242 119.574996948242 120.943748474121 121.456253051758 123.074996948242 127.59375 131.90625 136.237503051758 139.850006103516 142.643753051758 146.106246948242 148.84375 153.506256103516 159.456253051758 164.300003051758 161.712493896484 157.5 150.4375 143.46875 138.449996948242 134.725006103516 131.193756103516 128.637496948242 126.931251525879 129.831253051758 134.587493896484 139.162506103516 144.168746948242 151.09375 157.65625 162.793746948242 172.03125 179.012496948242 183.637496948242 188.581253051758 192.568740844727 192.231246948242 192.956253051758 193.037506103516 193.131256103516 190.90625 187.09375 182.837493896484 173.71875 162.125 154.03125 
116.681251525879 115.618751525879 115 114.262496948242 114.96875 115.175003051758 115.693748474121 116.487503051758 117.631248474121 118.037498474121 123.625 132.506256103516 137.581253051758 141.231246948242 144.34375 146.456253051758 149.456253051758 152.606246948242 157.025009155273 160.712493896484 159.387496948242 152.600006103516 145.649993896484 138.012496948242 132.831253051758 129.3125 125.412498474121 122.449996948242 120.96875 124.15625 128.199996948242 132.662506103516 137.71875 143.524993896484 148.993743896484 154.618743896484 161.675003051758 168.737503051758 171.475006103516 174.399993896484 177.34375 176.362503051758 177.943756103516 178.96875 180.262496948242 176.293746948242 174.725006103516 172.443756103516 162.375 154.274993896484 145.699996948242 
110.46875 110.324996948242 110.181251525879 109.375 110.4375 111.449996948242 112.462501525879 113.974998474121 115.912498474121 116.5625 128.881256103516 137.09375 140.412506103516 143.03125 145.212493896484 147.243743896484 147.324996948242 149.90625 151.5 152.362503051758 151.318756103516 145.231246948242 139.09375 131.681243896484 126.131248474121 122.181251525879 119.512496948242 117.262496948242 115.962501525879 119.0625 120.949996948242 124.675003051758 129.306259155273 135.862503051758 141.162506103516 143.737503051758 149.65625 155.306243896484 160.143753051758 163.393753051758 163.387496948242 165.350006103516 163.512496948242 162.993743896484 163.537506103516 161.425003051758 161.956253051758 161.65625 150.818756103516 144.268753051758 137.862503051758 
106.143753051758 105.762496948242 105.793746948242 106.068748474121 106.375 107.65625 109.987503051758 112.962501525879 117.412498474121 125.962501525879 139.643753051758 141.993743896484 141.53125 144.143753051758 145.356246948242 146.256256103516 146.125 146.581253051758 145.418746948242 144.65625 141.75 136.175003051758 131.012496948242 124.6875 119.625 115.612503051758 113.425003051758 112.618751525879 112.362503051758 115.618751525879 118.618751525879 121.081253051758 124.96875 128.293746948242 132.850006103516 136.03125 141.018753051758 145.53125 150.012496948242 150.774993896484 151.524993896484 153.606246948242 152.074996948242 151.568756103516 151.956253051758 150.456253051758 146.824996948242 148.181243896484 143.106246948242 140.018753051758 132.356246948242 
100.462501525879 100.131248474121 100.887496948242 101.443748474121 102.481246948242 104.743751525879 106.637496948242 110.993751525879 116.9375 126.181251525879 134.506256103516 138.449996948242 140.649993896484 143.09375 145.118743896484 144.875 144.46875 142.818756103516 141.131256103516 137.618743896484 132.581253051758 127.087501525879 121.106246948242 115.75 111.993751525879 108.987503051758 107.53125 108.175003051758 108.056251525879 111.900001525879 112.887504577637 116.087501525879 120.724998474121 123.550003051758 127 130.168746948242 133.037506103516 137.518753051758 140.556243896484 138.606246948242 139.774993896484 142.625 141.512496948242 139.993743896484 139.774993896484 137.631256103516 137.481246948242 138.443756103516 136.606246948242 135.112503051758 129.643753051758 
94.9625015258789 95.1999969482422 96.2624969482422 97.2562484741211 98.09375 100.268753051758 103.800003051758 108.418746948242 113.956253051758 121.087501525879 127.262496948242 132.493743896484 137.612503051758 139.850006103516 142.037506103516 142.706253051758 142.231246948242 141.293746948242 137.112503051758 130.887496948242 125.256248474121 117.587501525879 111.449996948242 106.481246948242 104.474998474121 102.731246948242 103.074996948242 103.643753051758 104.643753051758 107.243751525879 109.9375 114.368751525879 118.28125 121.337501525879 124.074996948242 125.831253051758 127.431251525879 129.6875 132.318756103516 129.943740844727 130.550003051758 131.681243896484 130.743743896484 128.981246948242 128.912490844727 129.306243896484 130.068756103516 129.550003051758 131.356246948242 129.300003051758 127.356246948242 
88.5999984741211 88.9187469482422 90.0625 90.90625 92.25 94.1999969482422 97.6312484741211 101.912498474121 107.606246948242 113.625 119.974998474121 126.068748474121 132.043746948242 136.043746948242 138.087493896484 140.131256103516 140.643753051758 139.731246948242 135.481246948242 127.306251525879 117.987503051758 111.268753051758 103.556251525879 99.2874984741211 99.8874969482422 98.9875030517578 98.8375015258789 99.6937484741211 102.400001525879 106.324996948242 106.993751525879 111.956253051758 114.849998474121 121.275001525879 124.393753051758 122.768753051758 123.40625 124.9375 125.431251525879 123.606246948242 123.675003051758 122.756248474121 120.449996948242 120.662498474121 121.037498474121 122.818748474121 121.743751525879 121.387496948242 126.537498474121 123.912498474121 121.212501525879 
81.6812515258789 82.0812530517578 83.8062515258789 84.71875 85.8687515258789 87.8000030517578 90.8812484741211 94.9875030517578 99.9250030517578 106.15625 112.949996948242 118.90625 124.643753051758 129.956253051758 134.643753051758 137.637496948242 139.662506103516 139.431243896484 135.381256103516 123.949996948242 111.931251525879 102.300003051758 97.0374984741211 96.3937530517578 95.8874969482422 95.5999984741211 95.5625 96.5374984741211 98.9000015258789 102.381248474121 103.856246948242 106.868751525879 110.775001525879 115.599998474121 122.418746948242 123.262496948242 119.693748474121 120.231246948242 119.449996948242 118.131248474121 117.081245422363 116.449996948242 114.849998474121 113.693748474121 114.525001525879 114.462501525879 115.599998474121 115.462501525879 119.662498474121 118.300003051758 115.587501525879 
75.0124969482422 75.4562530517578 76.9937515258789 77.4499969482422 78.0875015258789 80.5875015258789 82.7750015258789 86.3375015258789 91.8562469482422 98.4124984741211 105.106246948242 112.043746948242 119.368751525879 124.181251525879 130.100006103516 133.8125 136.487503051758 137.318756103516 135.893753051758 123.293746948242 109.150001525879 98.2624969482422 92.25 91.6687469482422 92.5374984741211 92.9749984741211 93.4749984741211 94.0812530517578 95.6500015258789 99.1187515258789 100.787498474121 103.199996948242 105.925003051758 110.131248474121 118.368751525879 124.53125 118.387496948242 115.743751525879 116.275001525879 113.175003051758 111.737503051758 110.525001525879 109.056251525879 108.8125 109.393753051758 108.068748474121 108.349998474121 108.974998474121 109.900001525879 112.46875 110.1875 
68.4250030517578 69.4437484741211 71.7125015258789 71.1312484741211 72.1999969482422 73.8187484741211 75.2874984741211 78.3562469482422 83.8499984741211 90.625 97.7750015258789 105.481246948242 113.743751525879 120.487503051758 126.375 129.912506103516 132.381256103516 132.3125 129.743743896484 121.193748474121 106.799995422363 97.78125 91.0500030517578 89.3125 90.3125 91.3125 91.4375 92.4375 94.9000015258789 97.8187484741211 98.5250015258789 101.03125 103.393753051758 105.675003051758 110.556251525879 117.1875 114.612503051758 111.949996948242 111.168746948242 109.974998474121 108.887496948242 107.462501525879 105.612503051758 104.037498474121 103.65625 102.90625 103.674995422363 104.3125 102.981246948242 106.587501525879 105.6875 
