ncols        51
nrows        45
xllcorner    -63.500000000000
yllcorner    -7.500000000000
cellsize     0.166666666667
NODATA_value -99
199.274993896484 203.962493896484 203.787506103516 208.100006103516 213.100006103516 216.925003051758 214.106246948242 213.456253051758 211.274993896484 206.537506103516 196.03125 189.112503051758 184.725006103516 176.956253051758 170.774993896484 161.3125 154.712493896484 148.574996948242 142.556243896484 140.431243896484 137.756256103516 133.431243896484 129.587493896484 126.71875 122.793746948242 119.34375 119.53125 121.306251525879 117.543746948242 117.631248474121 113.724998474121 113.768753051758 114.199996948242 112.299995422363 111.449996948242 109.293746948242 105.59375 103.112495422363 100.362503051758 96.3874969482422 92.8125 90.2312469482422 85.4437484741211 80.5 77.6937484741211 73.6312484741211 69.59375 66.1937484741211 63.7749977111816 59.9625015258789 60.4124984741211 
191.375 195.012496948242 200.668746948242 207.193756103516 215.375 217.631256103516 211.693756103516 210.0625 208.456253051758 203.418746948242 194.71875 189.199996948242 180.818756103516 171.225006103516 163.3125 156.8125 148.1875 141.78125 136.606246948242 133.300003051758 130.018753051758 125.368751525879 121.393753051758 119.400001525879 115.224998474121 110.756248474121 112.618751525879 112.775001525879 109.5 108.550003051758 107.949996948242 107.46875 108.162498474121 109.143753051758 108.293746948242 104.881248474121 99.0062484741211 97.5187454223633 93.1374969482422 88.5625 86.3125 82.0875015258789 78.1500015258789 73.6187515258789 70.3874969482422 65.5062484741211 61.2687492370605 56.8187484741211 53.3562507629395 49.9000015258789 50.1312484741211 
176.087493896484 182.456253051758 189.568740844727 198.199996948242 206.074996948242 206.774993896484 203.287506103516 200.181243896484 195.375 188.987503051758 182.637496948242 176.287506103516 167.006256103516 155.375 146.931243896484 139.78125 132.537506103516 126.175003051758 120.918746948242 115.831253051758 113.900001525879 111.699996948242 108.362503051758 107.356246948242 102.637496948242 99.8812484741211 102.599998474121 101.537498474121 98.9937515258789 99.5187530517578 98.3187484741211 98.4937515258789 99.9312515258789 102.131248474121 100.856246948242 95.3625030517578 91.2937469482422 89.3937530517578 84.5812530517578 81.2312469482422 79.7312469482422 76.09375 73.0999984741211 68.0500030517578 64.5812530517578 59.4187507629395 54.2374992370605 51.0499992370605 46.8812484741211 43.5875015258789 44.3312492370605 
161.71875 165.550003051758 174.756256103516 184.0625 189.65625 189.387496948242 187.537506103516 184.875 182.6875 175.881256103516 166.84375 158.018753051758 149.256256103516 138.006256103516 129.662506103516 122.125 115.849998474121 110.34375 105.456253051758 103.28125 100.71875 97.4812469482422 94.2750015258789 93.7562484741211 90.5812530517578 88.1687469482422 90.2312469482422 87.9250030517578 86.7312469482422 88.1812515258789 88.4375 88.1875 88.5500030517578 89.6187515258789 89.6437530517578 86.3562469482422 84.71875 81.8249969482422 76.34375 74.2562484741211 71.6624984741211 69.8249969482422 66.6875 62.8812484741211 59.15625 53.8499984741211 48.5562515258789 44.8250007629395 40.8125 38.0625 38.6875 
163.056243896484 162.09375 160.600006103516 165.78125 173.518753051758 172.3125 169.175003051758 169.899993896484 169.34375 162.412506103516 151.556243896484 141.449996948242 132.225006103516 122.443748474121 113.831253051758 106.993751525879 100.143753051758 94.4250030517578 89.90625 88.40625 88.0374984741211 83.9874954223633 81.6500015258789 82.4875030517578 79 76.5812530517578 76.875 77.6125030517578 77.0062484741211 77.0625 79.5187454223633 79.2375030517578 80.8312530517578 82.7687530517578 83.25 79.1812515258789 76.2687530517578 73.78125 68.7375030517578 65.5562515258789 64.6999969482422 62.7750015258789 61.1124992370605 57.4312515258789 53.7750015258789 48.8062515258789 43.1375007629395 38.7625007629395 35.0750007629395 32.59375 33.78125 
159.0625 157.449996948242 153.28125 147.787506103516 153.068756103516 157.706253051758 155.568756103516 152.75 152.03125 145.162506103516 132.856246948242 123.474998474121 115.887496948242 107.556251525879 99.71875 93.75 86.7687530517578 81.0250015258789 78.1187515258789 76.7125015258789 76.4812545776367 74.5749969482422 72.96875 71.1062469482422 69.6937484741211 68.2375030517578 68.6125030517578 68.8187484741211 69.0124969482422 68.6750030517578 70.8000030517578 72.4437484741211 73.1687469482422 75.5187530517578 75.2624969482422 73.3187484741211 69.9499969482422 66.4187469482422 62.7750015258789 60.8062515258789 58.3937492370605 57.3062515258789 56.0187492370605 54.0687522888184 52.2437515258789 46.5875015258789 39.7687492370605 35.96875 33.7625007629395 31.96875 34.2562484741211 
155.9375 155.356246948242 150.9375 145.774993896484 144.268753051758 141.175003051758 137.443756103516 133.456253051758 126.224998474121 120.431251525879 112.449996948242 105.681251525879 100.550003051758 93.5500030517578 87.6437530517578 82.1187515258789 75.8625030517578 71.3000030517578 67.8874969482422 67.1937484741211 66.5 65.6062469482422 64.4124984741211 63.3687515258789 61.90625 61.1187515258789 61.2874984741211 61.0187492370605 60.0062484741211 61.59375 62.9874992370605 63.8937492370605 66.0999984741211 68.40625 69.0562515258789 66.6875 63.1124992370605 60.3812484741211 57.5750007629395 55.6812515258789 53.1375007629395 52.0999984741211 51.5437507629395 50.6687507629395 49.9874992370605 45.0125007629395 37.6312484741211 33.15625 31.9125003814697 31.6999988555908 35.4249992370605 
153.831253051758 151.137496948242 148.806243896484 144.699996948242 143.356246948242 138.587493896484 127.043746948242 112.112503051758 101.75 96.9937515258789 94.75 90.2062530517578 85.7062530517578 80.3625030517578 75.9312515258789 70.9875030517578 66.15625 62.25 59.0437507629395 57.7937507629395 58.0687484741211 57.6624984741211 56.2062492370605 55.1937484741211 54.9562492370605 53.65625 53.4874992370605 53.625 53.3499984741211 53.6749992370605 56.1500015258789 57.1124992370605 58.59375 61.46875 61.4375 59.1937484741211 56.34375 53.6624984741211 50.4812507629395 47.9625015258789 46.1187515258789 45.6624984741211 45.1624984741211 44.1687507629395 42.6875 38.4375 32.9000015258789 30.6687507629395 29.9562492370605 30.6875 34.8499984741211 
152.081253051758 149.268753051758 147.300003051758 141.574996948242 138.006256103516 130.175003051758 119.356246948242 106.006248474121 91.71875 82.8562469482422 80.0437469482422 76.9000015258789 75.3375015258789 70.9250030517578 67.0812530517578 62.9625015258789 59.8562507629395 56.9937515258789 55.5062484741211 53.125 52.6812515258789 52.6500015258789 51.09375 51.5499992370605 50.7874984741211 48.8250007629395 47.7062492370605 48.5 48.4937515258789 49.0187492370605 51.375 51.4375 52.0437507629395 53.0374984741211 53.8062515258789 53.1187515258789 51.3812484741211 49.3875007629395 45.9124984741211 43.28125 41.0125007629395 39.6749992370605 38.5437507629395 37.2687492370605 35.2125015258789 32.3187484741211 28.5625 27.7875003814697 27.8374996185303 29.5125007629395 35.03125 
149.03125 146.175003051758 142.53125 138.143753051758 133.78125 124.775001525879 115.487503051758 101.743751525879 89.0187530517578 81.4187469482422 75.3625030517578 69.6875 67.5374984741211 64.0062484741211 59.8687515258789 56.6187515258789 53.4000015258789 52.1187515258789 50.9312515258789 49.6500015258789 49.125 48.0062484741211 46.4000015258789 46.6375007629395 45.5437507629395 43.6937484741211 42.9249992370605 43.21875 42.6812515258789 43.2312507629395 44.28125 44.84375 46.75 48.5750007629395 50.0187492370605 49.2125015258789 47.2562522888184 45.1624984741211 42.3875007629395 39.5875015258789 36.8624992370605 34.7687492370605 32.9500007629395 30.8125 29.03125 26.9874992370605 24.65625 24 24.4874992370605 26.7437496185303 31.0249996185303 
148.693756103516 145.037506103516 139.056243896484 133.518753051758 129.475006103516 121.981246948242 111.662498474121 96.3687515258789 85.0124969482422 76.4187545776367 70.8249969482422 65.4625015258789 61.2874984741211 57.1437492370605 52.8312492370605 49.4874992370605 47.0999984741211 46.71875 45.9562492370605 45.6812515258789 46.5562515258789 45.4375 43.53125 42.1624984741211 42.0374984741211 40.4375 39.90625 39.4312515258789 38.0187492370605 38.0374984741211 39.6375007629395 40.5062484741211 43.1312484741211 45.1937484741211 45.9000015258789 44.75 42.9625015258789 41.5812492370605 38.4749984741211 35.2874984741211 32.2562484741211 30.21875 28.71875 26.3937492370605 24.375 22.7062492370605 20.5 20.2562503814697 20.9249992370605 22.6875 25.8374996185303 
146.449996948242 143 136.556243896484 131.462509155273 127.237503051758 119.243751525879 109.243751525879 94.9749984741211 83.1750030517578 74.0374984741211 67.4937515258789 62 56.6124992370605 51.4500007629395 49.1312484741211 46.0625 43.5562515258789 42.65625 42.6624984741211 43.34375 44.4187507629395 43.5625 42.0437507629395 40.9749984741211 39.7312507629395 36.3562507629395 35.7249984741211 35.7312507629395 34.875 35.28125 36.2687492370605 37.9437484741211 39.4625015258789 41.2437515258789 42.6937484741211 42.2937507629395 40.78125 38.8875007629395 34.9562492370605 31.0874996185303 28.3875007629395 26.5249996185303 24.7875003814697 21.78125 19.7687492370605 18.1437511444092 15.8187503814697 15.6625003814697 17.1875 19.2937507629395 21.1625003814697 
142.956253051758 137.643753051758 131.768753051758 125.037498474121 121.300003051758 112.318748474121 100.25 88.2249984741211 77.4375 69.3937530517578 63.0625 58.0750007629395 52.2874984741211 46.2750015258789 43.2687492370605 41.2374992370605 38.90625 38.9312515258789 38.9874992370605 39.1312484741211 40.5125007629395 40.1187515258789 39 36.96875 33.9249992370605 31.3812503814697 32 32.4562492370605 32.9749984741211 33.6124992370605 34.2249984741211 35.2625007629395 37.3875007629395 38 39.6812515258789 40.1500015258789 40.3375015258789 38.2000007629395 34.7312507629395 29.7000007629395 25.1187496185303 23.9437503814697 22 18.9750003814697 18.1124992370605 16.8624992370605 14.6312503814697 14.1812496185303 15.0562496185303 17.1062507629395 20.0125007629395 
138.274993896484 131.337493896484 124.368751525879 119.03125 113.543746948242 103.487503051758 92.0374984741211 81.7249984741211 71.7937545776367 64.34375 57.6312484741211 51.9874992370605 47.0625 41.8312492370605 37.3687515258789 36.1875 34.6812515258789 34.6875 33.8687515258789 33.8250007629395 35.15625 34.9625015258789 34.1312484741211 32.84375 30.7937507629395 29.1437492370605 29.8250007629395 30.6062507629395 31.2374992370605 32.2687492370605 33.3499984741211 33.6624984741211 35.3687515258789 36.3875007629395 38.7999992370605 40.3687515258789 40.7562484741211 40.4874992370605 37.3624992370605 31.4562492370605 24.25 21.1499996185303 20.3500003814697 20.21875 20.0499992370605 17.9187507629395 16.2312507629395 16.1437492370605 16.5874996185303 18.5625 22.1000003814697 
132.3125 126.962501525879 118.868751525879 111.893753051758 106.543746948242 96.6062469482422 85.5500030517578 74.9124984741211 65.8874969482422 59.0875015258789 52 47.3562507629395 42.7687492370605 37.5999984741211 33.4937515258789 31.3999996185303 30.1812496185303 29.7625007629395 29.4937496185303 29.7875003814697 31 31.2124996185303 30.9750003814697 30.9499988555908 30.3312492370605 29.75 30.1499996185303 30.5750007629395 30.8187503814697 31.6312503814697 32.1937484741211 33 34.7062492370605 36.5250015258789 38.2437515258789 39.8062515258789 41.2562484741211 43.6624984741211 41.53125 34.5999984741211 28.9249992370605 25.5125007629395 24.5062503814697 22.8999996185303 21.3624992370605 20.0749988555908 19.21875 19.8687496185303 21.0562496185303 20.96875 23.0437507629395 
124.631248474121 120.275001525879 113.293746948242 106.256248474121 99.6687469482422 90.8375015258789 80.4250030517578 69.0437469482422 61.0125007629395 54.3125 47.8250007629395 42.8875007629395 38.2437515258789 33.7374992370605 30.2999992370605 27.1187496185303 25.9624996185303 25.7749996185303 25.5874996185303 26.1187496185303 27.2124996185303 28.0375003814697 28.9187507629395 30.1750011444092 30.5625 30.34375 30.8062496185303 30.7250003814697 30.7000007629395 31.6437492370605 32.6749992370605 33.34375 34.4375 36.1687507629395 38.4249992370605 42.1875 44.2874984741211 45.9812507629395 44.8250007629395 40.3125 35.7062492370605 31.6437492370605 28.2374992370605 25.03125 22.9312496185303 21.40625 20.7437496185303 20.9562492370605 22.375 22.90625 24.2625007629395 
119.862503051758 115.856246948242 108.175003051758 101.431251525879 93.5062484741211 85.3687515258789 76.0250015258789 65.7750015258789 57.2000007629395 50.9312515258789 44.84375 39.4937515258789 35.0562515258789 30.8312492370605 27.5750007629395 24.71875 22.1312503814697 21.71875 22.21875 23.0437507629395 23.6749992370605 25.1187496185303 26.9624996185303 29.7999992370605 31.3624992370605 31.1625003814697 30.7999992370605 30.7374992370605 30.25 30.8374996185303 32.4562492370605 34.3500022888184 36.3125 38.5750007629395 44.9937515258789 48.0499992370605 49.3687515258789 51.8187484741211 51.9312515258789 45.4000015258789 39.2937507629395 34.0062484741211 29.4937496185303 26.71875 24.5562496185303 23.0437488555908 22.6375007629395 23.5750007629395 25.1124992370605 25.0062503814697 26.7937507629395 
112.662498474121 110.143753051758 103.487503051758 97.4499969482422 89.8562469482422 82.0749969482422 71.8312530517578 62.4749984741211 54.6312484741211 48.2374992370605 42.4437484741211 37.5999984741211 32.6062507629395 28.2625007629395 25.2999992370605 22.5499992370605 20.1062507629395 18.5187492370605 19.4500007629395 19.7937507629395 20.9312496185303 22.5625 25.0750007629395 28.1875 30.8937492370605 31.4874992370605 31.7875003814697 31.4937496185303 30.53125 30.5750007629395 30.5750007629395 31.7999992370605 37.9500007629395 44.8499984741211 49.8687515258789 53.4249992370605 55.6062507629395 56.0062522888184 53.3562507629395 47.7625007629395 39.5625 34.625 30.3500003814697 27.6499996185303 25.3374996185303 24.4624996185303 24.4500007629395 25.2312488555908 26.0375003814697 26.0375003814697 28.7374992370605 
105.699996948242 103.912498474121 98.4312515258789 92.96875 86.8249969482422 78.4625015258789 69.28125 60.0437507629395 53.7312507629395 47.8500022888184 41.7937507629395 35.7062492370605 30.9562492370605 26.875 23.4812507629395 21.2000007629395 18.7687492370605 16.9125003814697 16.6687507629395 17.3374996185303 19.53125 23.2062492370605 22.46875 25.9312496185303 28.9500007629395 31.4874992370605 32.5999984741211 32.0499992370605 31.8999996185303 30.5562496185303 30.0687503814697 33.15625 40.1312484741211 46.0374984741211 51.7312507629395 54.9249992370605 54.6875 52.4375 50.2562484741211 44.6500015258789 38.7999992370605 34.2562484741211 30.2875003814697 27.34375 25.7875003814697 25.3062496185303 25.2999992370605 26.5125007629395 27.5062503814697 26.5687503814697 30.125 
99.8062515258789 98.3125 92.9250030517578 87.7624969482422 81.3812484741211 73.96875 65.6687469482422 57.5374984741211 52.6437492370605 47.2249984741211 41.78125 36.9312515258789 31.3312492370605 26.3187503814697 23.1375007629395 20.1937503814697 16.9750003814697 16.1749992370605 16.15625 17.09375 17.5874996185303 19.0125007629395 22.0125007629395 25.15625 27.78125 29.4812507629395 31.1937503814697 31.9437503814697 31.6062507629395 30.0375003814697 30.5187492370605 36.34375 41.0750007629395 46.7562484741211 52.5999984741211 53.4124984741211 52.3624992370605 50.8624992370605 47.6500015258789 42.9625015258789 37.1749992370605 33.1124992370605 30.0812492370605 27.5 26.28125 26.3999996185303 26.0874996185303 27.25 28.3249988555908 28.0562496185303 32.1312484741211 
91.8625030517578 93.0062484741211 89.8812484741211 85.1999969482422 78.3062515258789 71.3687515258789 64.4187469482422 57.3812484741211 52.8562507629395 47.5875015258789 42.59375 38.3187484741211 32.5875015258789 27.3562507629395 23.6312503814697 20.5812492370605 17.75 16.2625007629395 16.6312503814697 17.1625003814697 18.71875 20.8187503814697 23.2999992370605 26.6937503814697 30.2374992370605 31.6375007629395 31.8875007629395 32.4937515258789 33.0250015258789 34.1312484741211 36.1937484741211 40.3562507629395 43.1062507629395 46.4749984741211 51.3562507629395 51.8250007629395 51.7687492370605 50.3187484741211 46.7312507629395 42.5750007629395 37.28125 33.7062492370605 30.8187503814697 27.9500007629395 26.8937492370605 26.7999992370605 26.9874992370605 28.1375007629395 28.8187503814697 30.2124996185303 33.6187515258789 
87.2937469482422 87.3937530517578 85.28125 82.2687530517578 77.0187530517578 70.0374984741211 64.2437515258789 57.0875015258789 53.1500015258789 47.9874992370605 43.9812507629395 40.9812507629395 37.1937484741211 31.84375 27.4125003814697 23.1000003814697 20.6375007629395 19.1937503814697 19 19.3937492370605 19.875 21.5625 24.1124992370605 27.3187503814697 30.1937503814697 32.2562484741211 35.0875015258789 35.5812492370605 36.65625 37.8062515258789 39.6624984741211 42.2312507629395 44.0625 46.6062507629395 48.4124984741211 48.9749984741211 50 49.8312492370605 46.8937492370605 42.6062507629395 37.6624984741211 34.03125 30.6375007629395 28.5062503814697 26.875 26.7562503814697 27.3562507629395 28.9249992370605 29.96875 32.5750007629395 34.7437515258789 
83.1687469482422 86.15625 85.1500015258789 81.2937469482422 76.8187484741211 70.4124984741211 63.2625007629395 56.3499984741211 53.3812484741211 50.1437492370605 47.3499984741211 45.3125 42.7625007629395 37.4500007629395 31.7687492370605 26.7937507629395 23.1937503814697 21.625 21.1124992370605 21.0125007629395 21.6312503814697 23.2250003814697 25.3937492370605 27.2749996185303 30.7937507629395 33.96875 36.7625007629395 38.5750007629395 39.2000007629395 39.5687484741211 41.1062507629395 43.6624984741211 44.6624984741211 45.1749992370605 45.4437484741211 44.125 45.4187507629395 47.7625007629395 46.3812484741211 42.0875015258789 37.875 33.9500007629395 30.6312503814697 28.3562507629395 26.8937492370605 26.8187503814697 27.3250007629395 29.6062488555908 31.59375 34.03125 36.5437507629395 
81.6374969482422 86.0374984741211 86.0625 80.6687469482422 75.6062469482422 70.0812530517578 64.6062469482422 59.2062492370605 54.625 52.21875 49.9562492370605 49.8062515258789 48.0374984741211 42.0125007629395 35.96875 30.6625003814697 26.78125 24.7312507629395 23.6749992370605 23.4562511444092 24.0437507629395 25.34375 26.7749996185303 29.2625007629395 32.2062492370605 34.71875 38.3187484741211 39.3125 40.5250015258789 41.6624984741211 43.5374984741211 45.5250015258789 45.8562507629395 44.5625 43.71875 41.6875 42.5125007629395 45.1437492370605 44.5812492370605 41.0125007629395 37.1500015258789 33.7125015258789 30.4249992370605 27.9187507629395 27.5874996185303 26.9937496185303 28 30.5499992370605 33.8312492370605 36.0687484741211 38.3375015258789 
81.9000015258789 86.2375030517578 85.8874969482422 82.4437484741211 77.9124984741211 72.1125030517578 66.2312469482422 61.3062515258789 57.7249984741211 55.2562484741211 52.3062515258789 51.0062484741211 48.9249992370605 43.7750015258789 38.4500007629395 33.7437515258789 29.9125003814697 27.5687503814697 26.2062511444092 25.7124996185303 26.28125 27.15625 28.4562511444092 30.8250007629395 33.0625 36.1187515258789 38.3875007629395 39.7625007629395 41.1749992370605 42.9312515258789 44.6749992370605 46.3250007629395 46.09375 45.15625 43.5875015258789 41.5250015258789 42.0374984741211 42.4249992370605 41.7437515258789 39.4500007629395 36.2374992370605 33.4375 30.5375003814697 28.3125 27.5437507629395 27.7250003814697 27.3687496185303 31.8999996185303 35.7249984741211 37.59375 39.8499984741211 
84.2624969482422 88.40625 85.6624984741211 83.4625015258789 78.0875015258789 72.7750015258789 67.4812469482422 63.5999984741211 59.1437492370605 55.7562484741211 52.9812507629395 51.1687507629395 48.65625 43.71875 39.7437515258789 35.3812484741211 31.9937496185303 29.9249992370605 28.1437492370605 27.75 28.375 28.9312496185303 30.3062496185303 31.96875 33.9562492370605 36.5 38.9124984741211 40.3937492370605 42.1875 44.3499984741211 46 47.6749992370605 46.4375 44.8250007629395 42.90625 41.9000015258789 41.6187515258789 40.7562484741211 40.1937484741211 37.7562484741211 35.2750015258789 32.8125 30.5562496185303 28.7374992370605 27.8562507629395 25.4375 27.8312492370605 31.8999996185303 35.8687515258789 37.2562484741211 38.8062515258789 
86.4875030517578 88.5749969482422 86.7687530517578 83.7874984741211 79.1750030517578 74.21875 70.1812515258789 65.4499969482422 60.4312515258789 57.875 55.2312507629395 51.8624992370605 48.7000007629395 44.4312515258789 41.1624984741211 37.3062515258789 34.3187484741211 32.1624984741211 30.7625007629395 29.7000007629395 29.7312507629395 30.5625 31.4562492370605 33.5562515258789 35.4124984741211 36.8999977111816 39.7312507629395 41.4937515258789 43.03125 44.65625 46.78125 47.7249984741211 46.7062492370605 44.9874992370605 42.5999984741211 41.65625 40.46875 39.6875 38.3812484741211 36.1937484741211 33.9812507629395 32.0125007629395 30.78125 28.7562503814697 27.8812503814697 27.7999992370605 29.1812496185303 31.1499996185303 34.125 35.1187515258789 35.7062492370605 
90.2437515258789 88.3687515258789 86.7874984741211 84.2249984741211 80.71875 75.3000030517578 71.3687515258789 67.1875 62.96875 59.7374992370605 55.7437515258789 52.0687484741211 48.7750015258789 45.3125 41.875 38.7249984741211 36.2999992370605 34.2874984741211 32.90625 31.6687507629395 31.7062492370605 31.59375 32.9312515258789 34.78125 36.2562484741211 37.2749977111816 40.0125007629395 42.2687492370605 44.125 45.75 47.0499992370605 47.6062507629395 46.4187507629395 44.1062507629395 42.5687484741211 41.0250015258789 39.3999977111816 38.3937492370605 37.4562492370605 35.8499984741211 33.71875 32.3687515258789 31.21875 30.4187507629395 30.0874996185303 29.9437503814697 30.0375003814697 31.2687492370605 32.40625 32.46875 33.5499992370605 
90.8312530517578 90.4437484741211 87.46875 84.9312515258789 80.15625 75.4562530517578 71.0187530517578 66.4749984741211 64.0812530517578 60.09375 56.1687507629395 52.3062515258789 48.8875007629395 45.8187484741211 42.9312515258789 40.1062507629395 38.2000007629395 36.5125007629395 35.0499992370605 33.9312515258789 33.7125015258789 33.5187492370605 34.3812484741211 35.625 37.2125015258789 37.8687477111816 40.6687507629395 42.7374992370605 44.4437484741211 45.8062515258789 46.7249984741211 47.4375 45.3312492370605 42.6749992370605 41.2249984741211 40.5812492370605 39.4874992370605 38.5562515258789 37.6687507629395 35.7687492370605 33.1875 32.1124992370605 31.5812492370605 31.5750007629395 31.1625003814697 30.5437507629395 30.2062492370605 30.8187503814697 30.5625 30.0187492370605 29.625 
89.5812530517578 89.6125030517578 86.8000030517578 82.8625030517578 79.4937515258789 75.5374984741211 71.0187530517578 67.9250030517578 64.6437530517578 60.4625015258789 57.1437492370605 53.8375015258789 50.4000015258789 47.1500015258789 44.5499992370605 41.9749984741211 39.7312507629395 38.8499984741211 38.2000007629395 36.3499984741211 35.8562507629395 36.0750007629395 36.8062515258789 37.6687507629395 38.5875015258789 39.9249992370605 41.6812515258789 43.4625015258789 44.1624984741211 44.9124984741211 45.71875 46.4000015258789 44.3250007629395 42.1812515258789 40.8062515258789 39.78125 39.9625015258789 39.5437507629395 38.3062515258789 37.4625015258789 35.8312492370605 34.3937492370605 32.7374992370605 32.1812515258789 31.8250007629395 30.8500003814697 29.9437503814697 30.25 29.0187492370605 27.9812507629395 27.4437503814697 
87.7437515258789 86.7249984741211 83.0437469482422 81.1812515258789 80.6062469482422 76.2687530517578 72.3187484741211 68.2562484741211 64.5562515258789 60.71875 57.1437492370605 55.1375007629395 52.7312507629395 49.5 46.125 43.6437492370605 42.2312507629395 41.4625015258789 41.09375 39.65625 38.7999992370605 37.8375015258789 38.0999984741211 38.8562507629395 39.5125007629395 40.9500007629395 41.9125022888184 43.6937522888184 44.7062492370605 45.2249984741211 45.8187484741211 45.6812515258789 43.375 41.5062484741211 40.875 39.8687477111816 40.0062484741211 39.8937492370605 39.7937507629395 39.8875007629395 38.4000015258789 35.5999984741211 33.3499984741211 33.1624984741211 32.15625 30.7749996185303 28.8187503814697 28.5437507629395 27.7250003814697 26.2437496185303 26.0874996185303 
84.5749969482422 83.7062530517578 80.6937484741211 79.2312469482422 79.7125015258789 75.90625 71.9312515258789 67.4124984741211 64.2874984741211 61.0999984741211 57.8125 55.5750007629395 52.7625007629395 50.3624992370605 47.71875 46.4874992370605 44.65625 43.6124992370605 42.6312484741211 41.5999984741211 40.8812484741211 40.6937484741211 40.0125007629395 39.6812515258789 40.4249992370605 41.46875 42.3250007629395 43.9937515258789 44.6124992370605 44.46875 45.0187492370605 44.34375 42.3562507629395 40.9749984741211 39.3312492370605 38.3687515258789 38.6937484741211 39.0499992370605 39.4375 39.7625007629395 38.46875 35.6937484741211 34.0437507629395 32.8875007629395 32.1375007629395 30.8125 28.2374992370605 27.3374996185303 26.3125 25.4187507629395 25.1937503814697 
75.7562484741211 74.8000030517578 73.46875 73.5187530517578 73.2312545776367 70.6687469482422 69.1062469482422 66.6999969482422 63.3562507629395 61 59.4249992370605 56.4375 53.6375007629395 52.1375007629395 49.7562484741211 48.75 47.0562515258789 46.3250007629395 45.1500015258789 43.9749984741211 43.125 42.5187492370605 41.9562492370605 42.46875 42.9312515258789 43.0125007629395 43.7312507629395 43.7874984741211 44.4500007629395 43.78125 43.96875 42.9437484741211 41.03125 39.3687515258789 37.9124984741211 36.9812507629395 37.1499977111816 37.1687507629395 37.5125007629395 37.84375 36.5750007629395 34.7125015258789 33.1812515258789 31.8250007629395 30.9437503814697 29.7562503814697 28.53125 26.8562507629395 25.5 24.7250003814697 24.5437507629395 
66.6312484741211 67.1312484741211 66.6812515258789 68.15625 66.4625015258789 66.25 66.8499984741211 66.0437469482422 62.9437484741211 60.2687492370605 58.2999992370605 56.5562515258789 55.0750007629395 52.0999984741211 50.8812484741211 49.3812484741211 48.59375 47.4437484741211 46.0999984741211 45.3937492370605 44.8187484741211 44.2374992370605 43.9625015258789 43.8312492370605 44.4874992370605 44.6875 44.8499984741211 44.3062515258789 45.1062507629395 44.3562507629395 43.6375007629395 42.0750007629395 39.5374984741211 37.3624992370605 36.2125015258789 35.3062515258789 35.2562484741211 34.9437484741211 35.25 34.9937515258789 34.7687492370605 33.6312484741211 32.1749992370605 30.7124996185303 29.5812492370605 28.6187496185303 27.46875 26.3875007629395 25.1687507629395 23.9437503814697 24.1499996185303 
58.7374992370605 59.25 60.03125 60.6812515258789 61.0437507629395 62.0812492370605 63.5812492370605 64.1875 60.6312484741211 58.9124984741211 57.2875022888184 56.7312507629395 54.8312492370605 53.4937515258789 52.3187484741211 51.3812484741211 50.5250015258789 49.1812515258789 47.7999992370605 47.0812492370605 46.6812515258789 45.8562507629395 45.03125 45.2249984741211 45.3375015258789 45.7312507629395 45.5062484741211 44.8312492370605 45.4375 44.5374984741211 42.59375 40.3125 37.8499984741211 35.4249992370605 33.9812507629395 33.0687484741211 32.3125 32.3375015258789 32.7750015258789 32.5812492370605 32.0187492370605 31.2000007629395 30.4312496185303 29.3500003814697 28.5874996185303 27.4874992370605 26.8062496185303 25.9125003814697 24.4125003814697 22.9750003814697 23.1687507629395 
50.6500015258789 51.5499992370605 52.0812492370605 52.7437515258789 53.7125015258789 54.4625015258789 55.7374992370605 56.1812515258789 54.8375015258789 54.8812484741211 55.7437515258789 55.4124984741211 55.4437484741211 54.8250007629395 54.1312484741211 53.84375 52.5125007629395 51.8499984741211 49.84375 48.8812484741211 48.7125015258789 48.8499984741211 47.7312507629395 47.78125 47.2562484741211 46.8312492370605 46.0499992370605 46.3125 45.5625 43.75 41.5187492370605 39.1437492370605 35.6062507629395 33.625 31.7687492370605 30.2312507629395 30.03125 29.9624996185303 29.7749996185303 30.0187492370605 29.59375 29.5375003814697 28.40625 27.7250003814697 27 25.8187503814697 25.1312503814697 24.90625 23.8624992370605 22.75 22.8312492370605 
41.7687492370605 42.6687507629395 43.3687515258789 44.5999984741211 45.8562507629395 47.2687492370605 48.84375 50.3250007629395 49.9749984741211 50.4375 54.3499984741211 56.875 57.9312515258789 57.40625 57.3250007629395 56.0625 54.7374992370605 53.5875015258789 52.1187515258789 50.5562515258789 50.4249992370605 50.6312484741211 49.8250007629395 49.9000015258789 49.5437507629395 48.0437507629395 47.4375 46.9625015258789 44.9812507629395 42.8624992370605 40.7625007629395 37.7937507629395 34.5125007629395 31.7875003814697 29.7999992370605 28.4562492370605 28.1062507629395 28.1375007629395 27.7875003814697 27.9624996185303 27.4375 27.4624996185303 26.5249996185303 26.1625003814697 25.2999992370605 24.7062492370605 24.5625 24.3500003814697 23.6124992370605 22.8062496185303 22.5125007629395 
34.3499984741211 35.4500007629395 36.0625 37.9375 39.59375 41.0625 42.8937492370605 44.5625 46.46875 48.0562515258789 56.0062484741211 59.7374992370605 59.6375007629395 60.4749984741211 60.7750015258789 59.2062492370605 57.0812492370605 55.1749992370605 54.6312484741211 52.9812507629395 52.6624984741211 52.1124992370605 51.4625015258789 51.34375 50.96875 50.0374984741211 49.1812515258789 48.375 46.53125 43.5875015258789 40.3250007629395 37.7687492370605 34.6749992370605 30.7687492370605 28.1625003814697 26.5812492370605 26.7687492370605 26.9125003814697 26.7999992370605 26.8999996185303 25.4624996185303 24.9750003814697 24.4437503814697 24.0625 23.8937492370605 23.8999996185303 24.5499992370605 24.78125 23.5 23.09375 23.1437492370605 
28.2124996185303 28.8187503814697 30.1062488555908 31.5625 33.5812492370605 35.4562492370605 37.6624984741211 39.75 43.1312484741211 49.2000007629395 57.8375015258789 58.7249984741211 57.9812507629395 59.3687515258789 59.5499992370605 59.1937484741211 59.03125 57.96875 55.8250007629395 55.8499984741211 54.8375015258789 53.6124992370605 53.1437492370605 52.4312515258789 51.8562507629395 50.6187515258789 49.7437477111816 49.2312507629395 47.4124984741211 44.0687484741211 40.8062515258789 38.1437492370605 34.9312515258789 30.5062503814697 27.8812503814697 27.2124996185303 26.7374992370605 26.6187496185303 26.6625003814697 25.6375007629395 24.4812507629395 23.8999996185303 23.2124996185303 22.7312488555908 23.0625 23.375 23.125 23.9187507629395 23.5062503814697 23.6812496185303 23.8062496185303 
22.375 23.1687507629395 24.4375 25.9874992370605 27.6687507629395 29.9125003814697 31.8500003814697 34.5437507629395 38.75 44.65625 50.3687515258789 54.1124992370605 56.09375 57.7562484741211 59.2312507629395 60.6312484741211 60.5062484741211 59.1062507629395 57.1500015258789 57.8812484741211 57.5250015258789 55.2625007629395 54.6375007629395 53.6312484741211 52.84375 51.5125007629395 50.4187507629395 49.3562507629395 46.8875007629395 44.4375 41.6500015258789 39.65625 36.0125007629395 31.9812507629395 29.8187503814697 28.6062507629395 27.2124996185303 27.0437507629395 26.59375 24.8624992370605 23.5 23.0187492370605 22.3562507629395 21.5562496185303 22.3187503814697 22.1062507629395 21.9375 23.0499992370605 23.4500007629395 24.2374992370605 24.4812507629395 
17.34375 18.34375 19.6937503814697 21.3500003814697 22.75 24.625 26.7625007629395 29.1187496185303 32.65625 38.1749992370605 43.4249992370605 47.8875007629395 52.1437492370605 54.875 57.4562492370605 59.6937484741211 61.0062484741211 60.34375 59.6375007629395 59.5562515258789 59.6937484741211 57.2874984741211 55.4812507629395 54.3812484741211 53.6937484741211 51.9312515258789 51.3375015258789 49.2249984741211 47.0250015258789 44.4187507629395 41.9249992370605 40.0187492370605 37.15625 33.8062515258789 32.3375015258789 30.2437496185303 28.3812503814697 27.3999996185303 27.0125007629395 24.8187503814697 22.6625003814697 22.3312511444092 21.6124992370605 21.2000007629395 21.1750011444092 21.5562496185303 21.7437496185303 22.8187503814697 24.6749992370605 24.34375 24.5249996185303 
13.875 14.7687501907349 16.0562496185303 17.4437503814697 18.5874996185303 20.0062503814697 21.8624992370605 24.2749996185303 27.7000007629395 32.1062507629395 36.4812507629395 41.2000007629395 46.2687492370605 49.75 53.0374984741211 56.5187492370605 58.6375007629395 59.4312515258789 58.8125 59.0250015258789 58.3187484741211 58.3125 55.21875 53.6937484741211 52.9437484741211 51.2687492370605 49.0999984741211 47.4874992370605 47.1375007629395 45.6124992370605 42.7125015258789 40.4874992370605 38.2312507629395 37.6437492370605 36.1375007629395 32.6875 29.6687507629395 28.7250003814697 27.0625 25.28125 23.1375007629395 21.5812492370605 20.4500007629395 20.6062507629395 21.2062492370605 22.0499992370605 22.2687492370605 23.0874996185303 25.5062503814697 24.4624996185303 24.9312496185303 
10.7312498092651 11.5562496185303 12.6812496185303 13.7437496185303 14.6187496185303 15.8812503814697 17.5874996185303 19.6937503814697 22.4375 26.2437496185303 30.4125003814697 35.0499992370605 39.3375015258789 43.7562484741211 48.71875 52.3125 55.7125015258789 56.8875007629395 57.6937484741211 58.1500015258789 57.5125007629395 58.3937492370605 55.9937515258789 54.0812492370605 52.2562484741211 49.6749992370605 48.3499984741211 47.9249992370605 46.34375 45.1687507629395 43.3687515258789 41.4187507629395 39.71875 38.6062507629395 38.4874992370605 36.5562515258789 31.8187503814697 29.78125 27.9125003814697 26.2374992370605 23.8250007629395 22.0375003814697 20.9624996185303 20.8125 21.6749992370605 22.1875 22.90625 23.7000007629395 26.4312496185303 25.8312492370605 25.5249996185303 
7.88124990463257 8.6875 9.83125019073486 10.4624996185303 11.0874996185303 12.21875 13.4375 15.2375001907349 17.9375 21.2749996185303 25.3125 30.3062496185303 34.4500007629395 39.59375 44.7249984741211 49.375 53.0999984741211 54.7562484741211 56.6124992370605 57.7562484741211 57.3250007629395 57.5687484741211 54.2999992370605 52.5750007629395 51.8499984741211 50.4562492370605 48.875 47.53125 46.3125 44.7999992370605 44.3937492370605 43.2562484741211 41.4000015258789 39.5812492370605 40.4562492370605 41.4500007629395 35.6500015258789 32.0437507629395 30.40625 27.2562503814697 24.9562492370605 23.7562503814697 22.4750003814697 22.3812503814697 22.1687507629395 22.6625003814697 22.96875 23.53125 25.5625 26.6812496185303 25.7250003814697 
6.05625009536743 6.83750009536743 8.08125019073486 8.61874961853027 8.8125 9.63749980926514 10.21875 11.5749998092651 14.1499996185303 17.5437507629395 21.2625007629395 25.8125 30.9249992370605 36.2999992370605 41.0687484741211 45.3624992370605 49.6062507629395 51.6687507629395 54.2625007629395 56.3125 55.4312515258789 54.7062492370605 52.46875 51.8375015258789 51.0374984741211 49.59375 47.6124992370605 46.6749992370605 45.7999992370605 44.8937492370605 43.7562484741211 43.2249984741211 41.7249984741211 40.1062507629395 40.7000007629395 40.6375007629395 37.1687507629395 33.6687507629395 30.9312496185303 28.7687492370605 26.7312507629395 25.4874992370605 23.9624996185303 23.7749996185303 23.78125 23.8687496185303 23.9125003814697 24.4750003814697 25.125 26.1812496185303 25.4937496185303 
