ncols        51
nrows        45
xllcorner    -63.500000000000
yllcorner    -7.500000000000
cellsize     0.166666666667
NODATA_value -99
333.856262207031 340.387512207031 344.618743896484 354.850006103516 361.756256103516 364.375 361.931243896484 361.5625 359.368743896484 359.931243896484 358.03125 351.256256103516 346.34375 342.212493896484 336.256256103516 332.337493896484 327.3125 321.962493896484 319.643737792969 319.850006103516 319.931243896484 319.524993896484 322.737487792969 322.006256103516 322.737487792969 325.393737792969 326.306243896484 328.96875 328.518737792969 327.681243896484 322.043762207031 319.012512207031 318.325012207031 316.087493896484 314.21875 315.549987792969 315.725006103516 313.181243896484 310.912506103516 310.356262207031 307.5 306.78125 303.581237792969 304.3125 302.487487792969 299.143737792969 297.056243896484 291.25 288.075012207031 287.9375 286.34375 
325.193756103516 330.137512207031 338.712493896484 351.106262207031 363.168762207031 366.549987792969 363.793762207031 363.243743896484 362.28125 358.693756103516 355.943756103516 347.943756103516 339.856262207031 332.431243896484 324.5625 317.587493896484 311.106262207031 305.037506103516 304.600006103516 305.212493896484 305.381256103516 306.237487792969 307.143737792969 308.956237792969 309.3125 309.943756103516 313.78125 317.4375 319.137512207031 315.512512207031 309.193756103516 308.606262207031 306.056243896484 306.78125 304.96875 302.174987792969 304.112487792969 302.325012207031 301.850006103516 296.375 293.037506103516 295.581237792969 292.481262207031 288.649993896484 287.28125 282.875 280.637512207031 276.174987792969 273.975006103516 272.931243896484 272.318756103516 
306.206237792969 313.549987792969 324.456237792969 335.356262207031 344.899993896484 349.912506103516 352.262512207031 355.462493896484 355.450012207031 352 347.568756103516 337.581237792969 327.28125 316.087493896484 307.962493896484 301.6875 293.581237792969 286.225006103516 284.631256103516 285.112487792969 284.918762207031 287.012512207031 287.6875 288.46875 288.631256103516 291.799987792969 298.181243896484 301.893737792969 303.137512207031 300.112487792969 295.03125 293.006256103516 294.174987792969 292.887512207031 293.075012207031 289.875 290.356262207031 289.856262207031 287.84375 284.75 284.162506103516 281.837493896484 280.9375 277.53125 274.793762207031 272.306243896484 269.543762207031 266.506256103516 261.21875 261.068756103516 261.28125 
283.193756103516 287.956237792969 303.756256103516 313.40625 322.931243896484 327.762512207031 332.506256103516 339.5625 344.700012207031 343.131256103516 335.850006103516 324.3125 310.375 298.399993896484 290 282.537506103516 273.6875 266.668762207031 264.15625 266.006256103516 269.212493896484 269.09375 267.662506103516 268.918762207031 269.225006103516 270.637512207031 278.587493896484 282 284.518737792969 284.981262207031 281.662506103516 279.975006103516 279.399993896484 277.556243896484 275.387512207031 277.418762207031 279.325012207031 278.756256103516 277.450012207031 275.450012207031 273.287506103516 273.887512207031 269.424987792969 265.268737792969 264.90625 260.581237792969 257.59375 255.675003051758 250.125 246.981246948242 248.449996948242 
278.53125 279.487487792969 279.46875 287.75 298.549987792969 303.037506103516 310.15625 319.725006103516 329.668762207031 332.293762207031 321.043762207031 305.168762207031 293.581237792969 282.5625 273.975006103516 265.325012207031 255.743743896484 248.90625 245.675003051758 248 250.631256103516 249.206253051758 246.324996948242 250.206253051758 249.462493896484 250.862503051758 255.199996948242 262.987487792969 267.96875 268.09375 267.506256103516 265.181243896484 263.818756103516 264.575012207031 264.03125 264.118743896484 267.287506103516 269.024993896484 268.96875 266.712493896484 266.15625 263.200012207031 259.318756103516 256.75 253.918746948242 250.28125 245.4375 241.806243896484 236.731246948242 236.350006103516 239.137496948242 
268.75 269.725006103516 267.931243896484 264.28125 274.875 283.799987792969 290.731262207031 297.556243896484 308.28125 312.831237792969 304.049987792969 288.399993896484 280.225006103516 272.037506103516 262.118743896484 256.375 245.956253051758 237.012496948242 233.350006103516 235.237503051758 235.524993896484 234.856246948242 234.050003051758 233.637496948242 234.043746948242 235.518753051758 240.787506103516 247.274993896484 254.15625 255.556243896484 255.643753051758 255.574996948242 254.074996948242 254.018737792969 252.975006103516 254.681243896484 256.725006103516 258.21875 261.78125 260.40625 257.6875 255.506256103516 251 248.175003051758 246.212493896484 240.556243896484 234.3125 231.5625 227.706253051758 225.056243896484 225.431243896484 
261.143737792969 260.206237792969 257.674987792969 254.699996948242 256.225006103516 259.237487792969 264.512512207031 270.21875 270.856262207031 275.825012207031 274.700012207031 267.881256103516 264.25 259.693756103516 253.018753051758 246.768753051758 240.981246948242 233.043746948242 226.675003051758 226.387496948242 223.743743896484 220.84375 217.024993896484 218.456253051758 220.074996948242 223.662506103516 228.149993896484 234.356246948242 238.931259155273 241.449996948242 243.087493896484 242.056243896484 239.831253051758 239.65625 239.774993896484 243.1875 244.537506103516 246.487503051758 250.868743896484 252.393753051758 249.068756103516 245.050003051758 240.931243896484 239.581253051758 236.15625 233.731246948242 226.15625 217.768753051758 213.006256103516 214.149993896484 214.550003051758 
252.887496948242 250.524993896484 247.512496948242 246.53125 247.287506103516 249.431243896484 245.768753051758 237.193756103516 230.456253051758 237.425003051758 246.618743896484 248.256256103516 250.662506103516 248.550003051758 244.550003051758 241.0625 236.21875 229.40625 221.699996948242 215.831253051758 213.993743896484 209.100006103516 204.768753051758 203.387496948242 206.399993896484 206.193756103516 213.456253051758 219.012496948242 224.418746948242 227.568756103516 229.537506103516 229.056243896484 228.100006103516 226.043746948242 224.199996948242 226.550003051758 229.587493896484 233.4375 235.96875 234.731246948242 235.081253051758 231.862503051758 229.21875 225.962509155273 222.006256103516 216.774993896484 209.96875 204.337493896484 200.768753051758 197.9375 198.043746948242 
246.28125 243.612503051758 241.893753051758 239.537506103516 238.706253051758 238.8125 235.03125 228.34375 217.293746948242 214.6875 224.368743896484 232.925003051758 241.050003051758 241.125 237.425003051758 234.893753051758 230.618743896484 225.431243896484 220.306243896484 210.087493896484 202.8125 199.84375 192.618743896484 195.681243896484 194.587493896484 193.649993896484 198.418746948242 206.581253051758 214.850006103516 216.756256103516 220.40625 219.206253051758 214.118743896484 210.231246948242 210.149993896484 213.524993896484 217.3125 221.637496948242 225.887496948242 224.21875 222.25 219.21875 219.21875 218.975006103516 210.8125 205.643753051758 199.75 192.274993896484 186.324996948242 183.931243896484 184.056243896484 
239.206253051758 237.487503051758 235.699996948242 234.399993896484 231.043746948242 231.037506103516 228.625 224.25 219.53125 219.25 223.287506103516 225.21875 234.824996948242 235.731246948242 232.881256103516 227.287506103516 222.03125 217.068756103516 213.012496948242 206.774993896484 197.393753051758 189 182.543746948242 183.699996948242 181.118743896484 180.337493896484 184.806243896484 192.693756103516 202.056243896484 206.925003051758 207.699996948242 205.887496948242 203.293746948242 200.206253051758 197.931243896484 200.918746948242 204.09375 208.925003051758 213.631256103516 216.393753051758 217.943756103516 217.5625 212.412506103516 208.043746948242 203.175003051758 200.875 193.5625 183.899993896484 177.331253051758 171.962493896484 167.243743896484 
232.399993896484 231.625 229.024993896484 227.96875 224.699996948242 225.706253051758 224.518753051758 219.737503051758 217.431243896484 219.737503051758 224.412506103516 229.050003051758 229.074996948242 231.600006103516 225.631256103516 218.181243896484 212.09375 208.175003051758 204.112503051758 200.387496948242 197.15625 185.693756103516 175.5625 167.087493896484 168.943756103516 170.78125 175.225006103516 182.506256103516 188.662506103516 191.425003051758 193.975006103516 194.199996948242 191.350006103516 188.168746948242 185.46875 186.662506103516 189.90625 195.637496948242 202.8125 207.625 210.71875 209.268753051758 208.53125 201.806243896484 195.443756103516 190.543746948242 185.087493896484 174.518753051758 168.28125 162.987503051758 155.887496948242 
229.574996948242 227.53125 225.53125 224.393753051758 222.537506103516 221.225006103516 222.306243896484 220.962493896484 221.34375 221.137496948242 225.09375 230.09375 224.118743896484 222.787506103516 218.087493896484 209.024993896484 202.625 198.912506103516 196.018753051758 195.243743896484 194.393753051758 186.481246948242 175.287506103516 165.15625 159.75 157.543746948242 160.824996948242 167.78125 175.568756103516 178.262496948242 178.606246948242 179.106246948242 176.774993896484 174.024993896484 173.537506103516 177.206253051758 181.962493896484 186.524993896484 192.237503051758 197.925003051758 203.112503051758 202.199996948242 198.056243896484 185.756256103516 178.118743896484 169.862503051758 161.84375 160.443756103516 158 154.0625 144.231246948242 
227.78125 223.856246948242 221.293746948242 220.337493896484 218.09375 218.71875 218.106246948242 216.475006103516 218.199996948242 221.543746948242 224.850006103516 225.8125 221.131256103516 209.487503051758 202.725006103516 197.681243896484 191.537506103516 188.462493896484 185.837493896484 185.318756103516 186.856246948242 178.824996948242 168.75 159.137496948242 146.337493896484 141.837493896484 149.274993896484 156.768753051758 164.962493896484 168.487503051758 167.787506103516 165.856246948242 163.106246948242 160.118743896484 160.568756103516 166.350006103516 172.412506103516 179.381256103516 187.043746948242 192.600006103516 196.1875 195.818756103516 186 176.59375 172.943756103516 167.481246948242 158.925003051758 150.975006103516 146.0625 147.475006103516 146.331253051758 
221.03125 217.693756103516 216.175003051758 214.837493896484 213.875 213.399993896484 212.40625 211.925003051758 215.493743896484 218.756256103516 217.887496948242 214.4375 207.90625 198.90625 185.556243896484 182.84375 177.168746948242 173.587493896484 172.71875 172.868743896484 172.71875 166.762496948242 159.024993896484 152.425003051758 143.1875 137.9375 141.668746948242 146.431243896484 153.125 155.012496948242 157 154.712493896484 152.106246948242 149.643753051758 149.381256103516 157.056243896484 165.949996948242 175.143753051758 184.03125 187.731246948242 184.393753051758 178.056243896484 176.318756103516 176.568756103516 178.137496948242 170.324996948242 162.693756103516 157.34375 152.100006103516 156.206253051758 158.631256103516 
213.168746948242 211.443756103516 210.787506103516 209.300003051758 207.850006103516 207.818756103516 209.037506103516 209.931243896484 211.262496948242 211.399993896484 209.243743896484 203.293746948242 193.925003051758 183.824996948242 168.393753051758 164.693756103516 160.90625 160.03125 159.399993896484 159.018753051758 159.806243896484 156.8125 152.774993896484 151.681243896484 148.306243896484 145.21875 145.737503051758 148.381256103516 151.606246948242 151.868743896484 148.856246948242 145.90625 145.318756103516 140.606246948242 137.400009155273 143.300003051758 158.543746948242 171.743743896484 179.418746948242 180.71875 176.887496948242 175.125 178.681243896484 177.662506103516 175.731246948242 173.537506103516 170.212493896484 168.731246948242 166.8125 164.9375 165.631256103516 
204.6875 203.0625 203.850006103516 203.581253051758 201.899993896484 203.337493896484 205.131256103516 205.587493896484 204.887496948242 204.800003051758 201.024993896484 192.762496948242 182.212493896484 172.5 159.618743896484 146.868743896484 145.693756103516 148.399993896484 146.675003051758 146.462493896484 148.100006103516 149.668746948242 150.137496948242 152.943756103516 151.899993896484 148.9375 148.237503051758 148.362503051758 150.037506103516 150.681243896484 149.90625 145.931243896484 138.543746948242 131.274993896484 127.318748474121 140.568756103516 151.487503051758 163.212493896484 172.868743896484 178.481246948242 178.600006103516 176.587493896484 176.375 171.4375 169.3125 169.081253051758 166.293746948242 164.431243896484 166.09375 165.612503051758 168.331253051758 
197.268753051758 196.506256103516 196.137496948242 197 197.637496948242 197.606246948242 198.1875 197.987503051758 198.206253051758 197.318740844727 194.087493896484 185.956253051758 174.081253051758 162.8125 152.287506103516 142.006256103516 131.518753051758 133.337493896484 134.425003051758 135.149993896484 137.943756103516 140.856246948242 145.350006103516 152.475006103516 155.543746948242 148.956253051758 146.375 146.456253051758 147.649993896484 148.225006103516 148.418746948242 147.143753051758 140.756256103516 134.706253051758 137.699996948242 144.012496948242 154.606246948242 165.931243896484 178.706253051758 180.087493896484 179.106246948242 174.893753051758 169.59375 166.887496948242 165.800003051758 166.237503051758 164.824996948242 166.637496948242 168.006256103516 164.824996948242 166.675003051758 
187.09375 188.081253051758 188.774993896484 188.90625 189.40625 190.956253051758 190 188.449996948242 187.568756103516 187.300003051758 184.550003051758 178.256256103516 165.268753051758 155.462493896484 145.637496948242 136.618743896484 126.90625 119.362503051758 124.762496948242 124.712501525879 127.837501525879 132.537506103516 138.368743896484 146.412506103516 151.262496948242 147.53125 142.893753051758 144.431243896484 146.3125 144.987503051758 140.693756103516 137.149993896484 142.118743896484 142.6875 142.899993896484 155.056243896484 165.300003051758 170.612503051758 177.90625 180.018753051758 173.96875 169.206253051758 164.612503051758 162.800003051758 161.293746948242 163.006256103516 162.78125 163.3125 166.393753051758 161.15625 166.300003051758 
176.868743896484 178.693756103516 179.03125 180.725006103516 182.056243896484 181.824996948242 181.143753051758 180.231246948242 179.456253051758 180.1875 176.59375 165.893753051758 154.956253051758 146.300003051758 137.362503051758 130.112503051758 122.856246948242 114.03125 111.125 112.074996948242 116.700004577637 124.224998474121 124.3125 133.568756103516 139.15625 142.268753051758 142.449996948242 141.175003051758 143.112503051758 142.074996948242 140.100006103516 141.074996948242 144.65625 145.175003051758 147.293746948242 156.625 162.03125 165.050003051758 171.743743896484 171.056243896484 166.412506103516 161.243743896484 159.53125 160.143753051758 158.8125 158.418746948242 160.431243896484 161.71875 162.912506103516 154.631256103516 165.131256103516 
166.28125 169.006256103516 170.131256103516 170.318756103516 172.068756103516 174.475006103516 174.399993896484 172.949996948242 172.300003051758 171.162506103516 169.518753051758 162.293746948242 154.03125 143.243743896484 133.112503051758 121.199996948242 111.40625 109.09375 105.550003051758 104.893753051758 106.318748474121 111.806251525879 119.34375 125.081253051758 128.662506103516 129.668746948242 132.512496948242 136.481246948242 136.149993896484 134.331253051758 136.212493896484 144.96875 145.956253051758 145.0625 148.59375 155.262496948242 159.637496948242 162.425003051758 164.262496948242 164.100006103516 158.112503051758 153.537506103516 154.956253051758 156.256256103516 157.081253051758 157.574996948242 157.274993896484 158.425003051758 158.274993896484 152.350006103516 163.21875 
152.793746948242 160.806243896484 163.956253051758 163.862503051758 163.506256103516 167.324996948242 168.768753051758 168.118743896484 167.8125 165.550003051758 163.300003051758 157.449996948242 148.34375 139.168746948242 128.25 119.081253051758 108.768753051758 104.199996948242 103.087501525879 100.900001525879 106.881248474121 112.881248474121 118.462501525879 123.893753051758 128.399993896484 129.837493896484 129.193756103516 131.675003051758 134.449996948242 137.381256103516 142.074996948242 148.149993896484 145.712493896484 144.287506103516 146.274993896484 152.181243896484 157.262496948242 160.300003051758 160.65625 158.806243896484 156.856246948242 152.837493896484 151.337493896484 153.518753051758 154.056243896484 154.918746948242 156.087493896484 155.875 151.518753051758 154.53125 159.993743896484 
144.78125 147.850006103516 153.225006103516 157.131256103516 157.15625 158.650009155273 161.34375 162.681243896484 163.037506103516 161.4375 158.6875 152.149993896484 144 135.443756103516 127.412498474121 117.21875 112.756248474121 107.150001525879 105.287498474121 102.306251525879 104.03125 109.243751525879 114.768753051758 118.368751525879 120.599998474121 124.456253051758 129.418746948242 132.012496948242 138.462493896484 143.237503051758 146.112503051758 148.412506103516 148.606246948242 148.918746948242 147.831253051758 150.65625 155.487503051758 158.168746948242 158.0625 156.493743896484 155.381256103516 152.043746948242 150.25 150.875 150.90625 151.518753051758 152.306243896484 153.300003051758 150.462493896484 156.4375 157.731246948242 
137.21875 144.768753051758 148.78125 152.118743896484 151.837493896484 152.481246948242 150.206253051758 152.306243896484 156.631256103516 156.037506103516 152.481246948242 146.662506103516 142.149993896484 135.125 127.21875 118.487503051758 111.875 107.46875 104.237503051758 101.668746948242 104.375 106.425003051758 110.574996948242 113.881248474121 118.643753051758 122.074996948242 125.456253051758 131.681243896484 138.762496948242 143.425003051758 146.043746948242 150.993743896484 152.993743896484 152.225006103516 151.899993896484 149.806243896484 151.393753051758 155.137496948242 157.762496948242 156.012496948242 153.568756103516 150.925003051758 148.78125 148.675003051758 148.106246948242 147.162506103516 147.024993896484 147.537490844727 150.875 157.15625 158.118743896484 
127.724998474121 136.199996948242 141.881256103516 143.71875 143.143753051758 142.706253051758 146.068756103516 147.225006103516 148.331253051758 147.637496948242 146.431243896484 145.431243896484 141.75 137.59375 128.725006103516 120.03125 113.118751525879 109.59375 106.737503051758 104.568748474121 104.918746948242 106.90625 109.087501525879 114.362503051758 117.775001525879 119.418746948242 124.59375 131.506256103516 139.96875 148.043746948242 155.131256103516 161.418746948242 163.306243896484 161.168746948242 158.96875 153.524993896484 155.887496948242 156.756256103516 157.037506103516 155.625 152.412506103516 150.9375 149.481246948242 147.675003051758 146.149993896484 144.25 143.087493896484 140.431243896484 147.856246948242 154.412506103516 158.350006103516 
121.431251525879 129.662506103516 133.893753051758 137.600006103516 138.28125 139.03125 138.762496948242 140.543746948242 141.356246948242 142.237503051758 141.425003051758 140.587493896484 140.681243896484 137.725006103516 128.925003051758 121.368751525879 115.943748474121 111.918746948242 108.162498474121 105.881248474121 107.143753051758 107.59375 110.131248474121 114.487503051758 117.831253051758 123.212501525879 128.800003051758 136.693756103516 145.149993896484 156.306243896484 164.774993896484 175.5625 176.268753051758 172.862503051758 166.106246948242 161.024993896484 160.324996948242 156.75 155.837493896484 154.34375 152.018753051758 149.493743896484 148.112503051758 144.831253051758 140.225006103516 137.800003051758 132.65625 137.65625 141.662506103516 149.649993896484 154.443756103516 
118.5625 126.931251525879 127.53125 130.212493896484 129.225006103516 129.8125 129.84375 131.537506103516 131.324996948242 131.131256103516 134.6875 136.956253051758 136.987503051758 136.193756103516 130.912506103516 123.525001525879 118.15625 114.131248474121 110.25 107.1875 108.175003051758 108.356246948242 110.512504577637 113.693748474121 119.025001525879 124.412498474121 133.693756103516 142.256256103516 150.943756103516 163.087493896484 175.925003051758 192.256256103516 193.143753051758 183.831253051758 174.306243896484 168.662506103516 163.243743896484 158.987503051758 154.056243896484 151.774993896484 149.993743896484 146.324996948242 143.256256103516 141.818756103516 138.331253051758 131.78125 134.443756103516 135.912506103516 139.106246948242 145.493743896484 147.131256103516 
115.849998474121 119.349998474121 121.737503051758 123.15625 122.400001525879 123.34375 123.393753051758 123.212501525879 124.46875 128.668746948242 131.75 133.918746948242 137.112503051758 138.800003051758 133.931243896484 128.137496948242 121.887496948242 116.90625 115.15625 111.512496948242 110.824996948242 111.099998474121 112.762496948242 117.981246948242 123.40625 129.399993896484 138.899993896484 147.981246948242 157.918746948242 168.649993896484 184.193756103516 200.587493896484 204.206253051758 190.59375 177.693756103516 170.21875 166.393753051758 159.831253051758 154.668746948242 152.03125 149.199996948242 145.393753051758 142.162506103516 138.793746948242 135.506256103516 134.175003051758 134.481246948242 134.024993896484 136.574996948242 136.3125 136.699996948242 
114.081253051758 114.806251525879 116.03125 115.650001525879 115.762496948242 117.443748474121 118.256248474121 117.443748474121 120.175003051758 124.5 127.525001525879 131.243743896484 136.324996948242 139.412506103516 136.306243896484 129.743743896484 125.493751525879 122.893753051758 120.831253051758 117.487503051758 116.175003051758 114.981246948242 117.324996948242 121.974998474121 127.931251525879 133.237503051758 143.362503051758 152.84375 163.662506103516 174.71875 188.449996948242 201.962493896484 201.493743896484 189.8125 179.774993896484 172.175003051758 166.006256103516 161.5 157.550003051758 152.662506103516 148.362503051758 145.65625 142.3125 139.5 134.162506103516 130.118759155273 129.518753051758 132.199996948242 131.493743896484 128.331253051758 127.043746948242 
110.724998474121 110.525001525879 110.03125 109.712501525879 109.606246948242 109.256248474121 109.506248474121 111.599998474121 116.65625 119.756248474121 123.618751525879 129.649993896484 135.743743896484 141.837493896484 140.59375 136.881256103516 132.768753051758 129.106246948242 126.081253051758 122.918746948242 121.349998474121 119.46875 120.40625 124.900001525879 130.631256103516 134.912506103516 145.387496948242 156.59375 167.456253051758 176.875 188.78125 197.71875 194.418746948242 185.306243896484 178.59375 171.90625 166.737503051758 160.96875 156.962493896484 151.949996948242 145.268753051758 140.943756103516 140.356246948242 140.699996948242 137.018753051758 132.175003051758 131.506256103516 132.693756103516 128.793746948242 124.431251525879 119.925003051758 
110.40625 108.824996948242 106.787498474121 104.462501525879 103.574996948242 105.09375 106.037498474121 109.525001525879 113.887496948242 116.693748474121 121.625 128.6875 136.137496948242 143.693756103516 144.0625 142.368743896484 139.725006103516 138.412506103516 134.568756103516 129.837493896484 128.0625 126.881248474121 126.962501525879 130.331253051758 133.96875 140.774993896484 148.868743896484 157.206253051758 167.237503051758 175.612503051758 185.300003051758 190.949996948242 187.618743896484 181.756256103516 176.412506103516 169.512496948242 168.024993896484 163.274993896484 158.262496948242 156.4375 152.168746948242 146.71875 142.649993896484 139.9375 137.050003051758 135.806243896484 134.03125 134.637496948242 131.15625 125.71875 119.193748474121 
110.287498474121 107.237503051758 103.837501525879 102.068748474121 101.356246948242 102.625 105.037498474121 107.231246948242 111.768753051758 115.974998474121 121.099998474121 127.887496948242 137.681243896484 143.993743896484 146.162506103516 147.706253051758 147.862503051758 145.449996948242 142.5625 139.181243896484 135.243743896484 132.693756103516 132.34375 133.931243896484 137.149993896484 144.637496948242 151.481246948242 158.175003051758 167.34375 173.21875 181.356246948242 183.881256103516 180.71875 176.581253051758 171.850006103516 165.587493896484 164.449996948242 162.993743896484 160.993743896484 158.043746948242 156.693756103516 150.581253051758 145.550003051758 140.231246948242 138.587493896484 139.274993896484 138.862503051758 137.1875 132.881256103516 128.300003051758 121.756248474121 
108.037498474121 104.081253051758 101.118751525879 99.8062515258789 99.8249969482422 100.431251525879 104.118751525879 105.037498474121 109.443748474121 113.643753051758 118.875 125.550003051758 135.21875 144.350006103516 147.849990844727 151.931243896484 151.737503051758 149.412490844727 146.824996948242 144.100006103516 139.399993896484 136.881256103516 135.649993896484 137.731246948242 142.818756103516 147.518753051758 153.850006103516 158.96875 164.850006103516 170.09375 173.118743896484 175.59375 172.21875 168.943756103516 166.293746948242 161.881256103516 160.443756103516 160.331253051758 158.306243896484 159.28125 158.024993896484 153.100006103516 148.606246948242 145.668746948242 143.743743896484 148.837493896484 150.449996948242 145.1875 137.90625 132.024993896484 125.550003051758 
107.1875 103.9375 101.112503051758 100.550003051758 99.5 100.068748474121 102.787498474121 104.400001525879 108.724998474121 113.90625 121.349998474121 128.425003051758 137.768753051758 147.987503051758 152.024993896484 155.106246948242 156.431243896484 156.318756103516 152.056243896484 149.181243896484 144.15625 142.362503051758 140.09375 142.856246948242 146.6875 151.09375 155.331253051758 160.118743896484 163.443740844727 165.868743896484 168.006256103516 168.306243896484 164.074996948242 163.75 160.975006103516 159.837493896484 156.75 156.862503051758 155.25 158.018753051758 156.6875 154.362503051758 151.149993896484 150.037506103516 153.143753051758 159.206253051758 159.456253051758 151.806243896484 142.993743896484 136.287506103516 129.587493896484 
106.693748474121 103.162498474121 102.025001525879 101.275001525879 101.137496948242 101.006248474121 102.400001525879 103.431251525879 107.275001525879 112.4375 119.481246948242 129.21875 138.037506103516 146.918746948242 153.381256103516 159.350006103516 162.743743896484 161.756256103516 156.262496948242 151.975006103516 149.206253051758 147.668746948242 145.387496948242 146.112503051758 149.381256103516 151.931243896484 154.725006103516 157.96875 161.918746948242 162.456253051758 162.681243896484 161.537506103516 158.518753051758 156.21875 155.068756103516 153.643753051758 152.737503051758 150.524993896484 151.512496948242 152.90625 151.893753051758 152.356246948242 152.693756103516 152.631256103516 158.649993896484 164.774993896484 163.125 152.181243896484 144.25 138.225006103516 132.199996948242 
105.568748474121 102.493751525879 102.099998474121 102.368751525879 102.518753051758 102.237503051758 101.512496948242 102.59375 104.581253051758 110.006248474121 117.993751525879 128.231246948242 139.84375 150.856246948242 157.612503051758 163.649993896484 167.225006103516 166.162506103516 160.787506103516 154.581253051758 151.975006103516 149.206253051758 148.137496948242 148.03125 149.806243896484 151.625 155.506256103516 158.731246948242 161.231246948242 160.881256103516 158.368743896484 155.756256103516 151.243743896484 149.8125 144.887496948242 144.787506103516 142.762496948242 145.418746948242 146.262496948242 146.518753051758 146.181243896484 145.606246948242 146.712493896484 148.893753051758 154.143753051758 158.006256103516 157.59375 151.787506103516 144.068756103516 138.368743896484 134.268753051758 
107.943748474121 105.881248474121 104.662498474121 104.443748474121 103.993751525879 103.525001525879 102.287498474121 103.318748474121 105.256248474121 108.574996948242 115.506248474121 128.65625 142.612503051758 153.018753051758 161.268753051758 166.949996948242 170.568756103516 167.268753051758 163.625 157.300003051758 154.818756103516 152.162506103516 150.324996948242 150.362503051758 150.800003051758 151.337493896484 156.206253051758 159.162506103516 159.056243896484 157.1875 154.443756103516 150.943756103516 146.112503051758 141.4375 137.774993896484 136.574996948242 139.199996948242 138.149993896484 139.050003051758 141.71875 140.868743896484 142.581253051758 142.675003051758 144.78125 146.231246948242 149.274993896484 149.875 146.506256103516 143.387496948242 138.099990844727 134.212493896484 
111.050003051758 109.818748474121 108.387496948242 107.875 107.84375 106.425003051758 105.400001525879 104.606246948242 105.518753051758 105.481246948242 116.481246948242 135.512496948242 148.46875 157.53125 164.743743896484 170.237503051758 172.368743896484 168.449996948242 164.6875 157.53125 155.800003051758 153.487503051758 150.506256103516 150.050003051758 150.324996948242 152.018753051758 154.850006103516 156.600006103516 156.193756103516 154.162506103516 151.475006103516 148.168746948242 142.518753051758 135.850006103516 132.606246948242 132.981246948242 133.8125 134.225006103516 133.96875 134.518753051758 133.837493896484 133.956253051758 137.600006103516 140.512496948242 141.668746948242 141.612503051758 146.3125 141.46875 137.993743896484 135.331253051758 132.981246948242 
114.599998474121 113.199996948242 112.943748474121 112.018753051758 112.568748474121 111.650001525879 110.650001525879 109.056251525879 109.731246948242 109.425003051758 128.137496948242 147.84375 157.21875 164.78125 170.037506103516 174.15625 175.175003051758 171.712493896484 165.824996948242 160.1875 155.856246948242 153.46875 150.675003051758 149.725006103516 149.381256103516 150.137496948242 150.662506103516 155.118743896484 155.518753051758 151.443756103516 146.993743896484 143.399993896484 138.800003051758 131.350006103516 125.831253051758 126.393753051758 128.512496948242 128.368743896484 130.262496948242 129.1875 128.862503051758 129.625 129.262496948242 129.974990844727 132.274993896484 135.012496948242 137.287506103516 137.243743896484 133.056243896484 131.050003051758 130.306243896484 
118.375 116.962501525879 116.712501525879 116.693748474121 115.599998474121 115.581253051758 116.53125 118.306251525879 123.606246948242 135.175003051758 157.756256103516 165.425003051758 167.137496948242 171.731246948242 175 177.293746948242 177.899993896484 173.524993896484 168 161.106246948242 154.818756103516 150.068756103516 148.131256103516 148.243743896484 146.537506103516 146.506256103516 148.800003051758 152.306243896484 151.068756103516 148.868743896484 143.149993896484 136.46875 133.243743896484 129.262496948242 127.181251525879 126.449996948242 126.137496948242 127.693748474121 126.162498474121 123.487503051758 124.737503051758 124.893753051758 123.331253051758 125.056251525879 125.793746948242 128.137496948242 128.018753051758 128.368743896484 128.518753051758 127.543746948242 126.318748474121 
123.9375 121.974998474121 122.487503051758 122.393753051758 122.318748474121 122.737503051758 123.443748474121 129.34375 137.681243896484 149.699996948242 162.381256103516 171.4375 173.168746948242 175.431243896484 179.337493896484 178.918746948242 177.393753051758 172.412506103516 165.96875 160.337493896484 152.537506103516 147.800003051758 143.225006103516 142.893753051758 142.712493896484 143.46875 144.524993896484 146.668746948242 145.818756103516 143.649993896484 140.362503051758 137.425003051758 133.837493896484 131.118743896484 129.0625 127.199996948242 125.78125 126.556251525879 124.537498474121 119.637496948242 119.212501525879 119.150001525879 116.574996948242 115.862503051758 118.637496948242 119.78125 121.237503051758 122.518753051758 123.625 122.668746948242 122.824996948242 
128.612503051758 127.568748474121 128.28125 128.981246948242 128.112503051758 127.824996948242 130.881256103516 138.912506103516 146.112503051758 155.331253051758 165.412506103516 171.475006103516 176.3125 177.949996948242 180.15625 179.462493896484 176.881256103516 170.831253051758 164.412506103516 158.243743896484 150.256256103516 143.493743896484 137.9375 137.15625 138.368743896484 138.918746948242 139.712493896484 141.618743896484 141.537506103516 138.943756103516 139.268753051758 138.618743896484 137.431243896484 135.21875 131.131256103516 130.368743896484 130.006256103516 129 123.318748474121 118.65625 114.587501525879 110.5625 108.65625 110.318748474121 112.931251525879 115.243751525879 115.868751525879 116.087501525879 120.256248474121 120.849998474121 120.537498474121 
132.862503051758 131.993743896484 133.487503051758 134.106246948242 133.193756103516 135.25 138.899993896484 144.125 151.268753051758 156.818756103516 164.34375 169.78125 175.293746948242 176.0625 175.78125 175.9375 173.168746948242 168.381256103516 163.137496948242 154.324996948242 145.712493896484 137.8125 130.068756103516 129.800003051758 130.800003051758 131.418746948242 132.756256103516 136.331253051758 139.018753051758 137.337493896484 135.118743896484 137.212493896484 136.893753051758 139.862503051758 136.631256103516 132.643753051758 130.024993896484 126.631248474121 123.006248474121 117.456253051758 111.631248474121 104.724998474121 101.618751525879 105.412498474121 109.912498474121 111.474998474121 111.793746948242 112.625 115.243751525879 115.662498474121 116.137496948242 
136.5 137.193756103516 139.381256103516 136.881256103516 139.024993896484 141.356246948242 143.212493896484 146.818756103516 152.068756103516 156.756256103516 163.143753051758 167.75 171.243743896484 173.318756103516 173.199996948242 171.800003051758 167.699996948242 166.106246948242 160.706253051758 148.387496948242 137.556243896484 127.962501525879 122.831253051758 125.106246948242 125.849998474121 127.150001525879 128.743743896484 132.149993896484 134.043746948242 134.931243896484 134.8125 134.431243896484 136.831253051758 141.168746948242 143.824996948242 141.043746948242 133.475006103516 129.737503051758 123.712501525879 118.300003051758 112.112503051758 105.425003051758 100.737495422363 103.300003051758 106.931251525879 108.3125 108.900001525879 110.162498474121 113.974998474121 112.231246948242 113.037498474121 
141.931243896484 142.199996948242 144.649993896484 142.824996948242 144.800003051758 146.387496948242 146.699996948242 150.431243896484 154.962493896484 159.15625 163.118743896484 167.056243896484 170.399993896484 171.881256103516 172.331253051758 169.793746948242 166.050003051758 163.90625 161.106246948242 148.956253051758 134.662506103516 121.8125 117.5625 120.0625 121.887496948242 122.462501525879 123.712501525879 126.731246948242 128.637496948242 129.1875 131.006256103516 131.387496948242 134.84375 141.487503051758 147.0625 149.581253051758 142.418746948242 134.199996948242 127.931251525879 119.9375 112.306251525879 107.387504577637 105.150001525879 106.018753051758 106.643753051758 107.25 108.931251525879 108.224998474121 108.693748474121 110.681251525879 109.987503051758 
143.65625 146.518753051758 147.737503051758 147.96875 148.712493896484 149.40625 147.212493896484 149.600006103516 152.131256103516 156.393753051758 159.824996948242 163.774993896484 166.675003051758 167.506256103516 167.649993896484 166.168746948242 161.737503051758 157.168746948242 153.568756103516 142.706253051758 131.143753051758 119.193748474121 114.5625 115.5 117.875 119.1875 121.0625 122.25 124.349998474121 126.025001525879 128.237503051758 129.199996948242 132.800003051758 136.949996948242 143.831253051758 149.34375 142.893753051758 134.706253051758 128.256256103516 121.731246948242 114.043746948242 110.650001525879 107.418746948242 107.362503051758 107.606254577637 106.650001525879 107.606246948242 107.387496948242 106.400001525879 109.231246948242 108.581253051758 
