ncols        51
nrows        45
xllcorner    -63.500000000000
yllcorner    -7.500000000000
cellsize     0.166666666667
NODATA_value -99
333.412506103516 330.931243896484 328.787506103516 337.34375 340.96875 346.274993896484 344.756256103516 340.943756103516 330.450012207031 331.193756103516 334.59375 332.268737792969 330.162506103516 324.149993896484 316.262512207031 310.168762207031 301.631256103516 293.431243896484 285.043762207031 280.131256103516 279.706268310547 270.674987792969 263.40625 253.743743896484 246.287506103516 240.581253051758 239.893753051758 241.59375 236.731246948242 232.981246948242 224.46875 222.46875 224.606246948242 222.412506103516 220.149993896484 214.681243896484 207.993743896484 202.743743896484 191.40625 182.274993896484 175.943756103516 173.143753051758 164.0625 157.237503051758 150.256256103516 145.987503051758 144.537506103516 144.206253051758 143.78125 146.231246948242 153.574996948242 
326.850006103516 324.4375 329.412506103516 335.506256103516 344.200012207031 348.612487792969 346.118743896484 340.981262207031 337.956237792969 337.018737792969 335.643737792969 329.787506103516 318.137512207031 308.987487792969 298.793762207031 290.549987792969 279.71875 268.787506103516 260.037506103516 256.40625 253.893753051758 245.96875 241 234.131256103516 226.8125 220.149993896484 220.074996948242 219.431243896484 215.975006103516 209.899993896484 206.875 210.193756103516 211.324996948242 212.337493896484 212.824996948242 203.706253051758 197.518753051758 190.393753051758 179.243743896484 170.300003051758 165.59375 155.025009155273 150.287506103516 143.175003051758 139.5625 134.631256103516 132.5 131.168746948242 129.331253051758 132.475006103516 140 
312.587493896484 318.987487792969 323.09375 323.225006103516 331.712493896484 338.581237792969 338.693756103516 342.100006103516 339.506256103516 336.868743896484 330.787506103516 319.149993896484 308.306243896484 291.65625 279.09375 269.112487792969 256.262512207031 246.081253051758 237.96875 232.125 229.574996948242 226.643753051758 220.556243896484 217.387496948242 207.074996948242 199.293746948242 202.756256103516 200.581253051758 195.043746948242 195.787506103516 192.606246948242 193.475006103516 194.925003051758 198.237503051758 197.0625 184.706253051758 180.856246948242 176.993743896484 167.65625 160.287506103516 157.587493896484 149.65625 143.168746948242 135.462493896484 133.34375 127.293746948242 126.862503051758 127.356254577637 124.537498474121 126.1875 131.756256103516 
296.549987792969 297.274993896484 306.581237792969 311.856262207031 315.174987792969 320.90625 326.537506103516 331.475006103516 333.412506103516 332.368743896484 321.71875 305.8125 289.662506103516 271.862487792969 259.8125 248.981246948242 233.381256103516 224.787506103516 217.137496948242 217.662506103516 212.649993896484 204.112503051758 199.356246948242 197.368743896484 187.09375 179.787506103516 180.731246948242 177.15625 175.931243896484 178.574996948242 178.925003051758 178.393753051758 180.125 179.381256103516 178.899993896484 176.668746948242 173.431243896484 167.368743896484 158.568756103516 152.225006103516 148.949996948242 145.024993896484 138.631256103516 130.787506103516 129.975006103516 122.606246948242 121.943748474121 121.53125 120.493751525879 119.125 126.0625 
303.412506103516 300.149993896484 289.96875 296.556243896484 306.681243896484 306.893737792969 312.118743896484 322.100006103516 329.662506103516 329.149993896484 316.575012207031 290.287506103516 273.212493896484 256.78125 241.287506103516 229.368743896484 216.5625 203.581253051758 195.756256103516 194.112503051758 188.737503051758 183.524993896484 179.449996948242 175.987503051758 166.5625 160.587493896484 159.550003051758 161.206253051758 160.975006103516 161.181243896484 165.237503051758 168.112503051758 168.706253051758 170.274993896484 173.256256103516 167.087493896484 163.443756103516 160.300003051758 151.324996948242 144.056243896484 141.931243896484 138.381256103516 133.8125 129.237503051758 126.331253051758 120.925003051758 116.537498474121 115.474998474121 114.418746948242 114.868751525879 118.918746948242 
293.149993896484 294.993743896484 286.0625 272.09375 284.899993896484 297.137512207031 298.368743896484 304.106262207031 315.46875 316.881256103516 298.643737792969 274.5 258.631256103516 242.981246948242 225.868743896484 214.03125 200.456253051758 187.975006103516 182.40625 178.118743896484 174.912506103516 168.962493896484 163.75 156.768753051758 151.431243896484 146.881256103516 144.725006103516 146.524993896484 147.25 148.618743896484 155.118743896484 159.137496948242 163.1875 164.087509155273 163.456253051758 164.143753051758 158.46875 150.481246948242 146.612503051758 145.618743896484 141.393753051758 140.131256103516 134.987503051758 130.956253051758 132.09375 125.368751525879 119.84375 118.675003051758 115.34375 114.462501525879 118.40625 
289.78125 287.862487792969 279.75 270.668762207031 263.931243896484 263.674987792969 265.181243896484 277.056243896484 278.393737792969 279.212493896484 269.393768310547 251.65625 240.96875 229.393753051758 214.225006103516 201.743743896484 190.84375 178.681243896484 168.306243896484 164.131256103516 156.443756103516 151.393753051758 145.493743896484 141.581253051758 139.96875 135.856246948242 133.65625 133.831253051758 134.668746948242 141.96875 144.96875 147.074996948242 150.337493896484 155.71875 161.068756103516 157.981246948242 149.818756103516 145.668746948242 142.131256103516 143.09375 139.975006103516 138.399993896484 136.693756103516 134.006256103516 132.399993896484 131.512496948242 124.324996948242 117.074996948242 116.025001525879 116.825004577637 120.118751525879 
282.912506103516 275.100006103516 267.575012207031 265.46875 258.899993896484 261.268737792969 249.46875 239.475006103516 231.024993896484 235.962493896484 236.225006103516 228.893753051758 222.631256103516 212.925003051758 203.737503051758 192.324996948242 178.824996948242 167.662506103516 156.774993896484 147.162506103516 147.387496948242 140.09375 133.25 129.137496948242 127.606246948242 122.506248474121 121.6875 122.150001525879 123.512496948242 127.875 137 139.5 144.074996948242 148.4375 149.71875 146.756256103516 142.850006103516 139.631256103516 134.225006103516 132.324996948242 132.456253051758 134.9375 131.337493896484 127.53125 125.318748474121 121.668746948242 117.199996948242 115.412498474121 114.46875 114.118751525879 118.862503051758 
272.837493896484 267.543762207031 256.787506103516 251.25 246.981246948242 242.543746948242 240.21875 235 218.368743896484 207.962493896484 205.931243896484 204.399993896484 206.237503051758 199.90625 192.25 180.475006103516 173.862503051758 165.1875 156.068756103516 144.018753051758 134.368743896484 133.074996948242 123.181251525879 122.875 118.224998474121 114.143753051758 114.087501525879 116.643753051758 121.474998474121 126.0625 136.15625 133.831253051758 132.737503051758 135.25 140.556243896484 143.487503051758 142.768753051758 142.068756103516 137.21875 132.537506103516 129.75 127.4375 130.481246948242 127.5 120.4375 116.362503051758 114.943748474121 112.050003051758 109.53125 111.731246948242 113.293746948242 
263.399993896484 258.731262207031 248.806243896484 242.581253051758 237.024993896484 231.199996948242 227.25 218.431243896484 211.131256103516 203.050003051758 194.818756103516 184.543746948242 188.943756103516 187.212509155273 181.862503051758 174.087493896484 165.243743896484 162.050003051758 153.949996948242 145.168746948242 132.731246948242 124.637496948242 114.006248474121 111.618751525879 106.324996948242 104.90625 106.306251525879 108.518753051758 111.675003051758 120.099998474121 128.6875 130.087493896484 132.550003051758 135.631256103516 137.1875 138.462493896484 140.300003051758 142.068756103516 139.881256103516 140.443740844727 140.306243896484 138.256256103516 131.793746948242 124.112503051758 118.050003051758 116.5625 115.431251525879 114.043746948242 113.256248474121 110.71875 106.0625 
257.5625 250.356246948242 240.03125 231.831253051758 223.662490844727 220.725006103516 211.668746948242 203.524993896484 199.487503051758 194.46875 189.318756103516 180.675003051758 174.956253051758 174.706253051758 169.40625 163.712493896484 156.643753051758 150.193756103516 146.100006103516 142.737503051758 138.112503051758 125.893753051758 110.512496948242 97.53125 96.8687515258789 100.59375 103.824996948242 104.837501525879 106.337501525879 113.650001525879 121.887496948242 126.28125 130.287506103516 134.074996948242 136.837493896484 135.512496948242 137.725006103516 138.212493896484 142.393753051758 141.899993896484 141.300003051758 137.550003051758 135.100006103516 123.78125 114.224998474121 110.956253051758 115.425003051758 116.262496948242 115.337501525879 113.34375 105.762496948242 
246.487503051758 240.368743896484 233.681243896484 222.225006103516 214.925003051758 208.231246948242 204.824996948242 198.706253051758 193.96875 184.112503051758 181.84375 175.918746948242 163.162506103516 162.256256103516 161.918746948242 155.699996948242 148.987503051758 144.199996948242 141.90625 143.856246948242 139.981246948242 129.15625 112.675003051758 96.9625015258789 92.6687469482422 92.15625 94.8249969482422 99.4562530517578 105.006248474121 110.993751525879 114.324996948242 121.793746948242 126.449996948242 127.6875 132.887496948242 136.46875 140.925003051758 142.949996948242 140.243743896484 144.137496948242 144.600006103516 140.143753051758 128.412506103516 110.84375 99.5374984741211 95.0875015258789 97.3562469482422 109.837501525879 112.668746948242 109.181251525879 99.3874969482422 
240.399993896484 232.537506103516 223.90625 212.881256103516 206.78125 198.350006103516 193.456253051758 188.25 181.362503051758 175.40625 171.893753051758 168.162506103516 161.206253051758 149.024993896484 145.40625 143.0625 138.512496948242 136.231246948242 129.912506103516 130.774993896484 129.850006103516 120.550003051758 108.137496948242 95.8499984741211 86.1374969482422 84.5062484741211 90.5250015258789 97.2375030517578 104.887496948242 112.893753051758 115.293746948242 118.012496948242 124.756248474121 124.1875 128.318756103516 133.949996948242 142.443756103516 147.556243896484 154.481246948242 153.806243896484 147.431243896484 140.824996948242 122.887496948242 108.568748474121 103 101.393753051758 102.143753051758 102.837501525879 104.0625 104.5625 100.818748474121 
232.087493896484 224.524993896484 214.493743896484 204.5 194.899993896484 188.568756103516 181.868743896484 178.443756103516 174.056243896484 167 162.681243896484 155.587493896484 150.5625 142.4375 129.8125 130.368743896484 125.643753051758 121.78125 118.006248474121 117.631248474121 115.831253051758 108.175003051758 98.7249984741211 92.1062469482422 86.0124969482422 82.1500015258789 86.46875 92.5 100.15625 107.237503051758 114.137496948242 118.456253051758 122.0625 125.693748474121 126.28125 137.506256103516 150.393753051758 160.662506103516 168.449996948242 164.574996948242 144.824996948242 131.974990844727 127.487503051758 128.25 126.893753051758 119.143753051758 115.950004577637 116.112503051758 114.868751525879 117.681251525879 110.349998474121 
219 212.225006103516 205.225006103516 197.15625 187.581253051758 181.149993896484 176.175003051758 170.78125 165.637496948242 159.90625 153.850006103516 147.387496948242 141.381256103516 131.84375 118.118751525879 116.831253051758 113.556251525879 112.443748474121 106.612503051758 105.056251525879 104.53125 98.9124984741211 93.6125030517578 90.7937469482422 89.71875 87.9000015258789 93.2312469482422 99.2437515258789 108.256248474121 111.287498474121 113.074996948242 119.568748474121 127.768753051758 126.168746948242 122.449996948242 127.168746948242 148.006256103516 169.237503051758 174.243743896484 166.043746948242 155.993743896484 149.987503051758 150.375 140.1875 132.956253051758 130.918746948242 132.600006103516 134.293746948242 132.856246948242 124.056251525879 111.912498474121 
209.137496948242 200.556243896484 194.231246948242 184.993743896484 179.681243896484 174.524993896484 168.568756103516 162.100006103516 159.181243896484 156.431243896484 149.875 142.262496948242 135.768753051758 126.493751525879 114.581253051758 101.068748474121 100.606246948242 101.875 96.8562469482422 95.0437469482422 93.9187469482422 90.7437515258789 88.7687530517578 90.4499969482422 91.4312515258789 91.4937515258789 96.1812515258789 103.96875 111.606246948242 119.518753051758 123.349998474121 125.099998474121 121.925003051758 117.974998474121 114.962501525879 135.40625 146.081253051758 161.256256103516 172.59375 176.737503051758 176.5 171.449996948242 160.668746948242 144.481246948242 134.256240844727 129.493743896484 129.356246948242 126.787498474121 128.15625 124.137496948242 114.193748474121 
197.793746948242 191.243743896484 183.0625 177.768753051758 172.456253051758 168.456253051758 162.681243896484 157.612503051758 151.024993896484 146.506256103516 142.949996948242 136.631256103516 127.787498474121 118.818748474121 111.612503051758 99.5062484741211 86.5875015258789 87.0124969482422 86.6750030517578 84.4937515258789 82.7375030517578 82.5625 82.0187530517578 88.3000030517578 91.0500030517578 89.7249984741211 95.1687469482422 102.875 114.775001525879 123.762496948242 130.899993896484 135.987503051758 132.512496948242 133.175003051758 142.899993896484 151.6875 165.574996948242 177.787506103516 188.493743896484 182.137496948242 181.712493896484 171.456253051758 155.475006103516 144.243743896484 135.087493896484 130.350006103516 130.03125 130.662506103516 128.768753051758 118.112503051758 110.012496948242 
185.0625 180.068756103516 175.975006103516 171.25 166.956253051758 164.962493896484 158.543746948242 152.793746948242 145.831253051758 138.206253051758 132.225006103516 128.1875 118.862503051758 111.03125 105.737503051758 96.5999984741211 84.46875 73.7375030517578 78.5437545776367 74.2437515258789 73.1750030517578 73.8062515258789 76.90625 83.46875 89.4937515258789 89.5062484741211 93.4437484741211 105.537498474121 116.949996948242 123.131248474121 124.025001525879 124.806251525879 144.018753051758 149.65625 154.625 181.018753051758 192.287506103516 188.6875 190.737503051758 186.84375 170.612503051758 156.956253051758 144.262496948242 136.649993896484 130.625 128.887496948242 129.3125 128.037506103516 124.606246948242 111.65625 109.074996948242 
173.787506103516 171.662506103516 168.212493896484 165.024993896484 162.106246948242 157.775009155273 152.556243896484 146.543746948242 140.681243896484 134.287490844727 126.743751525879 116.581253051758 108.762496948242 102.818748474121 96.0625 89.03125 83.1500015258789 71.2624969482422 65.3499984741211 63.1749992370605 65.5250015258789 69.34375 66.1624984741211 75.4749984741211 82.4749984741211 90.6687469482422 98.6875 105.787498474121 119.581253051758 125.362503051758 128.149993896484 135.631256103516 146.981246948242 150.725006103516 161.693756103516 181.206253051758 185.431243896484 180.618743896484 181.300003051758 172.100006103516 157.981246948242 141.28125 134.262496948242 130.875 128.168746948242 127.331253051758 128.868743896484 126.743751525879 119.162498474121 105.050003051758 108.818748474121 
165.618743896484 164.393753051758 160.100006103516 153.856246948242 150.431243896484 150.375 146.125 139.706253051758 136.324996948242 130.550003051758 123.46875 115.862503051758 106.943748474121 97.9312515258789 90 78.5062484741211 70.6937484741211 69.2312469482422 63.3062515258789 61.875 57.375 58.7437515258789 64.5749969482422 71.8125 76.34375 81.5500030517578 90.0625 105.15625 112.275001525879 115.900001525879 122.731246948242 142.793746948242 149.612503051758 152.28125 157.050003051758 169.056243896484 176.600006103516 173.543746948242 167.793746948242 159.1875 143.649993896484 126.506248474121 125.824996948242 125.125 122.512496948242 122.46875 123.449996948242 120.349998474121 113.268753051758 106.337501525879 110.525001525879 
148.949996948242 155.743743896484 156.268753051758 151.681243896484 143.931243896484 140.699996948242 139.268753051758 134.975006103516 130.143753051758 123.324996948242 117.800003051758 110.09375 101.306251525879 91.1062469482422 82.0437469482422 75.2937469482422 67.375 63.5499992370605 63.1437492370605 60.4375 63.4000015258789 65.8187484741211 70.3000030517578 80.4312515258789 87.4749984741211 91.0187530517578 92.7062454223633 101.900001525879 111.474998474121 120.856246948242 130.149993896484 144.856246948242 142.399993896484 143.981246948242 147.237503051758 158.693756103516 168.243743896484 169.706253051758 160.550003051758 151 140.46875 126.912498474121 123.737503051758 123.699996948242 121.71875 121.862503051758 122.612503051758 117.525001525879 108.849998474121 110.974998474121 109.706253051758 
142.475006103516 141.637496948242 145.59375 146.1875 141.274993896484 135.612503051758 132.393753051758 127.481246948242 122.199996948242 118.181251525879 112.393753051758 103.293746948242 94.5625 87.8125 81.6687469482422 72.7062530517578 71.1812515258789 66.2062530517578 66 64.1875 63.9812507629395 69.3687515258789 74.5437469482422 81.0687484741211 86.59375 91.4000015258789 100.481246948242 105.875 118.84375 128.5 133.137496948242 136.081253051758 137.193756103516 143.28125 144.537506103516 150.106246948242 157.743759155273 163.399993896484 158.612503051758 151.0625 140.587493896484 130.612503051758 126.75 127.03125 123.262496948242 121.275001525879 120.056251525879 114.5625 106.900001525879 113.337501525879 110.78125 
136.75 144.074996948242 147.387496948242 147.137496948242 142.581253051758 134.681243896484 123.90625 117.525001525879 116.46875 111.90625 105.831253051758 100.243751525879 95.8874969482422 90.4312515258789 83.7624969482422 76.6812515258789 69.9937515258789 66.21875 65.4812469482422 65.75 69.5124969482422 71.6937484741211 74.1374969482422 81.78125 91.8375015258789 97.2999954223633 102.59375 110.212501525879 120.537498474121 123.46875 127.03125 132.675003051758 132.356246948242 133.637496948242 140.9375 142.262496948242 145.693756103516 152.356246948242 154.106246948242 150.75 141.606246948242 133.8125 128.806243896484 125.699996948242 124.675003051758 122.587501525879 116.181251525879 109.5625 109.493751525879 115.087501525879 112.981246948242 
128.443756103516 137.362503051758 145.350006103516 141.856246948242 135.90625 128.131256103516 123.53125 116.5625 110.018753051758 103.1875 101.549995422363 100.356246948242 94.3874969482422 90.6750030517578 82.28125 75.9875030517578 70.6500015258789 69.75 68.7375030517578 68.3187484741211 71.5812530517578 75.9250030517578 77.90625 89.0124969482422 95.875 99.9187469482422 109.287498474121 110.5625 115.556251525879 119.962501525879 122.618751525879 126.931251525879 129.237503051758 128.800003051758 134.756256103516 135.018753051758 141.09375 147.96875 147.956253051758 144.649993896484 139.024993896484 133.743743896484 129.699996948242 127.599998474121 128.25 120.993751525879 110.643753051758 105.193748474121 108.025001525879 112.787498474121 110.993751525879 
119.03125 129.962493896484 136.006256103516 138.25 134.53125 126.737503051758 120.143753051758 115.050003051758 107.743751525879 104.006248474121 99.0500030517578 95.2375030517578 92.6062469482422 85.8375015258789 78.5562515258789 73.375 70.0062484741211 68.2874984741211 68.78125 70.5500030517578 73.9437484741211 76.8625030517578 82.9812469482422 93.0625 97.125 101.3125 106.46875 110.175003051758 113.34375 117.34375 115.943748474121 116.412498474121 118.875 123.543746948242 128.081253051758 131.737503051758 136.71875 140.287506103516 143.475006103516 141.887496948242 137.743743896484 134.574996948242 132.550003051758 126.868751525879 122.943748474121 114.768753051758 103.212501525879 99.7937469482422 98.6187515258789 106.743751525879 110.28125 
114.875 128.050003051758 127.568748474121 129.887496948242 126.049995422363 120.212501525879 113.175003051758 108.78125 99.6125030517578 93.40625 92.2687530517578 89.0562515258789 86.4375 81.4562530517578 76.78125 70.8000030517578 68.1500015258789 68.8375015258789 70.0437469482422 70.1312484741211 74.2375030517578 78.34375 83.8000030517578 92.4937515258789 99.3000030517578 101.856246948242 106.212501525879 109.5625 109.587501525879 111.3125 109.449996948242 109.199996948242 112.012496948242 116.025001525879 120.606246948242 127.9375 133.712493896484 135.443756103516 135.8125 138.293746948242 135.125 125.243751525879 122.668754577637 121.868751525879 120.09375 113.224998474121 105.756248474121 98.1437530517578 100.206253051758 109.28125 109.618751525879 
108.456253051758 113.662498474121 117.706253051758 118.543746948242 115.443748474121 111.224998474121 105.724998474121 97.4812469482422 91.4812469482422 90.875 90.3375015258789 87.3125 83.3687515258789 80.0374984741211 76.8499984741211 73.5500030517578 69.8249969482422 68.2312469482422 70.0812530517578 70.3812484741211 72.9250030517578 77.2125015258789 83.375 95.0625 97.9562530517578 100.662498474121 104.824996948242 106.074996948242 106.037498474121 105.931251525879 105.96875 102.599998474121 104.84375 109.818748474121 115.599998474121 121.581253051758 129.9375 132.537506103516 131.1875 135.231246948242 135.4375 128.137496948242 120.949996948242 117.612503051758 115.737503051758 114.449996948242 112.318748474121 101.90625 99.3812484741211 102.425003051758 100.081253051758 
103.03125 103.699996948242 106.168746948242 104.487503051758 102.162498474121 100.612503051758 97.1750030517578 91.1812515258789 87.5500030517578 87.4312515258789 85.6125030517578 83.8187484741211 80.2249984741211 76.8249969482422 73.9812469482422 71.3187484741211 68.4375 68.6312484741211 67.9249954223633 69.6312484741211 72.9250030517578 75.3249969482422 82.1624984741211 90.21875 94.7750015258789 96.6999969482422 100.381248474121 101.34375 104.074996948242 105.268753051758 103.59375 102.050003051758 103.137496948242 104.375 113.118751525879 119.043746948242 127.65625 130.181243896484 131.681243896484 134.3125 135.131256103516 131.824996948242 118.862503051758 117.337501525879 112.6875 111.893753051758 108.574996948242 103.550003051758 98.3249969482422 90.7687530517578 88.4437484741211 
95.1875 98.0812530517578 95.1750030517578 92.2624969482422 91.7312469482422 87.5812530517578 86.1437530517578 84.9124984741211 84.1062469482422 82.4749984741211 81.625 79.7750015258789 78.03125 75.6437530517578 73.1624984741211 71.03125 69.4562530517578 68.3375015258789 69.0749969482422 70.5562515258789 71.8312530517578 73.5374984741211 77.3125 83.9749984741211 88.9187469482422 90.71875 96.3375015258789 100.1875 101.6875 100.125 97.5749969482422 97.59375 98.6750030517578 103.737503051758 109.193748474121 114.962501525879 125.543754577637 126.231254577637 128.600006103516 129.668746948242 128.568756103516 123.09375 116.881248474121 118.512496948242 115.25 108.862503051758 107.681251525879 100.612503051758 94.125 86.5374984741211 78.8375015258789 
87.9499969482422 88.1875 86.4124984741211 83.5749969482422 82.53125 81.7437515258789 80.5250015258789 82.0250015258789 80.9250030517578 80.65625 80.1437530517578 79.5437469482422 78.4812469482422 76.8249969482422 73.7062530517578 70.7375030517578 68.6624984741211 69.2249984741211 67.3625030517578 66.28125 69.2437515258789 71.0374984741211 74.1125030517578 79.96875 83.1500015258789 88.0500030517578 92.0687484741211 94.65625 96.5749969482422 94.625 93.0500030517578 92.5999984741211 96.0687484741211 101.643753051758 109.025001525879 112.712501525879 125.087501525879 126.543746948242 122.900001525879 129.287506103516 127.518753051758 121.53125 118.862503051758 114.074996948242 110.306251525879 109.587501525879 101.762496948242 96.8937530517578 91.1687469482422 83.875 75.1624984741211 
82.3812484741211 80.9875030517578 78.8187484741211 77.5749969482422 77.1312484741211 76.5812530517578 77.3000030517578 78.1312484741211 77.5999984741211 78.6875 79.2312469482422 77.8937530517578 78.4437484741211 73.9312515258789 72.0812530517578 71.8312530517578 70.4875030517578 68.6937484741211 67.125 66.6624984741211 67.6875 67.8125 70.3125 75.9124984741211 79.4625015258789 84.1624984741211 87.1125030517578 90.0187530517578 91.1999969482422 90.2624969482422 91.9875030517578 92.1750030517578 94.53125 97.9562530517578 104.556251525879 109.237503051758 119.6875 124.618751525879 121.943748474121 118.987503051758 120.900001525879 115.8125 112.587501525879 109.550003051758 108.40625 103.831253051758 95.9499969482422 90.6937484741211 85.2687530517578 80.6500015258789 75.03125 
76.09375 74.5374984741211 72.0749969482422 72.3625030517578 74.2437515258789 74.09375 74.3812484741211 74.9499969482422 75.625 75.5625 74.84375 74.7750015258789 73.28125 72.6999969482422 72.3874969482422 71.2687530517578 68.0187530517578 66.2312469482422 65.21875 64.9749984741211 65.3875045776367 66 66.25 70.4749984741211 75.4187469482422 78.7624969482422 82.4875030517578 85.3000030517578 86.2937469482422 89.6937484741211 89.96875 89.8375015258789 93.1937484741211 96.1187515258789 101.46875 104.974998474121 112.412498474121 114.693748474121 116.037498474121 115.525001525879 118.118751525879 114.168746948242 109.481246948242 106.243751525879 104.15625 101.487503051758 97.3562469482422 90.0500030517578 83.4937515258789 78.5562515258789 72.625 
68.125 67.1687469482422 67.0187530517578 67.9625015258789 68.1999969482422 69.34375 70.7874984741211 72.75 72.5500030517578 72.8687515258789 75.0374984741211 74.3062515258789 73.8125 74.9875030517578 74.8874969482422 71.4749984741211 67.8937530517578 67.5500030517578 66.3812484741211 65.4937515258789 64.09375 63.53125 64.4312515258789 68.1125030517578 71.40625 74.6812515258789 77.5749969482422 79.7312469482422 82.0812530517578 85.5562515258789 87.21875 86.0625 89.8249969482422 95.1187515258789 98.71875 101.75 105.050003051758 107.068748474121 108.425003051758 112.762496948242 115.162498474121 111.068748474121 104.931251525879 100.943748474121 96.6937484741211 95.7562484741211 96.5999984741211 88.5812530517578 83.5187530517578 74.0437469482422 69.5562515258789 
60.2249984741211 60.71875 62.6749992370605 63.5625 63.90625 65.3937530517578 68.4562530517578 69.7312545776367 69.5062484741211 69.4937515258789 72.0250015258789 74.0812530517578 74.5 74.0875015258789 72.9187469482422 71.8812484741211 70.2437515258789 68.125 65.25 64.2437515258789 63.5 62.2750015258789 63.5374984741211 65.125 68.3625030517578 69.8312530517578 73.65625 75.9312515258789 79.5562515258789 82.3375015258789 85.2125015258789 86.6374969482422 86.7624969482422 90.0687484741211 95.1187515258789 97.9499969482422 100.043746948242 101.375 103.324996948242 105.818748474121 105.662498474121 104.893753051758 101.525001525879 93.1937484741211 92.9250030517578 93.09375 89.5250015258789 81.8625030517578 76.90625 73.4749984741211 69.65625 
54.125 53.8687515258789 56.875 59.5187492370605 60.4437484741211 60.9500007629395 62.8812484741211 65.7750015258789 66.2937469482422 66.59375 71.3812484741211 74.6374969482422 76.1437530517578 78.8812484741211 77.6750030517578 74.59375 71.0250015258789 66.9250030517578 63.9000015258789 60.4500007629395 61.6062507629395 59.5125007629395 59.3499984741211 60.7125015258789 65.1062469482422 67.1750030517578 69.8687515258789 71.1374969482422 73.8625030517578 76.4187469482422 80.1374969482422 83.15625 82.7125015258789 85.3000030517578 88.0062484741211 91.6812515258789 91.7562484741211 97.3562469482422 96.53125 98.7750015258789 98.9000015258789 95.9000015258789 94.2687530517578 89.3562469482422 88.0562515258789 85.9375 82.78125 79.9812469482422 73.8625030517578 72.0812530517578 67.0062484741211 
47.9750022888184 47.78125 49.875 52.40625 54.1187515258789 55.5374984741211 57.5499992370605 59.3187484741211 59.9937515258789 61.2124977111816 64.8874969482422 72.3937530517578 77.1624984741211 79.4562530517578 78.7624969482422 76.0562515258789 71.8187484741211 66.0687484741211 62.2374992370605 58.1062507629395 57.4000015258789 57.9812507629395 57.0812492370605 57.9812507629395 61.34375 62.8187484741211 64.8874969482422 66.0999984741211 69.4375 71.5 73.59375 76.6875 77.9625015258789 79.0687484741211 79.6750030517578 82.8812484741211 86.96875 87.78125 88.6125030517578 91.28125 91.46875 88 86.1875 84.8687515258789 81.7624969482422 77.8687515258789 77.3874969482422 73.4000015258789 70.71875 66.1125030517578 62.96875 
40.8562507629395 42.4249992370605 43.3062515258789 45.7999992370605 48.2625007629395 49.9437484741211 51.7937507629395 54.5374984741211 55.8624992370605 55.34375 62.3125 72.90625 79.0999984741211 80.0812530517578 79.4187469482422 76.53125 72.8000030517578 67.7125015258789 63.1437492370605 57.125 55.1875 56.2687492370605 55.1312484741211 56.0437507629395 57.0499992370605 58.2687492370605 61.4937515258789 62.4187507629395 63.5750007629395 64.4562530517578 68.4500045776367 69.8375015258789 71.9562530517578 73.8249969482422 74.1312484741211 76.4937515258789 79.9250030517578 82.8499984741211 81.7312469482422 81.4875030517578 81.375 81.1062469482422 77.7249984741211 82.125 78.9124984741211 73.6812515258789 75.5187530517578 69.1062469482422 66.0374984741211 63.25 59.0125007629395 
34.5625 36.2000007629395 38 40.78125 42.7312507629395 44.9874992370605 47.7249984741211 50.5437507629395 53.6437492370605 53.9500007629395 65.8937530517578 76.3499984741211 80.0500030517578 82.0999984741211 79.2125015258789 76.1125030517578 72.1312484741211 67.8812484741211 64.0124969482422 58.9249992370605 55.7062492370605 54.84375 52.7999992370605 53.53125 53.6187515258789 55.5562515258789 58.0999984741211 58.5750007629395 59.2312507629395 59.2437515258789 61.2374992370605 65.03125 67.375 67.7062530517578 68.1687469482422 70.5374984741211 72.7437515258789 73.9875030517578 77.3625030517578 75.6374969482422 74.40625 75.3187484741211 71.6125030517578 71.1125030517578 70.53125 68.5875015258789 69.4625015258789 65.5437469482422 59.1624984741211 57.8125 55.2874984741211 
29.4874992370605 30.375 32.4375 34.8687515258789 37.2312507629395 40.6500015258789 43.40625 47.2625007629395 52.3187484741211 62.2062492370605 76.8125 79.5187530517578 78.1687469482422 77.8625030517578 75.6812515258789 72.4187469482422 70.4124984741211 66.4312515258789 62.5249977111816 58.9249992370605 54.9812507629395 52.9249992370605 51.03125 51.0374984741211 51.34375 53.4749984741211 54.4625015258789 54.0999984741211 54.4625015258789 55.8875007629395 58.0499992370605 59.5750007629395 60.5687484741211 61.9937515258789 64.6750030517578 64.7874984741211 66.4937515258789 67.1624984741211 66.125 65.0999984741211 66.96875 68.2249984741211 66.78125 66.3499984741211 64.3375015258789 62.5499992370605 60.4749984741211 56.2874984741211 53.25 52.5999984741211 51.2562484741211 
24.0750007629395 25.40625 27.6000003814697 29.4562492370605 32.7125015258789 36.625 38.9625015258789 44.4249992370605 50.7000007629395 59.7437515258789 67.3062515258789 72.6187515258789 73.6500015258789 74.1187515258789 73.2125015258789 72.53125 69.6937484741211 65.4562530517578 61.0125007629395 57.7999992370605 54.2999992370605 52.1875 48.6312484741211 48.9187507629395 48.0250015258789 48.5187492370605 50.1124992370605 49.9937515258789 49.8562507629395 50.3062515258789 51.4562492370605 53.5499992370605 53.4562492370605 56.1062507629395 56.1687507629395 57.2249984741211 58.3812484741211 60.4187507629395 59.71875 59.1749992370605 61.53125 61.9812507629395 59.3624992370605 58.0625 55.5999984741211 55.6124992370605 53.6499977111816 52.46875 50.5499992370605 49.8250007629395 47.3250007629395 
20.1062507629395 20.9562492370605 22.9500007629395 25.3312492370605 27.875 30.8250007629395 34.0687484741211 39.5875015258789 45.3375015258789 52.65625 58.7937507629395 63.5437507629395 67.3499984741211 67.8062515258789 69.3874969482422 68.0999984741211 67.8937530517578 64.6500015258789 59.15625 55.6375007629395 53.1937484741211 50.15625 47.7750015258789 47.5187492370605 46.28125 44.7874984741211 45.78125 46.78125 46.96875 45.875 48.3250007629395 50.0812492370605 48.0687484741211 49.6624984741211 50.375 50.9312515258789 51.0062484741211 53.71875 53.0562515258789 52.1749992370605 55.21875 54.3875007629395 52.09375 50.75 51.8875007629395 50.9187507629395 48.5499992370605 46.78125 48.9937515258789 48.1062507629395 44.7312507629395 
17.4437503814697 18.40625 19.5625 22.03125 23.9937496185303 27.4187507629395 30.34375 35.0062484741211 40.6187515258789 45.5062484741211 51.0687484741211 54.9562492370605 59.0687484741211 60.9749984741211 62.2374992370605 62.5562515258789 63.1687507629395 59.7999992370605 56.8187484741211 53.2937507629395 49.7687492370605 46.6749992370605 44.3250007629395 43.6375007629395 42.7750015258789 40.8875007629395 41.1062507629395 42.1124992370605 42.7999992370605 41.3562507629395 41.6375007629395 43.9187507629395 44.7374992370605 46.78125 45.53125 44.6437492370605 44.9937515258789 46.1375007629395 46.0062484741211 46.9625015258789 48.1375007629395 47.6937484741211 47.40625 46.9437484741211 45.7437515258789 44.5687484741211 41.7874984741211 39.6812515258789 40.5812492370605 41.4000015258789 40.0625 
14.71875 15.5062494277954 17.2124996185303 18.5687503814697 20.8312492370605 23.9562492370605 27.5812492370605 31.0437507629395 34.8187484741211 39.0499992370605 43.7062492370605 48.3624992370605 51.15625 52.9812507629395 55.15625 56.5875015258789 56.4437484741211 56.03125 53.8312492370605 50.3624992370605 45.8812484741211 41.4000015258789 38.4562492370605 38.9124984741211 39.3125 38.8687515258789 38.3375015258789 38.5875015258789 38.7437477111816 37.4124984741211 37.5 37.8875007629395 39.0687484741211 41.8125 43.5625 40.9812507629395 39.4749984741211 39.6187515258789 40.2249984741211 40.6687507629395 41.46875 42.0875015258789 42.0062484741211 41.5437507629395 39.4874992370605 37.71875 36.0437507629395 35.0562515258789 36.6624984741211 34.6937484741211 35.0062484741211 
12.2437496185303 13.2624998092651 14.84375 16.1812496185303 18.6000003814697 21.1749992370605 24.1937503814697 27.90625 31.7937507629395 34.71875 37.6312484741211 41.3812484741211 43.6187515258789 46.1375007629395 48.3624992370605 49.28125 51.0374984741211 51.8250007629395 52.0062484741211 48.2125015258789 42.4874992370605 38.2250022888184 35.2249984741211 36.5374984741211 35.8499984741211 34.8499984741211 34.3125 35.875 35.9749984741211 34.40625 33.8562507629395 34.40625 35.34375 36.8062515258789 40.3937492370605 38.8375015258789 35.6749992370605 34.9812507629395 35.6375007629395 35.9562492370605 35.7750015258789 35.5562515258789 36.4562492370605 36.1124992370605 34.5374984741211 33.4749984741211 32.1624984741211 29.8687496185303 29.5750007629395 30.8999996185303 30.7437496185303 
10.7250003814697 11.3625001907349 12.6437501907349 14.3249998092651 16.3812503814697 19.2437496185303 21.7437496185303 24.5625 28.3187503814697 31.125 32.9000015258789 34.875 37.5999984741211 40.1187515258789 41.4375 44.09375 45.7000007629395 46.46875 47.28125 44.9124984741211 40.3312492370605 37.0187530517578 34 33.1875 32.9375 32.5625 31.6875 33.4375 33.8812484741211 31.6812496185303 30.28125 30.7875003814697 31 31.2312507629395 33.40625 33.3812484741211 31.6437492370605 31.5062503814697 32.5437507629395 33.1187515258789 32.7125015258789 32.5499992370605 31.59375 31.2437496185303 30.4874992370605 29.7250003814697 28.5874996185303 25.9562492370605 24.6687507629395 25.3812503814697 26.7875003814697 
