ncols        51
nrows        45
xllcorner    -63.500000000000
yllcorner    -7.500000000000
cellsize     0.166666666667
NODATA_value -99
70.9124984741211 65.1312484741211 66.0062484741211 69.1125030517578 71.875 77.625 81.7750015258789 84.7937469482422 89.6437530517578 94.6624984741211 100.78125 107.512504577637 114.199996948242 119.256248474121 123.931251525879 127.53125 131.96875 132.375 133.506256103516 133.362503051758 133.3125 131.006256103516 129.550003051758 126.756248474121 123.21875 121.431251525879 119.074996948242 116.4375 112.362503051758 108.949996948242 104.6875 101.706245422363 100.743751525879 98.1062469482422 96.4250030517578 95.9375 96.6999969482422 97.2750015258789 97.09375 97.2312469482422 97.5812530517578 97.5250015258789 96.3687515258789 95.5812530517578 96.0625 95.1999969482422 96.0374984741211 95.9562530517578 96.6312484741211 95.75 95.5124969482422 
65.4250030517578 58.8250007629395 59.6937484741211 62.6124992370605 66.59375 71.1187515258789 75.0374984741211 80.2375030517578 86.1750030517578 92.0562515258789 98.7375030517578 105.387496948242 112.081253051758 116.806251525879 121.431251525879 126.193748474121 129.643753051758 130.918746948242 131.831253051758 132.318756103516 131.350006103516 130.993743896484 129.381256103516 127.53125 123.362503051758 121.168746948242 119.525001525879 117.331253051758 112.581253051758 109.25 105.6875 103.706253051758 101.668754577637 100.224998474121 98.6687469482422 98.0062484741211 98.5062484741211 99.28125 98.9000015258789 98.9250030517578 99.4187469482422 99.4812469482422 99.1750030517578 97.4812469482422 97.6437530517578 96.9187469482422 97.3812484741211 97.2312469482422 97.7750015258789 96.5437469482422 96.2312469482422 
60.9812507629395 55.7437515258789 56.78125 59.8875007629395 63.5875015258789 69.3625030517578 74.3000030517578 79.6187515258789 86.34375 92.875 99.7062530517578 106.099998474121 112.506248474121 116.862503051758 120.587501525879 125.412498474121 128.412506103516 129.837493896484 130.774993896484 131.631256103516 131.237503051758 130.699996948242 130.274993896484 128.943756103516 125.456253051758 122.556251525879 122.318748474121 119.143745422363 114.650001525879 110.724998474121 106.481246948242 104.050003051758 103.106246948242 101.375 99.6687469482422 98.5250015258789 98.8062515258789 99.7624969482422 99.90625 100.443748474121 101.275001525879 100.918746948242 101.268753051758 100.175003051758 99.5187530517578 98.7312469482422 98.7437515258789 98.7125015258789 97.7937469482422 96.3625030517578 96.5500030517578 
55.9000015258789 51.7062492370605 54.5687484741211 57.09375 60.4375 66.6374969482422 73.03125 80.2687530517578 87.8874969482422 95.2062530517578 101.706253051758 107.756248474121 112.293746948242 117.037498474121 120.512496948242 124.481246948242 127.8125 129.324996948242 131.556243896484 133.34375 133.362503051758 131.84375 130.600006103516 129.600006103516 126.0625 123.987503051758 122.506248474121 117.862503051758 114.243751525879 110.9375 107.474998474121 103.887496948242 101.818748474121 99.84375 97.4875030517578 98.4437484741211 99.5999984741211 100.400001525879 101.199996948242 101.212501525879 101.449996948242 101.162498474121 101.387496948242 101.143753051758 101.043746948242 99.7249984741211 98.9000015258789 99.4375 98.0124969482422 95.5 94.7937469482422 
56.7999992370605 51.3812484741211 51.4937515258789 53.90625 58.3375015258789 65.2249984741211 72.1812515258789 80.2375030517578 89.0875015258789 96.8375015258789 103.474998474121 107.956253051758 112.956253051758 118.5625 121.943748474121 125.224998474121 127.84375 129.237503051758 131.318756103516 132.418746948242 134.09375 131.393753051758 131.09375 130.1875 127.050003051758 124.887496948242 121.175003051758 117.731246948242 113.862503051758 109.706253051758 106.525001525879 102.181251525879 99.4000015258789 97.7750015258789 96.3062515258789 96.5812530517578 97.7249984741211 99.53125 100.856246948242 101.275001525879 101.481246948242 100.893745422363 100.493751525879 101.050003051758 100.962501525879 99.8062515258789 98.2249984741211 97.7687530517578 96.4499969482422 94.375 92.9562530517578 
58.4124984741211 53.2000007629395 53.0750007629395 53.46875 58.6124992370605 67.75 75.875 83.5374984741211 92.1125030517578 100.606246948242 106.706253051758 110.724998474121 115.581253051758 121.125 123.724998474121 127.412498474121 129.949996948242 130.893753051758 132.737503051758 134.675003051758 134.393753051758 132.662506103516 131.699996948242 129.418746948242 127.356246948242 124.425003051758 120.381248474121 117.368751525879 113.043746948242 108.162498474121 104.431251525879 102.474998474121 99.3375015258789 96.8125 94.4749984741211 95.7062530517578 96.8312530517578 99.4000015258789 101.543746948242 101.931251525879 99.46875 98.8937454223633 98.6187515258789 99.7624969482422 101.543746948242 99.9875030517578 97.0437469482422 95.4312515258789 95.3937530517578 93.84375 93.3249969482422 
61.0499992370605 56.4937515258789 57.0062484741211 58.1437492370605 62.0687484741211 69.1999969482422 78.0124969482422 86.6875 94.15625 101.162498474121 108.050003051758 112.856246948242 118.181251525879 123.087501525879 126.087501525879 129.556243896484 132.399993896484 134.618743896484 135.899993896484 136.59375 135.300003051758 133.518753051758 130.78125 128.162506103516 126.650001525879 124.349998474121 120.418746948242 117.025001525879 111.868751525879 106.375 102.743751525879 99.4187469482422 96.7437515258789 94.6312484741211 92.5124969482422 92.5062484741211 93.8000030517578 97.4499969482422 101.474998474121 99.8499984741211 96.9437484741211 95.3624954223633 95.1500015258789 96.8000030517578 99.2937469482422 98.1062545776367 94.7750015258789 91.9749984741211 92 93.4312515258789 94.6187515258789 
64.1125030517578 60.03125 61.34375 64.5 69.1875 76.8937530517578 83.5687484741211 88.3625030517578 93.3562469482422 100.462501525879 108.800003051758 114.493751525879 120.131248474121 124.78125 128.850006103516 130.987503051758 133.774993896484 137.006256103516 138.899993896484 137.362503051758 136.387496948242 133.862503051758 130.956253051758 127.368751525879 125.199996948242 122.856246948242 118.262496948242 113.887496948242 109.681251525879 104.131248474121 100.212501525879 96.5 93.4875030517578 91.6062469482422 88.4499969482422 88.0062484741211 88.8000030517578 90.9749984741211 92.6187515258789 91.78125 89.1937484741211 87.6312484741211 87.6750030517578 88.5875015258789 90.8375015258789 90.3375015258789 88.4749984741211 87.1937484741211 87.6062469482422 89.9187469482422 91.9187469482422 
68.4000015258789 65.3187484741211 67.7125015258789 71.40625 76.4625015258789 83.5625 90.2624969482422 95.1125030517578 98.3000030517578 102.293746948242 110.068748474121 115.650001525879 122.456253051758 126.618751525879 130.28125 132.625 135.231246948242 138.4375 141.356246948242 139.643753051758 136.725006103516 134.831253051758 129.712493896484 127.599998474121 124.050003051758 120.34375 115.712501525879 112.143753051758 108.912498474121 103 99.5500030517578 93.46875 88.53125 84.34375 81.2624969482422 81.6875 82.4000015258789 82.8874969482422 82.8125 81.8125 79.6624984741211 78 78.0062484741211 78.8062515258789 79.3937530517578 79.6187515258789 79.5500030517578 78.6687469482422 79.8625030517578 83.6125030517578 88.9875030517578 
72.15625 70.1812515258789 73.375 77.6875 83.6750030517578 91.0749969482422 97.8187484741211 102.34375 106.03125 110.356246948242 115.75 119.381248474121 124.71875 129.524993896484 131.662506103516 134.524993896484 135.706253051758 138.600006103516 141.399993896484 141.912506103516 139.087493896484 134.78125 128.831253051758 125.331253051758 120.356246948242 116.581253051758 112.53125 109.087501525879 106 101.193748474121 95.3812484741211 88.8125 83.1875 79.2750015258789 75.8625030517578 75.2312469482422 75.4375 75.0187530517578 73.5687484741211 72.2312469482422 70.2062530517578 69.0625 67.0062484741211 67.1187515258789 68.1312484741211 69.4437484741211 69.3312530517578 68.7750015258789 69.4437484741211 71.9499969482422 75.8812484741211 
77.1937484741211 75.9437484741211 79.8000030517578 84.5187530517578 90.6750030517578 99.0812530517578 106.137496948242 109.237503051758 112.018753051758 116.212501525879 121.481246948242 125.3125 128.074996948242 130.774993896484 131.856246948242 133.537506103516 133.84375 136.693756103516 139.550003051758 141.587493896484 141.506256103516 137.125 130.018753051758 120.631248474121 116.90625 116.243751525879 112.443748474121 107.449996948242 102.712501525879 97.3125 91.5749969482422 84.8312530517578 79.0437469482422 74.1437530517578 70.2437515258789 68.7937469482422 68.0500030517578 66.8625030517578 65.8499984741211 63.5125007629395 60.7000007629395 59.0125007629395 58.2437515258789 56.8499984741211 57.0062484741211 59.8375015258789 58.75 57.5125007629395 57.53125 58.2125015258789 56.7937507629395 
81.8312530517578 81.21875 85.4499969482422 91.125 97.4937515258789 105.556251525879 113.137496948242 116.256248474121 117.699996948242 120.318748474121 125.025001525879 128.681243896484 128.78125 129.118743896484 131.481246948242 132.243743896484 132.962493896484 134.381256103516 137.306243896484 141.862503051758 144.100006103516 139.731246948242 131.425003051758 120.337501525879 114.806251525879 111.993751525879 107.368751525879 102.537498474121 97.0500030517578 91.7312469482422 85.7249984741211 79.3000030517578 73.59375 69.34375 66.2437515258789 64.4124984741211 62.9375 61.4437484741211 58.5999984741211 55.1875 51.9249992370605 49.8312492370605 49.03125 47.5062484741211 46.0812492370605 45.7249984741211 45.7937507629395 45.8624992370605 46.4124984741211 45.9000015258789 42.2562484741211 
86.0374984741211 85.9375 90.1500015258789 95.2375030517578 101.068748474121 108.393753051758 114.574996948242 117.818748474121 120.506248474121 123.381248474121 126.550003051758 129.618743896484 129.899993896484 126.631248474121 126.9375 128.837493896484 129.550003051758 131.53125 134.806243896484 138.912506103516 142.162506103516 139.506256103516 131.356246948242 121.03125 111.581253051758 107.068748474121 103.300003051758 98.8937530517578 93.7750015258789 87.5625 80.3937530517578 73.7562484741211 68.65625 63.71875 60.4562492370605 59.3812484741211 59.1875 58.2687492370605 56.0499992370605 50.5625 45.3312492370605 43.9249992370605 42.3875007629395 37.6312484741211 35.6375007629395 37.5750007629395 38.3499984741211 37.9000015258789 36.8375015258789 36.875 33.9749984741211 
89.7125015258789 89.8062515258789 93.40625 98.1437530517578 103.8125 109.400001525879 114.381248474121 118.568748474121 121.1875 124.375 126.131248474121 126.212501525879 125.981246948242 123.40625 121.118751525879 123.5 124.5625 126.074996948242 128.206253051758 132.137496948242 134.774993896484 132.237503051758 127.168746948242 120.824996948242 112.856246948242 106.518753051758 101.21875 95.53125 89.3625030517578 83.0124969482422 77.0749969482422 69.8937530517578 64.0749969482422 59.1312484741211 56.1187515258789 56.3875007629395 57.65625 58.9812507629395 57.5562515258789 52.9437484741211 44.0625 39.0250015258789 37.5437507629395 35.9562492370605 34.90625 35.0625 36.3687515258789 36.2874984741211 34.9187507629395 34.4937515258789 31.9750003814697 
93.40625 93.0749969482422 96.1875 100.543746948242 105.775001525879 109.131248474121 114.243751525879 117.599998474121 119.625 122.949996948242 123.293746948242 122.556251525879 121.212501525879 118.631248474121 115.200004577637 115.393753051758 117.137496948242 119.693748474121 121.018753051758 124.662498474121 127.525001525879 127.337501525879 125.143745422363 121.849998474121 117.712501525879 111.856246948242 104.349998474121 95.7312469482422 87.6999969482422 81.09375 72.9312515258789 65.7312469482422 60.7249984741211 55.625 51.3937492370605 53.3250007629395 58.2000007629395 63.9500007629395 65.5875015258789 60.2937507629395 52.4312515258789 45.7562484741211 42.4874992370605 39.2062492370605 36.7625007629395 36.0250015258789 35.8375015258789 36.40625 36.4124984741211 34.4000015258789 31.9562492370605 
96.1187515258789 95.5 98.7874984741211 102.525001525879 106.206253051758 110.168746948242 113.868751525879 116.4375 118.643753051758 121.368751525879 121.018753051758 118.9375 116.612503051758 114.106246948242 110.925003051758 108.09375 109.337501525879 113.0625 114.650001525879 118.5625 120.731246948242 123.268753051758 125.275001525879 125.362503051758 122.699996948242 115.793746948242 106.106246948242 97 88.6437530517578 80.4437484741211 73.5625 65.1875 58.7687492370605 54.15625 49.1312484741211 53.5875015258789 61.8562507629395 68.7625045776367 73.625 70.59375 64.7937469482422 55.5187492370605 47.5750007629395 41.3499984741211 38.7249984741211 37.0499992370605 36.9437484741211 36.7437515258789 35.96875 34.8812484741211 33.9937515258789 
97.4187469482422 97.3000030517578 100.775001525879 104.325004577637 107.387496948242 111.043746948242 114.099998474121 116.731246948242 118.262496948242 119.474998474121 119.349998474121 116.637496948242 112.862503051758 109.53125 108.181251525879 106.168746948242 103.318748474121 105.856246948242 109.381248474121 112.775001525879 114.737503051758 118.518753051758 124.25 128.462493896484 127.881248474121 118.387496948242 107.775001525879 98.25 89.8062515258789 81.9937515258789 76.1312484741211 70.3687515258789 62.9312515258789 57.2062492370605 56.3250007629395 59.8062515258789 66.7437515258789 78.5 88.8375015258789 81.2562484741211 70.6374969482422 59.7374992370605 49.4000015258789 43.2750015258789 40.1187515258789 38.4437484741211 37.6624984741211 38.1437492370605 38.65625 37.0499992370605 37.0062484741211 
99.0250015258789 99.2624969482422 101.662498474121 104.987503051758 108.675003051758 112.0625 114.1875 115.831253051758 117.65625 117.837501525879 117.1875 114.487503051758 110.612503051758 107.256248474121 105.631248474121 104.400001525879 102.056251525879 99.5124969482422 104.262496948242 106.775001525879 109.518753051758 112.375 118.756248474121 124.631248474121 125.868751525879 117.681251525879 108.762496948242 99.5625 90.3249969482422 81.4187469482422 74.8312530517578 69.2375030517578 69.0500030517578 68.8249969482422 65.2874984741211 64.5062484741211 73.28125 83.5562515258789 87.5437469482422 81.8062515258789 68.9437484741211 58.2625007629395 49.3375015258789 44.8062515258789 41.9249992370605 40.4187507629395 40.2062492370605 39.84375 40.3375015258789 38.5374984741211 39.4500007629395 
100.162498474121 100.037498474121 102.068748474121 105.706253051758 108.912498474121 112.0625 113.881248474121 116.262496948242 117.368751525879 117.28125 116.150001525879 112.837501525879 108.599998474121 105.418746948242 103.087501525879 102.931251525879 101.75 98.2437515258789 98.6812515258789 100.900001525879 105.512496948242 114.09375 111.337501525879 116.037498474121 119 117.318748474121 110.706253051758 101.21875 94.09375 84.0625 75.9312515258789 75.4437484741211 81.1125030517578 81.1062469482422 78.8687515258789 78.0500030517578 80.5187530517578 82.9312515258789 82.0124969482422 75.15625 64.6437530517578 55.7874984741211 48.7937507629395 45.1375007629395 43.4375 42.8062515258789 42.5875015258789 42.6500015258789 42.2687492370605 38.46875 41.1749992370605 
100.081253051758 100.862503051758 102.625 105.631248474121 108.90625 112.543746948242 114.962501525879 116.324996948242 118.550003051758 118.681251525879 117.712501525879 115.262496948242 111.53125 107.5 104.037498474121 101.96875 98.2437515258789 99.3562469482422 98.6437454223633 102.125 102.40625 104.25 110.46875 113.956253051758 115.025001525879 112.287498474121 107.875 103.537498474121 95.0500030517578 86.4124984741211 81.0749969482422 86.6812515258789 91.1062469482422 97.4937515258789 100.568748474121 95.5999984741211 89.7562484741211 84.8499984741211 79.09375 71.1125030517578 61.4124984741211 52.4937515258789 48.9937515258789 47.6812515258789 46.4000015258789 46.1375007629395 45.96875 45.4625015258789 43.9000015258789 40.65625 43.2750015258789 
97.90625 99.9437484741211 102.693748474121 105.875 109.012496948242 111.818748474121 114.849998474121 117.150001525879 120.675003051758 122.518753051758 122.099998474121 121.056251525879 117.487503051758 112.137496948242 109.243751525879 104.856246948242 101.012496948242 99.2937469482422 101.443748474121 101.474998474121 104.71875 108.78125 112.4375 115.425003051758 117.9375 116.318748474121 110.918746948242 104.356246948242 98.0687484741211 95.1437530517578 93.3625030517578 97.3249969482422 102.4375 110.3125 118.9375 109.40625 95.5 86.03125 77.8312530517578 70.1500015258789 62.8562507629395 56.4000015258789 52.5625 50.6875 49.7750015258789 49.6687507629395 49.0999984741211 48.4437484741211 45.1875 44.9249992370605 46.1749992370605 
96.6187515258789 97.8499984741211 100.65625 104.006248474121 108.175003051758 112.09375 115.125 118.800003051758 123.25 126.337501525879 127.393753051758 127.556251525879 126.318748474121 122.349998474121 118.599998474121 112.681251525879 108.5625 105.918746948242 107.162498474121 106.893753051758 106.087501525879 108.787498474121 111.75 114.074996948242 115.275001525879 115.074996948242 113.893753051758 108.637496948242 105.78125 104.231246948242 102.925003051758 104.368751525879 108.15625 113.824996948242 114.425003051758 107.224998474121 94.8187484741211 85.7874984741211 77.5250015258789 71.0374984741211 65.6437530517578 61.0750007629395 58.4000015258789 56.3187484741211 55.0062484741211 54.7750015258789 53.6124992370605 51.8687515258789 48.9312515258789 49.75 49.5187492370605 
95.6125030517578 98.1999969482422 100.1875 103.668746948242 107.65625 111.699996948242 115.912498474121 120.356246948242 126.800003051758 130.293746948242 134.368743896484 136.324996948242 138.418746948242 135.918746948242 128.987503051758 122.168746948242 116.175003051758 113.699996948242 112.199996948242 111.28125 110.03125 111.224998474121 112.131248474121 112.300003051758 114.1875 114.275001525879 113.09375 112.331253051758 110.112503051758 108.143753051758 108.150001525879 109.856246948242 111 111.71875 108.5 99.4812469482422 90.90625 83.3062515258789 76.9937515258789 73.0875015258789 70.1812515258789 66.4875030517578 63.9000015258789 61.7437515258789 60.2937507629395 60.2750015258789 58.7937507629395 56.7999992370605 54.65625 54.5562515258789 55.0062484741211 
95.3187484741211 96.6750030517578 99.1937484741211 101.912498474121 105.056251525879 110.71875 115.962501525879 120.862503051758 127.574996948242 132.381256103516 136.65625 142.050003051758 147.887496948242 145.306243896484 136.631256103516 128.65625 122.537498474121 119.431251525879 117.381248474121 115.03125 113.381248474121 112.706253051758 113.862503051758 114.006248474121 114.543746948242 113.268753051758 111.956253051758 111.318748474121 111.943748474121 111.056251525879 110.675003051758 112.09375 111.212501525879 109.78125 106.068748474121 96.7312469482422 90.1312484741211 85.25 80.3187484741211 78.125 75.5999984741211 72.4499969482422 70.5812530517578 68.7375030517578 68.6312484741211 67.6374969482422 65.7750015258789 61.53125 61.4625015258789 59.40625 60.5750007629395 
96.0687484741211 96.6500015258789 98.2125015258789 100.287498474121 106 111.375 116.5 121.931251525879 128.318756103516 134.324996948242 139.668746948242 143.649993896484 147.512496948242 146.931243896484 140.675003051758 133.306243896484 127.78125 123.550003051758 120.53125 118.525001525879 116.868751525879 115.237503051758 116.71875 116.737503051758 114.706253051758 114.631248474121 113.256248474121 112.943748474121 113.412498474121 113.331253051758 112.512496948242 112.712501525879 112.650001525879 110.556251525879 106.050003051758 98.6500015258789 94.375 90.4937515258789 86.0437469482422 83.6187515258789 81.2562484741211 79.2062530517578 77.6937484741211 77.7125015258789 78.2375030517578 77.5500030517578 69.96875 69.7249984741211 67.8937530517578 64.7874984741211 67.1500015258789 
98.7562484741211 100.28125 100.175003051758 102.831253051758 106.400001525879 111.525001525879 117.337501525879 122.800003051758 128.949996948242 135.443756103516 139.600006103516 143.462493896484 146.231246948242 145.737503051758 141.556243896484 136.081253051758 130.699996948242 127.099998474121 123.599998474121 120.962501525879 119.099998474121 117.112503051758 118.487503051758 118.493751525879 116.724998474121 115.137496948242 115.387496948242 116.25 115.931251525879 115.768753051758 114.824996948242 115.268753051758 113.262496948242 111.043746948242 108.293746948242 104.6875 100.324996948242 96.9562530517578 94.0562515258789 90.9499969482422 89.2687530517578 86.7937469482422 85.2437515258789 85.9250030517578 88.7687530517578 81.9562530517578 79.625 78.3375015258789 75.90625 74.6312484741211 75.1312484741211 
102.243751525879 102.231246948242 102.71875 105.168746948242 107.6875 112.768753051758 117.724998474121 122.193748474121 126.712501525879 132.699996948242 137.981246948242 141.512496948242 143.118743896484 143.243743896484 140.137496948242 135.71875 132.375 128.112503051758 125.012496948242 122.418746948242 121.0625 119.112503051758 119.53125 121.387496948242 119.143753051758 117.9375 118.131248474121 117.668746948242 117.462501525879 116.912498474121 115.918746948242 115.050003051758 115.431251525879 114.162498474121 111.53125 109.4375 106.918746948242 103.756248474121 101.112503051758 98.6062469482422 96.0749969482422 94.1937484741211 93.1875 92.2750015258789 91.6999969482422 92.1312484741211 90.1125030517578 85.9499969482422 83.9749984741211 80.78125 79.5250015258789 
105.568748474121 105.168746948242 106.125 107.106246948242 109.712501525879 113.699996948242 118.318748474121 122.425003051758 125.974998474121 131.574996948242 135.993743896484 138.725006103516 140.162506103516 141.456253051758 138.449996948242 134.893753051758 131.706253051758 128.243743896484 125.431251525879 124.025001525879 122.487495422363 121.137496948242 121.443748474121 122.493751525879 122.081253051758 120.493751525879 120.050003051758 119.53125 119.112503051758 119.131248474121 117.112503051758 116.306251525879 117.78125 117.118751525879 116.018753051758 114.40625 114.099998474121 112.568748474121 110.037498474121 107.40625 104.987503051758 103.318748474121 100.0625 99.7562484741211 100.28125 100.59375 97.8062515258789 94.7687530517578 90.9812469482422 86.2437515258789 84.40625 
109.193748474121 107.943748474121 107.787498474121 108.275001525879 110.025001525879 113.162498474121 116.987503051758 121.206253051758 124.993751525879 129.368743896484 133.09375 134.987503051758 137.756256103516 138.131256103516 135.543746948242 134.618743896484 133.743759155273 127.931251525879 125.162498474121 124.237503051758 123.612503051758 123.168746948242 123.931251525879 125.050003051758 123.462501525879 122.806251525879 122.15625 122.1875 122.787498474121 121.012496948242 118.324996948242 117.256248474121 118.418746948242 119.550003051758 121.256248474121 120.137496948242 121.474998474121 121.887496948242 120.237503051758 117.412498474121 112.131248474121 108.337501525879 106.824996948242 107.300003051758 109.162498474121 107.368751525879 104.737503051758 101.987503051758 97.3499984741211 92.59375 87.5812530517578 
111.706253051758 109.574996948242 107.574996948242 107.043746948242 107.693748474121 110.762496948242 114.362503051758 118.0625 121.375 124.787498474121 127.925003051758 131 133.5 134.675003051758 134.3125 132.731246948242 130.943756103516 127.724998474121 124.337501525879 123.375 123.806251525879 124.724998474121 124.75 124.900001525879 125.03125 125.606246948242 124.243751525879 123.168746948242 122.193748474121 121.556251525879 120.756248474121 120.375 121.287498474121 122.824996948242 125.412498474121 125.9375 128.324996948242 131.293746948242 127.868751525879 127.543746948242 124.381248474121 119.487503051758 115.737503051758 115.5 114.4375 113.118751525879 111.418746948242 108.550003051758 102.987503051758 98.03125 92.2437515258789 
111.849998474121 109.193748474121 107.787498474121 105.6875 105.981246948242 108.987503051758 111.21875 114.21875 117.606246948242 121.074996948242 123.824996948242 126.612503051758 131.456253051758 132.59375 131.931243896484 130.675003051758 130.71875 128.143753051758 125.006248474121 125.025001525879 125.449996948242 127.162506103516 127.887496948242 127.3125 126.71875 127.337501525879 125.675003051758 123.993751525879 122.831253051758 121.006248474121 121.793746948242 122.5 123.599998474121 127.393753051758 130.574996948242 130.53125 133.862503051758 138.5625 138.418746948242 138.243743896484 135.175003051758 129.4375 124.724998474121 122.887496948242 120.237503051758 119.331253051758 117.112503051758 113.90625 108.925003051758 103.856246948242 98.6312484741211 
112.181251525879 107.668746948242 105.5 104 104.837501525879 106.543746948242 108.737503051758 111.400001525879 114.800003051758 117.587501525879 120.606246948242 123.287498474121 126.037498474121 129.28125 130.574996948242 132.03125 131.5625 129.706253051758 128.481246948242 129.625 130.599990844727 129.849990844727 130.712493896484 129.212493896484 130.274993896484 128.443756103516 125.712501525879 125.09375 123.618751525879 122.599998474121 123.631248474121 123.59375 125.824996948242 129.699996948242 132.949996948242 133.743759155273 137.375 141.149993896484 142.268753051758 143.306243896484 142.643753051758 137.206253051758 133.09375 130.087509155273 128.412506103516 129.018753051758 126.362503051758 122.78125 116.125 109.900001525879 105.237503051758 
106.6875 103.574996948242 101.40625 100.618751525879 101.331245422363 103.337501525879 105.962501525879 107.8125 110.762496948242 112.881248474121 118.668746948242 120.46875 123.956253051758 129.675003051758 131.40625 134.074996948242 135.024993896484 135.556243896484 134.90625 136.006256103516 135.537506103516 134.3125 132.6875 131.131256103516 131.1875 128.5625 125.824996948242 124.574996948242 123.1875 124.337501525879 124.856246948242 125.693748474121 127.21875 130.925003051758 135.03125 136.100006103516 138.681243896484 140.475006103516 142.306243896484 145.556243896484 146.193756103516 142.368743896484 139.600006103516 136.574996948242 136.631256103516 139.100006103516 138.25 130.681243896484 123.900001525879 117.362503051758 112.131248474121 
99.6500015258789 98.0749969482422 97.5437469482422 97.2624969482422 97.6624984741211 99.7437515258789 102.668746948242 104.731246948242 106.762496948242 109.837501525879 113.662498474121 118.881248474121 122.918746948242 126.724998474121 130.887496948242 134.412506103516 138.512496948242 140.331253051758 141.418746948242 142.59375 141.324996948242 138.431243896484 135.5625 132.356246948242 130.262496948242 127.393753051758 124.650001525879 123.231246948242 121.568748474121 123.112503051758 125.118751525879 126.887504577637 128.824996948242 131.793746948242 135.737503051758 139.225006103516 139.981246948242 141.118743896484 143.899993896484 146.043746948242 147.125 146.850006103516 146.368743896484 144.431243896484 145.068756103516 146.206253051758 143.975006103516 137.100006103516 129.775009155273 122.331253051758 117.512496948242 
93.3562469482422 92.5999984741211 92.9250030517578 93.8375015258789 94.78125 96.4000015258789 99.5374984741211 101.737503051758 102.9375 106.0625 110.96875 117.462501525879 122.224998474121 126.849998474121 131.699996948242 136.8125 141.449996948242 143.362503051758 147.324996948242 148.350006103516 147.100006103516 143.087493896484 137.637496948242 132.887496948242 128.462493896484 126.28125 124.193748474121 121.84375 120.137496948242 121.743751525879 124.268753051758 126.012496948242 128.475006103516 131.699996948242 134.712493896484 136.649993896484 138.868743896484 142.462493896484 144.400009155273 147.456253051758 147.006256103516 146.425003051758 148.475006103516 147.068756103516 148.068756103516 148.456253051758 146.649993896484 140.606246948242 134.518753051758 126.925003051758 121.125 
86.0500030517578 85.3937530517578 86.4749984741211 87.7249984741211 88.96875 91.3249969482422 93.5687484741211 96.8499984741211 99.2312469482422 102.400001525879 108.15625 114.493751525879 121.09375 127.15625 132.331253051758 138.1875 142.993743896484 146.487503051758 150.631256103516 153.756256103516 150.137496948242 145.118743896484 137.737503051758 131.506256103516 127.243751525879 124.199996948242 121.4375 119.618751525879 118.324996948242 119.681251525879 122.456253051758 124.856246948242 126.4375 129.46875 132.15625 133.293746948242 137.662506103516 140.356246948242 142.28125 144.581253051758 146.293746948242 145.556243896484 145.774993896484 145.662506103516 146.356246948242 145.449996948242 143.431243896484 141.743743896484 136.306243896484 128.806243896484 123.881248474121 
78.71875 78.6687545776367 79.71875 80.8187484741211 83.0187530517578 85.6687469482422 88.6187515258789 91.8312530517578 95.4812469482422 98.5374984741211 105.900001525879 115.9375 122.800003051758 128.568756103516 134.331253051758 139.34375 144.774993896484 147.018753051758 149.875 152.0625 149.78125 142.46875 135.25 128.40625 123.9375 121.087501525879 118.056251525879 115.956253051758 114.993751525879 117.012496948242 119.606246948242 122.418754577637 124.800003051758 127.668754577637 130.206253051758 132.449996948242 135.868743896484 139.381256103516 140.256256103516 141.462493896484 142.793746948242 141.856246948242 143.112503051758 144.024993896484 145.943756103516 143.643753051758 143.40625 142.856246948242 135.793746948242 130.293746948242 124.074996948242 
71.46875 72.1187515258789 73.5250015258789 74.5625 77.0374984741211 80.4812469482422 84.0749969482422 88.1374969482422 93.1937484741211 97.2562484741211 111.15625 120.618751525879 125.699996948242 130.356246948242 135.556243896484 140.862503051758 143.806243896484 145.743743896484 146.112503051758 145.837493896484 144.006256103516 137.481246948242 131.118743896484 124.40625 119.556251525879 116.25 114.40625 113.050003051758 112.34375 114.675003051758 115.631248474121 118.21875 120.943748474121 125.331253051758 128.481246948242 128.78125 132.024993896484 135.137496948242 138.268753051758 140.149993896484 139.399993896484 141.143753051758 139.824996948242 139.675003051758 141.050003051758 140.274993896484 141.806243896484 142.5625 133.956253051758 129.068756103516 123.9375 
65.4187469482422 65.9187469482422 67.4749984741211 69.2937469482422 71.2750015258789 74.90625 79.4625015258789 84.6500015258789 91.8062515258789 102.606246948242 118.025001525879 123.293746948242 125.9375 131.375 135.837493896484 140.112503051758 142.90625 143.118743896484 141.243743896484 139.787506103516 136.449996948242 130.581253051758 125.262496948242 119.4375 114.918746948242 111.40625 109.868751525879 109.693748474121 109.849998474121 112.487503051758 114.681251525879 116.262496948242 118.668746948242 120.5 123.4375 124.856246948242 127.856246948242 130.5 133.675003051758 133.612503051758 133.649993896484 135.53125 134.274993896484 134.050003051758 135.012496948242 134.393753051758 131.862503051758 133.800003051758 129.931243896484 127.8125 121.287498474121 
58.5687484741211 59.0625 61.1187515258789 63.1749992370605 65.6687469482422 69.8687515258789 74.0625 80.1750030517578 88.4124984741211 99.6812515258789 110.668746948242 118.137496948242 124.181251525879 130.393753051758 135.762496948242 138.899993896484 141.40625 139.943756103516 138 134.318756103516 129.100006103516 123.474998474121 117.481246948242 112.481246948242 109.068748474121 106.412498474121 105.331245422363 106.3125 106.462501525879 109.731246948242 110.125 112.618751525879 116.162498474121 117.893753051758 120.193748474121 122.106246948242 123.681251525879 126.837501525879 128.96875 126.631248474121 127.1875 129.65625 128.612503051758 127.231246948242 127.325004577637 125.724998474121 125.949996948242 127.256248474121 126.03125 125.118751525879 120.462501525879 
52.2750015258789 53.0812492370605 55.3187484741211 57.6375007629395 60.0374984741211 64.1125030517578 69.3062515258789 75.4937515258789 83.34375 92.8062515258789 101.993751525879 111.143753051758 120.568748474121 127.381248474121 132.918746948242 136.856246948242 139.256256103516 138.887496948242 134.943756103516 128.931243896484 123.349998474121 115.71875 109.643745422363 104.900001525879 103.087501525879 101.543746948242 102.018753051758 102.756248474121 103.824996948242 106.018753051758 108.206253051758 112.0625 115.25 117.556251525879 119.53125 120.525001525879 121.412498474121 122.918746948242 124.943748474121 122.275001525879 122.4375 123.287498474121 122.212501525879 120.40625 120.324996948242 120.712501525879 121.487503051758 121.206253051758 123.131248474121 121.462501525879 120.018753051758 
47.6500015258789 48.40625 50.5687484741211 52.7062492370605 55.2937507629395 59.1312484741211 64.125 69.9562530517578 77.8062515258789 86.3000030517578 95.4749984741211 105.15625 115.15625 123.462501525879 128.862503051758 134.118743896484 137.53125 137.431243896484 133.706253051758 126.006248474121 116.831253051758 110.162498474121 102.53125 98.3812484741211 99.09375 98.3062515258789 98.2687530517578 99.1624984741211 101.90625 105.512496948242 105.806251525879 110.324996948242 112.650001525879 118.368751525879 120.831253051758 118.699996948242 118.756248474121 119.731246948242 119.768753051758 117.631248474121 117.356246948242 116.268753051758 113.875 113.925003051758 114.231246948242 115.875 114.868751525879 114.699996948242 119.800003051758 117.5 115.275001525879 
43.0687484741211 43.8250007629395 46.1437492370605 48.1812477111816 50.5125007629395 54.2312507629395 58.875 64.4375 71.6374969482422 80.1437530517578 89.4812469482422 98.8125 108.231254577637 117.387504577637 125.212501525879 131.393753051758 136.318756103516 137.193756103516 133.925003051758 123.168754577637 111.318748474121 101.78125 96.5437469482422 95.9375 95.5187530517578 95.2437515258789 95.25 96.3249969482422 98.65625 101.912498474121 103.118751525879 105.831253051758 109.262496948242 113.5625 119.793754577637 120.099998474121 116.125 116.193748474121 115.056251525879 113.4375 112.081253051758 111.262496948242 109.550003051758 108.331253051758 109.081253051758 108.993751525879 110.118751525879 110.112503051758 114.28125 113.199996948242 110.900001525879 
38.8624992370605 39.5437507629395 41.625 43.2750015258789 45.1187515258789 49.0250015258789 52.9437484741211 57.9500007629395 65.3375015258789 73.9250030517578 82.9812469482422 92.7624969482422 103.25 111.675003051758 120.556251525879 127.393753051758 132.975006103516 135.081253051758 134.65625 122.949996948242 108.956253051758 98.1437530517578 92.1875 91.6374969482422 92.5062484741211 92.9000015258789 93.40625 94.0749969482422 95.5999984741211 98.9437484741211 100.449996948242 102.6875 105.043746948242 108.875 116.631248474121 122.275001525879 115.806251525879 112.8125 113.006248474121 109.65625 107.974998474121 106.618751525879 105.03125 104.643753051758 105.1875 103.924995422363 104.193748474121 104.931251525879 105.949996948242 108.612503051758 106.712501525879 
35.8125 36.7374992370605 39.0875015258789 40 41.9749984741211 45.1437492370605 48.4124984741211 52.8624992370605 59.9187507629395 68.3687515258789 77.4187469482422 87.5 98.4000015258789 108.162498474121 116.775001525879 123.193748474121 128.393753051758 129.71875 128.324996948242 120.762496948242 106.606246948242 97.6999969482422 91.0374984741211 89.3125 90.3125 91.3125 91.4375 92.4375 94.9000015258789 97.7312469482422 98.3499984741211 100.706253051758 102.856246948242 104.856246948242 109.456253051758 115.675003051758 112.806251525879 109.887496948242 108.800003051758 107.368751525879 106.0625 104.518753051758 102.5625 100.893753051758 100.512496948242 99.8187484741211 100.556251525879 101.293754577637 100.106246948242 103.78125 103.137496948242 
