ncols        51
nrows        45
xllcorner    -63.500000000000
yllcorner    -7.500000000000
cellsize     0.166666666667
NODATA_value -99
237.543746948242 237.637496948242 234.712493896484 235.706253051758 233.574996948242 236.293746948242 236.837493896484 233.318756103516 228.0625 226.806243896484 230.668746948242 230.074996948242 227.875 217.768753051758 208.050003051758 198.537506103516 190.606246948242 179.3125 173.225006103516 168.537506103516 168.112503051758 168.387496948242 170.475006103516 171.818756103516 173.881256103516 176.306243896484 177.600006103516 178.662506103516 179.899993896484 179.168746948242 178.831253051758 179.03125 180.337493896484 182.418746948242 185.4375 189.743743896484 192.625 194.993743896484 197.956253051758 199.274993896484 201.625 203.168746948242 203.006256103516 205.675003051758 206.118743896484 207.762496948242 209.5 212.581253051758 215.65625 221.956253051758 228.53125 
247.743743896484 246.96875 246.78125 245.6875 245.850006103516 251.756256103516 254.137496948242 257.225006103516 258.287506103516 258.243743896484 258.950012207031 253.681243896484 247 237.40625 225.368743896484 213.137496948242 202.493743896484 190.524993896484 181.40625 173.649993896484 172.012496948242 172.518753051758 174.024993896484 174.949996948242 175.756256103516 177.925003051758 178.75 180.34375 181.462493896484 181.59375 181.100006103516 183.118743896484 186.375 191 194.975006103516 199.356246948242 202.550003051758 204.606246948242 207.15625 208.212493896484 209.943756103516 210.737503051758 209.787506103516 211.25 211.331253051758 213.199996948242 215.012496948242 217.106246948242 221.824996948242 228.612503051758 234.53125 
258.987487792969 258.387512207031 257.412506103516 256.737487792969 258.112487792969 264.225006103516 271.387512207031 280.056243896484 285.931243896484 286.912506103516 284.512512207031 276.024993896484 265.868743896484 253.418746948242 238.556243896484 224.125 211.131256103516 200.318756103516 191.143753051758 183.856246948242 182.399993896484 184.168746948242 184.8125 184.693756103516 186 186.068756103516 186.643753051758 188.387496948242 188.4375 188.518753051758 189.96875 192.300003051758 196.631256103516 200.4375 205.59375 208.668746948242 212.081253051758 215.231246948242 216.612503051758 217.393753051758 218.356246948242 217.912506103516 216.356246948242 215.181243896484 215.90625 217.756256103516 219.96875 221.524993896484 225.668746948242 231.868759155273 238.368743896484 
267.587493896484 267.512512207031 268.0625 267.837493896484 272.731262207031 278.299987792969 288.274993896484 301.168762207031 311.700012207031 315.75 310.681243896484 296.725006103516 280.774993896484 264.956237792969 248.743743896484 232.84375 218.837493896484 207.206253051758 199.899993896484 196.175003051758 196.100006103516 197.0625 196.693756103516 195.793746948242 195.199996948242 194.287506103516 195.481246948242 196.46875 196.268753051758 197.731246948242 199.306243896484 203.706253051758 207.231246948242 211.574996948242 215.681243896484 219.625 222.918746948242 225.449996948242 227.487503051758 228.212493896484 227.206253051758 225.662506103516 223.225006103516 220.362503051758 220.53125 220.787506103516 223.3125 225.087493896484 227.46875 233.456253051758 241.293746948242 
282.331237792969 278.762512207031 275.631256103516 276.725006103516 282.643737792969 290.706237792969 300.793762207031 317.737487792969 335.625 345.268737792969 332.081237792969 310.725006103516 293.268737792969 276.337493896484 257.493743896484 240.631256103516 226.262496948242 214.606246948242 209.925003051758 208.568756103516 209.518753051758 208.975006103516 208.75 207.106246948242 204.787506103516 203.112503051758 202.243743896484 202.40625 204.543746948242 207.28125 210.3125 213.987503051758 218.818756103516 223.34375 227.21875 231.037506103516 234.981246948242 237.893753051758 239.693756103516 238.837493896484 237.681243896484 233.90625 229.287506103516 225.368743896484 223.581253051758 224.731246948242 226.793746948242 229.068756103516 230.662506103516 235.525009155273 243.900009155273 
293.068756103516 291.125 286.21875 284.962493896484 289.862487792969 300.125 312.587493896484 329.399993896484 349.356262207031 363.631256103516 345.318756103516 322.1875 304.637512207031 288.512512207031 270.881256103516 255.925003051758 240.831253051758 230.337509155273 227.287506103516 226.90625 225.768753051758 224.40625 223.15625 220.106246948242 216.443756103516 214.912506103516 214.606246948242 214.456253051758 215.787506103516 218.506256103516 221.675003051758 225.368743896484 228.693756103516 234.712493896484 239.112503051758 242.8125 247.09375 250.199996948242 252.668746948242 251.449996948242 247.725006103516 242.425003051758 236.681243896484 231.425003051758 226.818756103516 227.662506103516 231.287506103516 234.143753051758 234.5 236.53125 239.956253051758 
304.643737792969 302.443756103516 298.337493896484 294.5625 297.606262207031 305.549987792969 316.543762207031 328.0625 341.25 345.674987792969 339.118743896484 324.962493896484 310.831237792969 297.456237792969 283.65625 270.956237792969 259.881256103516 253.806259155273 250.925003051758 247.518753051758 242.449996948242 239.481246948242 235.481246948242 231.506256103516 229.787506103516 227.268753051758 227.21875 228.056243896484 227.712493896484 229.53125 233.681243896484 237.287506103516 241.074996948242 244.018753051758 247.96875 253.456253051758 257.618743896484 261.606262207031 265.537506103516 263.725006103516 257.274993896484 251.03125 244.675003051758 238.137496948242 232.037506103516 231.8125 235.362503051758 237.912506103516 235.818756103516 235.706253051758 239.387496948242 
315.225006103516 310.818756103516 306.331237792969 305.243743896484 307.193756103516 311.262512207031 315.987487792969 319.737487792969 322.318756103516 324.743743896484 327.625 323.75 315.706237792969 304.5 294.024993896484 285.049987792969 277.21875 275.475006103516 274.975006103516 267.481262207031 258.318756103516 252.556243896484 247.081253051758 243.537506103516 241.806243896484 239.331253051758 239.443756103516 239.681243896484 240.443756103516 241.899993896484 244.162506103516 248.28125 251.462493896484 254.550003051758 257.556243896484 261.993743896484 266.424987792969 270.162506103516 272.78125 271.34375 266.137512207031 260.193756103516 253.487503051758 245.518753051758 240.425003051758 239.862503051758 240.0625 238.024993896484 238.4375 235.331253051758 236.024993896484 
325.362487792969 320.799987792969 316.018737792969 314.837493896484 315.03125 315.299987792969 317.600006103516 317.162506103516 313.743743896484 314.956237792969 322 324.424987792969 320.618743896484 312.818756103516 304.731262207031 299.206237792969 293.481262207031 290.806243896484 290.131256103516 280.987487792969 269.375 262.587493896484 257.162506103516 256.143737792969 254.5 251.831253051758 250.787506103516 250.600006103516 251.59375 252.168746948242 254.243743896484 257.725006103516 260.112487792969 262.100006103516 264.475006103516 269.537506103516 274.181243896484 278 281.225006103516 280.543762207031 276.075012207031 270.756256103516 265.106262207031 258.174987792969 254.737503051758 252.587493896484 250.568756103516 246.262496948242 241.149993896484 235.143753051758 232.418746948242 
334.868743896484 330.206237792969 326.037506103516 323.362487792969 321.787506103516 320.575012207031 322.299987792969 321.431243896484 321.612487792969 323.493743896484 329.318756103516 329.368743896484 328 320.981262207031 316.03125 310.987487792969 305.862487792969 301.256256103516 295.024993896484 286.75 276.862487792969 271.03125 267.356262207031 268.881256103516 267.5 264.287506103516 263.375 261.774993896484 263.024993896484 263.074981689453 263.075012207031 265.106262207031 267.262512207031 269.9375 272.587493896484 277.256256103516 282.075012207031 285.118743896484 288.256256103516 289.15625 287.087493896484 283.006256103516 277.137512207031 269.681243896484 268.493743896484 268.512481689453 264.774993896484 257.668762207031 249.318756103516 239.618743896484 231.300003051758 
342.618743896484 337.575012207031 333.256256103516 330.012512207031 327.200012207031 325.71875 326.674987792969 328.075012207031 330.481262207031 333.931243896484 339.768737792969 340.28125 337.131256103516 330.28125 326.274993896484 321.987487792969 316.193756103516 308.049987792969 298.90625 290.5625 280.850006103516 275.950012207031 275.837493896484 276.756256103516 279.59375 276.181243896484 273.825012207031 272.925018310547 272.456237792969 271.15625 271.118743896484 272.0625 273.368743896484 275.743743896484 279.481262207031 284.837493896484 288.412506103516 292.556243896484 295.756256103516 296.4375 295.424987792969 291.59375 286.581237792969 280.0625 279.137512207031 281.075012207031 275.75 264.487487792969 254.793746948242 245.868743896484 234.087493896484 
349.106262207031 343.75 338.568756103516 335.575012207031 333.3125 331.862487792969 332.737487792969 336.362487792969 339.243743896484 343.325012207031 349.912506103516 352.981262207031 349.024993896484 341.825012207031 337.462493896484 331.125 324.181243896484 313.174987792969 301.318756103516 290.706237792969 280.4375 277.287506103516 281.431243896484 287.34375 290.037506103516 284.912506103516 281.174987792969 279.443756103516 278.856262207031 278.137512207031 277.481262207031 276.993743896484 278.25 280.112487792969 283.399993896484 289.15625 294.762512207031 299.506256103516 303.043762207031 304.4375 304.412506103516 299.962493896484 292.450012207031 283.493743896484 281.018737792969 277.881256103516 271.600006103516 266.899993896484 259.174987792969 250.681243896484 238.149993896484 
351.125 346.825012207031 342.768737792969 339.668762207031 338.868743896484 338.350006103516 340.3125 343.318756103516 346.09375 351.762512207031 358.075012207031 362.96875 360.481262207031 352.112487792969 346.293762207031 338.112487792969 329.868743896484 318.668731689453 306.96875 294.537506103516 281.018737792969 279.28125 285.712493896484 291.575012207031 291.868743896484 287.543762207031 286.018737792969 284.725006103516 283.737487792969 282.881256103516 282.024993896484 281.087493896484 280.774993896484 282.75 286.143737792969 291.643737792969 297.475006103516 304.418762207031 309.106262207031 311.40625 313.081237792969 307.087493896484 295.274993896484 283.443756103516 278.40625 275.768737792969 270.75 264.381256103516 259.206237792969 254.981246948242 249.050003051758 
351.456237792969 347.731262207031 344.375 342.181243896484 342.512512207031 342.443756103516 345.706237792969 349.075012207031 352.462493896484 356.9375 361.6875 365.631256103516 364.899993896484 360.456237792969 352.118743896484 344.193756103516 334.412506103516 324.181243896484 312.668762207031 302.443756103516 292.975006103516 289.893737792969 292.024993896484 293.568756103516 292.731262207031 289.524993896484 289.162506103516 288.200012207031 287.837493896484 285.5 284.299987792969 282.481262207031 281.631256103516 283.487487792969 286.399993896484 292.725006103516 300.706237792969 309.037506103516 315.71875 318.65625 317.943756103516 307.049987792969 295.581237792969 285.181243896484 280.818756103516 276.287506103516 272.087493896484 269.3125 263.512512207031 262.056243896484 262.100006103516 
352.518737792969 348.068756103516 345.356262207031 345.006256103516 344.318756103516 345.649993896484 350.018737792969 353.049987792969 357.068756103516 361.143737792969 363.987487792969 368.1875 368.174987792969 364.581237792969 356.618743896484 347.412506103516 338.237487792969 328.125 318.28125 310.5625 303.03125 298.149993896484 297.331237792969 296.881256103516 294.856262207031 293.293762207031 293.21875 291.893737792969 291.118743896484 288.818756103516 285.368743896484 281.700012207031 280.581237792969 280.84375 283.543762207031 289.668762207031 300.024993896484 311.293762207031 319.174987792969 321.456237792969 316.46875 307.549987792969 297.96875 287.28125 282.125 277.637512207031 274.399993896484 272.606262207031 270.931243896484 268.493743896484 269.143737792969 
351.643737792969 346.793762207031 344.731262207031 344.774993896484 345.418762207031 347.350006103516 351.768737792969 354.293762207031 359.149993896484 364.59375 367.875 372.481262207031 373.350006103516 369.443756103516 360.862487792969 348.862487792969 341.149993896484 333.350006103516 325.46875 319.0625 310.993743896484 305.037506103516 302.125 301.600006103516 298.28125 295.512512207031 294.649993896484 294.475006103516 294.700012207031 292.037506103516 288.237487792969 282 276.899993896484 274.762512207031 274.975006103516 282.418762207031 295.043762207031 310.043762207031 321.668762207031 324.543762207031 318.893737792969 308.487487792969 297.6875 286.8125 280.387512207031 276.018737792969 272.112487792969 270.362487792969 269.787506103516 268.90625 268.806243896484 
347.325012207031 344.068756103516 342.287506103516 342.806243896484 344.462493896484 347.068756103516 351.506256103516 355.118743896484 360.618743896484 366.962493896484 372.337493896484 378.34375 380.762512207031 377.756256103516 367.893737792969 354.918762207031 344.087493896484 335.6875 328.543762207031 323.475006103516 316.78125 310.59375 305.831237792969 304.637512207031 302.068756103516 296.987487792969 294.606262207031 295.756256103516 297.625 296.306243896484 291.375 283.181243896484 274.368743896484 266.012512207031 264.418762207031 271.8125 285.65625 306.743743896484 326.293762207031 325.368743896484 316.068756103516 305.268737792969 293.106262207031 282.15625 277.0625 273.268737792969 268.762512207031 268.225006103516 270.012512207031 267.987487792969 267.118743896484 
339.96875 337.75 338.118743896484 340.162506103516 342.299987792969 345.600006103516 350.743743896484 355.112487792969 360.9375 367.212493896484 374.1875 383.231262207031 389.024993896484 386.674987792969 376.481262207031 362.868743896484 346.9375 332.806243896484 326.987518310547 321.368743896484 317.125 310.299987792969 303.018737792969 300.456237792969 298.481262207031 295.131256103516 292.506256103516 295.625 299.6875 299.706237792969 293.950012207031 279.700012207031 267.71875 256.737487792969 251.331253051758 255.199996948242 273.331237792969 294.818756103516 312.443756103516 314.693756103516 306.418762207031 296.431243896484 286.143737792969 277.137512207031 273.024993896484 268.743743896484 266.075012207031 266.081237792969 267.1875 265.068756103516 265.475006103516 
331.287506103516 330.4375 331.731262207031 333.618743896484 336.90625 342.556243896484 347.53125 353.549987792969 360.6875 366.818756103516 375.149993896484 385.28125 394.262512207031 397.34375 384.543762207031 365.681243896484 346.84375 328.881256103516 319.4375 314.512512207031 311.943756103516 306.15625 294.799987792969 292.837493896484 292.53125 292.556243896484 293.068756103516 296.768737792969 302.5 304.524993896484 299.649993896484 282.568756103516 264.956237792969 247.112503051758 236.1875 241.100006103516 259.200012207031 279.037506103516 294.0625 297.71875 293.743743896484 285.112487792969 277.606262207031 271.0625 268.043762207031 265.412506103516 263.193756103516 263.387512207031 264.412506103516 259.731262207031 263.256256103516 
322.725006103516 321.3125 323.15625 325.681243896484 330.556243896484 337.53125 344.475006103516 349.918762207031 357.206237792969 363.837493896484 371.418762207031 382.649993896484 395.856262207031 405.881256103516 388.774993896484 361.518737792969 337.9375 321.337493896484 310.850006103516 304.993743896484 298.693756103516 290.850006103516 284.8125 284.3125 285.762512207031 287.725006103516 291.424987792969 297.59375 302.268737792969 303.512512207031 296.975006103516 283.299987792969 261.456237792969 237.918746948242 220.899993896484 228.425003051758 249.943756103516 269.6875 281.887512207031 285.887512207031 281.987487792969 274.231262207031 270.487487792969 266.59375 264.774993896484 262.637512207031 259.90625 259.581237792969 259.481262207031 255.40625 259.212493896484 
309.243743896484 310.106262207031 312.481262207031 315.381256103516 321.506256103516 328.262512207031 335.90625 343.412506103516 350.649993896484 356.418762207031 360.912506103516 370.068756103516 380.962493896484 390.162506103516 375.087493896484 349.743743896484 328.006256103516 310.168762207031 300.8125 292.774993896484 287.96875 282.512512207031 276.806243896484 277.731231689453 280.262512207031 283.731262207031 288.59375 293.537506103516 299.1875 301.737487792969 297.21875 285.793762207031 263.6875 237.243743896484 213.512496948242 225.368743896484 249.956253051758 268.71875 278.649993896484 281.237487792969 277.931243896484 272.631256103516 267.893737792969 263.356262207031 261.731262207031 260.125 257.556243896484 257.018737792969 254.231246948242 252.612503051758 253.65625 
294.40625 296.987487792969 300.193756103516 305.350006103516 310.675018310547 318.587493896484 326.943756103516 335.1875 342.5625 345.931243896484 346.568756103516 348.799987792969 351.756256103516 352.600006103516 345.931243896484 331.625 316.450012207031 302.318756103516 291.774993896484 283.581237792969 276.131256103516 270.262512207031 267.243743896484 267.9375 270.931243896484 275.831237792969 282.862487792969 289.5625 297.40625 302.5 302.418762207031 293.200012207031 274.5625 255.137496948242 241.737503051758 248.056243896484 264.506256103516 277.081237792969 281.818756103516 281.237487792969 277.700012207031 273.018737792969 267.78125 262.5625 261.231262207031 259.512512207031 256.662506103516 255.125 251.456253051758 251.012496948242 248.981246948242 
283.318756103516 287.368743896484 289.875 294.912506103516 299.831237792969 309.325012207031 316.787506103516 325.924987792969 334.149993896484 333.731262207031 329.443756103516 324.899993896484 320.643737792969 319.46875 318.6875 312.287506103516 302.325012207031 291.618743896484 281.256256103516 271.625 264.681243896484 258.362487792969 254.475006103516 255.15625 259.431243896484 266.006256103516 274.287506103516 283.087493896484 293.612487792969 301.84375 306.568756103516 305.03125 289.8125 276.825012207031 273.056243896484 279.287506103516 287.306243896484 291.487487792969 289.706237792969 283.581237792969 277.75 272.668762207031 267.075012207031 261.856262207031 260.850006103516 259.46875 256.368743896484 253.862503051758 250.681243896484 250.21875 247.868743896484 
271.018737792969 272.850006103516 276.09375 280.15625 286.049987792969 296.112487792969 305.5625 313.768737792969 320.950012207031 318.65625 313.293762207031 306.625 296.681243896484 297.868743896484 300.174987792969 297.03125 290.387512207031 282.681243896484 273.331237792969 263.59375 255.512496948242 248.231246948242 243.131256103516 243.818756103516 248.5 253.981246948242 264.5 275.681243896484 286.90625 297.399993896484 305.143737792969 307.193756103516 298.575012207031 292.299987792969 293.950012207031 301.96875 305.59375 301.306243896484 293.931243896484 285.075012207031 277.881256103516 271.693756103516 266.375 262.125 262.806243896484 261.106262207031 256.831237792969 251.381256103516 252.006256103516 250.193756103516 248.193756103516 
262.899993896484 260.381256103516 263.049987792969 268.1875 275.5625 283.962493896484 293.09375 300.625 304.556243896484 303.987487792969 300.256256103516 294.987487792969 289.943756103516 288.950012207031 288.256256103516 286.381256103516 282.375 275.575012207031 266.950012207031 257.3125 248.643753051758 239.393753051758 232.106246948242 231.59375 235.481246948242 244.462509155273 255.018753051758 267.862487792969 279.681243896484 290.1875 297.918762207031 301.493743896484 299.756256103516 298.950012207031 302.143737792969 305.237487792969 305.987487792969 300.6875 292.362487792969 283.443756103516 275.962493896484 269.84375 265.381256103516 263.087493896484 263.331237792969 262.15625 256.075012207031 254.53125 253.393753051758 254.024993896484 253.375 
261.40625 255.381256103516 255.84375 260.34375 266.84375 274.825012207031 281.956237792969 288.481262207031 291.668762207031 292.056243896484 290.100006103516 287.512512207031 285.662506103516 283.575012207031 282.393737792969 279.806243896484 276.262512207031 270 262.725006103516 253.3125 243.28125 231.699996948242 221.706253051758 218.625 224.875 235.25 248.662506103516 260.681243896484 272.881256103516 282.193756103516 289.549987792969 294.712493896484 296.443756103516 298.649993896484 302.149993896484 302.649993896484 301.350006103516 296.881256103516 287.600006103516 279.337493896484 272.34375 267.075012207031 262.725006103516 261.268737792969 264.131256103516 263.693756103516 262.424987792969 261.475006103516 259.21875 262.1875 263.024993896484 
265.012512207031 257.262512207031 256.118743896484 259.549987792969 263.28125 268.512512207031 274.575012207031 278.581237792969 281.737487792969 283.831237792969 284.325012207031 283.450012207031 283.256256103516 282.674987792969 280.90625 279.087493896484 275.387512207031 269.512512207031 261.856262207031 252.15625 241.106246948242 229.0625 216.6875 211.768753051758 220.481246948242 231.21875 243.943756103516 255.831253051758 266.587493896484 275.549987792969 283.424987792969 288.087493896484 291.112487792969 296.331237792969 298.575012207031 298.493743896484 296.674987792969 291.568756103516 283.612487792969 275.418762207031 268.331237792969 263.337493896484 259.418762207031 258.200012207031 264.0625 268.174987792969 269.493743896484 270.350006103516 271.512512207031 270.225006103516 273.299987792969 
269.4375 259.725006103516 258.006256103516 258.96875 260.149993896484 262.856262207031 267.712493896484 272.106262207031 275.112487792969 278.237487792969 279.40625 279.887512207031 280.46875 280.75 279.8125 278.637512207031 275.181243896484 270.793762207031 263.043762207031 254.106246948242 243.71875 231.925003051758 222.59375 218.90625 223.018753051758 231.425003051758 242.381256103516 253.131256103516 262.674987792969 271.268737792969 278.78125 284.59375 289.581237792969 292.737487792969 294.6875 294.28125 290.893737792969 287.037506103516 279.024993896484 270.556243896484 263.662506103516 259.987518310547 256.856262207031 257.287506103516 265.668762207031 271.8125 276 279.075012207031 281.018737792969 279.600006103516 281.981262207031 
272.181243896484 262.3125 258.774993896484 257.950012207031 257.818756103516 259.125 262.518737792969 265.737487792969 269.456237792969 273.212493896484 275.318756103516 276.475006103516 277.431243896484 279.518737792969 279.606262207031 279.793762207031 278.081237792969 273.03125 267.056243896484 258.212493896484 248.706253051758 237.600006103516 230.399993896484 227.587493896484 228.543746948242 233.543746948242 243.050003051758 252.293746948242 261.825012207031 269.756256103516 275.887512207031 282.34375 286.231262207031 289.318756103516 291.881256103516 290 287.549987792969 283.881256103516 277.399993896484 268.143737792969 259.149993896484 255.493743896484 255.581253051758 259.700012207031 269.931243896484 277.024993896484 281.524993896484 287.306243896484 289.475006103516 290.100006103516 290.600006103516 
276.731262207031 265.762512207031 261.193756103516 258.462493896484 257.725006103516 258.424987792969 260.162506103516 262.418762207031 265.243743896484 269.231262207031 272.131256103516 274.649993896484 276.674987792969 279.631256103516 280.806243896484 280.306243896484 279.825012207031 277.337493896484 272.0625 263 253.09375 243.625 237.118743896484 234.162506103516 234.037506103516 237.625 245.475006103516 253.287506103516 261.587493896484 268.225006103516 274.987487792969 281.231262207031 284.212493896484 287.46875 289.306243896484 288.225006103516 285.21875 282.6875 275.424987792969 266.837493896484 261.693756103516 260.71875 261.225006103516 266.8125 272.549987792969 282.375 290.262512207031 296.143737792969 298.850006103516 300.443756103516 301.068756103516 
279.0625 268.28125 261.8125 258.368743896484 255.975006103516 256.581237792969 257.693756103516 259.587493896484 262.168731689453 265.537506103516 270.225006103516 274.049987792969 277.637512207031 279.856262207031 280.681243896484 281.543762207031 281.975006103516 280.612487792969 277.043762207031 268.03125 257.956237792969 248.300003051758 241.481246948242 238.643753051758 238.306243896484 241.318756103516 247.856246948242 255.024993896484 262.268737792969 268.137512207031 274.243743896484 280.293762207031 284.306243896484 287.731262207031 289.90625 287.40625 285.068756103516 283.568756103516 276.543762207031 267.993743896484 264.450012207031 266.806243896484 269.193756103516 272.350006103516 278.049987792969 291.543762207031 301.318756103516 307.481262207031 309.375 308.693756103516 310.075012207031 
277.524993896484 267.65625 261.237487792969 257.381256103516 253.887496948242 253.518753051758 254.524993896484 255.050003051758 257.443756103516 261.825012207031 266.625 271.53125 276.231262207031 279.918762207031 281.09375 282.943756103516 281.462493896484 279.393737792969 275.681243896484 268.737518310547 259.768737792969 251.324996948242 244.012496948242 241.787506103516 242.03125 244.293746948242 249.774993896484 256.262512207031 262.981262207031 269.243743896484 275.125 280.475006103516 284.543762207031 287.75 290.331237792969 288.34375 286.59375 284.5625 277.793762207031 272.96875 272.575012207031 275.912506103516 278.993743896484 283.46875 290.649993896484 307.03125 317.6875 321.818756103516 320.237487792969 317.84375 317.243743896484 
275.118743896484 266.662506103516 260.96875 256.424987792969 251.899993896484 250.793746948242 250.137496948242 250.350006103516 253.118743896484 257.831237792969 264.262512207031 269.274993896484 275.356262207031 280.068756103516 281.5 281.46875 279.424987792969 277.243743896484 271.856262207031 265.375 258.137512207031 250.131256103516 243.493743896484 241.5625 242.381256103516 244.800003051758 250.024993896484 257.125 263.975006103516 269.84375 276.387512207031 281.606262207031 285.174987792969 289.21875 292.674987792969 292.28125 290.887512207031 288.09375 282.818756103516 282.518737792969 283.318756103516 287.174987792969 292.143737792969 298.71875 311.462493896484 330.206237792969 338.424987792969 335.931243896484 331.287506103516 327.212493896484 324.012512207031 
273.274993896484 265.200012207031 259.456237792969 255.100006103516 250.074996948242 247.449996948242 245.956253051758 245.643753051758 246.818756103516 251.53125 258.674987792969 266.012512207031 274.050018310547 279.006256103516 280.40625 279.90625 277.368743896484 273.787506103516 267.881256103516 261.331237792969 254.106246948242 246.456253051758 240.831253051758 239.493743896484 240.981246948242 243.731246948242 249.456253051758 256.393737792969 263.975006103516 270.881256103516 277.868743896484 283.668762207031 288.331237792969 292.193756103516 294.831237792969 295.556243896484 294.59375 292.799987792969 290.237487792969 290.962493896484 292.09375 297.15625 305.274993896484 313.8125 327.887512207031 344.268737792969 349.943756103516 345.318756103516 339.100006103516 333.331237792969 330.068756103516 
270.981262207031 264.418762207031 258.693756103516 252.918746948242 248.081253051758 244.675003051758 241.21875 239.206253051758 239.050003051758 242.868743896484 251.681243896484 262.53125 273.168762207031 279.112487792969 279.387512207031 277.893737792969 273.881256103516 268.84375 263.15625 255.756256103516 249.681243896484 242 236.412506103516 235.306243896484 237.756256103516 240.550003051758 247.368743896484 255.362503051758 263.568756103516 271.46875 278.493743896484 286.256256103516 290.987487792969 295.40625 298.193756103516 298.443756103516 297.46875 298.9375 298.46875 298.131256103516 300 304.5625 312.600006103516 321.706237792969 333.837493896484 344.5 349.368743896484 348.081237792969 343.081237792969 337.887512207031 334.850006103516 
268.881256103516 263.393737792969 257.46875 250.981246948242 245.231246948242 241.456253051758 236.768753051758 232.693756103516 230.4375 232.743743896484 242.4375 255.806243896484 269.137512207031 276.618743896484 275.768737792969 272.568756103516 267.881256103516 261.725006103516 253.943756103516 246.987503051758 241.112503051758 235.143753051758 229.662506103516 230.03125 232.231246948242 235.774993896484 243.412506103516 253.21875 262.306243896484 271.049987792969 280.200012207031 289.299987792969 295.149993896484 300.081237792969 302.206237792969 301.987487792969 304.043762207031 304.318756103516 303.443756103516 304.606262207031 307.587493896484 310.856262207031 316.46875 325.212493896484 334.018737792969 341.006256103516 345.568756103516 347.018737792969 345.075012207031 341.368743896484 338.112487792969 
267.981262207031 263.049987792969 256.331237792969 251.143753051758 244.806243896484 239.862503051758 234.118743896484 228.331253051758 223.274993896484 219.46875 232.606246948242 252.600006103516 265.456237792969 271.350006103516 270.306243896484 265.6875 259.78125 252.731246948242 245.262496948242 237.168746948242 231.399993896484 225.774993896484 221.34375 222.506256103516 225.243743896484 229.887496948242 238.5 248.868743896484 259.731262207031 269.987487792969 280.818756103516 291.299987792969 298.537506103516 303.931243896484 307.193756103516 309.037506103516 309.625 309.893737792969 309.306243896484 309.606231689453 311.006225585938 314.200012207031 319.043762207031 325.975006103516 332.950012207031 337.549987792969 343.106262207031 345.950012207031 344.65625 342.706237792969 341 
267.337493896484 263.037506103516 256.668762207031 251 245.293746948242 239.612503051758 233.71875 227.837493896484 223.675003051758 217.668746948242 238.475006103516 258.975006103516 265.850006103516 267.481262207031 264.462493896484 258.324981689453 249.981246948242 242.600006103516 233.918746948242 225.087493896484 220.175003051758 215.112503051758 212.056243896484 214.006256103516 217.925003051758 223.462493896484 232.800003051758 244.393753051758 256.450012207031 269.131256103516 280.568756103516 292.787506103516 300.600006103516 307.118743896484 310.712493896484 313.418762207031 314.306243896484 315.043762207031 314.362487792969 313.643737792969 313.443756103516 316.024993896484 318.756256103516 323.337493896484 329.3125 334.887512207031 340.056243896484 343.950012207031 344.137512207031 343.84375 342.6875 
268.950012207031 263.393737792969 256.649993896484 251.887496948242 245.949996948242 240.912506103516 236.887496948242 233.6875 234.024993896484 243.293746948242 265.243743896484 267.256256103516 264.59375 261.856262207031 256.59375 247.993743896484 238.918746948242 230.71875 221.425003051758 212.875 208.181243896484 204.375 203.256256103516 205.800003051758 210.487503051758 217.59375 227.793746948242 240.100006103516 253.324996948242 266.950012207031 280.975006103516 293.806243896484 301.575012207031 308.475006103516 315.100006103516 317.368743896484 317.34375 318.549987792969 316.774993896484 313.606262207031 313.024993896484 314.012512207031 316.200012207031 319.53125 324.387512207031 329.868743896484 334.15625 337.193756103516 338.181243896484 340.450012207031 340.081237792969 
271.049987792969 264.618743896484 258.056243896484 252.34375 246.793746948242 242.899993896484 239.5 239.268753051758 242.03125 250.774993896484 260.818756103516 262.462493896484 259.956237792969 255.09375 247.643753051758 238.350006103516 228.21875 219.475006103516 209.693756103516 201.487503051758 196.306243896484 193.449996948242 192.96875 196.46875 203.1875 211.149993896484 222.512496948242 235.662506103516 250.006240844727 264.706237792969 279.243743896484 295.006256103516 305.53125 312.568756103516 317.950012207031 320.168762207031 319.506256103516 318.931243896484 317.112487792969 312.662506103516 310.737487792969 311.356262207031 312.412506103516 313.600006103516 318.106262207031 323.287506103516 327.90625 332.5 334.393737792969 337.987487792969 338.956237792969 
273.262512207031 265.700012207031 259.731262207031 253.418746948242 248.206253051758 243.53125 241.681243896484 242.762496948242 244.993743896484 250.418746948242 254.9375 254.675003051758 253.212493896484 247.881256103516 239.956253051758 230.412506103516 219.46875 210.862503051758 200.993743896484 191.106246948242 185.443740844727 182.493743896484 182.743743896484 187.981246948242 196.362503051758 205.5625 217.793746948242 232.28125 247.074996948242 263.21875 280.399993896484 298.662506103516 308.850006103516 316.53125 320.987487792969 322.056243896484 321.318756103516 319.287506103516 316.90625 310.537506103516 307.8125 306.5 305.612487792969 307.993743896484 312.350006103516 317.443756103516 321.899993896484 325.956237792969 330.462493896484 335.3125 338.506256103516 
275.637512207031 267.143737792969 260.818756103516 254.4375 249.324996948242 245.6875 243.693756103516 244.806243896484 246.431243896484 249.831253051758 253.074996948242 253.168746948242 251.21875 247.137496948242 239.412506103516 229.949996948242 219.606246948242 211.600006103516 201.8125 189.306243896484 181.0625 176.175003051758 177.03125 183.962493896484 194.068756103516 205.006256103516 218.024993896484 232.40625 248.768753051758 265.856231689453 281.78125 301.325012207031 311.381256103516 319.856262207031 325.674987792969 323.993743896484 322.237487792969 320.162506103516 315.612487792969 309.1875 304.587493896484 300.3125 297.9375 302.262512207031 307.03125 311.918762207031 315.818756103516 319.899993896484 325.200012207031 330.493743896484 335.84375 
277.981262207031 268.575012207031 261.743743896484 254.6875 249.806243896484 246.081253051758 244.318756103516 244.5 245.731246948242 248.368743896484 252.5625 252.506256103516 250.768753051758 246.824996948242 240.131256103516 231.643753051758 221.943756103516 214.756256103516 205.131256103516 190.118743896484 178.143753051758 168.918746948242 171.431243896484 181.475006103516 193.474990844727 206.28125 219.712493896484 233.625 250.0625 267.931243896484 285.668762207031 302.299987792969 313.100006103516 321.293762207031 327.725006103516 329.018737792969 324.325012207031 319.981262207031 313.356262207031 307.200012207031 302.475006103516 298.225006103516 295.668762207031 297.649993896484 302.399993896484 306.262512207031 310.424987792969 314.418762207031 319.743743896484 325.725006103516 332.918762207031 
279.918762207031 269.956237792969 261.075012207031 254.037506103516 249.34375 245.181243896484 242.731246948242 242.962493896484 244.9375 247.09375 251.131256103516 252.824996948242 251.268753051758 248.081253051758 243.081253051758 234.743743896484 225.03125 218.193756103516 210.537506103516 194.899993896484 180.368743896484 168.649993896484 171.8125 182.0625 194.581253051758 208.28125 222.087493896484 236.331253051758 251.975006103516 269.662506103516 287.475006103516 305.075012207031 315.337493896484 322.59375 329.162506103516 331.975006103516 326.587493896484 319.950012207031 312.743743896484 306.450012207031 301.193756103516 297.881256103516 295.950012207031 296.649993896484 299.443756103516 302.149993896484 305.931243896484 308.493743896484 311.65625 318.793762207031 328.649993896484 
283.106262207031 272.206237792969 261.506256103516 254.362503051758 248.731246948242 244.881256103516 241.956253051758 242.0625 244.949996948242 249.331253051758 254.65625 258.174987792969 258.34375 257.056243896484 252.59375 244.324996948242 234.768753051758 226.506256103516 217.074996948242 202.699996948242 190.943740844727 184.006256103516 183.212493896484 190.668746948242 202.15625 214.431243896484 227.837493896484 241.356246948242 256.537506103516 272.881256103516 289.518737792969 305.762512207031 315.28125 321.299987792969 326.068756103516 329.506256103516 324.737487792969 317.581237792969 311.125 306.3125 301.162506103516 298.493743896484 296.475006103516 295.237487792969 297.424987792969 299.700012207031 301.268737792969 302.59375 302.762512207031 308.837493896484 320.706237792969 
