ncols        51
nrows        45
xllcorner    -63.500000000000
yllcorner    -7.500000000000
cellsize     0.166666666667
NODATA_value -99
72.9437484741211 67.09375 62.6312484741211 59.6812515258789 56.28125 55.4375 54.34375 52.5750007629395 51.9249992370605 52.4000015258789 54.4312515258789 57.5999984741211 60.7937507629395 62.1500015258789 65.4437484741211 68.9625015258789 72.8312530517578 74.8062515258789 78.6812515258789 82.7125015258789 85.8125 88.8375015258789 93.1500015258789 98.5687484741211 104.90625 112.206253051758 121.668746948242 132.118743896484 143.449996948242 153.918746948242 165.443756103516 177.912506103516 189.587493896484 202.162506103516 215.606246948242 226.056243896484 234.15625 241.274993896484 246.306243896484 248.762496948242 252.356246948242 253.787506103516 252.9375 255.293746948242 253.21875 252.318756103516 250.956253051758 247.818756103516 244.043746948242 243.78125 244.193756103516 
78.1687469482422 72.0500030517578 68.2750015258789 64.6312484741211 61.7062492370605 61.8375015258789 61.3812484741211 61.3250007629395 62.3562507629395 63.3687515258789 64.9625015258789 67.4875030517578 69.9312515258789 71.7874984741211 74.7312469482422 77.6437530517578 81.0562515258789 85.0749969482422 90.4187469482422 95.6187515258789 99.1062469482422 103.112503051758 108.025001525879 113.868751525879 120.068748474121 127.806251525879 136.762496948242 147.15625 157.912506103516 168.787506103516 179.71875 193.418746948242 205.956253051758 220.018753051758 233.34375 244.262496948242 253.393753051758 260.743743896484 265.543731689453 267.90625 270.924987792969 271.40625 269.412506103516 270.1875 267.34375 266.424987792969 264.712493896484 259.4375 256.46875 255.681243896484 253.756256103516 
86.1062469482422 80.1437530517578 76.25 72.8625030517578 70.3687515258789 70.9875030517578 72.1500015258789 73.9437484741211 76.5999984741211 78.25 79.3812484741211 81.2249984741211 82.8187484741211 83.8499984741211 86.0250015258789 88.2562484741211 90.7437515258789 94.6312484741211 99.25 104.118751525879 108.118751525879 113.46875 118.625 125.34375 133.675003051758 141.556243896484 150.625 161.212493896484 170.893753051758 180.881256103516 192.706253051758 205.731246948242 219.449996948242 232.737503051758 247.743743896484 258.131256103516 268.774993896484 278.712493896484 282.768737792969 285.431243896484 288.024993896484 286.831237792969 283.868743896484 281.068756103516 278.65625 277.293762207031 275.737487792969 269.368743896484 265.412506103516 263.53125 261.299987792969 
93.9437484741211 88.3312530517578 85.2374954223633 82.2312469482422 81.0875015258789 82.1125030517578 84.7375030517578 88.46875 93.1187515258789 96.21875 96.9187469482422 97.1187515258789 96.71875 96.4250030517578 98.0500030517578 99.65625 101.462501525879 103.443748474121 107.268753051758 112.699996948242 117.787498474121 123.287498474121 128.600006103516 136.675003051758 145.8125 154.925003051758 164.818756103516 174.831253051758 184.056243896484 194.331253051758 204.96875 218.962493896484 232.0625 246.425003051758 260.774993896484 273.506256103516 285.424987792969 295.96875 301.793762207031 305.200012207031 305.862487792969 303.100006103516 298.693756103516 293.393737792969 289.862487792969 286.037506103516 284.518737792969 278.149993896484 271.875 269.543762207031 267.993743896484 
104.300003051758 97.625 93.6125030517578 91.4124984741211 91.0749969482422 93.53125 97.0124969482422 102.974998474121 110.875 116.550003051758 114.856246948242 112.268753051758 111.056251525879 110.006248474121 110.356246948242 111.306251525879 112.5 112.693748474121 116.050003051758 121.237503051758 127.337501525879 132.612503051758 138.918746948242 148.387496948242 158.443756103516 168.881256103516 177.243743896484 186.306243896484 197.331253051758 207.824996948242 218.675003051758 230.762496948242 245.449996948242 260.568756103516 275.181243896484 289.03125 303.212493896484 315.693756103516 322.206237792969 324.40625 325.581237792969 319.743743896484 312.256256103516 305.293762207031 298.737487792969 295.681243896484 293.212493896484 287.28125 279.831268310547 275.96875 274.331237792969 
113.168746948242 107.112503051758 102.393753051758 99.3499984741211 98.78125 102.262496948242 106.931251525879 113.400001525879 122.699996948242 130.574996948242 127.162498474121 123.837501525879 122.53125 121.712501525879 121.949996948242 123.206253051758 123.481246948242 123.212501525879 126.443748474121 131.393753051758 137.287506103516 143.412506103516 150.331253051758 159.75 169.581253051758 180.768753051758 189.506256103516 198 207.975006103516 218.362503051758 229.362503051758 241.512496948242 254.818740844727 271.90625 287.612487792969 301.65625 316.681243896484 329.893737792969 338.331237792969 341.181243896484 339.918762207031 332.587493896484 324.081237792969 315.700012207031 305.131256103516 301.493743896484 300.868743896484 295.75 286.96875 279.9375 272.881256103516 
122.756248474121 116.65625 112.081245422363 108 106.762496948242 109.699996948242 114.162498474121 119.162498474121 126.53125 131.175003051758 132.068756103516 132.012496948242 132.018753051758 132.262496948242 133.393753051758 134.962493896484 136.518753051758 137.606246948242 139.893753051758 142.449996948242 147.268753051758 153.918746948242 160.431243896484 169.824996948242 181.600006103516 192.393753051758 201.131256103516 210.131256103516 218.149993896484 227.806243896484 240.018753051758 252.274993896484 266.418762207031 280.337493896484 295.762512207031 312.106262207031 327.081237792969 341.743743896484 353.193756103516 356.5 352.712493896484 344.881256103516 336.200012207031 326.600006103516 313.787506103516 308.493743896484 307.65625 302.331237792969 290.75 281.493743896484 275.143737792969 
132.256256103516 125.368751525879 120.550003051758 117.368751525879 115.743751525879 117.462501525879 119.887504577637 122.237503051758 125.912498474121 129.9375 134.618743896484 138.662506103516 141.256240844727 142.318756103516 143.962493896484 146.212493896484 148.431243896484 150.800003051758 153.362503051758 152.881256103516 156.606246948242 163.087493896484 170.056243896484 180.337493896484 192.587493896484 203.743743896484 212.362503051758 220.393753051758 229.087493896484 238.475006103516 248.975006103516 261.9375 275.612487792969 289.931243896484 304.450012207031 319.568756103516 334.850006103516 349.325012207031 359.987487792969 364.962493896484 364.0625 357.537506103516 349.193756103516 338.287506103516 326.674987792969 320.59375 315.149993896484 304.087493896484 295.956237792969 283.387512207031 273.924987792969 
140.962493896484 134.037506103516 129.118743896484 125.981246948242 123.775001525879 124.0625 125.574996948242 126.3125 127.693748474121 131.331253051758 137.887496948242 144.637496948242 149.100006103516 151.475006103516 152.206253051758 153.875 155.237503051758 157.149993896484 160 159.09375 162.481246948242 169.512496948242 177.524993896484 190.206253051758 203.074996948242 214.574996948242 222.25 229.90625 238.78125 247.368743896484 257.712493896484 270.024993896484 282.681243896484 295.543762207031 309.075012207031 324.456237792969 339.587493896484 353.831237792969 365.84375 372.65625 373.706237792969 369.4375 363.96875 355.675018310547 346.287506103516 337.856262207031 329.274993896484 315.024993896484 299.756256103516 283.75 271.024993896484 
149.581253051758 142.65625 138.0625 134.412506103516 131.631256103516 131.268753051758 132.537506103516 133.074996948242 136.087493896484 140.243743896484 146.600006103516 152.462493896484 158.168746948242 160.643753051758 160.481246948242 159.643753051758 159 160.106246948242 160.53125 160.762496948242 166.112503051758 174.712493896484 184.893753051758 200.006256103516 213.637496948242 225.21875 233.149993896484 239.574996948242 248.706253051758 256.856262207031 265.100006103516 275.837493896484 287.9375 301.262512207031 314.725006103516 329.231262207031 343.962493896484 356.831237792969 369.212493896484 378.818756103516 384.018737792969 382.956237792969 378.825012207031 371.162506103516 364.90625 359.212493896484 348.112487792969 329.75 310.106262207031 289.493743896484 270.6875 
157.768753051758 150.768753051758 146.1875 142.425003051758 139.206253051758 138.75 139.71875 141.237503051758 145.425003051758 150.618743896484 157.324996948242 163.412506103516 168.175003051758 170.225006103516 168.231246948242 165.199996948242 162.074996948242 161.518753051758 160.956253051758 161.743743896484 167.975006103516 178 191.443740844727 206.475006103516 223.706253051758 235.493743896484 242.25 249.324996948242 256.856262207031 263.587493896484 271.731262207031 281.206237792969 292.068756103516 304.65625 318.956237792969 333.637512207031 346.331237792969 360.081237792969 372.981262207031 382.987487792969 390.443756103516 391.268737792969 389.899993896484 384.981262207031 379.237487792969 376.012512207031 362.674987792969 338.65625 317.0625 297.331237792969 274.868743896484 
165.71875 158.5 153.568740844727 150.012496948242 147.162506103516 147 148.268753051758 151.199996948242 156.112503051758 162.118743896484 169.537506103516 175.40625 177.862503051758 177.943756103516 175.337493896484 171.0625 167.1875 165.399993896484 163.612503051758 163.368743896484 169.574996948242 181.118743896484 197.912506103516 216.543746948242 233.631256103516 243.837493896484 249.293746948242 255.524993896484 262.818756103516 269.90625 277.206237792969 284.950012207031 295.350006103516 306.84375 320.100006103516 334.793762207031 349.456237792969 363.5625 377.068756103516 388.356262207031 397.618743896484 398.9375 395.612487792969 388.5625 381.112487792969 371.418762207031 357.15625 341.65625 322.399993896484 303.075012207031 279.912506103516 
171.824996948242 165.050003051758 160.712493896484 157.175003051758 155.150009155273 155.78125 158.024993896484 161.168746948242 166.581253051758 174.018753051758 181.668746948242 186.53125 187.262496948242 184.581253051758 181.118743896484 176.074996948242 171.756256103516 170.068756103516 168.581253051758 167.53125 172.1875 185.0625 203.899993896484 222.212493896484 236.837493896484 247.149993896484 254.268753051758 260.743743896484 267.493743896484 274.137512207031 280.924987792969 287.850006103516 296.131256103516 307.200012207031 320 333.856262207031 348.256256103516 364.537506103516 379.575012207031 392.225006103516 404.162506103516 404.725006103516 397.068756103516 387.25 376.8125 368.212493896484 355.943756103516 338.337493896484 322.256256103516 308.112487792969 292.868743896484 
177.018753051758 170.550003051758 166.706253051758 163.800003051758 162.493743896484 163.787506103516 167.168746948242 171.0625 177.337493896484 184.768753051758 191.887496948242 194.362503051758 193.643753051758 190.918746948242 186.024993896484 181.387496948242 176.481246948242 175.493743896484 174.274993896484 174.737503051758 182.493743896484 195.381256103516 211.90625 226.637496948242 239.631256103516 250.068756103516 257.90625 264.350006103516 271.4375 276.350006103516 282.393737792969 288.024993896484 295.237487792969 305.59375 317.231262207031 331.53125 347.912506103516 365.450012207031 383.049987792969 396.862487792969 406.25 401.487487792969 395.368743896484 388.475006103516 379.381256103516 368.53125 357.662506103516 344.512512207031 327.462493896484 316.518737792969 308.293762207031 
181.131256103516 174.581253051758 171.46875 169.987503051758 168.762496948242 171.306243896484 175.893753051758 180.25 187.118743896484 194.550003051758 200.762496948242 202.893753051758 201.887496948242 199.03125 194.587493896484 189.550003051758 185.212493896484 184.274993896484 183.962493896484 185.918746948242 195.350006103516 207.631256103516 222.46875 234.612503051758 245.206253051758 255.612503051758 263.018737792969 268.587493896484 274.71875 279.362487792969 282.950012207031 286.375 292.924987792969 301.143737792969 312.0625 325.993743896484 344.975006103516 366 385.725006103516 399.643737792969 404.337493896484 401.918762207031 398.03125 390.637512207031 380.71875 370.21875 360.799987792969 348.787506103516 336.606262207031 324.131256103516 316.350006103516 
184.0625 177.625 175.399993896484 174.737503051758 174.793746948242 178.287506103516 183.643753051758 188.393753051758 195.912506103516 204.25 210.75 212.881256103516 211.96875 208.59375 204.068756103516 197.800003051758 194.568756103516 194.925003051758 195.706253051758 198.53125 208.018753051758 220.068756103516 233.587493896484 244.40625 252.293746948242 260.075012207031 265.9375 271.875 278.287506103516 282.318756103516 285.3125 285.912506103516 287.950012207031 293.162506103516 300.893737792969 316.049987792969 337.46875 362.818756103516 387.78125 403.399993896484 408.09375 403.40625 397.412506103516 389.387512207031 377.962493896484 368 357.956237792969 345.962493896484 335.131256103516 324.450012207031 315.643737792969 
185.181243896484 179.90625 178.40625 178.574996948242 179.8125 184.274993896484 190.34375 196.356246948242 204.46875 213.518753051758 221.412506103516 224.262496948242 224.03125 220.975006103516 216.006256103516 209.53125 204.818756103516 204.818756103516 206.006256103516 209.71875 220.3125 232.40625 244.524993896484 253.399993896484 260.149993896484 264.162506103516 267.768737792969 274.149993896484 281.387512207031 286.356262207031 287.987487792969 286.325012207031 284.225006103516 282.424987792969 287.662506103516 302.512512207031 325.106262207031 357.40625 392.399993896484 404.225006103516 404.881256103516 399.331237792969 390.993743896484 382.481262207031 373.15625 364.28125 353.743743896484 343.381256103516 335.443756103516 323.331237792969 313.543762207031 
184.481246948242 180.03125 180.024993896484 181.431243896484 183.356246948242 188.587493896484 195.46875 202.331253051758 211.175003051758 220.75 230.212493896484 235.893753051758 238.606246948242 236.675003051758 232.043746948242 225.568756103516 218.03125 214.5625 216.774993896484 220.300003051758 231.96875 242.887496948242 252.0625 257.987487792969 263.174987792969 266.756256103516 268.987487792969 276.212493896484 284.59375 290.193756103516 290.381256103516 282.049987792969 276.337493896484 271.393737792969 272.0625 282.856262207031 310.100006103516 342.737487792969 374.856262207031 389.962493896484 391.512512207031 386.981262207031 381.149993896484 375.34375 367.587493896484 358.393737792969 350.549987792969 341.149993896484 332.637512207031 320.662506103516 312.600006103516 
182.956253051758 179.537506103516 180.393753051758 182.087493896484 185.012496948242 191.893753051758 199.074996948242 207.287506103516 217.487503051758 227.625 238.756256103516 246.300003051758 252.3125 254.925003051758 249.237503051758 239.762496948242 230.587493896484 224.59375 224.568756103516 228.643753051758 240.71875 251.225006103516 255.625 260.006256103516 264.456237792969 269.006256103516 272.931243896484 279.700012207031 288.65625 295.512512207031 295.918762207031 284.193756103516 272.487487792969 260.0625 254.449996948242 266.168762207031 293.268737792969 323.743743896484 351.975006103516 367.881256103516 374.112487792969 371.28125 369.181243896484 366.818756103516 360.825012207031 354.09375 347.09375 338.287506103516 329.993743896484 315.162506103516 311.162506103516 
181.731246948242 178.324996948242 179.875 182.399993896484 186.681243896484 194.65625 203.3125 211.631256103516 222.381256103516 233.362503051758 244.637496948242 254.1875 264.412506103516 272.924987792969 264.887512207031 249.837493896484 237.381256103516 232.125 231.362503051758 234.743743896484 242.5625 249.699996948242 256.799987792969 260.53125 264.631256103516 269.149993896484 274.931243896484 283.043762207031 290.03125 295.34375 293.318756103516 284.274993896484 268.024993896484 249.393753051758 236.84375 251.262496948242 282.012512207031 312.318756103516 336.65625 352.356262207031 358.125 356.337493896484 359.212493896484 360.518737792969 356.393737792969 350.568756103516 343.162506103516 333.975006103516 324.618743896484 310.893768310547 307.487487792969 
179.787506103516 178.0625 180.606246948242 184.131256103516 189.949996948242 198.087493896484 207.412506103516 217.125 227.6875 237.8125 246.856246948242 255.881256103516 265.693756103516 274.65625 267.768737792969 253.4375 241.6875 234.643753051758 234.037506103516 234.862503051758 241.725006103516 248.487503051758 253.787506103516 258.543762207031 263.693756103516 269.59375 275.962493896484 282.306243896484 289.612487792969 295.368743896484 294.4375 286.837493896484 269.96875 248.024993896484 228.081253051758 247.112503051758 281.356262207031 310.637512207031 332.350006103516 346.28125 352.774993896484 354.143737792969 355.737487792969 356.181243896484 352.549987792969 347.606262207031 340.637512207031 331.443756103516 319.006256103516 308.537506103516 301.881256103516 
177.081253051758 176.84375 180.637496948242 186.387496948242 192.649993896484 201.787506103516 211.75 222.09375 232.443756103516 240.425003051758 246.318756103516 251.162506103516 256.237487792969 259.962493896484 258.75 251.824996948242 244.300003051758 239.125 236.800003051758 236.556243896484 238.918746948242 242.756256103516 248.28125 252.800003051758 258.681243896484 266.1875 274.231262207031 281.75 290.625 298.068756103516 300.65625 294.462493896484 280.856262207031 266.112487792969 257.350006103516 271.137512207031 296.975006103516 319.75 335.712493896484 346.006256103516 352.381256103516 354.606262207031 355.668762207031 355.243743896484 352.137512207031 347.243743896484 340.056243896484 329.806243896484 316.481262207031 307.681243896484 297.243743896484 
177.081253051758 178.431243896484 182.4375 188.862503051758 195.631256103516 206 215.443756103516 226.40625 236.993743896484 241.662506103516 243.368743896484 243.587493896484 243.824996948242 246.425003051758 249.493743896484 248.181243896484 244.15625 240.800003051758 237.706253051758 235.193756103516 235.8125 236.893753051758 239.600006103516 243.975006103516 251.381256103516 260.693756103516 269.612487792969 278.700012207031 289.706237792969 299.450012207031 305.956237792969 306.700012207031 296.3125 288.212493896484 289.818756103516 304.4375 321.924987792969 335.881256103516 344.78125 348.71875 352.40625 354.168762207031 354.712493896484 354.331237792969 351.806243896484 347.5 340.15625 328.856262207031 316.337493896484 307.662506103516 296.8125 
180.574996948242 182.606246948242 186.925003051758 192.193756103516 198.981246948242 209.162506103516 219.25 228.774993896484 238.037506103516 240.493743896484 240.506256103516 238.731246948242 234.231246948242 238.481246948242 243.631256103516 244.425003051758 242.493743896484 240.631256103516 237.375 233.725006103516 232.175003051758 231.175003051758 231.75 235.975006103516 243.793746948242 252.087493896484 263.143737792969 274.462493896484 286.024993896484 297.518737792969 306.462493896484 310.200012207031 306.018737792969 304.512512207031 311.743743896484 329 342.456237792969 347.475006103516 350.143737792969 350.96875 353.006256103516 353.0625 353.549987792969 354.149993896484 353.856262207031 349.162506103516 340.299987792969 325.5 318.231262207031 308.125 297.674987792969 
187.768753051758 189.212493896484 192.787506103516 197.975006103516 204.962493896484 213.199996948242 222.15625 230.1875 236.331253051758 239.21875 239.5625 238.46875 237.5 239.762496948242 242.206253051758 243.618743896484 243.368743896484 241.34375 237.699996948242 233.131256103516 230.081253051758 226.331253051758 223.993743896484 226.875 233.868743896484 245.65625 256.737487792969 269.743743896484 281.756256103516 292.850006103516 301.206237792969 305.887512207031 308.112487792969 311.774993896484 320.25 332.518737792969 343.100006103516 347.162506103516 348.75 349.46875 351.0625 350.793762207031 351.943756103516 354.793762207031 353.862487792969 349.850006103516 338.681243896484 329.287506103516 320.081237792969 313.225006103516 304.287506103516 
199.375 200.4375 201.975006103516 205.931243896484 211.5625 218.699996948242 225.274993896484 231.600006103516 236.449996948242 239.268753051758 240.225006103516 240.931243896484 242.293746948242 243.462493896484 245.181243896484 245.681243896484 245.387496948242 243.018753051758 239.693756103516 234.449996948242 229.225006103516 222.387496948242 216.625 216.743743896484 226.100006103516 239.293746948242 253.300003051758 265.462493896484 277.825012207031 287.287506103516 294.768737792969 300.5 305.700012207031 311.931243896484 320.274993896484 329.806243896484 338.212493896484 343.225006103516 343.556243896484 344.899993896484 346.912506103516 347.225006103516 347.981262207031 351.4375 354 351.006256103516 346.25 337.84375 327.387512207031 323.549987792969 316.118743896484 
209.456253051758 209.162506103516 209.743743896484 213.318756103516 217.125 222.074996948242 227.737503051758 231.837493896484 236.112503051758 239.693756103516 242.043746948242 243.65625 245.9375 247.9375 249.050003051758 250.143753051758 249.612503051758 247.412506103516 243.556243896484 237.71875 230.962493896484 223.018753051758 214.356246948242 212.399993896484 224.024993896484 237.556243896484 250.949996948242 263.068756103516 274.018737792969 282.899993896484 290.600006103516 295.537506103516 301.787506103516 310.899993896484 317.6875 326.375 333.981262207031 337.962493896484 339.5 340.59375 342.037506103516 341.787506103516 342.137512207031 345.100006103516 351.693756103516 354.987487792969 353.774993896484 347.8125 341.731262207031 332.5625 327.774993896484 
219.699996948242 217.399993896484 217.912506103516 220.037506103516 222.293746948242 225.243743896484 229.9375 234.337493896484 237.987503051758 241.856246948242 244.168746948242 246.381240844727 248.831253051758 251.118743896484 252.875 254.518753051758 254.137496948242 253.256256103516 249.237503051758 243.962493896484 237.331253051758 229.068756103516 222.943756103516 222.0625 229.012496948242 240.112503051758 251.737503051758 262.806243896484 272.537506103516 280.856262207031 287.956237792969 293.8125 301.90625 308.662506103516 314.899993896484 323.006256103516 328.59375 333.681243896484 334.743743896484 335.09375 336.274993896484 336.768737792969 337.181243896484 341.4375 351.412506103516 357.549987792969 360.306243896484 357.337493896484 352.287506103516 342.981262207031 337.262512207031 
228.78125 225.800003051758 225.106246948242 226.231246948242 227.818756103516 229.59375 233.037506103516 236.350006103516 240.212493896484 244.168746948242 246.725006103516 249.131256103516 251.46875 255.018753051758 257.637512207031 260.543762207031 261.743743896484 260.243743896484 257.850006103516 252.537506103516 246.293746948242 238.21875 233.824996948242 233.631256103516 237.206253051758 244.693756103516 254.862503051758 264.381256103516 274.112487792969 281.581237792969 287.075012207031 293.350006103516 300.125 306.625 313.299987792969 319.556243896484 325.837493896484 330.862487792969 333.368743896484 332.356262207031 330.40625 330.012512207031 333.59375 341.856262207031 354.231262207031 361.712493896484 365.012512207031 365.700012207031 361.056243896484 354.387512207031 346.362487792969 
237.175003051758 232.862503051758 231.356246948242 231.043746948242 232.293746948242 233.5625 235.5625 238.050003051758 241.100006103516 245.243743896484 248.574996948242 252.34375 255.84375 260.381256103516 264.106262207031 266.431243896484 268.912506103516 269.893737792969 268.206237792969 262.618743896484 255.631256103516 248.850006103516 244.824996948242 243.956253051758 245.899993896484 251.425003051758 259.537506103516 267.231262207031 275.418762207031 281.674987792969 288.006256103516 294.25 299.912506103516 306.418762207031 312.125 318.737487792969 323.90625 329.643737792969 330.524993896484 329.587493896484 331.743743896484 333.850006103516 337.043762207031 346.299987792969 352.512512207031 363.356262207031 370.981262207031 372.1875 368.706237792969 363.637512207031 355.806243896484 
243.481246948242 238.856246948242 235.71875 234.893753051758 234.768753051758 235.987503051758 237.46875 239.662506103516 242.587493896484 246.256256103516 251.34375 256.606262207031 261.887512207031 266.043762207031 269.5625 273.306243896484 276.737487792969 278.931243896484 279.012512207031 273.40625 265.887512207031 258.556243896484 253.875 252.46875 253.537506103516 257.850006103516 264.15625 270.799987792969 277.549987792969 283.168762207031 289.100006103516 295.325012207031 302.024993896484 308.53125 314.375 318.993743896484 324.40625 330.774993896484 331.225006103516 329.556243896484 333.024993896484 338.399993896484 342.987487792969 348.174987792969 354.043762207031 369.287506103516 379.131256103516 381.068756103516 377.162506103516 369.806243896484 363.0625 
246.643753051758 242.268753051758 239.168746948242 238.043746948242 237.012496948242 237.368743896484 238.793746948242 239.787506103516 242.587493896484 247.337493896484 252.643753051758 259.318756103516 266.0625 272.012512207031 276.012512207031 280.806243896484 282.456237792969 284.068756103516 284.056243896484 280.518737792969 273.818756103516 267.393737792969 261.793762207031 260.318756103516 261.243743896484 264.056243896484 268.6875 274.149993896484 279.962493896484 286.075012207031 291.875 297.5 304.112487792969 310.231262207031 316.287506103516 320.975006103516 326.475006103516 331.649993896484 331.587493896484 333.71875 340.331237792969 346.0625 350.549987792969 356.481262207031 363.912506103516 382.381256103516 393.087493896484 392.893737792969 385.268737792969 376.412506103516 367.556243896484 
249.706253051758 246.087493896484 243.487503051758 241.662506103516 239.600006103516 239.381256103516 239.393753051758 240.21875 243.506240844727 248.649993896484 255.787506103516 263.3125 272.325012207031 280.118743896484 284.475006103516 287.40625 288.450012207031 290.325012207031 288.981262207031 286.200012207031 281.193756103516 275.006256103516 269.84375 267.631256103516 268.100006103516 270.087493896484 273.587493896484 278.799987792969 283.962493896484 289.037506103516 294.987487792969 299.943756103516 305.6875 312.424987792969 319.043762207031 324.787506103516 329.90625 333.325012207031 333.71875 339.918762207031 346.731262207031 352.549987792969 358.956237792969 367.068756103516 381.006256103516 401.768737792969 409.206237792969 401.318756103516 390.600006103516 380.356262207031 369.337493896484 
253.318756103516 249.581253051758 246.725006103516 244.96875 242.337493896484 240.774993896484 240.168746948242 240.681243896484 242.5 247.78125 255.893753051758 266.537506103516 278.587493896484 287.631256103516 292.068756103516 294.412506103516 294.899993896484 295.75 294.299987792969 291.762512207031 286.693756103516 280.71875 276.393737792969 273.71875 273.71875 274.993743896484 278.043762207031 282.143737792969 287.1875 292.643737792969 298.368743896484 303.268737792969 309.806243896484 316.037506103516 321.424987792969 327.587493896484 332.325012207031 335.924987792969 338.056243896484 343.9375 349.731262207031 356.524993896484 366.293762207031 376.356262207031 391.462493896484 408.856262207031 413.106262207031 403.181243896484 391.299987792969 379.837493896484 369.768737792969 
256.625 253.818756103516 250.875 247.668746948242 245.162506103516 243.050003051758 240.743743896484 239.787506103516 240.431243896484 245.037506103516 255.15625 270.181243896484 285.924987792969 296.950012207031 300.4375 301.75 300.6875 300.387512207031 299.643737792969 296.475006103516 292.493743896484 286.15625 281.475006103516 277.90625 277.899993896484 278.081237792969 281.331237792969 285.606262207031 290.325012207031 295.981262207031 300.856262207031 307.018737792969 313.237487792969 319.6875 324.774993896484 329.549987792969 333.299987792969 339.587493896484 342.768737792969 345.912506103516 351.1875 356.881256103516 366.143737792969 376.46875 388.899993896484 399.243743896484 402.537506103516 397.193756103516 387.462493896484 377.431243896484 368.725006103516 
260.625 258.637512207031 255.65625 251.981246948242 248.818756103516 246.90625 243.931243896484 241.506256103516 240.506256103516 244.21875 256.112487792969 274.012512207031 292.700012207031 305.387512207031 308.518737792969 308.993743896484 308.068756103516 307.037506103516 304.225006103516 301.693756103516 297.087493896484 291.731262207031 286.149993896484 283.1875 281.825012207031 281.806243896484 284.837493896484 290.081237792969 294.524993896484 299.299987792969 304.543762207031 310.375 316.981262207031 323.337493896484 326.943756103516 329.862487792969 335.537506103516 339.15625 340.993743896484 345.012512207031 350.8125 354.78125 361.0625 370.674987792969 379.1875 385.318756103516 388.46875 386.975006103516 381.53125 374.056243896484 366.5 
265.918731689453 264.287506103516 260.737487792969 258.649993896484 255.262496948242 252.78125 249.34375 245.662506103516 242.287506103516 240.09375 256.78125 282.231262207031 300.381256103516 311.174987792969 315.162506103516 315.200012207031 313.931243896484 312.299987792969 310.193756103516 306.337493896484 300.818756103516 294.681243896484 289.200012207031 286.137512207031 284.356262207031 284.681243896484 287.774993896484 292.5 297.668762207031 302.143737792969 307.125 312.450012207031 319.643737792969 325.78125 329.8125 333.53125 336.0625 338.28125 339.625 341.962493896484 345.274993896484 348.981262207031 354.293762207031 361.737487792969 368.162506103516 371.768737792969 376.243743896484 376.956237792969 373.043762207031 368.393737792969 363.956237792969 
271.481262207031 270.287506103516 267.356262207031 265.112487792969 262.737487792969 260.112487792969 257.181243896484 254.09375 252.356246948242 248.375 275.350006103516 302.262512207031 313.75 319.706237792969 322.462493896484 321.806243896484 318.456237792969 316.637512207031 313.006256103516 307.875 302.243743896484 295.387512207031 290.456237792969 287.293762207031 286.068756103516 286.587493896484 289.456237792969 294.618743896484 299.943756103516 305.225006103516 308.768737792969 314.068756103516 320.918762207031 327.487487792969 330.993743896484 334.25 335.706237792969 337.081237792969 337.59375 338.1875 339.174987792969 342.106262207031 345.037506103516 349.818756103516 355.287506103516 360.09375 364.393737792969 366.825012207031 365.256256103516 363.225006103516 360.53125 
279.362487792969 276.737487792969 273.706237792969 272.875 270.712493896484 269.412506103516 269.243743896484 269.987487792969 274.587493896484 290.043762207031 321.1875 328.6875 330.618743896484 332.862487792969 333.581237792969 330.243743896484 326.068756103516 321.78125 315.53125 308.956237792969 301.318756103516 293.956237792969 289.818756103516 286.475006103516 285.556243896484 287.443756103516 290.643737792969 295.837493896484 301.65625 306.512512207031 311.362487792969 315.693756103516 321.3125 327.087493896484 332.737487792969 334.899993896484 334.825012207031 336.175018310547 335.268737792969 332.993743896484 333.337493896484 334.631256103516 337.056243896484 340.625 345.125 350.15625 353.837493896484 355.856262207031 355.631256103516 356.799987792969 355.318756103516 
287.881256103516 284.15625 281.706237792969 280.325012207031 279.087493896484 279.743774414062 281.068756103516 286.25 295.306243896484 312.21875 331.475006103516 340.649993896484 344.831237792969 346.168762207031 344.6875 340.71875 334.950012207031 328.143737792969 319.03125 310.774993896484 299.787506103516 291.381256103516 286.137512207031 283.368743896484 284.65625 287.081237792969 291.118743896484 296.6875 303.018737792969 307.71875 311.568756103516 317.618743896484 324.90625 329.59375 332.78125 334.350006103516 333.174987792969 332.28125 331.118743896484 327.356262207031 326.149993896484 327.137512207031 328.512512207031 329.90625 334.337493896484 339.387481689453 343.756256103516 347.825012207031 349.043762207031 352 352.081237792969 
297.075012207031 291.987487792969 290.356262207031 288.568756103516 288.012512207031 288.381256103516 292.231262207031 299.924987792969 309.856262207031 324.53125 338.725006103516 347.337493896484 354.78125 357.143737792969 355.556243896484 351.506256103516 344.368743896484 335.943756103516 324.475006103516 311.34375 297.043762207031 286.287506103516 280.381256103516 279.462493896484 282.637512207031 286.268737792969 290.899993896484 297.600006103516 303.762512207031 309.006256103516 314.512512207031 321.950012207031 327.681243896484 331.90625 333.043762207031 332.96875 331.399993896484 328.693756103516 326.762512207031 320.899993896484 318.737487792969 317.787506103516 317.237487792969 320.043762207031 324.543762207031 329.731262207031 334.237487792969 338.118743896484 342.418762207031 347.006256103516 349.5625 
308.924987792969 302.606262207031 299.612487792969 296.662506103516 295.287506103516 296.712493896484 300.46875 308.331237792969 317.868743896484 330.337493896484 343.262512207031 352.725006103516 359.9375 364.356262207031 362.856262207031 358.575012207031 351.818756103516 342.893737792969 329.924987792969 310.975006103516 291.543762207031 277.018737792969 271.481262207031 272.668762207031 277.881256103516 283.46875 289.043762207031 295.512512207031 303.543762207031 310.237487792969 314.681243896484 323.712493896484 328.850006103516 333.34375 335.443756103516 332.600006103516 330.149993896484 327.556243896484 323.393737792969 317.418762207031 313.3125 309.25 307.181243896484 311.962493896484 316.90625 321.924987792969 325.918762207031 329.856262207031 335 340.087493896484 344.943756103516 
321.412506103516 313.818756103516 309.056243896484 303.925018310547 301.631256103516 302.681243896484 306.549987792969 313.21875 322.3125 333.899993896484 348.299987792969 357.700012207031 365.331237792969 369.956237792969 369.700012207031 366.512512207031 360.1875 351.125 336.875 312.456237792969 286.274993896484 264.475006103516 261.243743896484 266.712493896484 274.137512207031 281.756256103516 287.806243896484 293.600006103516 301.774993896484 309.956237792969 317.106262207031 323.4375 329.037506103516 332.762512207031 335.09375 335.5 330.325012207031 325.668762207031 319.368743896484 313.668762207031 309.375 305.368743896484 303.075012207031 305.362487792969 310.299987792969 314.262512207031 318.53125 322.387512207031 327.5 333.306243896484 340.081237792969 
333.387512207031 324.90625 316.5625 310.131256103516 306.987487792969 306.96875 309.537506103516 315.893737792969 325.787506103516 336.59375 350.674987792969 362.424987792969 370.293762207031 375.918762207031 377.756256103516 374.318756103516 367.362487792969 357.625 345.293762207031 318.700012207031 287.831268310547 261.78125 259.15625 264.456237792969 272.018737792969 280.331237792969 286.806243896484 293.037506103516 300.28125 308.893737792969 316.868743896484 324.8125 329.643737792969 332.03125 334.293762207031 336.368743896484 330.768737792969 324 317.143737792969 311.243743896484 306.387512207031 303.325012207031 301.643737792969 302.587493896484 305.506256103516 308.318756103516 312.168762207031 314.53125 317.475006103516 324.40625 333.9375 
345.356262207031 335.4375 324.456237792969 317.568756103516 312.737487792969 311.356262207031 311.356262207031 315.575012207031 325.206237792969 337.512512207031 351.756256103516 364.768737792969 373.799987792969 380.931243896484 382.325012207031 377.806243896484 370.193756103516 358.243743896484 343.40625 319.649993896484 294.118743896484 276.049987792969 267.387512207031 268.268737792969 274.03125 280.174987792969 286.318756103516 291.899993896484 298.962493896484 307.03125 314.875 322.456237792969 327.081237792969 328.712493896484 329.568756103516 332.481262207031 327.65625 320.481262207031 314.337493896484 309.899993896484 305.068756103516 302.59375 300.793762207031 299.725006103516 302.03125 304.368743896484 305.924987792969 307.068756103516 307.006256103516 312.893737792969 324.518737792969 
