ncols        51
nrows        45
xllcorner    -63.500000000000
yllcorner    -7.500000000000
cellsize     0.166666666667
NODATA_value -99
214.412490844727 215.631256103516 212.4375 214.800003051758 214.493743896484 211.381256103516 204.237503051758 196.762496948242 189.043746948242 184.800003051758 184.243743896484 184.793746948242 185.556243896484 183.925003051758 183.881256103516 183.850006103516 186.118743896484 185.806243896484 188.09375 189.987503051758 192.524993896484 194.050003051758 196.375 197.537506103516 200.756256103516 204.268753051758 210.168746948242 219.587493896484 228.024993896484 231.981246948242 239.443756103516 244.568756103516 251.71875 261.262512207031 270.193756103516 278.424987792969 285.387512207031 292.762512207031 300.068756103516 305.731262207031 311.681243896484 316.987487792969 320.612487792969 325.149993896484 325.262512207031 327.568756103516 328.200012207031 327.375 326.399993896484 328.231262207031 327.850006103516 
223.493743896484 226.118743896484 229.350006103516 233.574996948242 236.243743896484 231.725006103516 223.293746948242 215.981246948242 210.081253051758 205.137496948242 202.800003051758 201.087493896484 199.65625 197.149993896484 195.84375 195.21875 196.09375 197.456253051758 199.024993896484 200.693756103516 202.018753051758 202.893753051758 204.824996948242 206.5625 208.962493896484 212.34375 218.162506103516 227.800003051758 235.625 239.78125 245.243743896484 252.237503051758 258.893737792969 270.418731689453 278.40625 287.9375 297.193756103516 305.193756103516 312.28125 317.356262207031 323.887512207031 328.606262207031 331.693756103516 335.268737792969 335.956237792969 337.78125 337.293762207031 335.34375 335.018737792969 336.125 334.868743896484 
231.824996948242 236.824996948242 242.625 248.449996948242 251.3125 246.581253051758 241.037506103516 235.975006103516 230.418746948242 225.787506103516 220.162506103516 215.768753051758 212.856246948242 209.418746948242 207.462509155273 207.231246948242 207.34375 208.587493896484 209.175003051758 210.037506103516 211 211.831253051758 212.068756103516 214.143753051758 216.699996948242 218.587493896484 224.793746948242 233.993743896484 240.831253051758 244.324996948242 250.356246948242 256.950012207031 265.018737792969 274.3125 285.537506103516 293.818756103516 304.418762207031 315.456237792969 322.756256103516 329.774993896484 336.549987792969 340.106262207031 342.243743896484 343.950012207031 345.643737792969 345.818756103516 345.368743896484 342.362487792969 341.037506103516 341.356262207031 340.487487792969 
237.90625 246.125 256.037506103516 262.5 266.418762207031 261.318756103516 256.931243896484 253.668746948242 250.387496948242 245.53125 237.65625 230.006256103516 223.956253051758 219.043746948242 217.318756103516 216.774993896484 217.993743896484 219.287506103516 219.731246948242 219.625 220.706253051758 219.925003051758 218.118743896484 219.693756103516 221.90625 223.59375 229.806243896484 236.78125 243.331253051758 247.75 252.1875 260.25 268.1875 277.46875 288.318756103516 299.737487792969 312.162506103516 324.837493896484 334.731262207031 342.131256103516 347.756256103516 351.450012207031 353.0625 353.043762207031 354.081237792969 352.78125 352.087493896484 349.34375 344.787506103516 344.387512207031 344.274993896484 
251.4375 259.09375 266.356262207031 274.893737792969 279.912506103516 275.068756103516 269.506256103516 267.118743896484 266.381256103516 263.387512207031 252.875 241.46875 233.774993896484 229.306243896484 226.574996948242 226.6875 227.46875 229.21875 228.225006103516 226.59375 227.262496948242 225.112503051758 223.587493896484 225.243743896484 226.768753051758 228.418746948242 232.912506103516 239.287506103516 247.662506103516 250.212493896484 255.618743896484 261.637481689453 271.706237792969 282.162506103516 293.356262207031 306.368743896484 319.862487792969 333.318756103516 345.081237792969 352.762512207031 360.306243896484 361.737487792969 361.931243896484 362.193756103516 361.081237792969 358.96875 357.5 352.850006103516 347.618743896484 345.575012207031 347.012512207031 
266.443756103516 275.806243896484 284.799987792969 289.975006103516 290.899993896484 285.556243896484 279.075012207031 274.706237792969 273.981262207031 272.237487792969 258.712493896484 246.893753051758 240.481246948242 235.21875 233.118743896484 232.96875 233.675003051758 234.175003051758 233.168746948242 230.40625 230.087493896484 228.887496948242 227.768753051758 228.756256103516 230.168746948242 232.6875 237.243743896484 242.506256103516 248.806243896484 252.625 257.075012207031 263.543762207031 272.15625 285.325012207031 298.387512207031 311.293762207031 327.193756103516 341.706268310547 354.543762207031 364.90625 371.100006103516 372.799987792969 372.681243896484 372.012512207031 369.331237792969 364.987487792969 361.587493896484 356.268737792969 350.774993896484 345.625 342.293762207031 
280.350006103516 290.012512207031 297.700012207031 299.96875 297.793762207031 289.881256103516 281.431243896484 272.806243896484 266.0625 259.487487792969 252.643753051758 246.081253051758 241.9375 238.324996948242 237.050003051758 236.78125 237.125 235.662506103516 233.231246948242 232.03125 231.168746948242 231.149993896484 230.143753051758 231.481246948242 233.412506103516 235.399993896484 240.024993896484 244.65625 248.887496948242 251.662506103516 258.262512207031 264.399993896484 273.4375 284.950012207031 298.825012207031 313.887512207031 329.581237792969 345.4375 362.6875 372.612487792969 376.431243896484 378.575012207031 378.475006103516 377.90625 377.125 369.600006103516 363.668762207031 357.431243896484 347.274993896484 342.950012207031 341.087493896484 
290.5 299.875 304.631256103516 306.443756103516 305.024993896484 295.03125 281.075012207031 265.056243896484 251.037506103516 244.112503051758 243.399993896484 242.662506103516 242.350006103516 241.100006103516 240.09375 239.8125 238.237503051758 234.918746948242 232.0625 230.574996948242 231.149993896484 231.862503051758 231.975006103516 233.262496948242 236.643753051758 237.800003051758 241.03125 245.081253051758 247.881256103516 250.550003051758 255.75 264.287506103516 272.84375 284.331237792969 298.049987792969 313.256256103516 329.681243896484 345.975006103516 362.743743896484 372.899993896484 378.568756103516 380.825012207031 381.012512207031 380.331237792969 378.09375 370.431243896484 359.53125 349 342.53125 335.875 333.1875 
299.424987792969 307.649993896484 312.043762207031 313.418762207031 310.756256103516 299.662506103516 284.424987792969 265.975006103516 245.787506103516 235.668746948242 239.487503051758 242.5625 245.056243896484 243.850006103516 242.912506103516 242.193756103516 239.787506103516 235.712493896484 233.387496948242 231.268753051758 230 231.868743896484 232.3125 237.550003051758 241.100006103516 241.431243896484 242.337493896484 244.393753051758 247.818756103516 249.574996948242 254.962509155273 263.262512207031 271.825012207031 282.412506103516 294.706237792969 310.581237792969 328.612487792969 344.6875 361.15625 371.612487792969 378.331237792969 380.75 382.037506103516 381.481262207031 376.068756103516 367.806243896484 356.78125 343.950012207031 333.875 325.412506103516 322.056243896484 
308.34375 315.368743896484 318.318756103516 318.899993896484 316.737487792969 306.006256103516 291.950012207031 274.987487792969 257.924987792969 248.181243896484 247.09375 247.050003051758 248.893753051758 248.206253051758 246.224990844727 244.587493896484 241.881256103516 237.106246948242 233.375 230.381256103516 229.125 231.287506103516 234.181243896484 241.949996948242 244.293746948242 244.212493896484 244.568756103516 245.3125 246.768753051758 247.443756103516 251.712493896484 260.993743896484 270.412506103516 281.618743896484 293.325012207031 308.393737792969 325.418762207031 342.287506103516 359.143737792969 371.524993896484 379.975006103516 383.46875 382.681243896484 377.862487792969 372.75 366.518737792969 355.774993896484 341.662506103516 327.5625 317.493743896484 311.850006103516 
316.743743896484 323.137512207031 324.40625 324.71875 323.450012207031 314.506256103516 302.118743896484 286.418762207031 272.53125 263.524993896484 258.518737792969 256.662506103516 255.587493896484 254.675003051758 251.550003051758 248.006256103516 243.887496948242 238.356246948242 232.75 228.731246948242 228.8125 231.181243896484 236.362503051758 243.125 248.75 246.462493896484 245.768753051758 247.418746948242 247.53125 246.637496948242 251.268753051758 259.212493896484 268.024993896484 278.756256103516 290.637512207031 304.831268310547 320.918762207031 337.618743896484 354.893737792969 369.774993896484 379.462493896484 381.681243896484 379.162506103516 373.350006103516 367.006256103516 360.381256103516 347.762512207031 330.431243896484 317.056243896484 310.668762207031 302.331237792969 
322.256256103516 328.28125 329.28125 330.325012207031 328.362487792969 321.912506103516 312.512512207031 299.46875 287.393737792969 277.84375 271.25 267.481262207031 264.387512207031 262.231262207031 260.28125 256.100006103516 249.46875 242.262496948242 235.693756103516 230.168746948242 227.78125 230.100006103516 236.637496948242 247.543746948242 251.693756103516 245.225006103516 243.693756103516 245.331253051758 248.018753051758 250.043746948242 252.225006103516 258.03125 265.600006103516 275.024993896484 285.537506103516 300.943756103516 317.643737792969 334.28125 350.887512207031 367.3125 378.543762207031 379.037506103516 372.5 360.393737792969 349.443756103516 338.65625 324.193756103516 312.231262207031 304.931243896484 301.875 293.649993896484 
327.256256103516 332.337493896484 333.71875 333.743743896484 332.799987792969 328.318756103516 320.262512207031 310.293762207031 299.362487792969 291.274993896484 285.575012207031 280.649993896484 277.225006103516 272.162506103516 268.793762207031 263.668762207031 255.893753051758 248.0625 241.056243896484 233.243743896484 227.15625 227.862503051758 232.8125 241.425003051758 240.818756103516 236.331253051758 240.081253051758 244.4375 248.956253051758 252.106246948242 254.625 257.662506103516 263.024993896484 271.112487792969 280.637512207031 294.71875 311.362487792969 328.256256103516 346.356262207031 364.693756103516 378.368743896484 376.6875 361.65625 345.787506103516 331.193756103516 324.143737792969 313.787506103516 302.4375 296.25 295.393737792969 295.825012207031 
330.537506103516 335.681243896484 336.737487792969 336.743743896484 336.837493896484 331.774993896484 326.424987792969 320.256256103516 312.637512207031 305.325012207031 299.15625 294.143737792969 289.3125 285.043762207031 277.443756103516 271.668762207031 263.168762207031 254.006256103516 245.699996948242 237.856246948242 232.268753051758 229.53125 229.393753051758 233.293746948242 233.100006103516 232.274993896484 237.362503051758 242.868743896484 248.1875 251.993743896484 255.868743896484 258.53125 260.899993896484 265.899993896484 274.012481689453 288.556243896484 305.981262207031 322.424987792969 339.831237792969 357.087493896484 369.956237792969 362.487487792969 349.8125 338.225006103516 325.774993896484 317.293762207031 309.28125 302.893737792969 296.768737792969 297.46875 302.618743896484 
332.431243896484 335.975006103516 337.456237792969 339.450012207031 340.475006103516 336.424987792969 333.462493896484 329.78125 323.15625 316.818756103516 311.956237792969 307.118743896484 302.393737792969 297.581237792969 287.856262207031 281 272.018737792969 263.693756103516 254.612503051758 246.28125 240.137496948242 234.800003051758 230.881256103516 232.5625 233.518753051758 234.9375 239.862503051758 245.243743896484 251.068756103516 255.493743896484 257.4375 258.943756103516 261.006256103516 261.84375 266.706237792969 282.743743896484 301.693756103516 318.424987792969 332.143737792969 343.21875 348.268737792969 345.931243896484 342.299987792969 333.743743896484 324.100006103516 316.762512207031 311.412506103516 305.71875 302.75 300.575012207031 303.350006103516 
331.53125 335.418762207031 338.043762207031 340.787506103516 342.950012207031 342.21875 339.924987792969 336.950012207031 333.549987792969 329.5 324.443756103516 320.837493896484 316.681243896484 311.318756103516 301.524993896484 291.631256103516 281.75 273.475006103516 264.212493896484 256.081237792969 247.875 239.875 233.556243896484 233.818756103516 234.462493896484 236.506256103516 241.868743896484 248.050003051758 255.09375 259.568756103516 262.5 263.162506103516 262.381256103516 262.462493896484 265.375 286.006256103516 303.225006103516 313.3125 322.231262207031 330.412506103516 334.556243896484 334.912506103516 333.34375 327.981262207031 320.125 314.200012207031 308.381256103516 302.84375 299.806243896484 297.287506103516 297.862487792969 
331.143737792969 335.831237792969 338.006256103516 341.950012207031 345.90625 346.393737792969 347.068756103516 345.837493896484 343.456237792969 340.837493896484 336.46875 334.225006103516 331.181243896484 324.924987792969 316.112487792969 304.362487792969 291.081237792969 281.106231689453 272.956237792969 264.331237792969 254.618743896484 245.149993896484 237.493743896484 236.706253051758 237.287506103516 237.662506103516 243.268753051758 250.46875 257.149993896484 263.350006103516 267.368743896484 268.556243896484 268.287506103516 271.356262207031 284.212493896484 301.881256103516 310.875 313.837493896484 316.9375 321.018737792969 326.543762207031 327.331237792969 324.693756103516 320.612487792969 315.581237792969 310.568756103516 305.006256103516 301.131256103516 299.274993896484 294.487487792969 293.868743896484 
329.225006103516 334.818756103516 339.362487792969 345.200012207031 350.399993896484 351.956237792969 353.068756103516 353.774993896484 352.825012207031 350.737487792969 347.825012207031 347.568756103516 343.78125 338.8125 328.987487792969 315.649993896484 301.818756103516 285.756256103516 279.9375 271.143737792969 262.112487792969 251.731246948242 242.493743896484 240.574996948242 240.181243896484 241.556243896484 245.831253051758 253.581253051758 261.59375 268.024993896484 271.231262207031 268.325012207031 269.5 277.0625 294.793762207031 320.100006103516 319.043762207031 313.962493896484 312.75 316.274993896484 318.600006103516 318.96875 317.706237792969 314.456237792969 309.875 306.700012207031 302.637512207031 299.8125 298.618743896484 292.78125 292.506256103516 
326.443756103516 333.162506103516 338.75 346.075012207031 353.731262207031 357.924987792969 360.768737792969 362.668762207031 361.950012207031 360.5625 358.299987792969 355.993743896484 355.087493896484 351.9375 339.78125 324.90625 309.5 292.649993896484 282.193756103516 274.262512207031 266.787506103516 257.693756103516 244.5625 242.418746948242 242.262496948242 243.824996948242 248.949996948242 255.162506103516 263.393737792969 271.21875 275.649993896484 269.793762207031 266.206237792969 266.700012207031 278.356262207031 299.943756103516 304.381256103516 304.587493896484 307.46875 309.856262207031 312.524993896484 312.0625 311.581237792969 309.762512207031 305.756256103516 303.131256103516 300.868743896484 299.131256103516 297.631256103516 288.243743896484 291.462493896484 
320.399993896484 329.424987792969 336.518737792969 345.549987792969 355.412506103516 362.668762207031 367.756256103516 371.28125 371.325012207031 369.462493896484 366.8125 364.331237792969 364.862487792969 364.03125 348.556243896484 328.612487792969 309.700012207031 297.424987792969 285.456237792969 276.53125 266.537506103516 255.4375 246.1875 242.987503051758 242.231246948242 242.737503051758 248.012496948242 255.050003051758 261.34375 266.84375 268.893737792969 265.4375 255.743759155273 246.4375 243.606246948242 260.53125 280.481262207031 291.65625 299.524993896484 304.793762207031 307.256256103516 306.899993896484 307.4375 306.787506103516 303.950012207031 302.081237792969 300.350006103516 298.206237792969 294.78125 284.956237792969 290.256256103516 
312.850006103516 325.450012207031 336.056243896484 346.825012207031 358.018737792969 367.581237792969 375.587493896484 380.625 381.518737792969 377.606262207031 370.774993896484 366.262512207031 362.693756103516 360.631256103516 346.5625 326.518737792969 308.424987792969 293.837493896484 283.325012207031 273.106262207031 264.375 255.756240844727 247.106246948242 244.837493896484 244.018753051758 244.262496948242 248.8125 253.806243896484 258.78125 263.618743896484 264.268737792969 260.318756103516 248.537506103516 232.96875 218.600006103516 238.225006103516 265.981262207031 283.799987792969 295 301.287506103516 304.549987792969 305.25 304.125 303.537506103516 302.243743896484 300.712493896484 299.612487792969 297.762512207031 290.712493896484 285.862487792969 289.743743896484 
306.1875 319.931243896484 333.756256103516 346.618743896484 360.049987792969 372.287506103516 382.6875 390.59375 392.049987792969 384.481262207031 371.456237792969 360.787506103516 351.693756103516 345.5625 334.84375 321.350006103516 308.618743896484 295.09375 283.362487792969 272.125 261.256256103516 251.637496948242 245.4375 242.331253051758 241.356246948242 242.943756103516 250.006256103516 254.699996948242 258.856262207031 262.737487792969 262.381256103516 258.46875 248.806243896484 238.506256103516 233.643753051758 246.800003051758 268.762512207031 285.9375 296.793762207031 301.600006103516 303.512512207031 303.793762207031 303.018737792969 302.424987792969 301.71875 300.712493896484 299.899993896484 297.674987792969 290.049987792969 290.131256103516 289.737487792969 
303.674987792969 319.575012207031 333.78125 348.475006103516 362.762512207031 375 385.975006103516 398.456237792969 403.756256103516 390.512512207031 371.40625 352.53125 337.243743896484 330.056243896484 324.331237792969 315.875 305.53125 293.125 280.918762207031 269.293762207031 258.1875 247.393753051758 239.425003051758 236.012496948242 236.774993896484 240.037506103516 247.71875 253.537506103516 257.337493896484 260.381256103516 261.268737792969 261.206237792969 257.693756103516 253.237503051758 255.356246948242 266.506256103516 281.643737792969 294.03125 301.399993896484 304.012512207031 304.03125 303.375 302.524993896484 301.03125 300.618743896484 300.912506103516 301.043762207031 298.087493896484 293.762512207031 293.700012207031 291.53125 
306.75 322.200012207031 337.012512207031 352.337493896484 367.006256103516 378.012512207031 389.756256103516 401.399993896484 404.237487792969 388.143737792969 365.912506103516 346.337493896484 326.131256103516 319.793762207031 317.143737792969 311.350006103516 303.381256103516 292.075012207031 278.606262207031 266 253.875 241.981246948242 232.743743896484 229.262496948242 229.106246948242 232.675003051758 241.225006103516 249.425003051758 255.493743896484 261.493743896484 266.299987792969 269.168762207031 268.90625 268.899993896484 273.368743896484 284.487487792969 295.818756103516 301.674987792969 304.493743896484 305.28125 304.706237792969 302.793762207031 301.399993896484 298.90625 299.956237792969 301.106262207031 302.174987792969 297.931243896484 300.131256103516 295.90625 293.706237792969 
316.537506103516 329.700012207031 341.743743896484 356.924987792969 372.962493896484 382.831237792969 390.362487792969 396.706237792969 394.581237792969 382.21875 365.199981689453 345.950012207031 330.725006103516 321.84375 315.59375 310.431243896484 302.53125 291.649993896484 278.762512207031 264.09375 249.581253051758 236.225006103516 224.962493896484 219.399993896484 220.543746948242 227.350006103516 236.28125 247.143753051758 255.293746948242 265.306243896484 272.524993896484 277.837493896484 280.362487792969 282.3125 286.087493896484 292.050018310547 299.875 303.987487792969 305.231262207031 306.612487792969 305.806243896484 302.96875 299.325012207031 298.481262207031 295.793762207031 297.287506103516 297.924987792969 304.162506103516 306.59375 300.924987792969 296.674987792969 
331.693756103516 344.212493896484 351.96875 365.487487792969 377.850006103516 384.700012207031 389.206237792969 391.774993896484 386.962493896484 376.443756103516 362.924987792969 348.993743896484 336.512512207031 326.174987792969 318.524993896484 312.743743896484 303.824981689453 293.368743896484 280.956237792969 264.231262207031 249.243743896484 232.449996948242 217.375 208.90625 212.512496948242 222.71875 235.431243896484 246.550003051758 257.018737792969 269.399993896484 279.631256103516 288.243743896484 292.524993896484 293.331237792969 294.512512207031 297.512512207031 301.949981689453 304.6875 306.331237792969 306.993743896484 306.493743896484 302.456237792969 295.943756103516 293.681243896484 291.837493896484 293.362487792969 305.618743896484 313.125 313.231262207031 309.950012207031 304.350006103516 
351.606262207031 358.649993896484 365.181243896484 373.331237792969 381.09375 385.200012207031 386.375 386.0625 380.875 373.53125 364.206237792969 353.012512207031 342.331237792969 332.993743896484 325.34375 317.981262207031 310.40625 298.625 285.043762207031 269.6875 252.387496948242 234.193756103516 215.068756103516 205.012496948242 212.431243896484 223.150009155273 237 248.493743896484 259.912506103516 273.049987792969 285.174987792969 296.818756103516 302.5 300.768737792969 299.256256103516 301.075012207031 304.475006103516 306.118743896484 308.056243896484 309.475006103516 307.793762207031 302.424987792969 294.418762207031 290.056243896484 295.1875 304.899993896484 317.3125 321.956237792969 322.90625 316.318756103516 312.387512207031 
373.825012207031 377.125 379.943756103516 383.693756103516 385.506256103516 385.981262207031 386.912506103516 384.700012207031 379.543762207031 373.518737792969 365.225006103516 355.831237792969 347.3125 339.368743896484 331.693756103516 323.862487792969 316.556243896484 307.049987792969 294 279.03125 262.049987792969 243.412506103516 228.618743896484 220.368743896484 223.043746948242 230.987503051758 242.943756103516 254.587493896484 265.418762207031 277.024993896484 288.587493896484 299.106262207031 303.924987792969 302.037506103516 300.368743896484 302.200012207031 303.712493896484 306.243743896484 309.318756103516 312.662506103516 314.25 307.46875 295.943756103516 290.681243896484 304.487487792969 316.631256103516 328.681243896484 331.987487792969 331.587493896484 324.299987792969 318.84375 
394.100006103516 394.743743896484 393.806243896484 392.09375 392.337493896484 389.825012207031 386.418762207031 383.125 378.899993896484 373.1875 367.325012207031 359.6875 352.143737792969 345.706237792969 339.462493896484 333.09375 327.5 318.649993896484 307.237487792969 293.34375 276.737487792969 259.106262207031 245.9375 237.600006103516 237.975006103516 241.887496948242 251.356246948242 261.806243896484 271.731262207031 282.137512207031 291.174987792969 299.418762207031 303 302.087493896484 300.96875 302.537506103516 303.206237792969 305.443756103516 309.037506103516 312.243743896484 317.462493896484 310.5625 299.25 301.143737792969 317.8125 330.412506103516 340.568756103516 343.987487792969 340.793762207031 334.225006103516 324.100006103516 
406.243743896484 404.362487792969 400.21875 395.84375 393.28125 388.181243896484 384.674987792969 381.337493896484 378 373.1875 368.693756103516 363.600006103516 358.668762207031 353.549987792969 348.081237792969 342.5625 337.356231689453 333.90625 324.5625 308.362518310547 291.268737792969 274.931243896484 261.725006103516 254.28125 252.193756103516 254.387496948242 261.96875 270.043762207031 277.762512207031 285.774993896484 293.362487792969 299.118743896484 301.612487792969 302.768737792969 302.65625 303.09375 303.1875 305.34375 305.287506103516 307.5625 312.649993896484 313.618743896484 310.25 316.887512207031 326.331237792969 342.049987792969 353.893737792969 356.0625 351.606262207031 344.206237792969 333.487487792969 
413.34375 408.987487792969 402.631256103516 397.631256103516 393.731262207031 387.049987792969 384.25 380.637512207031 377.4375 373.862487792969 370.862487792969 366.368743896484 362.956237792969 358.1875 354.162506103516 350.518737792969 348.612487792969 346.481262207031 341.299987792969 324.625 306.862487792969 289.493743896484 276.96875 269.243743896484 265.4375 267.287506103516 272.068756103516 277.393737792969 283.862487792969 289.837493896484 295.731262207031 301.0625 303.174987792969 304.368743896484 304.762512207031 303.675018310547 303.268737792969 305.168762207031 303.206237792969 298.90625 305.243743896484 314.618743896484 320.325012207031 328.256256103516 337.950012207031 358.318756103516 369.600006103516 371.125 365.15625 354.912506103516 342.368743896484 
415.487487792969 409.493743896484 401.84375 395.59375 391.231262207031 384.737487792969 382.225006103516 378.049987792969 375.28125 372.8125 370.9375 367.237487792969 363.712493896484 361.568756103516 359.712493896484 357.981262207031 354.068756103516 351.806243896484 346.943756103516 334.918762207031 317.674987792969 302.475006103516 289.056243896484 281.0625 278.806243896484 278.475006103516 280.681243896484 285.368743896484 289.012512207031 294.112487792969 299.081237792969 303.306243896484 304.306243896484 305.4375 306.018737792969 304.725006103516 305.181243896484 305.568756103516 300.956237792969 299.506256103516 308.9375 322.243743896484 332.162506103516 345.587493896484 358.46875 380.943756103516 393.043762207031 390.568756103516 379.293762207031 365.174987792969 350.706237792969 
405.643737792969 400.587493896484 393.6875 388.162506103516 383.21875 379.212493896484 375.918762207031 371.950012207031 368.862487792969 368.537506103516 371.262512207031 367.337493896484 365.212493896484 366.100006103516 364.806243896484 362.712493896484 358.34375 356.518737792969 350.725006103516 340.931243896484 327.46875 313.375 299.987487792969 293.399993896484 289.9375 288.131256103516 288.84375 291.649993896484 295.137512207031 298.881256103516 302.912506103516 306.450012207031 308.131256103516 309.375 309.193756103516 309.700012207031 310.100006103516 309.3125 306.256256103516 311.631256103516 321.143737792969 333.981262207031 347.012512207031 362.200012207031 384.0625 412.543762207031 421.21875 408.03125 391.568756103516 375.075012207031 357.8125 
393.424987792969 389.006256103516 385.318756103516 381.34375 377.443756103516 373.075012207031 369.25 365.787506103516 362.931243896484 363.268737792969 366.981262207031 367.1875 366.693756103516 365.993743896484 364.9375 364.75 363.0625 360.71875 353.962493896484 345.375 334.731262207031 321.899993896484 310.475006103516 302.774993896484 298.737487792969 295.356262207031 295.768737792969 296.943756103516 300.668762207031 303.325012207031 305.862487792969 309.975006103516 312.493743896484 313.606262207031 315.068756103516 315.524993896484 315.1875 313.887512207031 316.068756103516 322.725006103516 330.662506103516 343.356262207031 359.524993896484 376.4375 400.993743896484 427.524993896484 432.450012207031 416.806243896484 399.21875 382.087493896484 364.9375 
381.274993896484 378.581237792969 376.762512207031 373.700012207031 368.975006103516 365.793762207031 361.462493896484 359.03125 354.850006103516 354.450012207031 360.712493896484 364.700012207031 367.643737792969 368.21875 369.418762207031 368.293762207031 367.200012207031 364.556243896484 358.306243896484 350.262512207031 341.293762207031 329.09375 317.993743896484 309.924987792969 305.8125 302.456237792969 301.299987792969 302.506256103516 304.106262207031 307.018737792969 310.387512207031 314.131256103516 316.418762207031 318.493743896484 319.493743896484 318.987487792969 318.549987792969 321.331268310547 325.549987792969 331.493743896484 339.143737792969 349.806243896484 364.96875 381.806243896484 402.299987792969 418.162506103516 421.981262207031 413.850006103516 399.981262207031 384.537506103516 369.306243896484 
369.34375 366.78125 365.143737792969 362.806243896484 359.306243896484 355.456237792969 351.899993896484 347.112487792969 340.962493896484 340.637512207031 347.787506103516 356.556243896484 366.512512207031 372.975006103516 374.743743896484 374.887512207031 372.875 369.693756103516 364.756256103516 358.112487792969 348.625 336.325012207031 324.568756103516 317.21875 312.393737792969 308.381256103516 306.693756103516 307.631256103516 308.837493896484 310.96875 314.46875 317.431243896484 318.887512207031 321.993743896484 323.25 322.481262207031 324.512512207031 327.300018310547 330.056243896484 336.450012207031 344.556243896484 353.868743896484 365.393737792969 381.112487792969 396.106262207031 405.825012207031 409.268768310547 405.412506103516 395.487518310547 384.4375 369.549987792969 
355.931243896484 354.875 354.350006103516 352.487487792969 350.549987792969 347.71875 343.431243896484 338.225006103516 329.762512207031 324.399993896484 335.887512207031 355.368743896484 370.081268310547 378.168762207031 381.556243896484 380.868743896484 378.100006103516 374.431243896484 370.193756103516 361.806243896484 352.899993896484 341.056243896484 329.918762207031 321.368743896484 315.981262207031 312.168762207031 310.512512207031 312.068756103516 312.743743896484 315.09375 317.725006103516 320.100006103516 323.018737792969 326.5625 327.731262207031 328.34375 330.549987792969 333.493743896484 336.325012207031 339.850006103516 345.618743896484 353.612487792969 363.96875 377.049987792969 389.331237792969 395.768768310547 398.893737792969 397.024993896484 390.725006103516 381.71875 370.03125 
343.975006103516 344.393737792969 344.056243896484 343.518737792969 343.6875 342.149993896484 338.90625 333.506256103516 327.443756103516 320.162506103516 341.768737792969 364.768737792969 377.174987792969 385.825012207031 387.268737792969 386.575012207031 382.112487792969 377.581237792969 371.799987792969 362.462493896484 351.975006103516 341.143737792969 332.337493896484 323.662506103516 318.4375 315.293762207031 313.537506103516 315.674987792969 317.018737792969 318.887512207031 320.131256103516 321.84375 325.28125 329.71875 330.793762207031 333.131256103516 335.331237792969 336.40625 340.087493896484 343.956237792969 346.462493896484 353.825012207031 360.850006103516 367.806243896484 377.850006103516 384.274993896484 388.40625 390.112487792969 385.837493896484 378.162506103516 371.024993896484 
334.506256103516 334.993743896484 335.825012207031 336.34375 337.237487792969 335.762512207031 335.487487792969 333.818756103516 335.287506103516 346.287506103516 370.84375 378.806243896484 383.106262207031 388.4375 390.081237792969 389.381256103516 385.5 379.612487792969 371.831237792969 361.393737792969 349.162506103516 338.5625 330.162506103516 322.962493896484 318.637512207031 316.668762207031 316.006256103516 317.4375 319.21875 320.787506103516 322.587493896484 322.825012207031 325.331237792969 329.799987792969 334.331237792969 335.393737792969 336.456237792969 338.774993896484 340.318756103516 341.793762207031 343.537506103516 350.262512207031 355.168762207031 361.206237792969 367.850006103516 373.137512207031 376.512512207031 377.256256103516 376.237487792969 374.5625 367.431243896484 
326.212493896484 326.875 328.256256103516 328.818756103516 331.006256103516 333.081237792969 333.556243896484 337.5 343.587493896484 354.581237792969 369.5 380.100006103516 386.381256103516 390.5 393.306243896484 392.875 389.737487792969 382.231262207031 371.756256103516 360.881256103516 347.087493896484 335.881256103516 326.106262207031 319.606262207031 317.450012207031 316.793731689453 316.25 318.581237792969 320.450012207031 321.200012207031 321.287506103516 323.881256103516 329.043762207031 332.481262207031 336.368743896484 338.09375 337.831237792969 338.993743896484 340.899993896484 339.512512207031 339.25 344.556243896484 348.399993896484 352.356262207031 357.475006103516 363.006256103516 367.706237792969 370.743743896484 370.649993896484 369.768737792969 365.762512207031 
317.243743896484 319.106262207031 320.956237792969 323.0625 324.899993896484 327.556243896484 330.481262207031 337.518737792969 345.443756103516 356.193756103516 367.149993896484 377.993743896484 386.318756103516 391.424987792969 395.762512207031 397.637512207031 395.056243896484 385.96875 373.706237792969 359.625 343.25 330.149993896484 320.556243896484 314.799987792969 315.362487792969 316.049987792969 315.981262207031 318.643737792969 321.71875 322.850006103516 323.950012207031 328.243743896484 332.337493896484 335.918762207031 339.181243896484 340.387512207031 339.924987792969 340.787506103516 340.793762207031 336.893737792969 335.899993896484 337.243743896484 338.575012207031 342.9375 348.993743896484 355.481262207031 359.799987792969 361.71875 364.331237792969 365.71875 364.037506103516 
308.1875 311.46875 314.75 318.424987792969 321.506256103516 325.350006103516 329.975006103516 336.912506103516 345.399993896484 354.787506103516 364.787506103516 376.237487792969 385.65625 391.674987792969 396.537506103516 398.518737792969 397.762512207031 387.799987792969 375.575012207031 358.193756103516 335.862487792969 319.012512207031 309.700012207031 306.706237792969 310.03125 311.46875 312.643737792969 315.856262207031 320.681243896484 323.981262207031 323.356262207031 329.200012207031 333.818756103516 339.256256103516 344.28125 343.331237792969 342.299987792969 342.725006103516 341.5 336.71875 333.212493896484 329.893737792969 329.387512207031 336.075012207031 342.549987792969 349.706237792969 353.237487792969 355.299987792969 359.09375 359.975006103516 358.899993896484 
299.6875 305.0625 309.806243896484 312.831237792969 317.131256103516 322.875 328.806243896484 334.174987792969 342.131256103516 351.462493896484 362.168762207031 373.743743896484 383.950012207031 391.543762207031 396.893737792969 400.299987792969 398.618743896484 393.075012207031 381.368743896484 357.774993896484 327.71875 304.056243896484 297.712493896484 300.649993896484 305.5 308.543762207031 310.662506103516 312.618743896484 318 322.043762207031 324.674987792969 326.837493896484 331.981262207031 339.787506103516 347.34375 351.387512207031 347.762512207031 345.943756103516 342.774993896484 337.149993896484 333.881256103516 330.368743896484 328.162506103516 331.362487792969 339.268737792969 343.887512207031 347.4375 350.162506103516 354.581237792969 356.168762207031 356.768737792969 
291.4375 298.543762207031 304.081237792969 307.662506103516 313.668762207031 319.262512207031 324.96875 331.65625 339.53125 348.75 359.956237792969 372.28125 382.399993896484 390.1875 396.431243896484 399.681243896484 400.131256103516 396.34375 389.387512207031 363.662506103516 329.693756103516 301.037506103516 296.018737792969 298.53125 303.068756103516 306.481262207031 308.506256103516 311.743743896484 316.549987792969 321.393737792969 323.125 325.737487792969 331.543762207031 340.137512207031 349.756256103516 359.149993896484 355.5625 350.575012207031 345.143737792969 340.162506103516 336.325012207031 333.743743896484 330.668762207031 332.481262207031 337.299987792969 340.306243896484 344.262512207031 345.881256103516 347.612487792969 351.956237792969 354.418762207031 
283.143737792969 291.818756103516 297.799987792969 303.424987792969 309.931243896484 315.950012207031 322.106262207031 329.318756103516 338 347.34375 356.762512207031 370.0625 381.6875 390.112487792969 396.799987792969 398.068756103516 397.65625 391.212493896484 382.375 362.168762207031 333.681243896484 312.956237792969 301.943756103516 300.9375 304.200012207031 305.799987792969 307.325012207031 310.893737792969 315.393737792969 321.006256103516 323.212493896484 325.018737792969 330.287506103516 337.662506103516 347.337493896484 357.918762207031 357.587493896484 351.962493896484 346.393737792969 342.825012207031 338.568756103516 335.987487792969 334.768737792969 332.850006103516 337.262512207031 339.225006103516 340.793762207031 342.862487792969 342.649993896484 345.137512207031 350.693756103516 
