ncols        51
nrows        45
xllcorner    -63.500000000000
yllcorner    -7.500000000000
cellsize     0.166666666667
NODATA_value -99
277.712493896484 280.600006103516 283.59375 292.587493896484 296.737487792969 296.987487792969 295.931243896484 289.8125 286.225006103516 287.024993896484 291.475006103516 294.568756103516 296.018737792969 295.125 293.325012207031 292.149993896484 292.356262207031 288.75 288.25 288.200012207031 289.956237792969 293.481262207031 296.237487792969 301.587493896484 304.681243896484 310.875 315.556243896484 322.325012207031 328.618743896484 340.712493896484 354.818756103516 369.8125 384.556243896484 402.237487792969 419.375 434.100006103516 445.512512207031 456.418762207031 465.918762207031 471.899993896484 477.21875 478.774993896484 475.200012207031 473.90625 467.03125 459.356262207031 449.456237792969 432.487487792969 417.887512207031 405.8125 394.5 
284.15625 286.293762207031 295.875 305.693756103516 314.59375 313.149993896484 309.756256103516 308.100006103516 306.418762207031 306.481262207031 309.606262207031 310.143737792969 310.462493896484 309.143737792969 305.049987792969 304.049987792969 301.450012207031 298.581237792969 296.587493896484 294.375 295.543762207031 297.737487792969 302.0625 306.756256103516 312.950012207031 319.443756103516 325.225006103516 333.743743896484 340.131256103516 354.46875 372.862487792969 393.125 410.668762207031 431.799987792969 449.793762207031 465.481262207031 481.475006103516 494.206237792969 503.056243896484 507.431243896484 511.087493896484 512.9375 509.256256103516 504.274993896484 495.506256103516 486.9375 478.606262207031 459.649993896484 443.674987792969 429.006256103516 416.8125 
286.862487792969 292.037506103516 301.037506103516 313.600006103516 324.524993896484 325.331237792969 324.78125 325.487487792969 328.137512207031 328.075012207031 327.568756103516 325.1875 324.306243896484 319.762512207031 315.143737792969 312.637512207031 309.418762207031 307.149993896484 304.668762207031 304.006256103516 307.125 311.393737792969 315.262512207031 321.28125 329.712493896484 337.643737792969 345.818756103516 351.299987792969 356.543762207031 373.09375 392.018737792969 411.887512207031 434.325012207031 456.21875 474.075012207031 489.681243896484 509.512512207031 526.362487792969 534.075012207031 539.318725585938 543.15625 541.206237792969 536.712524414062 531.893737792969 522.03125 512.106262207031 501.049987792969 481.825012207031 463.412506103516 447.331237792969 432.556243896484 
284.399993896484 291.200012207031 304.924987792969 316.28125 327.674987792969 332.8125 335.931243896484 339.78125 346.162506103516 349.206237792969 346.549987792969 340.225006103516 334.287506103516 329.4375 323.600006103516 320.362487792969 317.59375 315.649993896484 313.962493896484 314.581237792969 320.387512207031 326 329.862487792969 338.512512207031 348.1875 355.875 365.581237792969 369.837493896484 375.318756103516 394.506256103516 414.100006103516 434.537506103516 454.387512207031 476.631256103516 495.862487792969 516.299987792969 536.424987792969 554.731262207031 566.375 569.65625 573.543762207031 572.831237792969 563.737487792969 555.212524414062 546.612487792969 531.756225585938 520.237487792969 500.34375 479.875 464.75 448.193756103516 
295.868743896484 298.743743896484 304.90625 316.912506103516 331.831237792969 338.418762207031 342 349.431243896484 360.356262207031 368.256256103516 362.024993896484 349.137512207031 342.068756103516 337 330.600006103516 326.5 322.693756103516 321.962493896484 321.25 322.587493896484 330.918762207031 337.268737792969 343.243743896484 355.331237792969 363.793762207031 372.899993896484 380.71875 389.543762207031 398.162506103516 415.256256103516 435.40625 452.100006103516 472.024993896484 495.787506103516 517.706237792969 539.025024414062 558.8125 579.1875 592.612487792969 597.3125 603.78125 595.900024414062 587.287475585938 580.762512207031 568.549987792969 552.043762207031 534.293762207031 514.637512207031 494.299987792969 478 462.53125 
301.28125 306.856262207031 313.881256103516 319.325012207031 333.299987792969 342 346.518737792969 354.693756103516 365.712493896484 376.368743896484 366.587493896484 354.262512207031 347.899993896484 343.149993896484 336.200012207031 332.587493896484 326.924987792969 326.65625 329.118743896484 332.318756103516 340.09375 347.625 357.887512207031 369.331237792969 380.462493896484 391.918762207031 399.418762207031 407.46875 415.637512207031 431.34375 449.774993896484 468.806243896484 484.512512207031 506.837493896484 531.025024414062 550.724975585938 573.84375 594.53125 607.506225585938 616.375 616.762512207031 608.606262207031 601.693725585938 596.331237792969 586.349975585938 567.293762207031 546.318725585938 524.625 503.90625 484.375 465.193756103516 
308.424987792969 314.90625 322.412506103516 327.012512207031 332.362487792969 336.65625 341.4375 348.318756103516 353.799987792969 357.225006103516 357.037506103516 353.15625 351.993743896484 347.4375 341.875 339.431243896484 334.475006103516 331.700012207031 332.987487792969 338.65625 349.299987792969 360.043762207031 371.575012207031 381.825012207031 395.25 408.912506103516 417.881256103516 423.556243896484 430.90625 446.237487792969 464.53125 481.100006103516 498.100006103516 515.743774414062 537.943725585938 557.568725585938 577.40625 599.412475585938 617.193725585938 625.325012207031 620.056274414062 613.787475585938 608.775024414062 603.956237792969 597.381225585938 575.40625 554.431274414062 529.15625 505.693756103516 488.331237792969 469.893737792969 
316.537506103516 321.693756103516 327.256256103516 333.887512207031 339.643737792969 341.03125 337.931243896484 334.231262207031 330.950012207031 333.568756103516 343.412506103516 349.618743896484 352.524993896484 351.706237792969 348.674987792969 345.212493896484 340.293762207031 337.9375 337.137512207031 344.0625 358.225006103516 371.962493896484 383.90625 395.8125 412.3125 424.118743896484 432.412506103516 438.568756103516 446.337493896484 461.600006103516 475.09375 490.068756103516 506.018737792969 522.993774414062 542.043762207031 555.899963378906 575.231262207031 594.28125 607.875 613.618774414062 613.131225585938 610.875 606.131225585938 599.799987792969 590.487487792969 570.8125 546.306274414062 521.493774414062 502.806243896484 484.649993896484 467.03125 
323.649993896484 329.706237792969 334.59375 338.987487792969 343.912506103516 343.075012207031 340.637512207031 334.787506103516 324.381256103516 321.237487792969 335.206237792969 345.762512207031 356.325012207031 357.53125 354.475006103516 352.506256103516 349.856231689453 349.331237792969 351.149993896484 356.0625 364.831237792969 381.924987792969 394.549987792969 410.225006103516 426.149993896484 435.731262207031 442.225006103516 448.931243896484 456.106262207031 469.212493896484 483.162506103516 492.643737792969 504.456237792969 515.825012207031 532.8125 546.34375 564.287475585938 578.125 590.381225585938 595.068725585938 596.043762207031 592.318725585938 591.112487792969 588.599975585938 573.493774414062 554.40625 536.193725585938 511.40625 489.493743896484 473.274993896484 461.09375 
330.481262207031 335.037506103516 340.331237792969 344.668731689453 347.899993896484 347.756256103516 346.606262207031 341.668762207031 337.537506103516 339.043762207031 348.206237792969 354.243743896484 361.887512207031 363.568756103516 363.206237792969 360.825012207031 359.28125 360.875 363.34375 371.53125 380.818756103516 393.806243896484 406.106262207031 424.118743896484 435.787506103516 442.831237792969 448.28125 454.075012207031 462.399993896484 476.975006103516 484.537506103516 489.34375 497.868743896484 507.512512207031 520.712524414062 534.4375 546.3125 558.418762207031 568.481262207031 576.512512207031 581.3125 579.150024414062 576.431274414062 567.400024414062 557.118774414062 547.362487792969 528.075012207031 501.799987792969 478.5625 462.4375 447.037506103516 
337.28125 343.106262207031 347.28125 350.612487792969 351.606262207031 352.450012207031 352.768768310547 350.262512207031 350.950012207031 354.931243896484 363.450012207031 370.856262207031 371.443756103516 372.125 369.881256103516 367.25 367.018737792969 370.5 375.600006103516 383.475006103516 398.643737792969 410.737487792969 419.575012207031 425.15625 441.481262207031 449.100006103516 450.875 455.037506103516 460.543762207031 472.75 478.149993896484 480.53125 487.856262207031 495.53125 506.225006103516 513.612487792969 523.075012207031 534.131225585938 545.012512207031 553.706237792969 558.168762207031 556.631225585938 558.643737792969 554.737487792969 543.28125 532.9375 514.912475585938 485.306243896484 466.118743896484 453.018737792969 433.262512207031 
340.768737792969 345.662506103516 349.274993896484 355.993743896484 358.6875 357.981262207031 360.75 362.34375 365.78125 370.924987792969 379.3125 387.200012207031 382.793762207031 379.65625 376.549987792969 374.299987792969 373.1875 376.825012207031 382.893737792969 391.9375 406.625 419.075012207031 428.96875 438.243743896484 443.587493896484 443.649993896484 444.049987792969 445.524993896484 450.431243896484 457.418762207031 461.706237792969 464.243743896484 468.649993896484 475.681243896484 484.637512207031 492.568756103516 503.100006103516 514.331237792969 520.712524414062 525.46875 531.65625 532.849975585938 533.631225585938 525.068725585938 514.400024414062 497 473.356262207031 456.6875 445.549987792969 438.381256103516 417.143737792969 
344.943756103516 349.3125 353.237487792969 358.5625 363.131256103516 367.006256103516 368.612487792969 370.075012207031 373.487487792969 381.493743896484 389.606262207031 397.100006103516 393.774993896484 382.006256103516 378.125 378.15625 375.6875 379.149993896484 386.731262207031 393.956237792969 408.818756103516 419.34375 425.337493896484 432.84375 427.943756103516 424.881256103516 429.412506103516 430.649993896484 436.78125 440.943756103516 443.643768310547 444.450012207031 447.40625 453.362518310547 459.631256103516 469.893737792969 480.700012207031 491.481262207031 499.6875 504.725006103516 503.081237792969 507.8125 505.006256103516 498.399993896484 494.6875 484.625 465.081237792969 439.606262207031 425.018737792969 423.987487792969 415.09375 
347.806243896484 351.856262207031 354.543731689453 359.225006103516 366.075012207031 370.0625 371.831237792969 374.637512207031 379.950012207031 386.274993896484 390.6875 392.806243896484 391.262512207031 384.075012207031 376.431243896484 377.475006103516 374.887512207031 375.899993896484 383.681243896484 388.806243896484 401.700012207031 409.612487792969 416.568756103516 416.831237792969 414.399993896484 412.850006103516 414.943756103516 416.987487792969 420.731262207031 424.356262207031 425.450012207031 426.306243896484 425.381256103516 430.006256103516 437.174987792969 448.53125 459.256256103516 472.337493896484 483.274993896484 485.962493896484 478.831237792969 474.581237792969 480.743743896484 488.256256103516 490.537506103516 477.118743896484 461.625 444.799987792969 428.299987792969 428.8125 425.53125 
348.450012207031 352.831237792969 356.399993896484 361.693756103516 369.362487792969 373.256256103516 376.71875 379.631256103516 382.5625 386.081237792969 389.043762207031 390.524993896484 387.700012207031 381.556243896484 372.612487792969 369.125 368.200012207031 373.356262207031 379.681243896484 384.78125 394.337493896484 403.918762207031 407.75 406.8125 404.25 404.25 404.825012207031 407.325012207031 410.924987792969 411.78125 408.837493896484 404.293762207031 406.912506103516 408.787506103516 413.356262207031 423.362487792969 441.693756103516 460.768737792969 471.487487792969 470.6875 465.112487792969 467.081237792969 479.537506103516 481.818756103516 479.787506103516 472.981262207031 465.006256103516 451.350006103516 441.987487792969 432.5625 423.774993896484 
346.887512207031 351.068756103516 357.075012207031 364.149993896484 371.231262207031 375.418762207031 378.793762207031 382.21875 386.881256103516 388.462493896484 389.5625 389.768737792969 387.162506103516 379.618743896484 368.28125 356.987487792969 360.649993896484 370.456237792969 374.975006103516 380.462493896484 389.524993896484 396.174987792969 398.631256103516 397.600006103516 394.34375 395.356262207031 394.262512207031 397.5625 400.700012207031 401.693756103516 400.918762207031 394.931243896484 388.375 386.931243896484 387.256256103516 406.337493896484 425.087493896484 445.643737792969 458.568756103516 465.725006103516 465.056243896484 469.950012207031 475.018737792969 473.46875 468.706237792969 461.774993896484 454.450012207031 443.981262207031 435.075012207031 426.043762207031 413.774993896484 
343.681243896484 349.549987792969 357.331237792969 365.606262207031 372.631256103516 377.024993896484 382.856262207031 386.549987792969 388.606262207031 390.268737792969 389.856262207031 389.762512207031 385.924987792969 378.868743896484 370.118743896484 362.418762207031 357.143737792969 363.581237792969 371.200012207031 377.987487792969 386.168762207031 393.418762207031 395.162506103516 389.037506103516 385.493743896484 384.518737792969 384.837493896484 387.637512207031 392.306243896484 394.506256103516 392.387512207031 386.4375 380.612487792969 377.774993896484 385.487487792969 398.918762207031 418.931243896484 441.46875 462.225006103516 467.731262207031 469.6875 471.5625 468.106262207031 464.8125 457.9375 452 446.700012207031 440 433.518737792969 419.606262207031 406.899993896484 
338.962493896484 347.825012207031 356.162506103516 367.637512207031 375.71875 381.893737792969 389.081237792969 391.53125 392.71875 391.975006103516 389.443756103516 388.337493896484 384.193756103516 379.331237792969 372.024993896484 366.487487792969 360.706237792969 355.556243896484 366.924987792969 374.5 384.668762207031 389.96875 391.075012207031 384.631256103516 381.706237792969 380.631256103516 377.056243896484 383.100006103516 389.049987792969 389.306243896484 381.225006103516 365.431243896484 368.137512207031 371.793762207031 377.024993896484 395.287506103516 415.049987792969 435.725006103516 453.25 466.881256103516 465.825012207031 465.337493896484 461.981262207031 457.299987792969 451.606262207031 445.674987792969 441.125 435.325012207031 429.237487792969 413.662506103516 406.787506103516 
332.78125 344.0625 355.600006103516 366.762512207031 376.756256103516 385.193756103516 391.962493896484 397.825012207031 399.056243896484 396.943756103516 391.456237792969 385.456237792969 381.856262207031 379.774993896484 369.868743896484 364.631256103516 360.462493896484 356.962493896484 358.712493896484 366.181243896484 382.456237792969 390.75 380.268737792969 379.350006103516 379.918762207031 382.493743896484 383.143737792969 385.987487792969 392.118743896484 389.600006103516 380.737487792969 366.350006103516 362.506256103516 355.75 359.3125 378.087493896484 399.46875 419.274993896484 440.793762207031 452.325012207031 459.543762207031 459.799987792969 455.056243896484 450.375 445.5625 438.850006103516 435.6875 430.725006103516 426.293762207031 405.331237792969 408.256256103516 
326.081237792969 339.943756103516 351.918762207031 362.418762207031 376.087493896484 388.787506103516 398.818756103516 402.993743896484 403.71875 401 393.362487792969 388.899993896484 384.512512207031 380.212493896484 368.71875 356.725006103516 349.362487792969 354.081237792969 355.018737792969 361.21875 370.518737792969 374.924987792969 378.443756103516 378.399993896484 379.418762207031 381.306243896484 384.331237792969 391.087493896484 393.212493896484 385.868743896484 372.543762207031 365.862487792969 356.0625 342.256256103516 337.200012207031 355.3125 384.118743896484 410.649993896484 430.325012207031 444.28125 450.674987792969 451.34375 447.887512207031 443.46875 435.5 428.881256103516 428.53125 423.956237792969 419.618743896484 402.075012207031 408.649993896484 
317.587493896484 335.450012207031 350.412506103516 364.412506103516 376.168762207031 391.112487792969 404.537506103516 410.899993896484 410.549987792969 404.243743896484 394.706237792969 384.981262207031 376.081237792969 369.493743896484 358.181243896484 349.356262207031 343.412506103516 343.356262207031 346.943756103516 350.056243896484 361.075012207031 369.700012207031 375.056243896484 379 387.262512207031 394.381256103516 396.443756103516 397.162506103516 394.793762207031 390.049987792969 379.28125 369.668762207031 354.862487792969 337.487487792969 323.731262207031 346.4375 380.393737792969 408.518737792969 427.300018310547 437.887512207031 441.831237792969 444.125 438.556243896484 435.637481689453 428.875 425.424987792969 423.787506103516 420.731262207031 409.28125 402.924987792969 405.231262207031 
311.75 326.424987792969 343 363.831237792969 380.662506103516 393.612487792969 407.71875 418.012512207031 418.293762207031 408.299987792969 392.162506103516 373.96875 360.418762207031 352.768737792969 348.875 343.318756103516 342.237487792969 340.981262207031 343.174987792969 344.706237792969 347.943756103516 354.662506103516 363.618743896484 369.668762207031 379.4375 394.293762207031 413.700012207031 413.65625 409.268737792969 402.606262207031 389.412506103516 375.693756103516 364.149993896484 354.774993896484 352.424987792969 365.443756103516 391.393737792969 415.375 429.068756103516 436.268737792969 439.850006103516 439.850006103516 434.40625 430.0625 422.731262207031 419.350006103516 419.543762207031 416.90625 406.618743896484 410.043762207031 405.043762207031 
307.325012207031 328.662506103516 347.475006103516 368.212493896484 386.206237792969 399.549987792969 410.237487792969 423.481262207031 431.643737792969 413.856262207031 388.568756103516 363.15625 345.181243896484 339.049987792969 339.84375 340.487487792969 339.075012207031 336.299987792969 335.381256103516 333.987487792969 336.962493896484 341.299987792969 345.3125 353.006256103516 368.118743896484 387.487487792969 409.868743896484 415.337493896484 413.693756103516 405.381256103516 395.225006103516 384.981262207031 382.743743896484 381.018737792969 384.662506103516 392.193756103516 408.950012207031 426.75 435.53125 436.8125 436.950012207031 433.537506103516 427.943756103516 422.862487792969 416.424987792969 412.587493896484 412.424987792969 409.943756103516 407.043762207031 414.362487792969 409.53125 
306.081237792969 327.493743896484 349.399993896484 368.381256103516 386.087493896484 398.924987792969 412.40625 422.456237792969 426.693756103516 407.393737792969 381.068756103516 358.0625 333.331237792969 331.018737792969 334.118743896484 334.793762207031 332.674987792969 331.71875 328.456237792969 326.649993896484 326.549987792969 325.975006103516 327.600006103516 337.262512207031 351.318756103516 364.475006103516 382.200012207031 398.018737792969 404.96875 406.0625 403.368743896484 402.262512207031 405.200012207031 405.9375 411.181243896484 417.712493896484 430.306243896484 439.368743896484 440.850006103516 436.887512207031 434.206237792969 427.856262207031 420.899993896484 413.84375 410.125 407.481262207031 404.649993896484 396.837493896484 409.024993896484 414.15625 412.825012207031 
308.850006103516 330.018737792969 350.643737792969 371.662506103516 391.34375 401.487487792969 410.293762207031 416.668762207031 413.118743896484 401.03125 379.237487792969 356.674987792969 341.875 332.318756103516 331.143737792969 330.662506103516 330.918762207031 328.8125 324.8125 319.443756103516 315.912506103516 312.481262207031 312.181243896484 318.362487792969 329.337493896484 347.868743896484 367.774993896484 384.850006103516 398.9375 410.8125 416.774993896484 422.643768310547 429.287506103516 430.84375 432.674987792969 433.637512207031 440.837493896484 442.6875 441.337493896484 437.743743896484 432.412506103516 423.450012207031 416.743743896484 407.206237792969 395.762512207031 392.862487792969 388.700012207031 398.493743896484 406.068756103516 414.587493896484 414.575012207031 
322.237487792969 340.850006103516 354.737487792969 374.131256103516 390.681243896484 398.987487792969 405.143737792969 407.862487792969 399.575012207031 387.125 373.450012207031 359.581237792969 346.700012207031 338.306243896484 333.3125 333.424987792969 332.043762207031 328.5 321.881256103516 312.887512207031 309.237487792969 301.850006103516 296.524993896484 296.006256103516 310.787506103516 332.875 358.799987792969 377.818756103516 398.243743896484 412.581237792969 427.90625 442.174987792969 452.412506103516 449.875 445.462493896484 443.987487792969 446.15625 445.831237792969 441.412506103516 436.487487792969 431.081237792969 419.6875 409.524993896484 397.325012207031 388.737487792969 380.412506103516 397.506256103516 405.825012207031 408.681243896484 416.893737792969 413.887512207031 
337.081237792969 350.106262207031 363.212493896484 377.012512207031 387.46875 394.806243896484 397.262512207031 395.662506103516 387.90625 382.643737792969 374.631256103516 361.9375 350.950012207031 342.962493896484 338.493743896484 336.799987792969 334.1875 328.149993896484 322.28125 314.424987792969 305.774993896484 295.59375 285.362487792969 283.212493896484 301.125 321.481262207031 348.181243896484 369.075012207031 391.75 409.34375 429.825012207031 449.600006103516 465.337493896484 460.418762207031 453.6875 449.368743896484 448.856262207031 446.899993896484 439.924987792969 434.28125 426.299987792969 416.631256103516 405.731262207031 395.756256103516 394.899993896484 400.931243896484 413.306243896484 415.318756103516 415.987487792969 411.568756103516 406.15625 
355.174987792969 363.706237792969 371.768737792969 379.756256103516 387.299987792969 389.943756103516 391.681243896484 386.924987792969 382.53125 378.868743896484 370.09375 361.506256103516 352.100006103516 346.149993896484 342.46875 338.5625 336.4375 333.549987792969 325.475006103516 318.6875 310.143737792969 298.09375 292.918762207031 291.274993896484 302.462493896484 320.012512207031 341.274993896484 362.262512207031 383.137512207031 401.931243896484 419.899993896484 437.274993896484 451.575012207031 453.056243896484 452.768737792969 448.331237792969 448.612487792969 447.049987792969 440.306243896484 433.356262207031 426.056243896484 416.912506103516 406.793762207031 400.137481689453 410.243743896484 419.806243896484 428.625 424.893737792969 419.0625 406.774993896484 401.325012207031 
369.712493896484 375.875 378.268737792969 382.21875 384.431243896484 382.243743896484 381.112487792969 380.556243896484 379.743743896484 374.84375 369.8125 362.149993896484 353.018737792969 347.768737792969 346.918762207031 346.825012207031 345.462493896484 338.618743896484 333 325.162506103516 316.924987792969 305.368743896484 300.399993896484 301.143737792969 307.887512207031 321.46875 339.768768310547 357.46875 375.53125 391.956237792969 404.681243896484 418.049987792969 428.881256103516 437.712493896484 442.9375 442.681243896484 445.206237792969 445.768737792969 440.5 431.774993896484 420.912506103516 412.700012207031 406.043762207031 412.200012207031 423.956237792969 428.881256103516 435.831237792969 429.456237792969 417.899993896484 407.118743896484 393.649993896484 
377.399993896484 380.274993896484 379.856262207031 376.693756103516 377.100006103516 376.006256103516 375.15625 375.418762207031 373.556243896484 369.399993896484 366.762512207031 360.524993896484 356.462493896484 352.549987792969 351.481262207031 350.193756103516 348.59375 346.518737792969 339.899993896484 329.90625 319.181243896484 311.481262207031 308.149993896484 306.606262207031 309.631256103516 319.450012207031 335.268737792969 348.375 363.4375 376.831237792969 387.962493896484 397.09375 408.481262207031 420.631256103516 429.993743896484 432.693756103516 438.431243896484 441.512481689453 435.637512207031 431.90625 426.950012207031 422.09375 416.431243896484 423.106262207031 426.893737792969 434.46875 435.193756103516 429.075012207031 417.481262207031 404.9375 387.225006103516 
380.65625 379.668762207031 376.4375 372.768737792969 372.274993896484 369.837493896484 369.774993896484 367.71875 365.981262207031 364.606262207031 363.475006103516 359.84375 359.306243896484 354.4375 354.399993896484 353.643737792969 354.100006103516 352.612487792969 347.924987792969 339.350006103516 327.918762207031 317.943756103516 312.331237792969 307.424987792969 306.806243896484 318 327.693756103516 339.431243896484 351.012512207031 360.556243896484 370.893737792969 379.581237792969 392.912506103516 405.693756103516 415.412506103516 421.381256103516 425.581237792969 430.924987792969 431.787506103516 430.78125 428.75 424.818756103516 423.125 424.756256103516 429.375 433.137481689453 432.356262207031 425.28125 414.068756103516 398.225006103516 381.081237792969 
379.549987792969 375.975006103516 371.587493896484 369.674987792969 367.131256103516 361.931243896484 361.287506103516 358.362487792969 356.90625 355.787506103516 356.818756103516 358.587493896484 357.143737792969 355.293762207031 355.006256103516 355.118743896484 352.424987792969 352.024993896484 347.549987792969 343.975006103516 333.412506103516 323.068756103516 314.53125 309.225006103516 310.549987792969 315.549987792969 321.056243896484 330.59375 337.887512207031 347.274993896484 357.606262207031 366.137512207031 376.618743896484 389.274993896484 400.243743896484 406.962493896484 414.15625 418.256256103516 420.287506103516 421.012512207031 426.568756103516 426.318756103516 425.174987792969 427.3125 431.950012207031 437.899993896484 437.325012207031 426.918762207031 411.537506103516 394.21875 375.212493896484 
371.268737792969 364.962493896484 361.331237792969 358.174987792969 356.899993896484 351.53125 347.237487792969 345.493743896484 343.475006103516 344.931243896484 351.262512207031 352.274993896484 354.90625 356.299987792969 355.118743896484 353.081237792969 351.4375 351.549987792969 346.256256103516 341.381256103516 334.087493896484 324.524993896484 315.443756103516 310.356262207031 310.924987792969 310.59375 314.981262207031 319.681243896484 325.0625 334.743743896484 342.706237792969 349.381256103516 358.831237792969 371.243743896484 382.381256103516 391.262512207031 398.306243896484 404.225006103516 404.587493896484 413.693756103516 418.03125 418.368743896484 420.274993896484 424.987487792969 430.568756103516 439.512512207031 438.393737792969 422.068756103516 405.256256103516 386.731231689453 367.337493896484 
359.825012207031 354.868743896484 351.881256103516 348.181243896484 345.037506103516 341.606262207031 337.318756103516 332.71875 330.512512207031 332.34375 337.274993896484 344.387512207031 350.631256103516 351.181243896484 351.018737792969 347.681243896484 346.331237792969 346.231262207031 342.524993896484 338.049987792969 331.21875 323.125 315.181243896484 306.987487792969 307.112487792969 305.087493896484 305.53125 307.649993896484 311.549987792969 318.506256103516 325.90625 334.0625 343.006256103516 354.081237792969 365.131256103516 373.21875 381.256256103516 383.993743896484 391.600006103516 399.90625 403.543762207031 407.131256103516 411.662506103516 418.200012207031 425.53125 431.875 428.674987792969 411.643737792969 395.28125 377.887512207031 360.0625 
346.018737792969 343.518737792969 342.200012207031 336.887512207031 332.768737792969 327.943756103516 322.65625 318.868743896484 314.643737792969 314.462493896484 323.162506103516 335.362487792969 346.668762207031 352.799987792969 350.475006103516 346.350006103516 341.649993896484 338.412506103516 337.65625 331.600006103516 327.399993896484 318.362487792969 311.299987792969 301.4375 299.03125 298.318756103516 297.40625 296.0625 298.393737792969 306.081237792969 312.225006103516 320.200012207031 327.0625 337.887512207031 346.881256103516 353.606262207031 358.893737792969 370.431243896484 377.887512207031 384.231262207031 387.799987792969 392.825012207031 399.1875 405.512512207031 409.231262207031 410.887512207031 407.524993896484 395.912506103516 383.287506103516 366.887512207031 348.375 
332.862487792969 332.575012207031 330.393737792969 325.643737792969 320.506256103516 313.899993896484 308.799987792969 303.087493896484 295.793762207031 293.59375 300.725006103516 317.037506103516 334.606262207031 343.050018310547 341.662506103516 337.774993896484 333.65625 331.262512207031 330.149993896484 327.674987792969 321.618743896484 314.456237792969 303.793762207031 295.862487792969 291.256256103516 289.587493896484 288.8125 287.987487792969 289.162506103516 294.649993896484 300.3125 305.96875 311.90625 322.100006103516 328.487487792969 331.506256103516 342.256256103516 352.96875 358.325012207031 364.9375 371.199981689453 375.293762207031 379.768737792969 386.068756103516 387.09375 386.84375 384.875 378.350006103516 366.137512207031 353.893737792969 338.631256103516 
320.575012207031 322.068756103516 319.006256103516 315.0625 309.543762207031 303.024993896484 297.84375 288.862487792969 277.625 270.743743896484 280.831237792969 305.012512207031 320.53125 327.049987792969 329.087493896484 326.71875 321.006256103516 319.899993896484 319.975006103516 315.799987792969 310.987487792969 303.6875 294.012512207031 287.337493896484 281.856262207031 279.706237792969 279.818756103516 279.537506103516 279.5 283.34375 289.337493896484 295.193756103516 300.268737792969 306.443756103516 310.981262207031 316.399993896484 326.231262207031 337.03125 344.293762207031 347.231262207031 352.943756103516 356.081237792969 361.543762207031 366.243743896484 368.243743896484 365.862487792969 366.756256103516 360.875 351.993743896484 341.943756103516 331.1875 
313.006256103516 312.325012207031 308.162506103516 305.162506103516 299.9375 294.337493896484 287.806243896484 277.887512207031 268.362487792969 259.256256103516 276.006256103516 299.131256103516 310.212493896484 315.399993896484 316.450012207031 314.706237792969 308.4375 308.475006103516 305.575012207031 300.637512207031 296.162506103516 289.006256103516 282.799987792969 276.768737792969 271.493743896484 270.856262207031 268.600006103516 270 270.787506103516 274.931243896484 278.125 283.524993896484 289.518737792969 293.518737792969 294.731262207031 303.6875 312.456237792969 320.018737792969 328.818756103516 332.53125 335.1875 338.762512207031 340.71875 343.068756103516 346.162506103516 346.556243896484 345.71875 346.856262207031 339.543762207031 330.987487792969 321.568756103516 
310.212493896484 305.887512207031 301.700012207031 299.068756103516 295.387512207031 287.893737792969 281.875 275.112487792969 272.325012207031 277.081237792969 293.268737792969 301.381256103516 302.681243896484 305.71875 306.3125 302.825012207031 297.912506103516 296.368743896484 290.612487792969 287.118743896484 281.962493896484 275.018737792969 269.8125 266.493743896484 263.225006103516 260.65625 260.018737792969 261.537506103516 262.5625 267.96875 272.043731689453 274.293762207031 279.462493896484 284.78125 291.393737792969 296.418762207031 301.774993896484 309.362487792969 314.168762207031 315.03125 317.987487792969 321.756256103516 322.162506103516 325.481262207031 327.606262207031 329.887512207031 329.237487792969 329.018737792969 325.256256103516 321.456237792969 312.643737792969 
307.287506103516 303.006256103516 298.875 296.100006103516 292.256256103516 286.399993896484 278.8125 276.825012207031 277.137512207031 281.149993896484 288.450012207031 294.799987792969 295.34375 296.493743896484 296.206237792969 292.487487792969 287.993743896484 285.475006103516 278.524993896484 272.912506103516 266.818756103516 262.90625 255.75 252.75 253.074996948242 252.087493896484 252.581253051758 254.6875 256.412506103516 261.149993896484 263.100006103516 269.912506103516 277.274993896484 282.28125 288.4375 292.012512207031 295.1875 300.587493896484 302.518737792969 300.25 301.137512207031 304.056243896484 302.924987792969 305.056243896484 308.693756103516 311.581237792969 314.456237792969 315.850006103516 315.306243896484 313.912506103516 306.731262207031 
304.112487792969 301.506256103516 297.475006103516 294.09375 288.90625 282.618743896484 277.793762207031 279.125 278.431243896484 278.1875 282.331237792969 286.037506103516 288.237487792969 286.818756103516 286.4375 283.21875 278.512512207031 275.03125 267.581237792969 260.174987792969 252.762496948242 249.262496948242 243.206253051758 240.318756103516 243.612503051758 244.287506103516 245 248.050003051758 251.243743896484 254.543746948242 259.131256103516 269.381256103516 274.53125 280.868743896484 287.106262207031 291.575012207031 294.181243896484 295.71875 295.981262207031 289.1875 287.674987792969 287.162506103516 286.049987792969 287.368743896484 293.206237792969 298.381256103516 300.462493896484 302.950012207031 306.575012207031 305.131256103516 300.600006103516 
304.875 302.799987792969 299.975006103516 295.362487792969 289.950012207031 285.212493896484 281.912506103516 280.34375 280.9375 279.162506103516 282.149993896484 283.506256103516 285.131256103516 283.649993896484 282.15625 279.037506103516 274.399993896484 269.643737792969 262.34375 252.612503051758 243.137496948242 236.274993896484 231.168746948242 230.768753051758 234.25 236.893753051758 238.456253051758 243.699996948242 249.274993896484 255.637496948242 256.174987792969 267.100006103516 274.256256103516 282.793762207031 289.15625 289.425018310547 292.174987792969 292.924987792969 289.331237792969 281.65625 277.581237792969 272.518737792969 270.206237792969 275.387512207031 282.793762207031 288.59375 291.600006103516 293.649993896484 297.481262207031 296.587493896484 294.5625 
306.006256103516 303.418762207031 301.325012207031 294.625 290.868743896484 287.643737792969 284.787506103516 283.337493896484 281.600006103516 279.331237792969 280.25 280.856262207031 281.831237792969 278.756256103516 278.118743896484 275.112487792969 271.731262207031 268.34375 259.518737792969 247.056243896484 232.987503051758 222.206253051758 219.34375 223.443756103516 228.199996948242 232.037506103516 235.100006103516 238.943756103516 245.324996948242 251.018753051758 255.90625 262.256256103516 271.356262207031 280.850006103516 288.806243896484 293.700012207031 290.899993896484 290.681243896484 283.581237792969 276.287506103516 272.731262207031 267.350006103516 263.40625 267.75 275.075012207031 278.53125 279.862487792969 285.862487792969 291.756256103516 289.631256103516 288.399993896484 
307.950012207031 305.362487792969 303.143737792969 295.506256103516 293.993743896484 289.037506103516 285.21875 283.512512207031 281.818756103516 279.649993896484 279.75 279.612487792969 278.287506103516 276.081237792969 274.518737792969 272.387512207031 268.793762207031 264.225006103516 258.962493896484 245.956253051758 229.725006103516 216.15625 214.412506103516 218.850006103516 224.137496948242 228.199996948242 231.206253051758 234.850006103516 240.262496948242 247.337493896484 251.043746948242 257.568756103516 265.356262207031 275.306243896484 289.549987792969 299.418762207031 293.8125 287.375 280.362487792969 273.762512207031 268.424987792969 262.881256103516 261.831237792969 263.731262207031 269.100006103516 271.393737792969 275.131256103516 278.993743896484 280.368743896484 282.537506103516 282.487487792969 
306.918762207031 304.712493896484 302.262512207031 295.768737792969 294.037506103516 289.537506103516 283.043762207031 282.3125 280.46875 278.799987792969 276.875 276.256256103516 275.274993896484 273.887512207031 270.399993896484 267.3125 263.5625 259.46875 255.068756103516 245.306243896484 231.706253051758 220.600006103516 216.706253051758 219 223.3125 227.0625 230.25 233.5625 239.6875 245.112503051758 251.331253051758 255.199996948242 261.299987792969 269.268737792969 282.512512207031 294.65625 290.318756103516 282.493743896484 277.612487792969 271.462493896484 266.875 263.831237792969 260.818756103516 260.756256103516 265.212493896484 267.381256103516 268.993743896484 272.918762207031 272.618743896484 275.149993896484 276.962493896484 
