ncols        51
nrows        45
xllcorner    -63.500000000000
yllcorner    -7.500000000000
cellsize     0.166666666667
NODATA_value -99
246.337493896484 234.15625 229.418746948242 230.081253051758 229.100006103516 229.362503051758 227.087493896484 226.774993896484 229.131256103516 233.824996948242 237.493743896484 241.09375 246.350006103516 252.262496948242 258.237487792969 265.825012207031 271.893737792969 274.993743896484 280.024993896484 287.018737792969 292.387512207031 297.043762207031 305.356262207031 311.3125 318.924987792969 328.581237792969 336.612487792969 346.625 354.456237792969 368.40625 378.15625 390.756256103516 403.862487792969 414.887512207031 425.899993896484 437.456237792969 446.931243896484 452.1875 454.881256103516 459.625 460.443756103516 461.256256103516 457.75 459.962493896484 456.912506103516 451.350006103516 447.71875 438.487487792969 433.262512207031 432.018737792969 425.09375 
243.481246948242 231.831253051758 230.90625 233.837493896484 237.006256103516 238.912506103516 237.543746948242 238.256256103516 242.8125 246.262496948242 250.71875 254.287506103516 257.90625 261.84375 265.78125 270.1875 274.487518310547 277.756256103516 285.806243896484 294.462493896484 300.674987792969 307.287506103516 314.018737792969 321.299987792969 326.987487792969 332.962493896484 341.618743896484 349.987487792969 357.700012207031 367.806243896484 376.318756103516 391.337493896484 399.362487792969 410.981262207031 419.012512207031 422.943756103516 433.149993896484 437.856262207031 442.381256103516 439.174987792969 438.712493896484 444.1875 440.71875 435.962493896484 433.737487792969 426.743743896484 423.243743896484 417.612487792969 415.5625 414.756256103516 411.162506103516 
238.074996948242 231.324996948242 236.356246948242 242.768753051758 248.53125 252.918746948242 255.78125 259.899993896484 265.475006103516 269.087493896484 272.25 273.09375 273.625 273 275 278.318756103516 279.475006103516 280.46875 286.875 295.231262207031 302.262512207031 311.756256103516 319.668762207031 326.325012207031 332.137512207031 340.862487792969 349.649993896484 354.643737792969 358.350006103516 366.6875 374.181243896484 385.181243896484 397.193756103516 405.556243896484 415.625 418.049987792969 425.306243896484 430.831237792969 432.018737792969 431.1875 433.71875 431.081237792969 430.143737792969 425.206237792969 420.262512207031 415.5 410.600006103516 406.818756103516 399.762512207031 400.03125 397.368743896484 
229.625 224.28125 237.893753051758 248.662506103516 259.350006103516 265.231262207031 270.950012207031 279.193756103516 289.243743896484 294.337493896484 294.575012207031 292.293762207031 287.506256103516 284.024993896484 283.600006103516 283.693756103516 282.024993896484 282.012512207031 286.575012207031 296.081237792969 308.368743896484 317.337493896484 324.481262207031 332.518737792969 339.024993896484 345.84375 353.725006103516 354.668762207031 356.268737792969 366.050018310547 372.96875 381.96875 391.193756103516 398.5 404.856262207031 414.118743896484 422.75 427.325012207031 428.412506103516 428.037506103516 426.993743896484 427.956237792969 420.606262207031 413.612487792969 411.512512207031 403.168762207031 397.200012207031 394.456237792969 386.34375 381.337493896484 379.975006103516 
236.231246948242 230.600006103516 235.550003051758 249.631256103516 265.868743896484 273.09375 282.168762207031 294.112487792969 309.299987792969 318.306243896484 314.006256103516 305.206268310547 300.262481689453 295.40625 292.581237792969 289.256256103516 284.6875 283.768737792969 286.987487792969 297.149993896484 310.356262207031 319.40625 326.131256103516 338.368743896484 343.850006103516 350.612487792969 350.881256103516 354.168762207031 355.5 362.137512207031 369.956237792969 375.543762207031 382.912506103516 393.643737792969 401.975006103516 407.487487792969 417.25 424.481262207031 426.356262207031 424.299987792969 424.606262207031 419.168762207031 411.918762207031 406.612487792969 399.912506103516 391.881256103516 382.274993896484 376.243743896484 368.212493896484 366.899993896484 366.962493896484 
242.506256103516 239.837493896484 244.274993896484 248.543746948242 265.84375 278.387481689453 288.575012207031 299.112487792969 315.537506103516 326.256256103516 323.087493896484 311.956237792969 308.506256103516 304.71875 298.662506103516 297.024993896484 290.1875 287.662506103516 291.825012207031 303.206237792969 314.493743896484 325.037506103516 334.987487792969 340.637512207031 346.75 352.637512207031 352.537506103516 352.293762207031 354.475006103516 360.5625 366.912506103516 373.318756103516 379.131256103516 387.40625 393.65625 400.15625 406.537506103516 411.800018310547 418.043762207031 416.043762207031 411.725006103516 407.174987792969 398.768737792969 392.825012207031 387.100006103516 375.487487792969 363.325012207031 357.981262207031 351.143737792969 345.75 342.043762207031 
251.34375 249.824996948242 254.068756103516 259.075012207031 268.125 275.587493896484 285.09375 295.431243896484 301.049987792969 311.78125 315.668762207031 312.056243896484 311.825012207031 310.368743896484 306.4375 302.850006103516 300.524993896484 300.693756103516 303.581237792969 314.693756103516 322.65625 330.431243896484 335.818756103516 343.293762207031 350.081237792969 358.100006103516 355.21875 353 350.25 355.774993896484 361.962493896484 364.637512207031 367.643737792969 374.299987792969 380.793762207031 388.356262207031 391.912506103516 396.118743896484 402.387512207031 403.643737792969 397.174987792969 389.487487792969 381.65625 377.975006103516 369.625 362.700012207031 348.100006103516 333.53125 324.756256103516 324.606262207031 321.024993896484 
259.262512207031 259.075012207031 263.25 270.337493896484 278.956237792969 286.350006103516 286.700012207031 281.012512207031 277.056243896484 289.737487792969 305.306243896484 310.1875 315.762512207031 315.818756103516 314.137512207031 313.181243896484 311.537506103516 314.762512207031 317.956237792969 323.287506103516 333.106262207031 337.875 342.393737792969 344.268737792969 352.368743896484 352.850006103516 353.28125 348.725006103516 345.862487792969 350.331237792969 354.831237792969 356.043762207031 359.443756103516 361.649993896484 363.518737792969 367.768737792969 372.375 378.037506103516 379.987487792969 375.575012207031 373.893737792969 367.237487792969 361.65625 354.912506103516 345.575012207031 334.174987792969 320.681243896484 309.893737792969 302.5 296.037506103516 292.193756103516 
267.337493896484 268.431243896484 273.956237792969 279.325012207031 285.96875 291.0625 290.893737792969 286.956237792969 276.581237792969 276.637512207031 292.268737792969 304.737487792969 316.518737792969 318.25 318.418762207031 320.668762207031 321.493743896484 327.206237792969 334.174987792969 332.881256103516 333.8125 341.306243896484 340.149993896484 349.34375 349.793762207031 348.368743896484 344.350006103516 344.075012207031 345.493743896484 346.6875 352.325012207031 350.712493896484 346.006256103516 343.737487792969 346.9375 351.368743896484 355.693756103516 360.575012207031 363.987487792969 357.625 351.143737792969 344.40625 342.725006103516 340.462493896484 324.793762207031 313.799987792969 302.012512207031 288.543762207031 277.612487792969 271.868743896484 268.618743896484 
274.487487792969 278.181243896484 283.625 289.918762207031 293.181243896484 297.987487792969 299.262512207031 297.700012207031 294.393737792969 296.78125 304.618743896484 307.287506103516 319.96875 321.887512207031 325.256256103516 325.875 327.487487792969 333.412506103516 341.5625 345.987487792969 342.762512207031 340.25 339.40625 344.856262207031 342.037506103516 340.46875 335.962493896484 335.524993896484 338.881256103516 343.712493896484 343.231262207031 339.049987792969 336.899993896484 334.493743896484 332.618743896484 335.09375 336.987487792969 341.337493896484 344.268737792969 343.825012207031 341.743743896484 338.737487792969 328.643737792969 319.8125 309.537506103516 303.212493896484 289.537506103516 272.950012207031 261.237487792969 251.318756103516 241.537506103516 
281.106262207031 287.331237792969 291.674987792969 298.043762207031 301.037506103516 307.106262207031 309.762512207031 307.206237792969 306.28125 311.600006103516 319.893737792969 325.549987792969 324.1875 327.981262207031 328.8125 328.912506103516 331.262512207031 338.512512207031 345.981262207031 354.049987792969 361.068756103516 352.225006103516 343.5625 329.662506103516 334.78125 337.806243896484 333.118743896484 331.668762207031 329.543762207031 329.737487792969 330.918762207031 328.6875 324.787506103516 320.9375 317.112487792969 315.399993896484 316.306243896484 321.0625 327.0625 328.818756103516 328.193756103516 323.125 319.59375 306.96875 294.6875 284.71875 274.174987792969 256.487487792969 245.393753051758 235.774993896484 223.024993896484 
288.068756103516 293.068756103516 298.0625 304.231262207031 308.956237792969 311.887512207031 317.78125 319.850006103516 322.1875 323.243743896484 330.487487792969 339.262512207031 331.818756103516 332.337493896484 335.356262207031 332.793762207031 334.331268310547 340.862487792969 349.118743896484 361.318756103516 372.200012207031 369.131256103516 357.387512207031 338.450012207031 327.618743896484 321.375 314.6875 313.431243896484 314.706237792969 314.024993896484 310.393737792969 307.75 304.137512207031 300.375 299.887512207031 302.162506103516 305.418762207031 307.943756103516 311.28125 314.106262207031 316.40625 311.75 302.649993896484 281.375 267.506256103516 252.993743896484 239.074996948242 235.300003051758 230.050003051758 222.5625 205.918746948242 
295.668762207031 298.293762207031 302.424987792969 308.700012207031 312.78125 318.462493896484 321.956237792969 323.487487792969 327.243743896484 332.975006103516 339.162506103516 345.056243896484 342.825012207031 330.350006103516 329.837493896484 332.881256103516 333.943756103516 340.1875 347.40625 358.799987792969 373.568756103516 368.943756103516 357.881256103516 337.943756103516 309.78125 297.618743896484 299.981262207031 300.356262207031 302.768737792969 302.868743896484 296.46875 288.756256103516 283.90625 279.331237792969 280.100006103516 286.018737792969 291.524993896484 298.037506103516 304.262512207031 306.575012207031 305.987487792969 301.818756103516 283.706237792969 266.643737792969 259.024993896484 248.912506103516 234.431243896484 221.212493896484 212.612503051758 213.0625 208.71875 
296.637512207031 299.950012207031 305.3125 310.887512207031 316.643737792969 320.71875 323.606262207031 326.78125 332.975006103516 338.125 337.9375 339.84375 337.799987792969 331.774993896484 319.693756103516 325.875 326.78125 330.418762207031 339.356262207031 350.556243896484 360.6875 358.606231689453 350.568756103516 335.068756103516 312.462493896484 297.181243896484 291.868743896484 287.268737792969 287.331237792969 283.899993896484 281.587493896484 272.518737792969 267.462493896484 263.431243896484 262.65625 271.924987792969 282.287506103516 292.40625 300.212493896484 299.049987792969 287.274993896484 273.837493896484 268.100006103516 265.606262207031 265.956237792969 252.53125 239.5625 230.28125 221.287506103516 225.6875 226.15625 
295.674987792969 300.600006103516 306.950012207031 312.0625 316.850006103516 321.649993896484 328.043762207031 333.537506103516 336.762512207031 337.581237792969 335.962493896484 335.793762207031 330.893737792969 324.262512207031 307.174987792969 311 314.450012207031 321.899993896484 329.887512207031 338.431243896484 348.1875 349.575012207031 346.875 341.193756103516 328.993743896484 316.325012207031 303.462493896484 294.40625 287.737487792969 280.40625 268.225006103516 257.325012207031 255.606246948242 247.362503051758 241.268753051758 247.512496948242 268.768737792969 285.443756103516 290.243743896484 284.200012207031 271.131256103516 265.600006103516 268.899993896484 265.306243896484 260.893737792969 256.174987792969 249.84375 246.425003051758 242.387496948242 238.231246948242 236.5 
293.375 297.762512207031 305.931243896484 312.575012207031 316.8125 323.943756103516 331.412506103516 336.4375 336.96875 338.0625 334.524993896484 332.112487792969 326.743743896484 321.96875 308.606262207031 294.075012207031 301.8125 315.700012207031 319.96875 327.362487792969 336.674987792969 345.649993896484 350.631256103516 351.424987792969 341.793762207031 327.174987792969 311.287506103516 297.037506103516 287.362487792969 279.949981689453 270.875 257.356262207031 243.350006103516 230.46875 222.84375 241.800003051758 255.574996948242 269.5625 276.706237792969 276.450012207031 268.700012207031 263.668762207031 262.368743896484 254.006256103516 249.8125 248.40625 243.3125 239.581253051758 240.993743896484 239.125 240.868743896484 
292.637512207031 297.700012207031 303.943756103516 312.243743896484 320 325.056243896484 330.793762207031 334.918762207031 337.450012207031 337.674987792969 335.549987792969 334.774993896484 328.3125 321.625 312.037506103516 301.606262207031 289.15625 300.225006103516 309.612487792969 317.799987792969 327.4375 336.899993896484 348.75 357.337493896484 354.712493896484 329.731262207031 309.65625 295.5625 285.056243896484 276.725006103516 268.537506103516 259.03125 246.568756103516 235.631256103516 240.006256103516 246.550003051758 259.350006103516 272.181243896484 283.149993896484 275.168762207031 265.056243896484 257.506256103516 249.537506103516 245.324996948242 243.106246948242 243.056243896484 240.287506103516 242.131256103516 243.324996948242 237.806243896484 238.850006103516 
290.024993896484 297.331237792969 305.681243896484 313.443756103516 321.768737792969 330.450012207031 334.743743896484 337.337493896484 337.537506103516 338.268737792969 336.1875 338.25 328.631256103516 323.975006103516 315.306243896484 306.981262207031 295.631256103516 284.962493896484 304.774993896484 310.700012207031 317.737487792969 327.424987792969 338.524993896484 347.5 347.274993896484 327.149993896484 302.493743896484 291.556243896484 282.299987792969 269.700012207031 252.675003051758 238.943756103516 246.21875 246.912506103516 246.331253051758 262.431243896484 274.137512207031 276.787506103516 279.431243896484 273.53125 256.600006103516 247.962493896484 240.556243896484 237.3125 234.712493896484 236.837493896484 236.118743896484 236.256256103516 240.037506103516 231.787506103516 237.793746948242 
287.049987792969 295.368743896484 303.649993896484 314.875 325.556243896484 332.34375 338.287506103516 342.956237792969 342.818756103516 344.668762207031 340.131256103516 332.475006103516 325.399993896484 321.774993896484 314.125 309.375 303.362487792969 289.012512207031 288.618743896484 296.5 303.90625 316.825012207031 309.75 320.618743896484 321.318756103516 315.662506103516 301.381256103516 284.712493896484 275.587493896484 262.84375 249.418746948242 242.831253051758 247.537506103516 248.162506103516 250.831253051758 261.90625 265.399993896484 264.512512207031 267.5625 258.756256103516 245.181243896484 235.543746948242 231.743743896484 231.475006103516 229.300003051758 228.712493896484 231.5 232.875 234.0625 221.600006103516 235.487503051758 
282.712493896484 292.293762207031 302.537506103516 311.862487792969 324.212493896484 337.1875 345.475006103516 350.087493896484 349.625 347.056243896484 345.337493896484 343.443756103516 340.96875 331.59375 320.887512207031 304.193756103516 290.768737792969 292.53125 290.143737792969 293.481262207031 289.493743896484 293.962493896484 302.793762207031 303.668762207031 298.712493896484 287.831237792969 280.09375 274.75 261.431243896484 246.993743896484 240.043746948242 246.28125 246.487503051758 244.706253051758 249.756256103516 256.299987792969 258.15625 257.162506103516 253.65625 247.018753051758 232.5 223.4375 223.725006103516 224.043746948242 225.206253051758 226.125 225.868743896484 227.181243896484 226.568756103516 217.600006103516 232.106246948242 
272.431243896484 291.456237792969 306.350006103516 316.262512207031 325.706237792969 342.368743896484 354.356262207031 360.993743896484 360.981262207031 355.481262207031 351.706237792969 350.037506103516 342.387512207031 333.762512207031 320.112487792969 309.712493896484 294.318756103516 289.049987792969 292.512512207031 290.643737792969 298.149993896484 302.625 305.024993896484 303.524993896484 299.100006103516 287.756256103516 271.912506103516 263.387512207031 255.9375 249.318756103516 246.149993896484 246.618743896484 241.137496948242 238.675003051758 241.3125 246.912506103516 250.356246948242 250.274993896484 245.28125 237.037506103516 229.274993896484 221.199996948242 217.28125 218.962493896484 219.981246948242 221.737503051758 223.837493896484 223.3125 216.756256103516 220.606246948242 227.137496948242 
270.918762207031 281 301.043762207031 320.049987792969 331.274993896484 343.918762207031 359.206237792969 370.662506103516 371.887512207031 367.412506103516 361.643737792969 355.318756103516 346.018737792969 335.556243896484 328.262512207031 314.818756103516 315.162506103516 306.356262207031 306.993743896484 301.943756103516 296.337493896484 298.149993896484 299.71875 292.600006103516 281.78125 275.274993896484 271.087493896484 262.274993896484 261.081237792969 256.46875 248.6875 241.893753051758 240.743743896484 241.337493896484 239.137496948242 240.118743896484 243.612503051758 243.524993896484 238.587493896484 231.475006103516 225.606246948242 218.737503051758 214.574996948242 214.143753051758 214.675003051758 216.375 218.212493896484 219.53125 215.225006103516 223.300003051758 223.543746948242 
269.65625 288.875 307.768737792969 327.293762207031 339.268737792969 350.412506103516 354.399993896484 367.875 378.462493896484 375.681243896484 366.856262207031 358.625 354.412506103516 344.387512207031 336.9375 327.268737792969 321.493743896484 315.206237792969 311.018737792969 306.237487792969 302.725006103516 295.068756103516 292.506256103516 283.556243896484 277.762512207031 269.21875 261.225006103516 259.456237792969 258.899993896484 253.143753051758 244.068756103516 240.875 242.662506103516 241.712493896484 240.993743896484 234.574996948242 233.550003051758 235.631256103516 235.512496948242 228.793746948242 221.524993896484 215.90625 211.318756103516 210.012496948242 209.987503051758 209.737503051758 210.46875 211.193756103516 215.793746948242 224.318756103516 223.831253051758 
265.21875 287.106262207031 310.837493896484 328.362487792969 340.274993896484 347.431243896484 363.181243896484 372.668762207031 374.256256103516 370 365.243743896484 364.631256103516 357.893737792969 351.1875 340.774993896484 331.25 324.8125 320.850006103516 317.574981689453 313.899993896484 303.956237792969 296.731262207031 289.40625 284.556243896484 274.481262207031 261.09375 256.387512207031 255.262496948242 256.518737792969 256.3125 253.893753051758 251.899993896484 253.456253051758 250.518753051758 247.100006103516 236.356246948242 237.337493896484 235.831253051758 232.600006103516 226.787506103516 218.756256103516 214.881256103516 211.331253051758 207.6875 206.512496948242 205.131240844727 204.649993896484 200.925003051758 211.462493896484 220.475006103516 224.337493896484 
266.662506103516 289.418762207031 311.231262207031 334.487487792969 350.174987792969 358.612487792969 363.168762207031 372.118743896484 371.65625 370.25 364.65625 360.068756103516 358.137512207031 350.46875 339.637512207031 333.268737792969 331.049987792969 325.618743896484 319.568756103516 315.46875 309.006256103516 298.299987792969 292.456237792969 284.325012207031 273.012512207031 266.850006103516 261.693756103516 261.112487792969 261.131256103516 265.206237792969 264.106262207031 268.087493896484 267.743743896484 263.0625 252.975006103516 243.756256103516 240.987503051758 233.699996948242 229.137496948242 223.581253051758 217.168746948242 211.881256103516 208.443756103516 202.793746948242 197.46875 195.581253051758 189.518753051758 196.868743896484 202.574996948242 213.787506103516 219.074996948242 
275.700012207031 300.149993896484 314.431243896484 336.118743896484 347.5 353.65625 356.631256103516 363.318756103516 358.712493896484 353.225006103516 357.625 356.875 350.118743896484 344 341.487487792969 335.600006103516 333.625 328.181243896484 321.700012207031 315.600006103516 309.243743896484 298.850006103516 292.737487792969 280.924987792969 273.399993896484 266.274993896484 267.662506103516 266.975006103516 266.131256103516 270.950012207031 275.924987792969 287.1875 287.174987792969 274.0625 260.350006103516 251.206253051758 242.237503051758 234.787506103516 224.712493896484 218.356246948242 213.09375 206.318756103516 200.668746948242 197.743743896484 194.168746948242 186.581253051758 191.818756103516 194.181243896484 198.8125 207.806243896484 208.787506103516 
285.887512207031 300.1875 316.799987792969 332.212493896484 340.943756103516 346.081237792969 347.40625 347.137512207031 345.106262207031 350.200012207031 351.387512207031 345.956237792969 342.568756103516 338.443756103516 336.012512207031 333.962493896484 329.375 321.981262207031 322.1875 315.25 305.743743896484 297.5 291.306243896484 284.46875 276.600006103516 270.068756103516 270.568756103516 269.674987792969 269.943756103516 272.225006103516 281.443756103516 292.700012207031 297.481262207031 279.243743896484 261.575012207031 249.96875 243.493759155273 232.8125 222.768753051758 216.262496948242 209.824996948242 203.393753051758 198.056243896484 192.868743896484 189.518753051758 189.231246948242 191.074996948242 190.662506103516 194.324996948242 193.831253051758 193.1875 
298.581237792969 307.287506103516 318.200012207031 325.112487792969 332.487487792969 337.975006103516 339.850006103516 336.21875 336.899993896484 341 340.231262207031 334.643737792969 331.549987792969 327.037506103516 327.662506103516 323.03125 323.068756103516 322.662506103516 322.837493896484 317.8125 308.393768310547 297.881256103516 294.84375 286.237487792969 279.112487792969 270.725006103516 271.362487792969 270.0625 270.856262207031 273.825012207031 280.418762207031 287.84375 287.625 273.456237792969 261.006256103516 249.431243896484 239.550003051758 231.90625 223.925003051758 214.543746948242 206.399993896484 202.100006103516 197.143753051758 193.175003051758 186.981246948242 182.768753051758 183.181243896484 187.149993896484 186.149993896484 181.537506103516 178.699996948242 
305.206237792969 312.21875 315.78125 319.337493896484 322.831237792969 320.768737792969 319.643737792969 322.956237792969 329.106262207031 328.53125 328.387512207031 325.418762207031 321.100006103516 320.225006103516 323.662506103516 325.143737792969 325.006256103516 322.299987792969 320.5625 316.956237792969 308.587493896484 298.137512207031 292.84375 284.125 276.556243896484 266.012512207031 266.787506103516 267.899993896484 268.137512207031 269.075012207031 273.631256103516 275.381256103516 271.981231689453 262.381256103516 255.431259155273 245.337493896484 236.949996948242 227.574996948242 219.881256103516 210.737503051758 199.731246948242 193.706253051758 193.112503051758 193.931243896484 190.024993896484 184.631256103516 184.881256103516 186.6875 181.181243896484 174.931243896484 167.681243896484 
306.575012207031 309.131256103516 306.643737792969 302.71875 302.200012207031 304.631256103516 304.643737792969 311.024993896484 314.125 311.806243896484 313.600006103516 312.606262207031 310.737487792969 311.862487792969 315.412506103516 317.662506103516 317.706237792969 320.46875 317.262481689453 310.5625 303.206237792969 296.181243896484 290.118743896484 279.956237792969 269.03125 264.362487792969 260.918762207031 257.331237792969 256.9375 258.100006103516 261.462493896484 260.506256103516 257.149993896484 251.931243896484 246.868743896484 236.59375 233.368743896484 225.550003051758 216.925003051758 212.662506103516 205.462493896484 198.4375 193.556243896484 190.53125 187.756240844727 187.237503051758 185.850006103516 186.850006103516 182.024993896484 174.375 164.475006103516 
306.299987792969 303.787506103516 296.212493896484 292.556243896484 291.34375 292.149993896484 295.53125 297.362487792969 300.012512207031 300.668762207031 302.056243896484 299.975006103516 303.056243896484 300.606262207031 304.393737792969 309.431243896484 312.056243896484 311.981262207031 311.268737792969 308.381256103516 297.674987792969 289.106262207031 283.543762207031 271.081237792969 260.768737792969 258.424987792969 253.21875 247.600006103516 246.600006103516 246.006256103516 249.168746948242 245.850006103516 242.6875 239.518753051758 235.050003051758 225.71875 222.943740844727 219.75 215.6875 210.381256103516 207.556243896484 200.1875 194.512496948242 188.381256103516 187.25 189.28125 189.675003051758 187.556243896484 181.737503051758 175.40625 165.606246948242 
298.168762207031 292.306243896484 284.912506103516 281.475006103516 281.268737792969 279.518737792969 285.706237792969 283.368743896484 284.950012207031 284.862487792969 286.0625 283.737487792969 286.487487792969 289.331237792969 292.524993896484 298.774993896484 297.481262207031 297.043762207031 297.018737792969 295.756256103516 285.112487792969 278.075012207031 271.975006103516 262.237487792969 256.799987792969 250.512496948242 245.175003051758 237.856246948242 232.893753051758 233.243743896484 231.425003051758 229.850006103516 226.418746948242 224.03125 222.074996948242 215.34375 212.181259155273 210.837493896484 207.225006103516 207.5625 205.306243896484 199.993743896484 195.456253051758 192.875 191.356246948242 199.175003051758 202.268753051758 195.375 185.631256103516 177.618743896484 168.112503051758 
282.799987792969 278.581237792969 271.643737792969 270.143737792969 266.825012207031 264.681243896484 267.706237792969 266.90625 268.174987792969 270.5 276.524993896484 275.09375 276.956237792969 281.206237792969 282.225006103516 282.868743896484 281.456237792969 284.412506103516 281.106262207031 279.462493896484 269.200012207031 264.293762207031 257.1875 251.125 245.675003051758 240.868743896484 233.612503051758 227.09375 219.9375 218.206253051758 217.09375 214.300003051758 209.725006103516 210.818756103516 208.443756103516 206.237503051758 201.262496948242 200.456253051758 197.925003051758 201.100006103516 199.262496948242 197.425003051758 194.706253051758 194.556243896484 199.59375 208.46875 209.637496948242 199.699996948242 188.050003051758 179.050003051758 169.425003051758 
267.768737792969 262.643737792969 260.193756103516 258.237487792969 257.21875 253.09375 252.349990844727 249.956253051758 250.125 252.393753051758 257.387512207031 262.006256103516 262.987487792969 264.4375 267.118743896484 269.612487792969 269 269.743743896484 264.306243896484 260.137512207031 254.6875 250.699996948242 244.475006103516 237.100006103516 232.981246948242 227.399993896484 219.625 212.449996948242 207.537506103516 204.949996948242 203.081253051758 199.90625 196.824996948242 195.106246948242 194.550003051758 192.212493896484 190.274993896484 186.887496948242 188.125 190.012496948242 189.018753051758 190.762496948242 192.493743896484 193.6875 202.225006103516 210.962493896484 209.59375 195.5 185.137496948242 177.131256103516 168.574996948242 
251.106246948242 246.96875 246.425003051758 246.912506103516 246.556243896484 242.043746948242 236.15625 233.856246948242 230 232.993743896484 240 245.806243896484 252.231246948242 256.993743896484 257.65625 257.412506103516 254.831253051758 254.806243896484 249.681243896484 242.625 237.943756103516 232.512496948242 228.9375 222.387496948242 218.081253051758 213.381256103516 208.649993896484 202.681243896484 197.175003051758 194.824996948242 190.993743896484 187.256256103516 182.425003051758 181.46875 176.137496948242 175.6875 172.731246948242 175.574996948242 177.006256103516 177.868743896484 178.100006103516 178.481246948242 181.018753051758 184.900009155273 192.199996948242 197.731246948242 197.824996948242 190.387496948242 180.412506103516 172.925003051758 166.931243896484 
237.231246948242 235.649993896484 233.181243896484 232.431243896484 230.774993896484 226.181243896484 219.449996948242 217.3125 213.881256103516 212.762496948242 217.699996948242 229.337493896484 240.143753051758 244.09375 245.837493896484 243.78125 240.237503051758 236.506256103516 233.856246948242 226.793746948242 222.737503051758 218.006256103516 214.024993896484 209.225006103516 204.537506103516 199.699996948242 197.918746948242 193.268753051758 186.168746948242 182.96875 179.756256103516 175.706253051758 170.625 165.831253051758 162.112503051758 160.818756103516 164 162.956253051758 164.693756103516 168.59375 168.412506103516 171.350006103516 172.40625 175.837493896484 178.118743896484 182.243743896484 183.306243896484 178.943756103516 174.793746948242 167.943756103516 162.331253051758 
225.087493896484 225.362503051758 222.643753051758 221.393753051758 220.543746948242 214.212493896484 208.443756103516 202.824996948242 197.90625 191.106246948242 203.212493896484 224.512496948242 233.375 235.199996948242 234.431243896484 231.050003051758 224.887496948242 220.137496948242 217.09375 209.162506103516 206.537506103516 202.856246948242 197.881256103516 193.831253051758 190.356246948242 188.399993896484 185.512496948242 181.106246948242 175.206253051758 172.643753051758 170.168746948242 167 161.175003051758 154.181243896484 151.037506103516 152.106246948242 153.6875 154.824996948242 155.412506103516 156.96875 157.056243896484 157.899993896484 162.875 166.987503051758 168.581253051758 168.65625 174.356246948242 168.262496948242 163.762496948242 160.143753051758 156.456253051758 
215.018753051758 215.018753051758 214.637496948242 212.487503051758 212.71875 207.681243896484 202.162490844727 195.356246948242 190.368759155273 183.40625 207.018753051758 228 230.96875 230.625 226.4375 220.762496948242 212.931243896484 208.606246948242 202.774993896484 196.956253051758 191.4375 188.081253051758 183.943756103516 180.40625 177.40625 175.425003051758 171.350006103516 171.4375 167.762496948242 163.631256103516 159.762496948242 156.762496948242 152.293746948242 144.612503051758 139.09375 140.662506103516 144.074996948242 144.975006103516 148.137496948242 147.912506103516 148.53125 149.918746948242 149.981246948242 151.25 153.9375 157.068756103516 159.625 159.199996948242 153.931243896484 151.168746948242 149.368759155273 
207.331253051758 206.9375 206.081253051758 205.243743896484 202.256256103516 198.78125 196.649993896484 195.543746948242 197.831253051758 209.100006103516 235.84375 237.056243896484 229.3125 225.643753051758 220.012496948242 213.387496948242 206.206253051758 200.556243896484 194.725006103516 187.168746948242 179.6875 173.899993896484 171.149993896484 169.618743896484 165.831253051758 163.793746948242 163.068756103516 163.487503051758 159.306243896484 157.34375 152.15625 145.868743896484 143.118743896484 139.506256103516 137.975006103516 138.21875 138.956253051758 141.762496948242 141.050003051758 138.993743896484 141.262496948242 141.943756103516 140.618743896484 142.962493896484 143.806243896484 146.449996948242 146.231246948242 146.262496948242 146.03125 144.493743896484 142.237503051758 
203.59375 201.850006103516 201.862503051758 200.4375 198.762496948242 195.824996948242 192.993743896484 197.84375 203.918746948242 214.399993896484 224.75 228.481246948242 222.125 216.643753051758 213.324996948242 205.118743896484 196.925003051758 190.362503051758 183.09375 176.693756103516 167.9375 162.581253051758 157.25 155.8125 154.4375 153.962493896484 153.131256103516 153.337493896484 150.787506103516 148.90625 146.175003051758 143.831253051758 140.962493896484 139 137.743743896484 136.8125 136.40625 138.337493896484 137.012496948242 132.4375 132.78125 133.206253051758 130.706253051758 130.28125 133.418746948242 134.675003051758 136.256256103516 137.368743896484 138.212493896484 136.706253051758 136.050003051758 
198.881256103516 198.350006103516 198.21875 197.643753051758 194.399993896484 190.206253051758 190.693756103516 197.856246948242 201.543746948242 207.199996948242 213.412506103516 213.875 212.637496948242 207.59375 203.743743896484 196.8125 188.743743896484 180.962493896484 173.449996948242 166.34375 157.78125 150.625 144.65625 143.237503051758 143.837493896484 143.699996948242 143.631256103516 144.612503051758 143.78125 141.524993896484 142.418746948242 142.399993896484 142.1875 140.987503051758 137.8125 138.100006103516 138.831253051758 138.850006103516 133.550003051758 129.268753051758 125.556251525879 121.59375 119.856246948242 122.012496948242 124.943748474121 127.487503051758 128.168746948242 128.087493896484 132.306243896484 132.537506103516 131.431243896484 
194.475006103516 194.018753051758 195.074996948242 194.543746948242 191.493743896484 190.987503051758 192.3125 195.456253051758 199.237503051758 200.306243896484 203.649993896484 204.043746948242 204.356246948242 199.206253051758 193.612503051758 188.762496948242 181.443756103516 175.137496948242 168.881256103516 159.087493896484 150.09375 141.912506103516 133.831253051758 133.21875 133.84375 134.068756103516 134.931243896484 138.006256103516 140.318756103516 138.931243896484 137.149993896484 139.774993896484 140.3125 144.337493896484 141.975006103516 138.78125 137.037506103516 134.368743896484 131.262496948242 126.03125 120.40625 113.3125 110.275001525879 114.6875 119.606246948242 121.349998474121 121.662498474121 122.287498474121 124.800003051758 124.849998474121 124.731246948242 
189.737503051758 191.418746948242 193.524993896484 188.800003051758 190.256256103516 190.350006103516 189.524993896484 190.612503051758 192.362503051758 192.9375 195.368743896484 195.431243896484 194.037506103516 191.131256103516 186.637496948242 181.037506103516 173.149993896484 170.268753051758 163.962493896484 150.75 139.631256103516 129.850006103516 124.612503051758 126.737503051758 127.306251525879 128.425003051758 129.793746948242 132.96875 134.681243896484 135.84375 136.056243896484 136.056243896484 139.175003051758 144.375 147.868743896484 145.893753051758 138.881256103516 135.774993896484 130.125 125.068748474121 119.056251525879 112.318748474121 107.581253051758 110.587501525879 114.525001525879 116.03125 116.643753051758 117.731246948242 121.5 119.3125 119.65625 
188.081253051758 189.050003051758 191.487503051758 188.03125 189.350006103516 188.681243896484 186.131256103516 187.612503051758 188.868743896484 189.331253051758 189.356246948242 189.1875 188.212493896484 185.293746948242 182.193756103516 176.168746948242 169.337493896484 166.012496948242 162.331253051758 149.425003051758 134.975006103516 122.050003051758 117.762496948242 120.262496948242 122.074996948242 122.625 123.837501525879 126.831253051758 128.737503051758 129.487503051758 131.543746948242 132.1875 136.1875 143.5 149.756256103516 153.081253051758 146.4375 138.681243896484 132.787506103516 125.012496948242 117.5625 112.71875 110.631248474121 111.787498474121 112.487503051758 113.150001525879 114.925003051758 113.9375 114.181251525879 115.993751525879 114.824996948242 
182.84375 186.949996948242 187.800003051758 187.199996948242 187.037506103516 185.599990844727 180.425003051758 180.699996948242 180.199996948242 181.506256103516 181.699996948242 182.412506103516 181.84375 179.050003051758 176.268753051758 171.962493896484 164.918746948242 159.168746948242 154.668746948242 143 131.25 119.28125 114.5625 115.5 117.875 119.1875 121.0625 122.25 124.375 126.162498474121 128.524993896484 129.681243896484 133.649993896484 138.212493896484 145.612503051758 151.743743896484 145.737503051758 137.912506103516 131.8125 125.525001525879 118 114.731246948242 111.625 111.756248474121 112.056251525879 111.056251525879 112.056251525879 111.637496948242 110.40625 113.099998474121 112.0625 
