ncols        51
nrows        45
xllcorner    -63.500000000000
yllcorner    -7.500000000000
cellsize     0.166666666667
NODATA_value -99
233.574996948242 229.443756103516 220.693756103516 216.774993896484 212.306243896484 208.4375 203.037506103516 197.824996948242 193.96875 189.225006103516 184.587493896484 178.787506103516 173.381256103516 165.5 159.318756103516 152.731246948242 146.612503051758 139.28125 132.524993896484 126.875 122.556251525879 118.462501525879 115.143753051758 111.481246948242 108.587501525879 106.3125 105.525001525879 104.912498474121 103.974998474121 103.262496948242 102.981246948242 103.400001525879 103.175003051758 103.59375 103.84375 105.193748474121 106.956253051758 108.243751525879 108.881248474121 109.550003051758 109.287498474121 109.449996948242 108.318748474121 107.206253051758 105.900001525879 103.800003051758 100.856246948242 99.2437515258789 98.3000030517578 96.0562515258789 94.9124984741211 
240.262496948242 235.425003051758 230.6875 228.925003051758 228.524993896484 225.425003051758 220.243743896484 217.693756103516 214.331253051758 209.350006103516 204.356246948242 196.899993896484 189.056243896484 181.006256103516 172.581253051758 165.725006103516 157.649993896484 150.068756103516 142.487503051758 136.237503051758 131.449996948242 127.074996948242 123.712501525879 120.862503051758 116.84375 113.900001525879 112.675003051758 111.056251525879 109.618751525879 108.449996948242 107.912498474121 108.025001525879 106.512496948242 107.087501525879 107.349998474121 108.818748474121 110.831253051758 112.456253051758 113.043746948242 113.84375 114.331253051758 114.056251525879 113.443748474121 111.268753051758 109.818748474121 107.324996948242 104.862503051758 103.037498474121 101.768753051758 99.40625 98.1937484741211 
240.475006103516 236.8125 233.600006103516 232.350006103516 234.012496948242 232.987503051758 233.606246948242 233.59375 233.018753051758 229.443756103516 223.524993896484 214.600006103516 205.837493896484 196.375 186.487503051758 177.449996948242 169.149993896484 161.824996948242 153.84375 147.512496948242 142.768753051758 138.306243896484 134.75 131.675003051758 127.618751525879 123.793754577637 121.487503051758 119.231246948242 116.418746948242 114.050003051758 113.387496948242 112.46875 112.137496948242 111.856246948242 112.212501525879 113.481246948242 115.581253051758 118.662498474121 119.912498474121 121.481246948242 122.243751525879 121.487503051758 120.662498474121 119.050003051758 116.806251525879 113.912498474121 111.162498474121 109.612503051758 106.868751525879 103.568748474121 101.9375 
234.25 230.706253051758 231.993743896484 232.131256103516 235.918746948242 238.318756103516 241.818756103516 247.212493896484 250.949996948242 250.275009155273 243.868743896484 232.756256103516 222.193756103516 211.318756103516 200.34375 190.287506103516 181.518753051758 173.5625 166.28125 160.949996948242 156.350006103516 151.475006103516 146.65625 142.506256103516 138.087493896484 133.956253051758 130.65625 126.137496948242 122.8125 120.375 118.631248474121 117.512496948242 115.9375 115.368751525879 115.349998474121 118.431251525879 121.762496948242 125.056251525879 127.306251525879 129.287506103516 129.543746948242 129.725006103516 128.012496948242 126.125 123.8125 121.537498474121 117.587501525879 115.993751525879 112.918746948242 108.9375 106.043746948242 
233.918746948242 227.40625 222.956253051758 226.912506103516 235.149993896484 241.287506103516 248.225006103516 258.112487792969 266.993743896484 270.96875 261.625 246.550003051758 234.75 224.356246948242 212.868743896484 202.806243896484 193.106246948242 186.212493896484 179.225006103516 172.824996948242 169.475006103516 164.34375 159.306243896484 155.212493896484 148.756256103516 143.46875 137.1875 132.875 129.268753051758 125.081253051758 122.5 120.8125 119.387496948242 118.949996948242 119.21875 122.862503051758 127.15625 131.612503051758 135.28125 136.550003051758 137.706253051758 136.868743896484 135.493743896484 133.78125 131.824996948242 128.568756103516 124.537498474121 121.462501525879 118.625 115.212501525879 110.643753051758 
228.975006103516 223.850006103516 220.59375 218.574996948242 229.193756103516 240.537506103516 249.925003051758 259.212493896484 268.024993896484 274.237487792969 264.306243896484 249.899993896484 239.706253051758 230.112503051758 219.175003051758 209.25 201.03125 195.550003051758 190.9375 184.981246948242 180.662506103516 176 170.543746948242 164.125 157.887496948242 151.012496948242 144.149993896484 138.324996948242 133.618743896484 128.743743896484 124.731246948242 123.956253051758 122.381248474121 122.431251525879 122.756248474121 127.675003051758 133.043746948242 138.793746948242 144.100006103516 146.649993896484 145.59375 144.949996948242 143.475006103516 142.1875 141.668746948242 137.212493896484 131.28125 127.150001525879 124.387504577637 119.993751525879 114.756248474121 
225.818756103516 223.787506103516 221.956253051758 220.943756103516 227.324996948242 235.0625 244.168746948242 252.256256103516 255.943756103516 255.449996948242 253.762496948242 246.03125 239.800003051758 232.5625 224.393753051758 216.524993896484 209.362503051758 205.168746948242 200.71875 198.287506103516 193.612503051758 188.056243896484 182.0625 174.149993896484 166.537506103516 159.5 151.024993896484 143.431243896484 136.112503051758 130.931243896484 127.275001525879 125.400001525879 124.587501525879 125.118751525879 126.474998474121 131.412506103516 137.106246948242 144.212493896484 152.724990844727 155.293746948242 153.53125 152.306243896484 150.893753051758 149.350006103516 148.643753051758 144.899993896484 139.149993896484 133.28125 129.087493896484 124.981246948242 120.65625 
225.199996948242 223.431243896484 224.287506103516 228.087493896484 234.737503051758 238.981246948242 240.40625 239 235.081253051758 235.081253051758 240.725006103516 240.3125 237.887496948242 233.550003051758 228.100006103516 223.087493896484 217.362503051758 214.362503051758 212.162506103516 210.037506103516 207.175003051758 201.831253051758 194.024993896484 184.875 177.037506103516 166.543746948242 156.28125 146.737503051758 138.9375 132.324996948242 128 126.699996948242 126.356246948242 126.837501525879 128.524993896484 133.350006103516 140.024993896484 146.53125 152.943756103516 156.143753051758 156.112503051758 155.399993896484 154.112503051758 152.368743896484 151.237503051758 149.537506103516 144.556243896484 138.34375 133.5 129.506256103516 123.949996948242 
225.75 226.356246948242 230.112503051758 235.175003051758 241.225006103516 243.84375 243.600006103516 239.600006103516 227.774993896484 222.443756103516 230.59375 233.331253051758 233.793746948242 231.5625 229.71875 227.287506103516 224.381256103516 223.537506103516 225.168746948242 223.6875 218.018753051758 212.556243896484 203.506256103516 195.449996948242 185.199996948242 173 160.675003051758 150.59375 141.875 133.350006103516 129.193756103516 128.550003051758 127.349998474121 127.131248474121 128.100006103516 133.362503051758 139.456253051758 145.274993896484 150.818756103516 155.331253051758 156.524993896484 155.637496948242 155.318756103516 154.087493896484 152.462493896484 150.649993896484 147.5 141.71875 136.168746948242 131.737503051758 128.024993896484 
227.225006103516 228.399993896484 233.5 240.081253051758 247.337493896484 250.975006103516 249.649993896484 244.393753051758 235.600006103516 231.356246948242 232.725006103516 231.0625 231.649993896484 229.993743896484 230.40625 231.306243896484 231.59375 233.912506103516 236.743743896484 238.631240844727 232.993743896484 225.556243896484 214.65625 204.587493896484 191.737503051758 179.050003051758 166.90625 154.962493896484 144.725006103516 134.643753051758 129.96875 128.887496948242 127.731246948242 127.668746948242 128.550003051758 133.556243896484 139.53125 144.106246948242 149.71875 154.550003051758 157.331253051758 157.15625 156.024993896484 153.824996948242 153.318756103516 152.481246948242 149.3125 144.962493896484 139.412506103516 135.018753051758 128.543746948242 
229.237503051758 231.712493896484 237.137496948242 244.456253051758 252.262496948242 258.6875 258.75 252.412506103516 243.850006103516 238.40625 237.550003051758 234.09375 231.637496948242 229.425003051758 231.018753051758 233.712493896484 237.225006103516 242.149993896484 247.725006103516 253.212493896484 252.693756103516 243.100006103516 228.34375 211.5 198.925003051758 187.512496948242 174.824996948242 162.4375 150.118743896484 139.112503051758 133.725006103516 131.550003051758 130.4375 129.75 129.524993896484 133.287506103516 137.9375 142.462493896484 149.53125 154.981246948242 158.024993896484 158.375 157.712493896484 155.899993896484 153.818756103516 154.425003051758 150.824996948242 145.606246948242 140.806243896484 134.725006103516 127.03125 
231.306243896484 234.475006103516 240.300003051758 249.112503051758 257.487487792969 263.987487792969 265.743743896484 259.143737792969 250.199996948242 243.762496948242 240.168746948242 237.087493896484 232.268753051758 229.956253051758 232.037506103516 235.274993896484 239.993743896484 245.949996948242 254.337493896484 264.4375 267.96875 258.787506103516 241.3125 221.018753051758 205.306243896484 192.5625 179.412506103516 167.462493896484 157.106246948242 146.143753051758 138.681243896484 134.287506103516 131.699996948242 129.981246948242 129.681243896484 133.193756103516 137.193756103516 141.962493896484 148.443756103516 154.425003051758 158.793746948242 159.074996948242 158.5 156.96875 152.5 146.96875 142.75 141.131256103516 136.725006103516 132.34375 124.381248474121 
232.925003051758 237.487503051758 243.868743896484 251.418746948242 258.612487792969 263.881256103516 264.450012207031 260.243743896484 252.162490844727 246.137496948242 241.300003051758 239.050003051758 235.131256103516 229.0625 229.956253051758 233.712493896484 239.256256103516 248.368743896484 258.556243896484 269.649993896484 276.399993896484 268.368743896484 249.806243896484 230.5625 211.631256103516 196.456253051758 185.487503051758 173.837493896484 163.850006103516 152.962493896484 144.274993896484 137.9375 133.118743896484 130.037506103516 129.074996948242 132.237503051758 136.200012207031 140.6875 148.043746948242 153.256256103516 158.84375 160.193756103516 157.787506103516 149.787506103516 144.887496948242 144.362503051758 141.125 136.75 130.706253051758 127.34375 121.818748474121 
233.931243896484 237.774993896484 244.131256103516 251.068756103516 257.924987792969 260.581237792969 261.056243896484 258.981262207031 253.231246948242 246.587493896484 241.056243896484 236.543746948242 233.118743896484 228.21875 225.006256103516 228.568756103516 235.193756103516 244.606246948242 255.012496948242 265.012512207031 269.737487792969 264.262512207031 251.068756103516 234.324996948242 218.106246948242 204.106246948242 193.949996948242 182.675003051758 171.618743896484 159.53125 149.962493896484 141.887496948242 135.106246948242 130.256256103516 129.037506103516 132.543746948242 136.4375 142.393753051758 148.643753051758 155.34375 159.199996948242 155.824996948242 151.306243896484 148.912506103516 146.581253051758 145.03125 144.78125 140.731246948242 133.125 126.400001525879 119.412498474121 
232.706253051758 236.637496948242 242.931243896484 249.612503051758 255.706253051758 257.537506103516 258.625 257.262512207031 251.912506103516 245.756256103516 239.956253051758 235.274993896484 230.5 224.943756103516 218.324996948242 220.399993896484 227.806243896484 237.824996948242 248.524993896484 257.987487792969 261.481262207031 258.40625 250.043746948242 238.231246948242 226.84375 215.506256103516 204.46875 192.46875 180.556243896484 166.481246948242 154.806243896484 144.787506103516 137.399993896484 131.731246948242 128.918746948242 132.34375 138.318756103516 146.418746948242 153.537506103516 156.987503051758 156.331253051758 154.712493896484 154.1875 153.668746948242 148.331253051758 145.012496948242 142.46875 139.699996948242 134.84375 127.293754577637 118.306251525879 
229.962493896484 233.893753051758 240.824996948242 247.1875 253.125 255.293746948242 255.21875 254.03125 250.887496948242 246.962493896484 240.96875 235.71875 230.399993896484 222.824996948242 214.475006103516 210.831253051758 220.831253051758 233.399993896484 243.824996948242 252.675003051758 257.15625 256.40625 250.75 242.481246948242 234.556243896484 227.481246948242 217.800003051758 204.974990844727 189.993743896484 173.162506103516 159.524993896484 148.425003051758 139.59375 133.84375 129.162506103516 134.568756103516 142.762496948242 147.96875 153.418746948242 155.806243896484 157.587493896484 157.949996948242 157.34375 153.043746948242 150.21875 147.493743896484 145.212493896484 140.131256103516 133.868743896484 127.762496948242 119.25 
226.631256103516 231.8125 237.9375 244.199996948242 250.581253051758 252.443756103516 253.418746948242 252.287506103516 250.568756103516 247.362503051758 243.056243896484 238.293746948242 232.306243896484 224.949996948242 217.40625 214.137496948242 217.975006103516 228.65625 240.387496948242 250.212493896484 255.274993896484 255.893753051758 252.3125 245.487503051758 240.818756103516 238.837493896484 232.856246948242 216.962493896484 197.443756103516 178.868743896484 164.487503051758 154.518753051758 144.262496948242 137.09375 136.5625 145 150.412506103516 157.074996948242 162.625 162.5625 164.25 164.212493896484 159.625 156.850006103516 153.675003051758 150.112503051758 146.71875 142.28125 137.356246948242 130.631256103516 123.212501525879 
221.599990844727 226.912506103516 233.774993896484 240.574996948242 246.431243896484 250.287506103516 252.418746948242 252.193756103516 251.993743896484 250.074996948242 246.887496948242 242.5 235.368743896484 229.375 224.356246948242 221.274993896484 222.143753051758 225.418746948242 238.493743896484 248.90625 256.368743896484 256.206237792969 253.237503051758 249.4375 247.743743896484 247.356246948242 246.46875 226.837493896484 202.356246948242 179.662506103516 163.737503051758 153.556243896484 148.943756103516 148.637496948242 149.862503051758 152.106246948242 158.925003051758 165.706253051758 166.943756103516 170.818756103516 171.100006103516 169.193756103516 165.337493896484 162.006256103516 158.206253051758 154.006256103516 150.193756103516 145.28125 140.925003051758 133.362503051758 128.737503051758 
215.743743896484 222.1875 229.118743896484 236.225006103516 243.050003051758 247.524993896484 250.193756103516 252.137496948242 254.356246948242 255.362503051758 252.993743896484 248.193756103516 241.349990844727 235.918746948242 230.28125 227.675003051758 227.706253051758 228.043746948242 235.762496948242 246.393753051758 257.556243896484 262.706237792969 254 251.90625 251.925003051758 251.368743896484 246.100006103516 228.756256103516 206.037506103516 181.225006103516 162.412506103516 156.506256103516 159.649993896484 159.59375 158.512496948242 163.850006103516 169.100006103516 173.962493896484 176.918746948242 178.9375 178.743743896484 178.518753051758 172.84375 168.050003051758 163.84375 159.668746948242 154.862503051758 150.09375 144.206253051758 135.262496948242 134.918746948242 
209.262496948242 216.387496948242 223.149993896484 230.731246948242 238.012496948242 244.087493896484 248.693756103516 252.206253051758 257.225006103516 261.137512207031 262.09375 258.337493896484 251.956253051758 244.65625 238.90625 234.168746948242 229.737503051758 232.8125 238.21875 246.6875 253.806243896484 255.262496948242 255.068756103516 253.756256103516 252.243743896484 247.800003051758 239.074996948242 227.449996948242 207.59375 184.162506103516 168.393753051758 167.231246948242 168.681243896484 170.743759155273 171.875 175.918746948242 181.306243896484 186.606246948242 187.78125 187.699996948242 186.84375 185.181243896484 179.743743896484 175.28125 170.618743896484 166.412506103516 160.168746948242 154.368743896484 148.1875 139.96875 139.074996948242 
201.34375 209.462493896484 217.243743896484 224.918746948242 231.831253051758 240.243743896484 248.574996948242 255.71875 263.399993896484 268.737487792969 271.71875 270.112487792969 265.774993896484 257.856262207031 251.306243896484 244.037506103516 238.068756103516 236.962493896484 241.731246948242 245.706253051758 252.162506103516 255.731246948242 255.775009155273 255.1875 254.324996948242 250.287506103516 241.087493896484 226.675003051758 210.5 196.8125 185.756256103516 182.324996948242 182.118743896484 183.568756103516 185.606246948242 191.387496948242 195.625 199.637496948242 199.193756103516 198.274993896484 195.75 192.493743896484 187.59375 181.943756103516 177.112503051758 171.887496948242 166.199996948242 160.418746948242 152.387496948242 146.59375 143.5 
194.618743896484 201.125 209.318756103516 217.331253051758 225.481246948242 236.018753051758 247.806243896484 258.168762207031 269.299987792969 277.53125 282.793762207031 284.53125 282.487487792969 275.231262207031 266.774993896484 257.899993896484 251.943756103516 247.962493896484 247.725006103516 249.581253051758 250.456253051758 251.800003051758 253.131256103516 252.456253051758 250.768753051758 247.625 242.162506103516 231.15625 220.118743896484 209.6875 199.012496948242 194.75 194.637496948242 198.331253051758 202.818756103516 208.3125 212.399993896484 215.243743896484 212.043746948242 209.625 205.581253051758 200.862503051758 195.462509155273 190.149993896484 185.512496948242 179.006256103516 172.912506103516 166.074996948242 159.393753051758 154.056259155273 149.056243896484 
188.268753051758 195.643753051758 203.306243896484 211.256256103516 219.949996948242 231.987503051758 245.037506103516 259.625 273.868743896484 284.15625 293.149993896484 297.887512207031 302.78125 297.524993896484 283.9375 271.587493896484 263.206237792969 257.475006103516 253.768753051758 251.981246948242 251.018753051758 250.125 249.393753051758 248.5 248.675003051758 247.381256103516 242.46875 235.850006103516 226.925003051758 218.100006103516 210.5625 206.649993896484 209.074996948242 214.318756103516 219.412506103516 225.625 229.774993896484 229.987503051758 224.862503051758 220.606246948242 216.162506103516 209.962493896484 203.543746948242 197.456253051758 192.181243896484 187.175003051758 180.868743896484 173.212493896484 165.774993896484 160.637496948242 155.550003051758 
182.5 189.5 197.581253051758 205.181243896484 214.618743896484 228.199996948242 242.456253051758 258.21875 272.15625 284.168762207031 295.181243896484 306.606262207031 316.71875 311.024993896484 294.84375 281.262512207031 271.481262207031 264.412506103516 258.262512207031 253.193756103516 250.8125 248.53125 245.737503051758 244.96875 245.487503051758 244.512496948242 244.199996948242 237.306243896484 231.762496948242 224.90625 220.393753051758 218.012496948242 221.431243896484 227.118743896484 233.818756103516 241.768753051758 245.981246948242 243.537506103516 237.668746948242 232.006256103516 226.25 219.356246948242 212.40625 205.693756103516 204.125 198.699996948242 191.40625 180.962493896484 175.587493896484 167.350006103516 162.106246948242 
179.518753051758 184.875 193 201.168746948242 211.725006103516 224.581253051758 238.287506103516 253.399993896484 267.931243896484 280.731262207031 293.387512207031 302.674987792969 311.037506103516 309.387512207031 297.725006103516 285.837493896484 276.350006103516 267.618743896484 260.587493896484 254.231246948242 249.949996948242 245.0625 242.418746948242 241.106246948242 240.84375 242.893753051758 242.706253051758 239.649993896484 235.193756103516 231.800003051758 227.981246948242 226.675003051758 231.168746948242 237.800003051758 244.274993896484 250.375 254.606246948242 252.668746948242 247.356246948242 242.3125 235.84375 228.4375 222.287506103516 216.706253051758 213.931243896484 209.568756103516 198.856246948242 192.412506103516 184.699996948242 176.65625 170.793746948242 
179.46875 184.206253051758 189.662506103516 198.449996948242 207.600006103516 219.524993896484 232.225006103516 246.331253051758 260.243743896484 273.337493896484 285.543762207031 294.837493896484 300.9375 301.706237792969 294.825012207031 286.475006103516 279.006256103516 270.350006103516 262.743743896484 255.975006103516 250.074996948242 244.081253051758 239.012496948242 235.856246948242 237.143753051758 240.806243896484 242.793746948242 242.168746948242 240.024993896484 237.96875 234.793746948242 233.824996948242 239.512496948242 245.4375 252.100006103516 256.90625 259.956237792969 260.03125 256.856262207031 251.981246948242 246.306243896484 238.618743896484 230.225006103516 225.675003051758 224.337493896484 217.225006103516 213.475006103516 206.056243896484 196.475006103516 189.212493896484 181.543746948242 
181.043746948242 183.125 188.012496948242 194.8125 202.006256103516 212.431243896484 225.443756103516 237.943756103516 249.381256103516 262.018737792969 275.143737792969 284.325012207031 290.475006103516 293.100006103516 288.987487792969 282.043762207031 276.4375 269.424987792969 262.725006103516 255.475006103516 249.081253051758 242.5 236.300003051758 233.462493896484 236.537506103516 240.237503051758 242.237503051758 242.606246948242 242.581253051758 240.050003051758 238.425003051758 237.9375 244.931243896484 251.743759155273 257.21875 261.5625 264.506256103516 264.706237792969 263.53125 260.337493896484 255.762496948242 247.6875 239.368743896484 233.356246948242 232.662506103516 232.96875 230.925003051758 221.40625 212.768753051758 202.293746948242 193.443756103516 
182.762496948242 182.262496948242 185.84375 190.556243896484 196.512496948242 205.324996948242 216.725006103516 228.643753051758 240.137496948242 252.143753051758 263.287506103516 272.625 279.306243896484 283.125 281.600006103516 277.0625 272.450012207031 267.581237792969 261.712493896484 255.637496948242 250.118743896484 243.40625 239.681243896484 238.362503051758 239.806243896484 241.806243896484 242.774993896484 243.706253051758 243.556243896484 241.456253051758 239.149993896484 239.206253051758 246.9375 253.681243896484 261.043762207031 265.318756103516 268.143737792969 270.381256103516 268.618743896484 268.893737792969 267.456237792969 259.925018310547 247.231246948242 239.975006103516 244.756256103516 248.412506103516 247.981246948242 241 230.631256103516 218.181243896484 206.024993896484 
184.393753051758 181.462493896484 182.487503051758 185.625 190.068756103516 197.65625 207.5625 218.393753051758 230.518753051758 241.762496948242 252.625 261.28125 269.049987792969 273.706237792969 273.481262207031 272.287506103516 270.53125 265.674987792969 260.912506103516 256.081237792969 251.787506103516 246.324996948242 243.737503051758 243.618743896484 243.987503051758 244.518753051758 245.387496948242 244.90625 244.737503051758 241.756256103516 239.649993896484 239.231246948242 246.381256103516 254.306243896484 263.243743896484 267.768737792969 271.331237792969 273.418762207031 272.506256103516 272.137512207031 273.575012207031 265.299987792969 255.237503051758 252.987503051758 261.225006103516 265.612487792969 267.450012207031 261.581237792969 250.21875 236.21875 219.09375 
187.068756103516 181.9375 180.668746948242 179.84375 182.662506103516 189.649993896484 198.543746948242 208.568756103516 219.756256103516 229.681243896484 240.09375 249.399993896484 257.943756103516 264.712493896484 266.125 266.556243896484 264.75 262.524993896484 258.356262207031 254.574996948242 251.262496948242 248.956253051758 247.40625 246.074996948242 245.868743896484 246.350006103516 246.193756103516 244.581253051758 243.125 241.668746948242 240.068756103516 240.09375 247.293746948242 256.25 264.90625 268.556243896484 271.443756103516 275.399993896484 272.475006103516 271.25 272.475006103516 273.143737792969 269.3125 270.793762207031 274.162506103516 284.387512207031 290.024993896484 285.918762207031 274.024993896484 258.056243896484 237.768753051758 
188.71875 181.912506103516 178.625 175.90625 175.949996948242 182.850006103516 190.875 199.431243896484 208.737503051758 218.949996948242 229.193756103516 238.931259155273 248.818756103516 255.274993896484 258.506256103516 260.706237792969 261.887512207031 259.743743896484 255.681243896484 254.975006103516 253.493743896484 252.224990844727 251.3125 249.53125 247.699996948242 247.768753051758 245.893753051758 243.78125 241.381256103516 240.28125 240.024993896484 241.368759155273 248.324996948242 258.40625 265.987487792969 269.524993896484 273.318756103516 279.143737792969 275.393737792969 267.375 270.987487792969 279.075012207031 282.381256103516 285.287506103516 290.231262207031 309.200012207031 319.912506103516 314.856262207031 301.137512207031 281.625 259.581268310547 
189.706253051758 182.137496948242 177.362503051758 174.199996948242 173.53125 177.493743896484 183.987503051758 190.699996948242 199.137496948242 208.318756103516 218.262496948242 228.774993896484 238.818740844727 247.306243896484 253.09375 257.162506103516 259.674987792969 258.481262207031 256.774993896484 257.318756103516 256.731262207031 255.462493896484 254.28125 251.668746948242 250.131256103516 248.431243896484 245.050003051758 241.887496948242 238.487503051758 239.037506103516 240 241.631256103516 249.25 258.424987792969 267.837493896484 272.162506103516 276.6875 281.306243896484 276.668762207031 273.181243896484 281.493743896484 293.393737792969 301.162506103516 311.424987792969 322.081237792969 350.28125 362.731262207031 353.174987792969 331.537506103516 307.637512207031 280.350006103516 
190.837493896484 183.9375 178.768753051758 175.25 173.375 174.675003051758 178.1875 182.512496948242 189.381256103516 197.631256103516 208.462493896484 218.6875 230.09375 241.762496948242 248.212493896484 253.868743896484 257.081237792969 259.018737792969 259.481262207031 260.549987792969 260.056243896484 257.787506103516 255.137496948242 251.96875 249.918746948242 247.199996948242 243.074996948242 238.762496948242 235.824996948242 237.137496948242 239.21875 241.856246948242 249.5 258.306243896484 268.6875 274.662506103516 281.3125 285.975006103516 283.700012207031 289.606262207031 299.818756103516 312.418762207031 325.487487792969 342.4375 368.600006103516 407.325012207031 415.756256103516 388.412506103516 359.106262207031 329.037506103516 299.375 
191.418746948242 185.506256103516 180.231246948242 176.574996948242 173.256256103516 172.324996948242 172.28125 174.293746948242 180.03125 187.100006103516 196.78125 209.15625 222.550003051758 234.512496948242 242.5 249.75 255.793746948242 259.143737792969 261.231262207031 263.362487792969 262.106262207031 259.337493896484 256.112487792969 251.824996948242 248.768753051758 244.837493896484 240.574996948242 235.293746948242 231.962493896484 234.199996948242 237.581253051758 242.231246948242 250.256256103516 259.274993896484 270.056243896484 278.049987792969 284.731262207031 289.100006103516 294.137512207031 305.075012207031 316.481262207031 331.068756103516 350.225006103516 372.59375 403.424987792969 439.106262207031 441.4375 409.487487792969 377.625 346.212493896484 314.787506103516 
193 187.831253051758 182.449996948242 177.675003051758 173.668746948242 170.418746948242 167.59375 167.21875 170.362503051758 176.912506103516 186.71875 200.725006103516 215.393753051758 229.737503051758 239.699996948242 246.850006103516 254.59375 259.181243896484 262.293762207031 264.837493896484 263.799987792969 260.46875 256.21875 250.225006103516 245.231246948242 241.293746948242 235.837493896484 231.018753051758 227.137496948242 230.587493896484 235.96875 241.65625 249.712493896484 259.950012207031 269.487487792969 277.043762207031 284.4375 295.78125 304.6875 315.875 330.006256103516 344.668762207031 364.46875 386.856262207031 411.918762207031 430.5625 433.431243896484 412.0625 384.056243896484 356.206237792969 326.024993896484 
196.550003051758 191.512496948242 186.262496948242 181.0625 176.643753051758 172.675003051758 168.931243896484 165.774993896484 166.081253051758 169.643753051758 178.949996948242 193.125 209.337493896484 224.975006103516 234.949996948242 244.681243896484 251.943756103516 257.475006103516 262.087493896484 266.181243896484 264.462493896484 258.9375 253.456253051758 247.181243896484 241.618743896484 236.762496948242 231.675003051758 227.300003051758 223.993743896484 227.09375 233.787506103516 239.75 248.506256103516 258.331237792969 266.28125 273.568756103516 286.587493896484 298.3125 307.0625 319.850006103516 335.21875 348.375 364.893737792969 384.668762207031 401.575012207031 411.306243896484 413.475006103516 398.825012207031 376.987487792969 353.762512207031 326.668762207031 
200.393753051758 196.006256103516 191.125 186.168746948242 181.287506103516 176.774993896484 171.699996948242 166.925003051758 163.9375 162.300003051758 171.84375 190.637496948242 206.462493896484 219.568756103516 230.287506103516 240.34375 248.46875 253.956253051758 258.924987792969 262.600006103516 260.043762207031 254.175003051758 248.518753051758 241.8125 235.818756103516 231.506256103516 225.862503051758 222.537506103516 219.168746948242 223.737503051758 230.425003051758 238.462493896484 246.693756103516 256.40625 264.212493896484 273.662506103516 286.831237792969 299.837493896484 310.237487792969 320.40625 333.568756103516 344.837493896484 359.037506103516 376.681243896484 388.924987792969 392.6875 394.618743896484 384.231262207031 367.34375 347.043762207031 322.787506103516 
206.318756103516 201.824996948242 196.737503051758 192.03125 186.949996948242 182.137496948242 177.006256103516 171.706253051758 167.256240844727 162.762496948242 176.743743896484 195.712493896484 206.931243896484 216.987503051758 226.831253051758 236.46875 244.637496948242 249.356246948242 253.09375 254.25 252.256256103516 247.5625 242.5 235.100006103516 229.493743896484 225.21875 220.131256103516 217.231246948242 214.912506103516 220.84375 225.774993896484 233.612503051758 242.643753051758 252.231246948242 260.706237792969 272.174987792969 286.125 298.756256103516 311.387512207031 322.681243896484 331.162506103516 341.893737792969 351.243743896484 363.350006103516 371.912506103516 375.03125 375.887512207031 369.381256103516 353.375 337.006256103516 317.274993896484 
211.34375 207.056243896484 202.8125 198.28125 193.1875 188.706253051758 184.5625 180.637496948242 179.987503051758 185.537506103516 201.212493896484 208.056243896484 213.675003051758 220.887496948242 228.024993896484 235.056243896484 241.449996948242 245.112503051758 246.943756103516 247.931243896484 244.975006103516 240.193756103516 236.168746948242 230.193756103516 224.068756103516 220.362503051758 216.449996948242 214.125 212.893753051758 218.100006103516 223.681243896484 230.5 238.9375 247.887496948242 259.725006103516 271.924987792969 283.512512207031 297.443756103516 308.3125 314.181243896484 320.787506103516 330.112518310547 334.887512207031 344.318756103516 350.475006103516 351.606262207031 347.181243896484 341.875 329.712493896484 317.381256103516 301.100006103516 
216.225006103516 212.568756103516 208.649993896484 204.274993896484 200.649993896484 197.443756103516 194 192.568756103516 194.393753051758 199.90625 208.487503051758 215.3125 219.856246948242 225.056243896484 230 234.34375 239.162506103516 241.243743896484 242.074996948242 242.381256103516 238.28125 233.518753051758 228.737503051758 223.100006103516 218.90625 215.243743896484 212.337493896484 211.306243896484 210.768753051758 215.050003051758 219.774993896484 228.943756103516 239.350006103516 248.550003051758 260.456237792969 271.181243896484 281.181243896484 292.262512207031 302.331237792969 305.174987792969 309.768737792969 316.143737792969 319.131256103516 323.024993896484 325.956237792969 325.731262207031 323.725006103516 318.993743896484 309.931243896484 298.831237792969 284.287506103516 
221.350006103516 217.987503051758 214.693756103516 211.487503051758 208.100006103516 204.875 202.818756103516 203.556243896484 205.03125 208.65625 213.806243896484 219.4375 225.087493896484 228.387496948242 231.774993896484 234.081253051758 236.649993896484 238.425003051758 238.225006103516 237.018753051758 232.362503051758 226.868743896484 221.587493896484 216.956253051758 214.893753051758 210.956253051758 208.743743896484 208.106246948242 207.962493896484 211.787506103516 218.287506103516 229.25 238.487503051758 248.987503051758 260.693756103516 271.512512207031 280.293762207031 288.424987792969 295.168762207031 296.0625 297.856262207031 300.493743896484 299.950012207031 303.112487792969 304.587493896484 305.637512207031 302.725006103516 295.875 289.825012207031 281.487487792969 268.631256103516 
226.09375 223.518753051758 220.5 217.350006103516 214.637496948242 211.612503051758 210.556243896484 210.9375 213.087493896484 215.037506103516 219.362503051758 224.081253051758 229.006256103516 232.306243896484 234.65625 237.606246948242 239.474990844727 240.443756103516 239.943756103516 236.024993896484 228.868759155273 224.150009155273 218.59375 214.268753051758 212.293746948242 209.475006103516 206.899993896484 205.862503051758 207.137496948242 212.356246948242 214.949996948242 225.90625 236.081253051758 250.231246948242 263.825012207031 271.700012207031 279.481262207031 285.625 287.931243896484 286.356262207031 285.243743896484 281.806243896484 279.524993896484 283.875 286.087493896484 286.899993896484 282.875 275.424987792969 270.71875 262.181243896484 251.006256103516 
231.506256103516 229.012496948242 226.368743896484 223.199996948242 219.8125 217.875 217.043746948242 217.375 219.106246948242 220.768753051758 224.006256103516 228.112503051758 232.9375 235.524993896484 238.350006103516 240.981246948242 242.3125 243.800003051758 242.568756103516 235.237503051758 226.506240844727 219.518753051758 214.46875 212.824996948242 211.03125 208.587493896484 205.637496948242 204.431243896484 205.612503051758 209.262496948242 213.331253051758 218.112503051758 229.074996948242 246.050003051758 263.725006103516 277.137512207031 279.912506103516 282.543762207031 280.537506103516 276.174987792969 273.149993896484 269.1875 267.012512207031 267.918762207031 269.40625 267.799987792969 264.075012207031 257.700012207031 252.824996948242 245.350006103516 235.600006103516 
237.337493896484 235.543746948242 232.612503051758 228.681243896484 226.206253051758 223.543746948242 221.912506103516 222.206253051758 223.056243896484 225.300003051758 228.556243896484 232.706253051758 235.300003051758 238.943756103516 241.706253051758 243.850006103516 245.018753051758 245.65625 245.793746948242 237.381256103516 226.725006103516 217.899993896484 212.649993896484 210.662506103516 210.018753051758 207.993743896484 205.074996948242 204.574996948242 204.481246948242 207.524993896484 209.587493896484 212.631256103516 221.168746948242 238.737503051758 261.106262207031 281.231262207031 282.524993896484 278.931243896484 273.462493896484 267.575012207031 263.356262207031 258.893737792969 255.362503051758 255.631256103516 255.162506103516 252.118743896484 249.21875 242.168746948242 235.5 230.449996948242 222.399993896484 
243.712493896484 242.193756103516 239.443756103516 234.925003051758 232.168746948242 229.40625 226.399993896484 226.09375 226.487503051758 228.868743896484 231.925003051758 235.34375 237.943756103516 240.956253051758 243.331253051758 244.993743896484 245.300003051758 244.449996948242 243.268753051758 236.587493896484 227.350006103516 220.15625 213.5625 210.9375 210.8125 208.75 206.25 205.3125 205.818756103516 208.868743896484 210.46875 211.949996948242 220.637496948242 235 253.918746948242 274.512512207031 278.912506103516 272.618743896484 266.149993896484 261.581237792969 256.212493896484 252.074996948242 249.006256103516 245.643753051758 245.106246948242 242.774993896484 238.600006103516 232.024993896484 223.956253051758 219.581253051758 213.862503051758 
