ncols        51
nrows        45
xllcorner    -63.500000000000
yllcorner    -7.500000000000
cellsize     0.166666666667
NODATA_value -99
170.943756103516 168.268753051758 180.125 199.59375 217.931243896484 240.550003051758 259 275.143737792969 286.15625 301.125 320.787506103516 334.856262207031 348.299987792969 356.024993896484 358.043762207031 358.587493896484 363.168762207031 359.524993896484 360.462493896484 361.25 367.537506103516 372.768737792969 377.512481689453 367.606262207031 359.106262207031 348.462493896484 328.25 309.706237792969 291.143737792969 285.46875 287 285.643737792969 288.5 294.125 299.424987792969 308.143737792969 316.225006103516 324.84375 333.868743896484 341.206237792969 348.862487792969 355.506256103516 360.256256103516 365.956237792969 366.356262207031 369.149993896484 370.231262207031 370.668762207031 371.081237792969 374.5 374.287506103516 
170.4375 163.068756103516 174.231246948242 189.487503051758 205.506256103516 225.925003051758 243.362503051758 260.537506103516 276.856262207031 293.6875 312.725006103516 324.606262207031 335.662506103516 343.65625 345.668762207031 347.600006103516 350.743743896484 345.450012207031 338.862518310547 333.575012207031 335.700012207031 338.4375 341.700012207031 336.931243896484 331.887512207031 326.012512207031 311.450012207031 299.162506103516 285.456237792969 280.556243896484 279.174987792969 279.918762207031 284.993743896484 296.100006103516 303.493743896484 313.868743896484 324.162506103516 333.168762207031 341.456237792969 347.612487792969 355.368743896484 361.143737792969 365.081237792969 369.524993896484 370.318756103516 372.3125 371.987487792969 371.662506103516 373.34375 376.475006103516 375.981262207031 
180.237503051758 173.393753051758 181.84375 193.037506103516 203.762496948242 218.475006103516 233.837493896484 249.425003051758 264.637512207031 280.8125 294.368743896484 302.825012207031 312.125 319.475006103516 322.049987792969 326.181243896484 329.649993896484 327.112487792969 322.137512207031 318.481262207031 320.587493896484 323.543762207031 324.399993896484 320.737487792969 316.399993896484 309.481262207031 299.325012207031 290.887512207031 280.5625 277.524993896484 279.106262207031 281.668762207031 289.518737792969 299.318756103516 311.268737792969 320.231262207031 331.768737792969 343.768737792969 351.700012207031 359.350006103516 366.737487792969 370.8125 373.362487792969 375.475006103516 377.475006103516 377.818756103516 377.756256103516 376.53125 377.399993896484 379.8125 379.524993896484 
190.462493896484 185.71875 192.493743896484 198.481246948242 204.050003051758 211.506256103516 220.943756103516 231.862503051758 246.012496948242 259.21875 268.337493896484 273.225006103516 279 284.893737792969 289.34375 294.493743896484 301.356231689453 303.600006103516 303.912506103516 303.725006103516 307.112487792969 308.299987792969 306.793762207031 302.399993896484 297.475006103516 290.837493896484 284.825012207031 278.381256103516 272.606262207031 273.875 276.674987792969 283.649993896484 292.393737792969 302.975006103516 315.181243896484 327.46875 340.756256103516 354.231262207031 364.356262207031 371.681243896484 377.125 380.899993896484 382.506256103516 382.412506103516 383.875 382.856262207031 382.762512207031 382.100006103516 379.643737792969 381.431243896484 381.53125 
206.800003051758 201.106246948242 201.362503051758 203.462493896484 204.068756103516 204.806243896484 206.212493896484 210.993743896484 222.887496948242 234.106246948242 238.324996948242 239.800003051758 244.100006103516 250.912506103516 255.600006103516 262.868743896484 270.756256103516 278.006256103516 281.693756103516 284.399993896484 288.337493896484 288.4375 288.075012207031 284.174987792969 278.71875 273.006256103516 269.075012207031 266.850006103516 267.818756103516 269.956237792969 276.462493896484 283.706237792969 295.643737792969 308.131256103516 321.262512207031 335.174987792969 349.325012207031 363.34375 374.8125 381.668762207031 388.475006103516 389.368743896484 389.043762207031 388.931243896484 388.274993896484 386.674987792969 386.012512207031 383.462493896484 380.5 380.506256103516 381.887512207031 
222.556243896484 218.300003051758 219.268753051758 218.056243896484 214.71875 213.543746948242 212.612503051758 214.09375 223.168746948242 232.481246948242 231.487503051758 230.800003051758 234.675003051758 239.100006103516 244.037506103516 250.600006103516 258.100006103516 264.5 269.125 271.5 275.0625 277.28125 278.662506103516 276.487487792969 273.75 271.899993896484 270.268737792969 268.975006103516 269.65625 273.143737792969 278.237487792969 285.581237792969 295.556243896484 310.506256103516 325.268768310547 338.71875 355.143737792969 369.899993896484 381.831237792969 390.899993896484 395.587493896484 396.481262207031 395.612487792969 394.337493896484 392.231262207031 388.568756103516 386.081237792969 382.662506103516 379.168762207031 375.5625 371.4375 
237.293746948242 233.631256103516 233.699996948242 230.350006103516 224.65625 220.893753051758 217.71875 214.824996948242 216.206253051758 218.15625 219.768753051758 221.293746948242 224.90625 228.768753051758 233.581253051758 239.225006103516 245.574996948242 249.668746948242 252.725006103516 257.075012207031 260.806243896484 265.387512207031 268.256256103516 269.618743896484 270.962493896484 271.768737792969 272.243743896484 272.137512207031 272.143737792969 273.943756103516 280.5 286.59375 296.337493896484 308.893737792969 323.831237792969 339.225006103516 355.068756103516 370.837493896484 386.868743896484 394.756256103516 396.337493896484 397.443756103516 396.368743896484 395.081237792969 395.200012207031 388.53125 383.631256103516 379.024993896484 370.231262207031 367.21875 364.424987792969 
248.899993896484 245.568756103516 243.5625 240 234.918746948242 228.943756103516 220.75 210.987503051758 203.949996948242 202.756256103516 206.793746948242 211.037506103516 215.787506103516 219.800003051758 223.84375 228.681243896484 232.34375 234.368743896484 236.981246948242 241.037506103516 247.050003051758 253.3125 258.65625 262.856262207031 269.024993896484 271.918762207031 272.725006103516 273.643737792969 273.518737792969 274.6875 278.831237792969 286.681243896484 295.274993896484 307.149993896484 321.262512207031 336.399993896484 352.65625 368.418762207031 383.306243896484 390.799987792969 393.78125 394.649993896484 393.674987792969 392.149993896484 390.962493896484 384.512512207031 374.643737792969 365.306243896484 360.131256103516 354.362487792969 350.493743896484 
258.549987792969 255.006256103516 253.15625 249.606246948242 243.793746948242 236.618743896484 226.96875 214.787506103516 202.193756103516 197.849990844727 205.262496948242 212.337493896484 219.193756103516 222.899993896484 226.643753051758 230.706253051758 233.300003051758 234.849990844727 238.300003051758 242.081253051758 246.512496948242 254.425003051758 260.549987792969 269.543762207031 276.268737792969 278.549987792969 276.681243896484 275.387512207031 275.868743896484 275.637512207031 279.587493896484 286.737487792969 294.856262207031 305.206237792969 317.262512207031 332.575012207031 349.962493896484 364.9375 378.9375 386.237487792969 389.84375 390.475006103516 390.193756103516 388.4375 384.081237792969 377.181243896484 367.356262207031 355.506256103516 346.412506103516 338.59375 334.075012207031 
268.0625 264.325012207031 261.768737792969 258.03125 252.918746948242 245.743743896484 236.65625 225.318756103516 215.231246948242 211.300003051758 214.737503051758 219.149993896484 225.431243896484 229.537506103516 232.074996948242 235 237.15625 238.293746948242 240.762496948242 244.043746948242 248.762496948242 257.325012207031 266.524993896484 278.431243896484 283.668762207031 285.28125 282.399993896484 279.237487792969 277.1875 275.356262207031 277.712493896484 285.59375 294.193756103516 304.700012207031 315.59375 329.475006103516 345.1875 360.350006103516 374.274993896484 383.118743896484 388.03125 389.268737792969 386.418762207031 379.975006103516 375.993743896484 371.325012207031 361.9375 348.725006103516 335.368743896484 325.768737792969 319.024993896484 
277.206237792969 273.743743896484 270.306243896484 266.756256103516 262.649993896484 256.737487792969 248.662506103516 238.050003051758 230.649993896484 227.518753051758 227.768753051758 230.637496948242 234.287506103516 238.143753051758 239.46875 240.387496948242 241.081253051758 241.725006103516 242.59375 245.131256103516 251.618743896484 260.787506103516 272.975006103516 283.700012207031 292.600006103516 291.331237792969 286.825012207031 284.318756103516 280.375 276.399993896484 278.787506103516 284.856262207031 292.368743896484 301.981262207031 312.556243896484 325.024993896484 339.206237792969 353.681243896484 367.612487792969 378.668762207031 384.462493896484 383.950012207031 378.924987792969 371.21875 366.024993896484 360.975006103516 349.793762207031 333.231262207031 320.493743896484 314.543762207031 305.193756103516 
283.975006103516 280.90625 277.606262207031 275.006256103516 270.618743896484 266.793762207031 261.231262207031 252.831253051758 247.024993896484 243.574996948242 242.606246948242 243.59375 245.149993896484 247.675003051758 250.21875 250.712493896484 249.043746948242 248.081253051758 248.006256103516 249.012496948242 253.131256103516 262.6875 276.912506103516 292.25 298.96875 292.1875 286.25 283.368743896484 281.956237792969 280.993743896484 280.443756103516 283.981262207031 290.037506103516 298.162506103516 307.206237792969 320.868743896484 335.625 349.931243896484 363.212493896484 375.918762207031 383.287506103516 380.612487792969 371.143737792969 356.799987792969 346.737487792969 337.25 323.96875 312.625 305.856262207031 303.112487792969 293.962493896484 
290.337493896484 287.162506103516 284.59375 281.443756103516 278.206237792969 276.162506103516 271.787506103516 266.09375 261.306243896484 259.287506103516 259.1875 258.931243896484 259.950012207031 259.493743896484 260.862487792969 260.65625 258.043762207031 256.5 255.962493896484 254.59375 254.975006103516 263.162506103516 275.975006103516 288.268737792969 288.71875 283.681243896484 283.649993896484 283.543762207031 283.875 283.950012207031 283.556243896484 283.825012207031 287.462493896484 294.137512207031 302.149993896484 314.381256103516 329.037506103516 343.637512207031 358.606262207031 373.424987792969 383.299987792969 378.037506103516 359.674987792969 341.287506103516 327.306243896484 321.231262207031 311.768737792969 300.899993896484 295.075012207031 294.399993896484 293.924987792969 
295.256256103516 292.862487792969 290.443756103516 287.6875 285.674987792969 283.293762207031 281.368743896484 279.018737792969 277.225006103516 276 275.612487792969 275.100006103516 274.575012207031 274.668762207031 272.162506103516 271.549987792969 268.34375 265.46875 263.549987792969 262.174987792969 263.493743896484 268.25 275.431243896484 281.637512207031 281.9375 280.706237792969 281.918762207031 282.837493896484 283.756256103516 284.337493896484 285.231262207031 284.912506103516 285.225006103516 288.524993896484 295.018737792969 307.737487792969 323.162506103516 337.21875 351.424987792969 365.112487792969 374.174987792969 363.012512207031 346.943756103516 332.731262207031 320.618743896484 312.850006103516 305.493743896484 299.399993896484 293.5 294.1875 298.274993896484 
299.293762207031 296.081237792969 294.65625 294.274993896484 293.668762207031 292.46875 292.893737792969 292.987487792969 292.137512207031 291.818756103516 292.693756103516 292.556243896484 292.381256103516 292.21875 287.806243896484 286.362487792969 282.856262207031 280.668762207031 277.806243896484 275.706237792969 276.243743896484 277.825012207031 280.299987792969 283.131256103516 283.981262207031 284.674987792969 285.362487792969 285.856262207031 287.087493896484 288.106262207031 286.53125 284.712493896484 284.575012207031 283.256256103516 286.181243896484 300.25 316.975006103516 330.887512207031 340.231262207031 346.493743896484 346.981262207031 342.274993896484 336.762512207031 326.768737792969 317.418762207031 310.575012207031 305.625 300.049987792969 297.075012207031 294.737487792969 296.131256103516 
300.837493896484 298.549987792969 298.818756103516 299.793762207031 300.850006103516 302.931243896484 304.287506103516 305.356262207031 307.443756103516 309.237487792969 310.018737792969 311.34375 312.049987792969 311.681243896484 307.46875 303.168762207031 298.8125 296.549987792969 293.237487792969 291.193756103516 289.106262207031 287.3125 286.524993896484 286.856262207031 286.462493896484 287.137512207031 288.068756103516 289.268737792969 291.612487792969 292.350006103516 291.568756103516 288.53125 285.15625 282.918762207031 283.600006103516 302.1875 316.662506103516 323.174987792969 326.487487792969 328.681243896484 327.5625 326.875 325.012512207031 319.5 311.918762207031 306.274993896484 300.65625 295.049987792969 291.862487792969 288.962493896484 287.875 
303.043762207031 302.075012207031 302.625 305.368743896484 308.65625 312.262512207031 316.668762207031 319.637512207031 322.774993896484 325.96875 327.456237792969 330.475006103516 332.612487792969 331.674987792969 328.756256103516 322.762512207031 314.956237792969 310.75 308.575012207031 305.787506103516 301.512512207031 297.59375 294.681243896484 292.868743896484 291.456237792969 289.21875 290.131256103516 292.225006103516 293.887512207031 296.225006103516 296.306243896484 293.512512207031 290.512512207031 291.337493896484 302.424987792969 317.306243896484 322.649993896484 321.318756103516 317.850006103516 315.131256103516 314.831237792969 315.581237792969 313.90625 310.725006103516 305.862487792969 300.931243896484 295.412506103516 291.28125 289.056243896484 283.78125 281.287506103516 
305.231262207031 305.575012207031 308.799987792969 313.837493896484 318.793762207031 323.856262207031 329.15625 334.412506103516 339.043762207031 342.881256103516 345.96875 351.375 353.212493896484 353.987487792969 350.568756103516 343.28125 335.237487792969 324.78125 325.862487792969 323.293762207031 318.862487792969 312.556243896484 306.40625 301.78125 297.712493896484 295.387512207031 294.03125 296.28125 298.831237792969 300.899993896484 299.543762207031 291.837493896484 290.262512207031 295.78125 311.743743896484 334.193756103516 328.700012207031 319.012512207031 311.818756103516 309.3125 306.462493896484 306.487487792969 305.706237792969 302.956237792969 298.46875 295.268737792969 291.193756103516 288.006256103516 286.362487792969 280.068756103516 277.893737792969 
306.75 308.649993896484 313.331237792969 320.268737792969 328.106262207031 336.118743896484 343.618743896484 350.512512207031 355.575012207031 360.256256103516 364.162506103516 367.912506103516 373.162506103516 376.287506103516 370.856262207031 362.306243896484 352.850006103516 341.987487792969 338.362487792969 337.131256103516 333.450012207031 327.28125 314.681243896484 308.368743896484 303.15625 299.674987792969 298.700012207031 298.5625 300.762512207031 303.856262207031 303.318756103516 291.912506103516 285.068756103516 282.993743896484 292.4375 310.950012207031 311.25 307.15625 305.006256103516 302.34375 300.618743896484 299.306243896484 298.575012207031 296.59375 292.600006103516 289.9375 287.575012207031 285.412506103516 283.418762207031 273.75 274.950012207031 
305.28125 309.90625 316.543762207031 325.700012207031 336.225006103516 347.668762207031 357.868743896484 366.850006103516 372.84375 377.149993896484 380.806243896484 384.65625 391.818756103516 397.912506103516 389.200012207031 375.168762207031 361.787506103516 356.600006103516 351.637512207031 349.4375 341.462493896484 331.337493896484 322.274993896484 313.28125 306.0625 300.081237792969 298.706237792969 299.049987792969 298.443756103516 298.462493896484 294.887512207031 285.787506103516 272.325012207031 259.887481689453 254.274993896484 268.193756103516 284.681243896484 291.931243896484 295.600006103516 296.649993896484 295.393737792969 293.75 293.375 291.981262207031 289.03125 287.075012207031 285.225006103516 282.637512207031 278.774993896484 268.731262207031 271.950012207031 
303.587493896484 312.274993896484 322.981262207031 334.581268310547 347.162506103516 361.318756103516 374.774993896484 385.643737792969 392.456237792969 394.443756103516 393.481262207031 395.112487792969 397.799987792969 402.493743896484 395.25 380.924987792969 368.262512207031 360 356.475006103516 352.350006103516 345.331237792969 337.731262207031 328.725006103516 320.293762207031 312.268737792969 305.237487792969 302.212493896484 299.337493896484 296.462493896484 295.049987792969 289.293762207031 279.112518310547 263.256256103516 244.137496948242 226.518753051758 243.518753051758 268.231262207031 282.387512207031 289.725006103516 292.118743896484 291.893737792969 291.131256103516 288.96875 287.450012207031 285.918762207031 284.268737792969 282.987487792969 280.631256103516 273.368743896484 268.043762207031 270.106262207031 
302.71875 313.174987792969 327.78125 342.274993896484 357.893737792969 375.174987792969 391.506256103516 405.637512207031 412.993743896484 410.837493896484 402.762512207031 397.456237792969 393.712493896484 393.537506103516 389.743743896484 382.731262207031 376.287506103516 368.975006103516 363.625 357.799987792969 347.40625 337.831237792969 331.5 321.46875 312.8125 306.950012207031 306.375 302.293762207031 297.612487792969 294.387512207031 286.806243896484 276.049987792969 262.181243896484 248.34375 240.356246948242 250.59375 269.356262207031 282.912506103516 290.075012207031 291.225006103516 289.868743896484 288.606262207031 286.65625 285.024993896484 284 282.8125 281.75 279.037506103516 271.25 270.568756103516 268.774993896484 
306.212493896484 319.668762207031 335.34375 352.34375 369.487487792969 387.168762207031 404.412506103516 423.618743896484 434.962493896484 426.231262207031 410.9375 396.03125 384.831237792969 382.993743896484 384.725006103516 383.431243896484 379.674987792969 373.362487792969 366.96875 360.15625 348.868743896484 337.068756103516 327.78125 317.024993896484 310.418762207031 306.475006103516 306.168762207031 302.806243896484 296.987487792969 292.15625 285.28125 277.993743896484 270.237487792969 262.09375 260.825012207031 268.768737792969 280.506256103516 289.28125 293.125 292.331237792969 289.34375 287.15625 285.024993896484 282.443756103516 281.668762207031 281.681243896484 281.475006103516 278.075012207031 273.318756103516 272.450012207031 269.143737792969 
317.868743896484 333.193756103516 349.524993896484 366.762512207031 383.862487792969 399.875 417.518737792969 435.412506103516 443.693756103516 431.125 411.524993896484 395.075012207031 377.493743896484 376.043762207031 380.993743896484 382.575012207031 381.431243896484 375.981262207031 367.424987792969 358.799987792969 345.893737792969 332.387512207031 321.206237792969 310.59375 303.162506103516 299.962493896484 300.681243896484 299.90625 296.306243896484 294.306243896484 291.131256103516 286.262512207031 281.268737792969 277.100006103516 277.543762207031 285.09375 292.768737792969 294.924987792969 294.493743896484 292.149993896484 288.818756103516 285.643737792969 283.200012207031 279.875 280.53125 281.356262207031 282.03125 277.25 278.381256103516 273.443756103516 269.924987792969 
337.100006103516 352.524993896484 365.8125 382.325012207031 400.243743896484 414.53125 427.043762207031 438.549987792969 440.8125 431.618743896484 417.087493896484 400.293762207031 387.893737792969 383.0625 383.518737792969 385.631256103516 384.262512207031 378.918762207031 370.612487792969 358.731262207031 342.387512207031 326.706237792969 312.612487792969 299.46875 294.287506103516 295.837493896484 296.931243896484 299.112487792969 297.512512207031 299.600006103516 298.399993896484 295.375 292.59375 289.681243896484 288.731262207031 290.856262207031 294.893737792969 295.318756103516 293.493743896484 291.975006103516 288.649993896484 284.868743896484 280.581237792969 279.006256103516 276.21875 277.4375 277.693756103516 282.487487792969 283.575012207031 277.106262207031 271.443756103516 
361.293762207031 378.306243896484 386.887512207031 401.25 414.799987792969 425.324981689453 433.9375 440.618743896484 439.350006103516 431.600006103516 420.46875 409.318756103516 399.731262207031 392.943756103516 391.493743896484 392.693756103516 389.8125 384.518737792969 376.287506103516 361.168762207031 343.96875 323.381256103516 303.825012207031 287.006256103516 285.637512207031 292.106262207031 297.943756103516 300.149993896484 300.850006103516 305.125 306.631256103516 306.399993896484 304.693756103516 299.875 295.587493896484 294.462493896484 295.006256103516 293.956237792969 292.731262207031 290.75 287.987487792969 283.318756103516 276.649993896484 274.037506103516 272.143737792969 273.431243896484 284.543762207031 290.299987792969 288.993743896484 284.462493896484 277.287506103516 
383.431243896484 395.318756103516 403.737487792969 413.493743896484 423.200012207031 430.725006103516 435.46875 438.681243896484 436.887512207031 432.75 426.40625 418.693756103516 411.637512207031 406.324981689453 404.631256103516 403.5 401.924987792969 394.087493896484 383.40625 369.350006103516 348.743743896484 325.993743896484 300.668762207031 281.887512207031 286.03125 293.431243896484 300.693756103516 303.174987792969 304.825012207031 309.78125 313.143737792969 315.793762207031 314.962493896484 306.862487792969 299.231262207031 296.3125 295.149993896484 292.524993896484 291.693756103516 290.649993896484 287.03125 281.643737792969 274.09375 269.981262207031 274.862487792969 284.056243896484 295.556243896484 298.450012207031 297.600006103516 289.768737792969 283.75 
406.818756103516 415.262512207031 421.081268310547 427.618743896484 432.149993896484 435.806243896484 440.137512207031 441.112487792969 439.368743896484 436.756256103516 431.693756103516 426.524993896484 422.5625 419.362487792969 417.337493896484 415.237487792969 413.581237792969 407.8125 396.956237792969 382.606262207031 362.193756103516 338.743743896484 319.356262207031 302.950012207031 300.549987792969 304.262512207031 308.743743896484 311.118743896484 311.774993896484 314.774993896484 317.362487792969 318.568756103516 316.375 307.625 299.337493896484 295.75 292.09375 289.737487792969 290.09375 291.049987792969 290.712493896484 284.575012207031 274.3125 269.881256103516 283.137512207031 294.9375 306.350006103516 307.75 305.368743896484 296.568756103516 288.837493896484 
428.193756103516 434.46875 437.5 439.5 443.600006103516 443.987487792969 443.318756103516 442.918762207031 442.28125 440.081237792969 437.987518310547 435.337493896484 433.100006103516 432.268737792969 431.868743896484 431.387481689453 431.731262207031 426.162506103516 416.774993896484 403.287506103516 383.149993896484 360.9375 343.6875 326.831237792969 320.9375 318.987487792969 319.774993896484 320.200012207031 319.443756103516 320.912506103516 320.549987792969 319.25 315.418762207031 307.206237792969 298.950012207031 294.4375 289.21875 286.012512207031 286.893737792969 287.881256103516 291.112518310547 285.375 275.881256103516 278.506256103516 294.75 307.262512207031 317.1875 318.543762207031 313.375 305.037506103516 292.737487792969 
441.893737792969 446.012512207031 446.043762207031 445.537506103516 446.912506103516 444.375 443.506256103516 443.012512207031 443.456237792969 442.356262207031 441.987487792969 442.837493896484 444.306243896484 445.662506103516 446.737487792969 447.868743896484 449.274993896484 451.162506103516 444.831237792969 428.3125 407.112518310547 386.243743896484 368.381256103516 351.356262207031 340.612487792969 335.024993896484 332.481262207031 329.243743896484 325.375 324.4375 323.018737792969 319.487487792969 314.193756103516 307.631256103516 299.8125 293.21875 286.4375 282.256256103516 279.625 279.75 282.8125 284.46875 282.581237792969 289.78125 299.506256103516 315.049987792969 326.78125 327.368743896484 321.524993896484 312.84375 300.09375 
450.306243896484 452.3125 450.231231689453 449.3125 449.399993896484 445.043762207031 444.950012207031 444.056243896484 444.737487792969 445.174987792969 446.700012207031 448.681243896484 452.518737792969 454.893737792969 458.318756103516 462.53125 468.962493896484 473.162506103516 472.975006103516 455.993743896484 433.375 410.575012207031 393.043762207031 373.893737792969 359.0625 351.40625 344.331237792969 336.962493896484 331.15625 328.262512207031 325.587493896484 322.149993896484 316.09375 309.03125 301.118743896484 292.043762207031 283.768737792969 278.375 273.862487792969 268.018737792969 272.137512207031 281.424987792969 287.918762207031 296.462493896484 306.575012207031 326.456237792969 337.881256103516 338.431243896484 331.825012207031 321.149993896484 306.881256103516 
453.924987792969 454.487518310547 451.237487792969 449.075012207031 448.774993896484 444.606262207031 444.768737792969 443.1875 444.3125 446.012512207031 448.899993896484 452.299987792969 456.5625 462.799987792969 469.524993896484 476.725006103516 481.012512207031 485.40625 485.9375 475.631256103516 453.243743896484 433 413.59375 392.5625 378.28125 366.268737792969 354.918762207031 346.006256103516 336.237487792969 332.643737792969 329.381256103516 325.056243896484 317.450012207031 309.868743896484 301.59375 291.356262207031 282.856262207031 275.200012207031 268.162506103516 264.831237792969 271.53125 284.274993896484 294.5625 308.0625 321.168762207031 343.024993896484 355.412506103516 352.962493896484 342.231262207031 328.6875 312.96875 
447.65625 448.96875 446.243743896484 444.587493896484 443.337493896484 442.024993896484 441.274993896484 439.84375 440.037506103516 443.706237792969 451.725006103516 455.693756103516 462.818756103516 474.037506103516 481.512512207031 488.0625 491.481262207031 496.700012207031 496.118743896484 489.068756103516 471.950012207031 453.137512207031 433.581237792969 414.168762207031 397.912506103516 383.518737792969 369.006256103516 356.524993896484 345.381256103516 339.424987792969 334.337493896484 328.575012207031 321.25 313.40625 303.975006103516 294.6875 285.206237792969 275.662506103516 269.84375 272.387512207031 278.893737792969 290.731262207031 303.231262207031 317.774993896484 338.606262207031 365.543762207031 374.881256103516 363.550018310547 349.075012207031 334.243743896484 316.856262207031 
439.3125 440.84375 441.356262207031 441.075012207031 440.706237792969 438.918762207031 437.581237792969 436.581237792969 436.46875 440.181243896484 448.962493896484 458.881256103516 469.299987792969 479.581237792969 487.212493896484 495.887512207031 502.693756103516 507.256256103516 505.487487792969 500.231262207031 487.181243896484 470.056243896484 453.274993896484 432.212493896484 415.100006103516 398.381256103516 382.325012207031 366.424987792969 354.3125 346.09375 338.399993896484 332.387512207031 325.524993896484 317.21875 308.975006103516 298.799987792969 287.731262207031 276.943756103516 275.512512207031 278.993743896484 283.850006103516 294.975006103516 309.524993896484 324.868743896484 347.649993896484 372.46875 378.46875 365.875 351.337493896484 336.881256103516 320.487487792969 
431.03125 434.125 436.506256103516 437.056243896484 435.462493896484 435.018737792969 433.024993896484 433.206237792969 430.90625 433.168731689453 444.637512207031 459.71875 475.318756103516 488.024993896484 498.587493896484 505.75 513.118774414062 517.431274414062 516.518737792969 512.125 501.331237792969 484.962493896484 468.481262207031 446.875 429.768737792969 413.03125 393.831237792969 376.793762207031 361.037506103516 352.056243896484 344.225006103516 336.806243896484 329.287506103516 321.587493896484 312.543762207031 300.787506103516 288.975006103516 281.09375 281.200012207031 283.893737792969 288.256256103516 297.081237792969 310.0625 324.662506103516 343.450012207031 358.59375 363.487487792969 358.09375 347.668762207031 335.487487792969 321.75 
423.362487792969 426.606262207031 429.731262207031 431.71875 432.056243896484 431.018737792969 430.149993896484 427.537506103516 422.762512207031 425.131256103516 437.65625 457.21875 479.9375 498.65625 510.162506103516 519.556274414062 526.068725585938 529.793762207031 530.818725585938 528.40625 516.143737792969 498.725006103516 480.581237792969 460.118743896484 442.137512207031 424.618743896484 404.543762207031 387.006256103516 370.306243896484 358.931243896484 349.581237792969 339.756256103516 330.981262207031 324.21875 315.337493896484 303.53125 294.112487792969 286.375 285.243743896484 288.299987792969 292.96875 300.193756103516 309.481262207031 322.487487792969 335.9375 345.125 349.087493896484 347.274993896484 340.306243896484 332.162506103516 319.893737792969 
414.03125 419.018737792969 424.131256103516 427.418762207031 430.299987792969 430.806243896484 429.1875 426.193756103516 418.487487792969 414.475006103516 432.537506103516 464.21875 490.924987792969 509.71875 523.625 532.518737792969 538.4375 541.587524414062 543.706237792969 538.599975585938 526.299987792969 508.568756103516 490.568756103516 468.475006103516 450.018737792969 433.049987792969 413.106262207031 396.387512207031 378.825012207031 366.193756103516 353.987487792969 341.875 334.300018310547 327.856262207031 318.78125 308.587493896484 299.637512207031 292.28125 291.243743896484 291.837493896484 294.506256103516 300.112487792969 307.887512207031 318.056243896484 328.5 334.1875 337.25 336.943756103516 332.975006103516 326.6875 318.325012207031 
406.587493896484 413.21875 419.131256103516 424.793762207031 430.887512207031 433.368743896484 433.287506103516 430.237487792969 425.606262207031 419.174987792969 450.899993896484 486.0625 507.893737792969 525.53125 536.8125 545.962524414062 549.575012207031 551.325012207031 550.912475585938 543.943725585938 528.337524414062 511.081237792969 495.731262207031 473.674987792969 455.787506103516 440.075012207031 420.293762207031 404.493743896484 387.643737792969 373.043762207031 357.637512207031 343.237487792969 335.918762207031 330.299987792969 321.143737792969 312.950012207031 304.456237792969 295.787506103516 295.568756103516 296.487487792969 296.325012207031 301.024993896484 305.5 310.037506103516 318.0625 323.174987792969 326.543762207031 329.075012207031 326.731262207031 321.674987792969 318.131256103516 
403.587493896484 409.03125 416.6875 424.212493896484 431.837493896484 435.006256103516 439.431243896484 441.799987792969 447.625 466.200012207031 503.399993896484 519.049987792969 529.893737792969 542.737487792969 553.018737792969 560.537475585938 563.200012207031 561.118774414062 555.856262207031 545.337524414062 525.537475585938 507.262512207031 491.40625 471.768737792969 455.631256103516 442.018737792969 424.618743896484 408.84375 393.268737792969 377.681243896484 362.012512207031 345.137512207031 336.706237792969 331.131256103516 325.40625 316.837493896484 308.28125 301.65625 299.693756103516 298.5625 297.768737792969 302.049987792969 304.825012207031 308.668762207031 313.924987792969 318.193756103516 320.987487792969 322.649993896484 323.043762207031 323.012512207031 319.393737792969 
402.212493896484 406.487487792969 415.149993896484 423.28125 433.25 441.793762207031 448.024993896484 458.774993896484 471.731262207031 491.450012207031 516.856262207031 536.506225585938 550.200012207031 561.118774414062 571.387512207031 577.143737792969 578.668762207031 572.025024414062 560.556274414062 547.262512207031 523.537475585938 502.9375 483.918762207031 465.600006103516 453.049987792969 441.768737792969 425.618743896484 412.174987792969 397.543762207031 380.568756103516 362.274993896484 347.318756103516 341.549987792969 334.799987792969 328.506256103516 321.487487792969 312.793762207031 306.09375 304.631256103516 300.975006103516 298.450012207031 301.65625 303.681243896484 305.950012207031 310.068756103516 314.71875 318.793762207031 322.5 323.662506103516 324.306243896484 323.193756103516 
400.956237792969 405.443756103516 414.637512207031 424.893737792969 434.65625 444.6875 454.950012207031 470.837493896484 487.237487792969 507.681243896484 528.493774414062 548.674987792969 565.25 577.143737792969 587.856262207031 594.893737792969 594.987487792969 583.712524414062 567.337524414062 547.125 518.099975585938 493.4375 473.793762207031 456.899993896484 448.612487792969 439.662506103516 425.193756103516 413.287506103516 401.09375 384.34375 366.625 352.987487792969 345.950012207031 339.262512207031 332.450012207031 325.856262207031 318.068756103516 312.118743896484 309.087493896484 303.181243896484 300.018737792969 299.893737792969 299.862487792969 302.649993896484 307.793762207031 313.456268310547 317.350006103516 320.112487792969 323.637512207031 326.243743896484 327.024993896484 
405.087493896484 410.71875 419.262512207031 428.8125 437.831237792969 449.037506103516 461.587493896484 477.356262207031 494.856262207031 513.706237792969 533.481262207031 554.450012207031 572.387512207031 585.162475585938 595.287475585938 600.90625 602.025024414062 587.256225585938 568.71875 541.668762207031 503.081237792969 472.518737792969 453.049987792969 440.25 435.90625 428.056243896484 416.293762207031 406.181243896484 397.193756103516 384.049987792969 365.362487792969 354.306243896484 348.287506103516 343.799987792969 339.081237792969 331.456237792969 324.3125 319.03125 315.181243896484 308.575012207031 303.325012207031 299.0625 297.5 302.549987792969 308.1875 314.581237792969 317.862487792969 320.674987792969 325.25 327.318756103516 328.399993896484 
410.924987792969 418.787506103516 426.393737792969 431.787506103516 439.506256103516 452.700012207031 466.868743896484 480.3125 497.21875 516.181274414062 537.193786621094 558.143737792969 576.912475585938 591.59375 601.125 607.40625 605.493774414062 595.150024414062 575.181274414062 536.918762207031 486.431243896484 445.731262207031 430.506256103516 426.225006103516 423.862487792969 418.21875 408.53125 397.78125 390.556243896484 379.5625 365.887512207031 352.018737792969 347.100006103516 345.518737792969 343.806243896484 342.15625 333.668762207031 327.337493896484 321.993743896484 314.725006103516 309.825012207031 305.4375 302.368743896484 304.412506103516 311.5 315.674987792969 318.96875 322.381256103516 327.512512207031 330.131256103516 332.537506103516 
416.774993896484 426.575012207031 432.731262207031 435.868743896484 443.28125 455.287506103516 468.450012207031 483.137512207031 499.787506103516 518.5625 540.21875 561.993774414062 580.275024414062 594.674987792969 604.193725585938 608.806274414062 608.59375 598.825012207031 583.950012207031 540.950012207031 484.325012207031 436.25 422.6875 417.524993896484 414.46875 409.193756103516 400.125 391.90625 384.837493896484 376 362.65625 350.618743896484 347.037506103516 346.8125 347.787506103516 352.543762207031 345.231262207031 336.90625 329.662506103516 323.162506103516 317.862487792969 314.393737792969 310.556243896484 311.418762207031 315.75 318.518737792969 322.25 324.587493896484 327.125 332.256256103516 336.212493896484 
420.225006103516 431.924987792969 438.168762207031 443.618743896484 450.756256103516 460.193756103516 470.34375 482.337493896484 498.256256103516 515.5 532.856262207031 555.181274414062 574.924987792969 589.462524414062 598.799987792969 599.481262207031 597.1875 582.900024414062 564.84375 530.068725585938 481.84375 445.424987792969 423 412.643737792969 407.5625 399.706237792969 390.268737792969 382.799987792969 375.862487792969 369.28125 358.0625 346.825012207031 343.962493896484 343.762512207031 346.137512207031 353.193756103516 350.112487792969 342.037506103516 335 330.100006103516 324.65625 321.287506103516 319.318756103516 316.787506103516 320.850006103516 322.65625 324.193756103516 326.825012207031 327.40625 330.612487792969 337.293762207031 
