ncols        51
nrows        45
xllcorner    -63.500000000000
yllcorner    -7.500000000000
cellsize     0.166666666667
NODATA_value -99
238.793746948242 242.793746948242 237.199996948242 234.600006103516 228.600006103516 224.824996948242 218.53125 208.856246948242 198.518753051758 191.868743896484 189.774993896484 185.524993896484 180.199996948242 168.981246948242 159.899993896484 151.28125 144.03125 135.012496948242 130.012496948242 125.974998474121 124.550003051758 123.525001525879 123.943748474121 124.962501525879 126.693748474121 129.181243896484 133.8125 139.081253051758 144.712493896484 148.287506103516 152.318756103516 156.806243896484 160.350006103516 164.356246948242 169.09375 173.550003051758 176.475006103516 178.862503051758 181.481246948242 182.481246948242 184.431243896484 185.456253051758 184.918746948242 186.987503051758 187.199996948242 188.537506103516 189.731246948242 190.868743896484 191.756256103516 195.274993896484 198.068756103516 
247.949996948242 253.256256103516 252.600006103516 249.962493896484 248.03125 248 243.774993896484 240.212493896484 234.78125 228.331253051758 222.824996948242 214.03125 204.40625 192.787506103516 180.981246948242 169.399993896484 159.443756103516 150.425003051758 143.962493896484 138.381256103516 136.331253051758 135.774993896484 136.068756103516 136.556243896484 137.09375 139.143753051758 142.9375 148.043746948242 152.868743896484 156.112503051758 158.818756103516 163.612503051758 167.600006103516 172.524993896484 176.856246948242 181.225006103516 184.46875 186.643753051758 188.962493896484 189.868743896484 191.331253051758 191.706253051758 190.443756103516 191.375 191.043746948242 192.331253051758 193.28125 192.831253051758 194.34375 197.443756103516 198.568756103516 
250.737503051758 256.59375 256.899993896484 256.649993896484 257.831237792969 260.081237792969 262.575012207031 266.212493896484 266.193756103516 261.34375 253.637496948242 242.037506103516 229.356246948242 215.137496948242 200.399993896484 186.443756103516 174.037506103516 165.162506103516 157.912506103516 152.012496948242 149.587493896484 149.543746948242 148.662506103516 147.837493896484 148.199996948242 148.037506103516 151.087493896484 155.668746948242 158.899993896484 160.993743896484 164.137496948242 167.96875 172.46875 176.356246948242 181.487503051758 184.893753051758 188.681243896484 192.175003051758 193.675003051758 194.574996948242 195.59375 195.0625 193.5 192.21875 192.28125 193.28125 194.28125 192.793746948242 193.237503051758 195.1875 196.193756103516 
248.956253051758 255.293746948242 258.806243896484 260.962493896484 267.693756103516 272.037506103516 280.100006103516 290.556243896484 296.706237792969 296.112487792969 287.037506103516 270.662506103516 252.824996948242 235.550003051758 219.112503051758 203.21875 189.28125 178.449996948242 171.506256103516 167.475006103516 165.449996948242 164.043746948242 161.606246948242 159.46875 157.693756103516 156.03125 158.918746948242 162.199996948242 164.362503051758 166.40625 168.306243896484 172.612503051758 176.131256103516 180.356246948242 184.493743896484 188.96875 193.024993896484 196.375 198.768753051758 199.899993896484 199.5 198.293746948242 196.237503051758 193.699996948242 193.087493896484 192.431243896484 193.399993896484 191.606246948242 189.975006103516 191.125 192.793746948242 
252.006256103516 255.131256103516 256.725006103516 261.96875 271.581237792969 281.068756103516 292.21875 309.637512207031 325.049987792969 331.75 316.450012207031 293.506256103516 274.450012207031 256.1875 236.862503051758 219.556243896484 204.693756103516 192.462509155273 186.462493896484 183.331253051758 181.356246948242 177.856246948242 174.712493896484 171.199996948242 167.206253051758 164.131256103516 164.568756103516 166.375 169.59375 171.537506103516 173.387496948242 175.893753051758 180.28125 184.637496948242 188.587493896484 193.300003051758 198.337493896484 202.431243896484 204.893753051758 204.993743896484 204.774993896484 201.925003051758 198.306243896484 195.068756103516 192.587493896484 192.4375 192.693740844727 190.887496948242 188.09375 187.806243896484 189.5 
250.818756103516 255.212493896484 255.731246948242 259.299987792969 268.350006103516 280.712493896484 295.024993896484 313.287506103516 331.850006103516 344.5 326.168762207031 303.018737792969 285.174987792969 268.787506103516 251.168746948242 236.143753051758 220.975006103516 209.387496948242 204.537490844727 201.856246948242 197.181243896484 192.100006103516 187.087493896484 181.337493896484 175.100006103516 171.050003051758 171.293746948242 172.237503051758 174.168746948242 175.949996948242 177.881256103516 180.412506103516 184.050003051758 190.162506103516 195.125 200.087493896484 205.681243896484 210.25 213.518753051758 213.537506103516 211.356246948242 207.287506103516 202.78125 198.443756103516 193.300003051758 192.65625 193.962509155273 192.5 188.668746948242 186.081253051758 184.043746948242 
249.356246948242 253.225006103516 254.78125 256.518768310547 264.03125 274.743743896484 288.225006103516 302.137512207031 315.481262207031 320.412506103516 315.056243896484 302.112487792969 289.106262207031 276.731262207031 263.606262207031 251.462493896484 240.600006103516 232.9375 227.949996948242 222.175003051758 213.131256103516 205.581253051758 197.25 189.475006103516 183.550003051758 177.506256103516 177.225006103516 178.306243896484 178.399993896484 179.550003051758 182.387496948242 185.09375 189.725006103516 194.081253051758 199.368743896484 206.09375 211.887496948242 217.512496948242 222.206253051758 221.949996948242 217.65625 212.881256103516 207.893753051758 202.46875 195.850006103516 194.006256103516 194.993743896484 193.231246948242 187.487503051758 183.287506103516 181.693756103516 
246.487503051758 248.181243896484 249.662506103516 253.943756103516 260.762512207031 268.606262207031 277.087493896484 284.600006103516 289.46875 293.9375 298.768737792969 296.918762207031 291.125 282.225006103516 273.112487792969 265.225006103516 258.056243896484 254.287506103516 251.28125 241.487503051758 227.800003051758 216.837493896484 206.262496948242 197.637496948242 190.46875 183.293746948242 182.53125 182.59375 183.068756103516 184.149993896484 185.831253051758 189.256256103516 194.074996948242 199.3125 204.5625 210.774993896484 217.056243896484 222.75 226.5 226.756256103516 223.712493896484 219.243743896484 214 207.375 201.375 198.925003051758 196.887496948242 191.350006103516 187.625 181.21875 177.59375 
245.243743896484 246.637496948242 247.993743896484 252.225006103516 257.612487792969 262.543762207031 269.200012207031 273.393737792969 273.387512207031 277.231262207031 286.25 290.806243896484 289.737487792969 284.831237792969 278.193756103516 273.631256103516 268.506256103516 264.100006103516 261.174987792969 250.125 234.050003051758 221.862503051758 210.918746948242 203.975006103516 196.431243896484 188.768753051758 187.25 187.193756103516 188.131256103516 189.40625 191.956253051758 195.875 200.725006103516 205.712493896484 211.024993896484 217.9375 224.568740844727 230.462493896484 234.768753051758 235.699996948242 233.293746948242 229.375 225.037506103516 219.225006103516 214.375 210.293746948242 206.106246948242 198.462493896484 190.112503051758 181.368743896484 175.600006103516 
243.28125 244.368759155273 246.25 249.34375 253.274993896484 257.331237792969 263.793762207031 267.981262207031 271.524993896484 276.350006103516 284.65625 287.75 289.612487792969 286.193756103516 282.543762207031 278.424987792969 273.931243896484 268.149993896484 260.674987792969 250.8125 236.237503051758 224.618743896484 214.862503051758 209.693756103516 202.050003051758 193.800003051758 192.643753051758 191.899993896484 193.443756103516 195.412506103516 197.5625 201.518753051758 206.862503051758 212.981246948242 219.081253051758 225.931243896484 232.806243896484 238.168746948242 242.462493896484 244.731246948242 244.356246948242 241.5 236.993759155273 230.71875 227.475006103516 224.90625 218.96875 208.568756103516 197.287506103516 185.46875 175.818756103516 
239.837493896484 240.399993896484 242.1875 244.837493896484 247.856246948242 251.993743896484 258.100006103516 264.450012207031 270.243743896484 276.793762207031 285.462493896484 289.53125 290.512512207031 287.918762207031 285.243743896484 281.931243896484 277.049987792969 268.549987792969 259.012512207031 249.581253051758 235.1875 224.268753051758 217.199996948242 211.375 206.818756103516 198.368743896484 196.537506103516 196.712493896484 197.524993896484 199.556243896484 202.875 207.143753051758 212.462509155273 218.943740844727 226.487503051758 234.074996948242 240.09375 246.512496948242 250.912506103516 253.024993896484 253.568756103516 250.975006103516 247.206253051758 241.706253051758 238.443756103516 237.199996948242 229.600006103516 215.449996948242 202.743743896484 191.362503051758 179.274993896484 
238.1875 238.5625 239.762496948242 242.643753051758 246.087493896484 250.287506103516 256.356262207031 264.518737792969 270.912506103516 278.231262207031 287.65625 293.368743896484 293.181243896484 289.931243896484 287.231262207031 282.524993896484 277.03125 266.631256103516 255.3125 244.46875 230.018753051758 220.793746948242 217.237503051758 215.649993896484 211.4375 202.337493896484 200.206253051758 200.53125 201.943756103516 205.231246948242 208.975006103516 212.96875 218.699996948242 225.112503051758 232.668746948242 240.9375 248.987503051758 256.237487792969 261.024993896484 263.818756103516 265.262512207031 262.206237792969 256.28125 248.662506103516 243.981246948242 238.368743896484 229.875 220.993743896484 209.693756103516 198.337493896484 185.193756103516 
233.71875 234.787506103516 236.806243896484 239.637496948242 244.143753051758 249.006256103516 255.831253051758 263.462493896484 269.96875 278.756256103516 288.024993896484 294.556243896484 294.856262207031 290.137512207031 286.493743896484 280.668762207031 274.549987792969 264.59375 254.050003051758 242.231246948242 225.5625 217.725006103516 216.143753051758 215.087493896484 209.868743896484 202.162506103516 202.381256103516 203.787506103516 205.712493896484 209.706253051758 214.125 218.537506103516 223.393753051758 230.199996948242 238.1875 246.556243896484 255.15625 264.625 270.581237792969 274.212493896484 277.25 272.862487792969 263.168762207031 252.9375 245.975006103516 240.762496948242 233.287506103516 222.881256103516 213.524993896484 205.4375 196.881256103516 
227.962493896484 229.4375 232 235.493743896484 240.787506103516 245.90625 253.568740844727 261.387512207031 268.475006103516 276.418762207031 284.4375 289.475006103516 290.412506103516 288.337493896484 282.924987792969 277.793762207031 270.84375 262.293762207031 252.543746948242 243.118743896484 230.056243896484 221.331253051758 216.65625 213.100006103516 207.962493896484 201.987503051758 203.78125 206.087493896484 209.225006103516 212.862503051758 217.737503051758 222.15625 226.881256103516 233.824996948242 241.662506103516 251.037506103516 261.831237792969 272.887512207031 280.887512207031 285.381256103516 286.481262207031 277.631256103516 268.112487792969 259 252.537506103516 245.556243896484 238.699996948242 231.193756103516 221.112503051758 215.068756103516 210.78125 
222.762496948242 224.462493896484 227.8125 232.881256103516 237.78125 243.818756103516 252.175003051758 259.637512207031 266.899993896484 274.1875 280.306243896484 284.774993896484 285.5 283.5 278.5 272.537506103516 266.399993896484 258.5625 250.831253051758 244.050003051758 233.331253051758 223.981246948242 217.931243896484 214.137496948242 209.493743896484 205.962493896484 208.375 210.762496948242 213.881256103516 217.925003051758 221.518753051758 224.768753051758 229.3125 234.956253051758 242.618743896484 251.981246948242 265.0625 279.15625 289.368743896484 294.537506103516 292.668762207031 284.893737792969 276.118743896484 265.931243896484 258.606262207031 251.699996948242 245.65625 238.943756103516 232.21875 225.25 221.731246948242 
216.324996948242 218.493743896484 222.649993896484 228.331253051758 234.412506103516 240.831253051758 249.024993896484 255.96875 263.431243896484 271.299987792969 277.237487792969 281.168762207031 281.799987792969 278.931243896484 273.493743896484 265.581237792969 260.818756103516 255.449996948242 249.899993896484 244.837493896484 234.668746948242 225.481246948242 218.931243896484 216.46875 212.399993896484 209.381256103516 211.618743896484 215.024993896484 219.125 223.268753051758 226.899993896484 228.387496948242 229.631256103516 233.162506103516 238.59375 249.162506103516 264.443756103516 282.256256103516 297.243743896484 304.356262207031 302.90625 292.899993896484 281.90625 270.581237792969 261.993743896484 255.199996948242 248.618743896484 241.943756103516 236.256256103516 230.65625 226.956253051758 
207.537506103516 211.4375 216.118743896484 222.375 229.393753051758 236.056243896484 244.056243896484 251.5 259.012512207031 267.106262207031 274.125 278.306243896484 279.268737792969 276.518737792969 270.206237792969 261.793762207031 254.925003051758 249.78125 245.518753051758 242.237503051758 234.387496948242 226.368743896484 219.831253051758 218.300003051758 216.181243896484 212.78125 214.256256103516 218.75 224.256256103516 229.693756103516 232.725006103516 232.8125 230.868743896484 228.943756103516 232.574996948242 243.137496948242 259.637512207031 283.356262207031 306.862487792969 311.606262207031 307.418762207031 296.424987792969 283.325012207031 271.262512207031 263.893737792969 257.668762207031 250.524993896484 245.025009155273 241.393753051758 234.837493896484 230.831253051758 
196.018753051758 201.475006103516 207.712493896484 215.0625 222.449996948242 229.137496948242 237.006256103516 244.443756103516 252.03125 259.9375 267.975006103516 274.024993896484 277.137512207031 274.700012207031 268.325012207031 259.737487792969 249.493743896484 240.925003051758 238.362503051758 235.668746948242 232.28125 226.774993896484 221.024993896484 219.443756103516 218.399993896484 216.731246948242 217.837493896484 223.649993896484 230.631256103516 236.949996948242 239.068756103516 233.78125 228.806243896484 224.193756103516 224.0625 231.293746948242 251.675003051758 275.787506103516 297.225006103516 304.568756103516 301.03125 291.575012207031 281.15625 271.668762207031 265.274993896484 258.524993896484 253.006256103516 247.850006103516 243.524993896484 236.71875 233.662506103516 
183.8125 190.912506103516 197.831253051758 205.100006103516 213.212493896484 220.84375 227.90625 235.84375 244.137496948242 251.881256103516 260.756256103516 267.25 272.237487792969 273.412506103516 265.418762207031 253.5 241.631256103516 231.193756103516 226.774993896484 225.581253051758 226.46875 225.043746948242 219.243743896484 218.912506103516 219.556243896484 220.699996948242 223.956253051758 229.981246948242 238.024993896484 245.699996948242 248.262496948242 240.175003051758 229.975006103516 218.881256103516 213.381256103516 221.368743896484 241.693756103516 264.200012207031 282.712493896484 290.668762207031 290.799987792969 283.59375 276.987487792969 270.90625 265.606262207031 260.375 255.181243896484 250.100006103516 245.556243896484 236.21875 235.78125 
171.893753051758 179.393753051758 186.71875 194.362503051758 203.337493896484 211.21875 218.850006103516 225.762496948242 233.931243896484 241.912506103516 250.106246948242 257.09375 264.6875 270.362487792969 259.762512207031 242.581253051758 227.962493896484 219.375 215.056243896484 214.243743896484 215.193756103516 215.274993896484 216.0625 217.631256103516 220.131256103516 223.1875 228.693756103516 236.362503051758 243.337493896484 250.056243896484 250.71875 244.893753051758 230.506240844727 213.793746948242 202.212493896484 212.431243896484 235.981246948242 258.450012207031 273.912506103516 281.668762207031 281.462493896484 275.806243896484 273.943756103516 271.318756103516 267.356262207031 262.53125 256.793762207031 251.056243896484 245.387496948242 236.462493896484 236.100006103516 
157.518753051758 166.53125 174.131256103516 181.956253051758 191.606246948242 198.875 206.393753051758 214.09375 222.006256103516 229.274993896484 235.375 241.550003051758 248.324996948242 254.199996948242 245.481246948242 230.118743896484 217.381256103516 209.081253051758 206.662506103516 205.412506103516 208.550003051758 211.46875 213.59375 217.418746948242 221.956253051758 227.199996948242 233.537506103516 240.018753051758 247.481246948242 254.737503051758 256.424987792969 251.774993896484 236.506256103516 216.5 198.175003051758 212.399993896484 239.037506103516 260.6875 273.912506103516 280.118743896484 280.325012207031 277.356262207031 274.737487792969 271.712493896484 268.143737792969 264.024993896484 258.574981689453 252.643753051758 244.375 237.693756103516 234.75 
142.806243896484 152.824996948242 160.78125 169.774993896484 178.837493896484 186.318756103516 193.725006103516 201.337493896484 209.137496948242 214.737503051758 218.431243896484 220.893753051758 223.449996948242 224.774993896484 221.943756103516 214.262496948242 206.381256103516 201.731246948242 199.681243896484 199.431243896484 201.493743896484 204.800003051758 209.6875 214.512496948242 220.643753051758 228.162506103516 236.21875 243.868743896484 252.912490844727 261.837493896484 266.731262207031 263.299987792969 250.524993896484 236.456253051758 227.5 236.850006103516 256.106262207031 272.081237792969 280.243743896484 283.206237792969 283.106262207031 280.881256103516 277.943756103516 274.362487792969 271.274993896484 267.256256103516 261.65625 254.737503051758 245.5625 240.006256103516 234.037506103516 
130.40625 141.262496948242 148.699996948242 157.418746948242 166.056243896484 174.018753051758 180.425003051758 188.118743896484 196.237503051758 199.612503051758 200.425003051758 199.518753051758 198.53125 199.481246948242 200.699996948242 198.431243896484 194.381256103516 193.024993896484 192.175003051758 191.850006103516 194.925003051758 198.4375 203.1875 209.006256103516 217.356246948242 227.293746948242 236.387496948242 245.606246948242 256.700012207031 267.849975585938 276.350006103516 279.193756103516 269.037506103516 260.556243896484 260.568756103516 270.168762207031 281.774993896484 289.743743896484 291.5 288.774993896484 286.200012207031 283.618743896484 280.34375 276.84375 274.381256103516 270.899993896484 265.237487792969 257.350006103516 248.59375 242.981246948242 236.618743896484 
118.106246948242 127.818748474121 135.131256103516 142.712493896484 151.1875 159.356246948242 166.962493896484 174.225006103516 182.037506103516 184.731246948242 185.506256103516 184.556243896484 181.418746948242 184.962493896484 188.662506103516 188.887496948242 187.4375 188.618743896484 189.037506103516 189.162506103516 191.543746948242 194.293746948242 198.15625 204.618743896484 214.087493896484 223.862503051758 235.037506103516 246.34375 258.049987792969 270.725006103516 281.325012207031 286.793762207031 282.237487792969 279.731262207031 284.84375 296.487487792969 304.075012207031 303.774993896484 299.649993896484 293.850006103516 289.518737792969 285.243743896484 281.6875 278.787506103516 278.443756103516 275.1875 268.706237792969 258.081237792969 253.412506103516 246.643753051758 240.587493896484 
107.631248474121 115.337501525879 121.9375 129.399993896484 138.037506103516 145.40625 152.993743896484 160.137496948242 166.475006103516 170.65625 173.012496948242 174.199996948242 175.443756103516 178.90625 181.337493896484 182.856246948242 183.59375 185.9375 187.399993896484 188.006256103516 189.993743896484 191.1875 193.243743896484 199.168746948242 208.637496948242 222.206253051758 233.606246948242 246.53125 258.787506103516 270.993743896484 280.924987792969 287.100006103516 288.549987792969 290.9375 297.325012207031 304.21875 308.981262207031 307.518737792969 302.081237792969 295.774993896484 290.712493896484 285.84375 282.512512207031 281.200012207031 280.818756103516 278.674987792969 270.78125 264.481262207031 258.3125 254.168746948242 249.368743896484 
99.5812530517578 105.818748474121 111.224998474121 117.96875 125.731246948242 133.106246948242 140.018753051758 147.012496948242 153.425003051758 158.65625 162.699996948242 166.800003051758 171.375 175.524993896484 178.306243896484 179.868743896484 181.431243896484 184.631256103516 187.506256103516 188.662506103516 189.649993896484 188.931243896484 188.643753051758 192.712493896484 204.881256103516 220.418746948242 234.71875 247.006256103516 259.662506103516 270.3125 279.237487792969 286.243743896484 290.600006103516 295.587493896484 302.037506103516 306.337493896484 309 308.231262207031 301.393737792969 295.34375 290.331237792969 285.712493896484 281.75 280.756256103516 283.556243896484 282.65625 280.293762207031 274.924987792969 267.837493896484 266.3125 262.881256103516 
93.71875 98.1624984741211 103.018753051758 109.506248474121 116.224998474121 122.943748474121 130.143753051758 136.65625 143.831253051758 150.8125 157.193756103516 163.850006103516 171.137496948242 177.793746948242 180.887496948242 183.5 185.412506103516 188.96875 191.581253051758 192.462493896484 192.643753051758 191.399993896484 188.956253051758 191.481246948242 206.143753051758 222.456253051758 236.425003051758 248.90625 260.393737792969 270.34375 279.356262207031 285.393737792969 290.90625 298.881256103516 304.0625 308 310.318756103516 308.9375 303.149993896484 296.799987792969 291.268737792969 285.956237792969 281.481262207031 279.856262207031 285.65625 289.5 289.837493896484 287.068756103516 284.293762207031 278.981262207031 278.037506103516 
87.59375 90.0687484741211 94.9187469482422 100.775001525879 106.824996948242 113.243751525879 120.712501525879 128.318756103516 136.318756103516 144.743743896484 152.556243896484 161.59375 171.112503051758 179.943756103516 184.268753051758 187.868743896484 190.387496948242 195.03125 197.543746948242 198.943756103516 199.712493896484 198.731246948242 199.024993896484 202.975006103516 213.912506103516 228.462493896484 241.0625 252.75 263.243743896484 272.5625 280.78125 287.581237792969 295.024993896484 300.943756103516 305.868743896484 309.649993896484 310.524993896484 310.556243896484 304.393737792969 297.387512207031 291.587493896484 286.762512207031 282.118743896484 281.412506103516 289.631256103516 295.431243896484 298.768737792969 299.168762207031 298.09375 293.431243896484 292.106262207031 
81.4250030517578 82.5500030517578 86.9499969482422 92.5 98.4250030517578 105.09375 112.775001525879 120.693748474121 129.899993896484 139.512496948242 148.837493896484 159.793746948242 171.199996948242 182.768753051758 188.5625 193.75 198.056259155273 202.356246948242 206.181243896484 207.662506103516 209.225006103516 208.96875 211.362503051758 216.449996948242 224.806243896484 236.412506103516 247.856246948242 258.274993896484 268.912506103516 277.337493896484 283.831237792969 290.9375 297.337493896484 303.256256103516 308.90625 311.337493896484 313.393737792969 313.756256103516 309.049987792969 300.84375 292.368743896484 286.75 284.825012207031 287.450012207031 297.462493896484 304.049987792969 307.612487792969 311.737487792969 311.787506103516 309.981262207031 306.924987792969 
82.5875015258789 82.1937484741211 85.84375 90.4124984741211 95.8562469482422 102.65625 110.099998474121 118.081253051758 127.537498474121 137.987503051758 148.518753051758 161.162506103516 174.25 187.512496948242 195.1875 201.068756103516 207.318756103516 213.637496948242 217.96875 219.175003051758 220.243743896484 221.262496948242 224.181243896484 228.806243896484 235.775009155273 245.675003051758 255.318756103516 264.143737792969 273.481262207031 280.818756103516 288.256256103516 295.506256103516 301.381256103516 307.9375 313.256256103516 316.799987792969 318.456237792969 320.287506103516 314.881256103516 307.5625 303.53125 300.924987792969 299.443756103516 303.793762207031 308.768737792969 318.412506103516 325.725006103516 330.100006103516 330.831237792969 330.087493896484 326.862487792969 
84.3249969482422 82.7624969482422 85.2249984741211 89.0562515258789 93.4875030517578 100.506248474121 108.068748474121 116.293746948242 126.300003051758 137.143753051758 149.375 163.6875 178.756256103516 192.612503051758 201.324996948242 209.487503051758 217.581253051758 224.96875 230.649993896484 231.71875 232.4375 233.043746948242 235.475006103516 239.625 245.787506103516 254.59375 262.668762207031 270.643737792969 278.756256103516 285.643737792969 292.799987792969 300.28125 307.799987792969 315.09375 321.287506103516 323.53125 326.15625 329.412506103516 324.506256103516 317.375 315.5625 316.956237792969 317.743743896484 319.418762207031 324.387512207031 338.40625 347.856262207031 352.637512207031 352.412506103516 349.018737792969 346.3125 
86.0500030517578 83.5500030517578 85.3499984741211 88.4562530517578 91.9937515258789 98.7687530517578 106.493751525879 114.387496948242 124.775001525879 136.725006103516 149.675003051758 165.475006103516 182.21875 198.206253051758 208.456253051758 218.712493896484 226.525009155273 233.449996948242 238.875 241.524993896484 242.824996948242 244.199996948242 245.787506103516 249.824996948242 255.824996948242 263.1875 269.799987792969 276.818756103516 284.206237792969 291.787506103516 299.0625 306.193756103516 314.362518310547 322.006256103516 329.1875 332.28125 335.774993896484 338.649993896484 334.237487792969 331.837493896484 334.181243896484 337.03125 338.856262207031 342.34375 349.125 366.806243896484 377.443756103516 379.924987792969 375.600006103516 370.043762207031 364.662506103516 
94.25 91.5812530517578 92.5500030517578 94.34375 96.5 102.387496948242 108.875 116.143753051758 126.65625 138.837493896484 152.931243896484 169.725006103516 188.556243896484 206.643753051758 218.387496948242 228.512496948242 236.918746948242 243.981246948242 247.987503051758 250.856246948242 253.043746948242 254.081253051758 255.537506103516 258.506256103516 263.743743896484 270.056243896484 275.799987792969 282.96875 290.081237792969 297.212493896484 305.331237792969 312.487487792969 320.837493896484 330.293762207031 339.193756103516 344.393737792969 348.462493896484 350.537506103516 348.149993896484 351.606262207031 355.887512207031 360.399993896484 365.649993896484 372.78125 387 408.375 416.512512207031 410.9375 402.756256103516 394.868743896484 385.712493896484 
103.693748474121 100.587501525879 100.462501525879 101.143753051758 102.012496948242 106.525001525879 111.993751525879 118.425003051758 127.981246948242 140.056243896484 154.662506103516 173.743743896484 195.1875 214.918746948242 227.981246948242 238.993743896484 248.012496948242 254.106246948242 257.643737792969 260.318756103516 261.725006103516 262.212493896484 263.793762207031 265.862487792969 270.25 275.5625 281.143737792969 287.5625 295.024993896484 303.25 311.868743896484 319.762512207031 330.149993896484 340.337493896484 349.143737792969 355.899993896484 360.587493896484 363.975006103516 365.174987792969 370.325012207031 375.506256103516 382.71875 393.306243896484 404.237487792969 421 440.3125 445.793762207031 437.40625 427.018737792969 416.78125 406.831237792969 
113.518753051758 110.512496948242 109.381248474121 108.425003051758 108.349998474121 111.831253051758 115.743751525879 120.756248474121 129.293746948242 140.737503051758 156.331253051758 178.418746948242 202.899993896484 224.762496948242 238.362503051758 249.837493896484 258.612518310547 263.524993896484 267.287506103516 268.912506103516 270.575012207031 269.96875 270.537506103516 271.193756103516 275.056243896484 278.912506103516 284.981262207031 291.924987792969 299.481262207031 308.65625 317.168762207031 327.318756103516 338.556243896484 350.299987792969 360.081237792969 366.40625 371.087493896484 378.625 382.768737792969 386.887512207031 393.493743896484 401.15625 412.987487792969 426.037506103516 441.162506103516 453.96875 458.931243896484 454.899993896484 445.924987792969 436.21875 425.924987792969 
127.112503051758 124.199996948242 122.587501525879 120.90625 120.012496948242 122.743751525879 125.381248474121 128.706253051758 135.587493896484 145.762496948242 161.8125 185.387496948242 211.612503051758 234.612503051758 248.75 260.543762207031 270.181243896484 274.143737792969 275.518737792969 277.143737792969 277.375 276.875 275.774993896484 276.15625 277.887512207031 280.875 286.743743896484 294.84375 302.393737792969 311.649993896484 321.71875 332.6875 345.631256103516 358.568756103516 367.993743896484 373.59375 381.78125 387.581237792969 391.362487792969 397.637512207031 406.056243896484 412.793762207031 422.350006103516 435.850006103516 447.631256103516 456.59375 462.106262207031 462.024993896484 457.174987792969 449.418762207031 438.693756103516 
141.887496948242 138.918746948242 136.618743896484 135.324996948242 133.831253051758 135.393753051758 136.831253051758 138.581253051758 143.21875 148.949996948242 167.40625 195.662506103516 221.225006103516 242.537506103516 258.056243896484 270.375 280.4375 283.46875 284.90625 284.6875 283.237487792969 281.087493896484 279.262512207031 278.637512207031 279.037506103516 281.587493896484 287.518737792969 295.200012207031 303.768737792969 313.75 324.756256103516 336.443756103516 351.306243896484 365.299987792969 376.537506103516 384.46875 390.481262207031 396.037506103516 400.325012207031 405.700012207031 412.25 419.612487792969 428.975006103516 440.9375 451.262512207031 458.075012207031 465.893737792969 468.037506103516 464.243743896484 458.950012207031 450.256256103516 
155.418746948242 152.6875 150.475006103516 148.899993896484 147.649993896484 148.493743896484 149.493743896484 150.893753051758 155.912506103516 160.012496948242 185.25 214.743743896484 235.475006103516 252.837493896484 267.899993896484 280.268737792969 288.956237792969 291.481262207031 290.981262207031 289.03125 286.606231689453 282.943756103516 280.793762207031 279.243743896484 279.375 281.418762207031 287.050018310547 295.237487792969 304.131256103516 315.831237792969 326.356262207031 339.056243896484 354.606262207031 370.162506103516 381.962493896484 390.674987792969 396.831237792969 402.71875 406.993743896484 411.237487792969 415.9375 423.043762207031 430.200012207031 439.618743896484 449.381256103516 458.318756103516 466.368743896484 470.212493896484 468.575012207031 465.674987792969 457.756256103516 
161.875 159.481246948242 158.106246948242 158.237503051758 157.912506103516 160.21875 163.543746948242 167.887496948242 177.475006103516 195.112503051758 224.818756103516 241.268753051758 254.456253051758 268.125 280.6875 289.837493896484 296.987487792969 297.21875 294.399993896484 291.09375 286.137512207031 281.268737792969 279.274993896484 277.231262207031 277.418762207031 280.524993896484 286.225006103516 294.168762207031 303.299987792969 314.399993896484 326.143737792969 337.706237792969 351.543762207031 365.887512207031 379.893737792969 388 393.137512207031 399.731231689453 402.712493896484 403.881256103516 408.09375 412.931243896484 419.149993896484 426.643737792969 434.418762207031 442.793762207031 449.149993896484 451.512512207031 450.75 451.125 444.700012207031 
167.287506103516 165.662506103516 165.743743896484 166.618743896484 167.868743896484 172.287506103516 177.506256103516 185.649993896484 198.962493896484 218.649993896484 241.100006103516 258.074981689453 271.950012207031 283.868743896484 293.475006103516 300.90625 305.637512207031 303.612487792969 298.368743896484 293.524993896484 284.84375 278.300018310547 274.662506103516 272.950012207031 275.075012207031 278.518737792969 284.737487792969 292.700012207031 301.993743896484 312.600006103516 322.981262207031 335.96875 351.03125 363.618743896484 374.450012207031 382.368743896484 386.899993896484 391.487487792969 394.512512207031 394.15625 396.625 400.737487792969 405.162506103516 409.431243896484 416.112487792969 423.393768310547 429.549987792969 433.587493896484 433.681243896484 435.506256103516 431.212493896484 
172.443756103516 171.275009155273 172.918746948242 174.550003051758 177.199996948242 182.3125 190 200.743743896484 215.318756103516 234.206253051758 253.518753051758 269.424987792969 284.962493896484 296.725006103516 305.306243896484 311.693756103516 314.40625 311.087493896484 303.912506103516 294.668762207031 282.350006103516 273 268.231262207031 268.112487792969 271.90625 276.350006103516 282.818756103516 291.556243896484 300.3125 311.012512207031 322.649993896484 336.618743896484 349.418762207031 360.831237792969 368.931243896484 375.34375 379.90625 382.8125 385.193756103516 382.5625 383.96875 385.381256103516 387.006256103516 392.456237792969 398.393737792969 404.950012207031 410.356262207031 413.3125 416.418762207031 419.543762207031 418.418762207031 
175.112503051758 173.537506103516 174.899993896484 176.412506103516 179.100006103516 185.068756103516 192.831253051758 203.768753051758 218.131256103516 235.443756103516 253.774993896484 270.637512207031 286.350006103516 300.21875 309.243743896484 315.806243896484 319.306243896484 316.193756103516 308.381256103516 294.225006103516 277.049987792969 264.024993896484 259.524993896484 261.456237792969 267.268737792969 273.59375 280.6875 288.831237792969 299.012512207031 310.162506103516 319.612487792969 334.087493896484 345.268737792969 355.950012207031 364.1875 366.912506103516 369.90625 372.449981689453 371.943756103516 369.018737792969 367.899993896484 365.424987792969 365.006256103516 372.462493896484 378.700012207031 384.793762207031 389.387512207031 392.306243896484 396.350006103516 400.018737792969 401.881256103516 
177.387496948242 175.199996948242 176.006256103516 176.762496948242 179.3125 185.106246948242 192.912506103516 202.981246948242 216.931243896484 233.449996948242 252.737503051758 269.981262207031 286.649993896484 301.362487792969 311.931243896484 320.081237792969 324.649993896484 322.237487792969 314.056243896484 295.431243896484 271.950012207031 252.006256103516 249.693756103516 255.78125 263.78125 272.100006103516 279.387512207031 286.5625 296.399993896484 307.943756103516 318.90625 329.337493896484 339.856262207031 348.649993896484 356.131256103516 361.518737792969 360.850006103516 360.399993896484 357.181243896484 354.337493896484 352.737487792969 350.231262207031 349.399993896484 353.681243896484 359.737487792969 364.487487792969 369.28125 372.143737792969 376.200012207031 380.693756103516 384.987487792969 
179.668746948242 177.106246948242 176.28125 176.693740844727 179.100006103516 184.337493896484 191.3125 201.106246948242 215.443756103516 231.237503051758 250.149993896484 269.4375 286.768737792969 302.806243896484 315.65625 324.131256103516 328.78125 326.59375 321.056243896484 301.131256103516 273.387512207031 249.449996948242 247.774993896484 253.743743896484 261.943756103516 270.993743896484 278.475006103516 285.743743896484 294.274993896484 305.193756103516 315.806243896484 326.65625 335.287506103516 341.649993896484 347.956237792969 354.243743896484 352.393737792969 349.037506103516 344.893737792969 341.587493896484 339.125 337.53125 337.28125 339.8125 343.431243896484 346.75 351.03125 352.262512207031 353.875 359.712493896484 367.25 
184.387496948242 181.112503051758 178.824996948242 178.931259155273 180.34375 184.981246948242 190.712493896484 199.387496948242 213.350006103516 229.931243896484 248.731246948242 268.712493896484 286.706237792969 303.831237792969 316.493743896484 324.293762207031 328.674987792969 325.3125 318.306243896484 301.818756103516 279.506256103516 263.512512207031 256.362518310547 258.137512207031 264.65625 271.668731689453 278.737487792969 285.299987792969 293.518737792969 303.350006103516 313.181243896484 322.943756103516 330.3125 334.825012207031 338.637512207031 344.762512207031 342.893737792969 338.375 334.543762207031 332.337493896484 329.524993896484 328.399993896484 327.831237792969 327.881256103516 330.681243896484 333.362487792969 335.03125 335.112487792969 333.674987792969 338.549987792969 348.65625 
