ncols        51
nrows        45
xllcorner    -63.500000000000
yllcorner    -7.500000000000
cellsize     0.166666666667
NODATA_value -99
45.5999984741211 39.6812515258789 37.2312507629395 36.0812492370605 34.84375 36.3937492370605 37.9562492370605 39.03125 41.0437507629395 43.9000015258789 48.0875015258789 53.09375 58.0750007629395 61.2437515258789 65.8562469482422 70.5999984741211 75.625 78.4187469482422 83.125 87.9749984741211 91.6750030517578 95.2562484741211 100 104.618751525879 109.918746948242 115.849998474121 122.21875 129.043746948242 136.006256103516 139.056243896484 142.168746948242 145.475006103516 146.962493896484 148.606246948242 150.662506103516 151.768753051758 151.262496948242 150.375 150.487503051758 149.387496948242 149.256256103516 149.956253051758 149.65625 151.300003051758 150.587493896484 150.612503051758 150.306243896484 148.706253051758 146.643753051758 146.8125 148.149993896484 
48.9187507629395 42.1937484741211 39.46875 37.25 35.7312507629395 37.7000007629395 39.6187515258789 41.90625 45.46875 49.1312522888184 53.2625007629395 58.0125007629395 62.6500015258789 66.625 71.3249969482422 75.9000015258789 80.8125 85.7312469482422 91.875 97.8125 101.650001525879 105.925003051758 110.925003051758 115.40625 119.96875 125.756248474121 131.412506103516 138.074996948242 144.175003051758 145.981246948242 146.725006103516 149.193756103516 150.256256103516 151.887496948242 152.731246948242 152.756256103516 151.568756103516 149.556243896484 148.931243896484 147.375 146.518753051758 146.618743896484 145.800003051758 146.524993896484 145.5625 145.681243896484 145.331253051758 142.574996948242 141.03125 140.837493896484 141.131256103516 
57.0187492370605 50.3187484741211 47.0187492370605 44.3562507629395 42.5499992370605 44.2687492370605 46.6499977111816 49.6687507629395 54.1812515258789 58.1812515258789 61.8499984741211 66.2062530517578 70.2750015258789 73.7249984741211 78.1062469482422 82.4000015258789 86.7125015258789 91.7312469482422 97.3125 103.012496948242 106.931251525879 112.018753051758 116.65625 121.143753051758 126.849998474121 131.918746948242 137.487503051758 144.181243896484 149.181243896484 149.824996948242 150.793746948242 152.162506103516 153.181243896484 153.324996948242 154.25 152.90625 151.5625 150.087493896484 148.550003051758 146.737503051758 145.356246948242 144.681243896484 143.537506103516 142.5625 142.106246948242 142.28125 142.237503051758 139.043746948242 136.949996948242 136.175003051758 136.53125 
65.8187484741211 59.4124984741211 56.15625 53.21875 51.6687507629395 52.9312515258789 55.5250015258789 59.0875015258789 64.53125 69.2312469482422 72.3187484741211 75.4937515258789 78.0812530517578 80.5999984741211 84.875 88.9749984741211 92.9937515258789 96.4375 101.481246948242 107.743751525879 112.237503051758 116.806251525879 120.887496948242 125.743751525879 131.193756103516 136.506256103516 142.649993896484 148.800003051758 153.399993896484 154.056243896484 153.875 155.556243896484 155.231246948242 155.106246948242 154.606246948242 153.600006103516 151.925003051758 149.824996948242 148.693756103516 146.881256103516 144.256256103516 142.96875 141.393753051758 139.443756103516 138.78125 138.09375 138.300003051758 135.225006103516 132.043746948242 131 131.925003051758 
76.7249984741211 69.5749969482422 65.25 62.3624992370605 60.8624992370605 62.3125 64.6500015258789 68.8937530517578 76.0437469482422 82.0437469482422 83.0374984741211 84.1500015258789 86.15625 88.1687469482422 91.7062530517578 95.59375 99.3499984741211 101.331253051758 105.956253051758 111.956253051758 116.78125 120.474998474121 124.737503051758 129.956253051758 135.262496948242 140.925003051758 145.699996948242 151.068756103516 157.181243896484 157.84375 157.606246948242 157.612503051758 157.606246948242 157.068756103516 155.818756103516 154.5 153.043746948242 151.006256103516 149.668746948242 146.912506103516 144.262496948242 141.706253051758 139.018753051758 136.568756103516 134.84375 134.806243896484 134.837493896484 132.081253051758 128.449996948242 126.737503051758 127.75 
86.8125 80.1312484741211 75.1687469482422 71.5124969482422 69.75 71.7687530517578 74.7249984741211 79.1750030517578 87.0187530517578 94.21875 93.5187530517578 93.71875 95.3687515258789 97.3125 100.525001525879 104.4375 107.1875 108.349998474121 112.375 117.65625 121.606246948242 125.368751525879 129.518753051758 134.181243896484 138.856246948242 144.737503051758 149.675003051758 154.518753051758 159.675003051758 160.368743896484 160.375 160.537506103516 159.71875 160.475006103516 159.925003051758 158.675003051758 157.625 155.881256103516 155.024993896484 152.100006103516 147.96875 144.550003051758 141.162506103516 137.931243896484 134.5625 134.387496948242 135.337493896484 133.131256103516 129.087493896484 126.087501525879 124.65625 
97.7874984741211 91.1312484741211 86.1437530517578 81.5999984741211 79.3375015258789 80.8625030517578 83.625 86.9000015258789 93.0875015258789 97.5187530517578 99.3625030517578 101.5 103.737503051758 106.131248474121 109.625 113.40625 116.881248474121 118.59375 121.131248474121 123.543746948242 125.868751525879 129.393753051758 132.59375 136.862503051758 142.787506103516 148.037506103516 152.8125 157.931243896484 161.5625 161.881256103516 162.949996948242 163.431243896484 163.418746948242 162.581253051758 162.225006103516 162.456253051758 161.59375 160.6875 160.818756103516 157.625 151.96875 147.981246948242 144.206253051758 140.21875 136 135.1875 136.150009155273 134.037506103516 128.962493896484 125.181251525879 124.068748474121 
108.900001525879 101.675003051758 96.4250030517578 92.5187530517578 89.90625 90.40625 91.5187530517578 92.6937484741211 95.78125 99.3187484741211 103.550003051758 108.362503051758 112.199996948242 114.831253051758 118.175003051758 122 125.506248474121 127.5625 129.537506103516 128.606246948242 129.287506103516 132.018753051758 134.962493896484 139.574996948242 145.5 150.75 155.337493896484 159.675003051758 163.762496948242 164.1875 164.418746948242 165.756256103516 165.850006103516 165.675003051758 165.237503051758 165.149993896484 164.824996948242 164.087509155273 163.537506103516 160.712493896484 155.90625 152.100006103516 148.100006103516 143.262496948242 139.65625 138.631256103516 137.6875 133.256256103516 129.918746948242 124.84375 122.381248474121 
118.900001525879 111.668746948242 106.300003051758 102.418746948242 99.3499984741211 98.6624984741211 99.0374984741211 98.9312515258789 100.21875 103.40625 109.037498474121 115.837501525879 121.018753051758 124.431251525879 126.1875 128.631256103516 130.606246948242 131.793746948242 133.550003051758 131.84375 131.612503051758 134.074996948242 137.212493896484 143.256256103516 149.212493896484 154.331253051758 158.162506103516 162.162506103516 166.449996948242 167.074996948242 168.100006103516 169.912506103516 170.074996948242 169.774993896484 169.5 170.1875 170.368743896484 170.043746948242 170.024993896484 167.743743896484 163.4375 159.96875 156.53125 152.225006103516 149.512496948242 147.46875 145.149993896484 139.412506103516 133.043746948242 126.481246948242 122.518753051758 
128.974990844727 121.724998474121 116.606246948242 112.318748474121 108.762496948242 107.537498474121 107.668746948242 107.324996948242 109.893753051758 113.550003051758 119.118751525879 125.150001525879 131.231246948242 134.456253051758 134.53125 133.881256103516 133.256256103516 133.300003051758 132.699996948242 131.543746948242 132.28125 135.306243896484 139.493743896484 146.837493896484 152.912506103516 157.731246948242 161.612503051758 164.743743896484 169.274993896484 170.487503051758 171.21875 173.106246948242 173.787506103516 174.537506103516 175.043746948242 175.893753051758 176.568756103516 176.125 176.25 175.068756103516 172.268753051758 169.518753051758 165.887496948242 161.225006103516 159.706253051758 158.84375 155.40625 147.881256103516 139.618743896484 131.037506103516 124.231246948242 
138.793746948242 131.462509155273 126.362503051758 121.962501525879 118.074996948242 116.712501525879 116.550003051758 117 120.568748474121 125.106246948242 131.037506103516 137.137496948242 142.243743896484 144.818756103516 142.475006103516 139.037506103516 135.4375 133.668746948242 131.90625 130.824996948242 131.675003051758 135.15625 141.137496948242 147.987503051758 156.212493896484 160.8125 163.856246948242 167.425003051758 171.024993896484 172.300003051758 174.100006103516 176.331253051758 177.106246948242 178.287506103516 180.131256103516 181.837493896484 182.143753051758 182.800003051758 183.100006103516 181.900009155273 179.84375 177.237503051758 174.112503051758 169.949996948242 168.487503051758 168.662506103516 164.15625 154.106246948242 144.987503051758 136.78125 128.181243896484 
148.100006103516 140.506256103516 135.050003051758 130.806243896484 127.212501525879 126.175003051758 126.375 128.068756103516 132.3125 137.65625 144.206253051758 149.599990844727 152.143753051758 152.443756103516 149.350006103516 144.668746948242 140.28125 137.149993896484 134.037506103516 131.774993896484 132.112503051758 136.162506103516 144.050003051758 153.143753051758 160.893753051758 164.231246948242 166.606246948242 169.875 173.643753051758 176.037506103516 178.324996948242 180.40625 181.65625 182.918746948242 184.956253051758 187.412506103516 189.524993896484 190.993743896484 191.550003051758 190.662506103516 189.09375 186.149993896484 181.512496948242 175.831253051758 173.362503051758 170.399993896484 165.193756103516 159 150.925003051758 142.837493896484 133.556243896484 
155.806243896484 148.5 143.537506103516 139.300003051758 136.425003051758 136.149993896484 137.293746948242 139.318756103516 144.09375 150.725006103516 157.5 161.425003051758 161.71875 158.949996948242 155.012496948242 149.681243896484 144.856246948242 141.487503051758 138.256256103516 134.993743896484 133.518753051758 138.006256103516 146.756240844727 155.337493896484 161.21875 164.493743896484 168.231246948242 171.96875 175.762496948242 178.818756103516 181.793746948242 184.375 185.03125 186.806243896484 189.362503051758 192.15625 194.96875 198.324996948242 199.625 199.206253051758 198.59375 194.681243896484 187.362503051758 179.862503051758 175.699996948242 172.975006103516 168.425003051758 161.168746948242 154.568756103516 148.881256103516 143.081253051758 
162.675003051758 155.550003051758 150.975006103516 147.287506103516 145.068756103516 145.462493896484 147.737503051758 150.550003051758 156.137496948242 162.875 169.181243896484 170.456253051758 168.75 165.331253051758 160.074996948242 155.068756103516 149.693756103516 146.600006103516 143.243743896484 140.774993896484 140.975006103516 144.625 150.96875 156.787506103516 161.431243896484 164.743743896484 169.231246948242 173.28125 177.706253051758 180.53125 184.0625 186.818756103516 187.524993896484 189.625 192.287506103516 196.15625 200.918746948242 205.743743896484 208.606246948242 208.78125 206.725006103516 199.487503051758 192.143753051758 185.293746948242 181.412506103516 177.324996948242 173.15625 168.012496948242 160.918746948242 156.787506103516 154.262496948242 
167.975006103516 160.637496948242 156.712493896484 154.262496948242 152.081253051758 153.668746948242 157.162506103516 160.487503051758 166.631256103516 173.381256103516 178.850006103516 179.662506103516 177.462493896484 173.681243896484 168.768753051758 163.431243896484 158.493743896484 155.193756103516 152.268753051758 150.649993896484 151.15625 153.306243896484 157.574996948242 161.643753051758 164.893753051758 168.462493896484 173.018753051758 176.881256103516 181.112503051758 184.4375 187.118759155273 189.100006103516 189.868743896484 191.09375 193.868743896484 198.074996948242 205.018753051758 212.618743896484 218.03125 219.668746948242 216.149993896484 208.818756103516 200.875 192.268753051758 187.375 183 179.206253051758 174.537506103516 169.818756103516 164.918746948242 162.862503051758 
172.106246948242 164.774993896484 161.59375 159.837493896484 158.8125 161.356246948242 165.649993896484 169.4375 176.1875 183.737503051758 189.462493896484 190.112503051758 187.837493896484 183.449996948242 178.431243896484 172.006256103516 168.006256103516 165.53125 163.231246948242 161.912506103516 161.399993896484 162.21875 164.606246948242 167.925003051758 169.606246948242 171.737503051758 175.693756103516 180.193756103516 185.087493896484 188.681243896484 191.606246948242 192.337493896484 190.556243896484 190.287506103516 191.537506103516 197.100006103516 206.206253051758 217.21875 227.318756103516 231.574996948242 229.131256103516 219.131256103516 208.3125 197.756256103516 191.46875 186.868743896484 182.350006103516 177.606246948242 173.53125 169.568756103516 167.199996948242 
174.512496948242 168.168746948242 165.568756103516 164.574996948242 164.587493896484 168.100006103516 173.162506103516 178.199996948242 185.512496948242 193.743743896484 200.725006103516 201.893753051758 200.118743896484 195.837493896484 190.412506103516 183.787506103516 178.425003051758 175.456253051758 173.274993896484 172.362503051758 171.631256103516 171.350006103516 171.737503051758 173.8125 175.037506103516 175.006256103516 177.862503051758 183.106246948242 189.018753051758 193.893753051758 196.556243896484 196.350006103516 192.09375 187.537506103516 187.625 193.556243896484 204.056243896484 220.1875 237.800003051758 241.112503051758 237.131256103516 225.625 212.274993896484 200.300003051758 194.487503051758 189.975006103516 184.793746948242 180.768753051758 178.137496948242 173.362503051758 170.59375 
175.050003051758 169.274993896484 168 168.03125 168.600006103516 172.856246948242 178.699996948242 184.568756103516 192.643753051758 201.449996948242 210.018753051758 213.925003051758 214.931243896484 211.774993896484 206.587493896484 199.856246948242 191.949996948242 186.074996948242 184.956253051758 183.862503051758 183.131256103516 180.800003051758 178.175003051758 178.256256103516 178.681243896484 178.600006103516 180.949996948242 187.231246948242 194.418746948242 200.262496948242 202.456253051758 197.956253051758 191.287506103516 184.681243896484 181.9375 185.456253051758 199.34375 216.0625 231.893753051758 236.887496948242 233.118743896484 223.199996948242 212.324996948242 202.643753051758 197.306243896484 192.087493896484 187.824996948242 183.981246948242 180.768753051758 175.731246948242 173.600006103516 
174.693756103516 169.75 169.168746948242 169.418746948242 170.862503051758 176.631256103516 182.787506103516 189.962493896484 199.375 208.84375 219.050003051758 224.925003051758 229.175003051758 230.262496948242 224.037506103516 214.524993896484 205.106246948242 197.162506103516 194.362503051758 193.893753051758 192.662506103516 189.074996948242 182.112503051758 181.206253051758 181.356246948242 182.199996948242 186.143753051758 192.618743896484 200.743743896484 208.024993896484 210.868743896484 204.21875 193.231246948242 181.381256103516 174.425003051758 178.743743896484 192.875 208.574996948242 221.800003051758 226.8125 225.574996948242 217.918746948242 210.637496948242 204.037506103516 199.362503051758 194.956253051758 190.65625 186.762496948242 183.356246948242 176.362503051758 176.131256103516 
174.6875 169.574996948242 169.600006103516 170.524993896484 173.175003051758 179.981246948242 187.537506103516 194.824996948242 204.856246948242 215.199996948242 225.699996948242 233.637496948242 241.993743896484 248.675003051758 240.243743896484 225.568756103516 213.106246948242 205.949996948242 202.712493896484 201.793746948242 196.71875 190.037506103516 184.668746948242 183.443756103516 183.550003051758 184.587493896484 190.21875 198.081253051758 205.368743896484 212.100006103516 213.637496948242 209.137496948242 194.699996948242 178.231246948242 166.418746948242 172.787506103516 189.787506103516 205.625 216.1875 220.631256103516 218.8125 212.793746948242 209.693756103516 206.15625 202.293746948242 197.918746948242 192.931243896484 188.481246948242 184.143753051758 177.40625 177.268753051758 
174.40625 170.856246948242 171.6875 173.412506103516 177.350006103516 184.324996948242 192.512496948242 201.112503051758 210.96875 220.493743896484 228.90625 236.581253051758 244.78125 252.09375 244.587493896484 230.356246948242 218.34375 209.387496948242 206.099990844727 202.956253051758 198.074996948242 192.081253051758 186.15625 185.693756103516 186.475006103516 188.456253051758 194.668746948242 201.550003051758 209.3125 216.881256103516 219.6875 216.5 201.318756103516 182.037506103516 164.618743896484 174.40625 194.087493896484 209.362503051758 218.043746948242 221.081253051758 219.356246948242 215.337493896484 211.668746948242 207.725006103516 203.887496948242 199.725006103516 194.71875 190.050003051758 183.737503051758 178.699996948242 176.856246948242 
173.412506103516 171.237503051758 173.131256103516 176.831253051758 181.03125 188.956253051758 197.800003051758 206.993743896484 216.625 224.100006103516 229.556243896484 233.506256103516 237.550003051758 240.237503051758 237.931243896484 230.293746948242 221.949996948242 214.418746948242 209.318740844727 205.212493896484 197.681243896484 190.725006103516 186.056243896484 185.487503051758 186.731246948242 189.818756103516 197.368743896484 205.28125 214.456253051758 223.787506103516 229.768753051758 228.012496948242 214.943756103516 200.537506103516 190.737503051758 196.34375 209.987503051758 220.643753051758 225.074996948242 225.300003051758 223.112503051758 219.537506103516 215.462509155273 210.956253051758 207.1875 202.774993896484 197.375 191.893753051758 184.875 180.6875 176.881256103516 
174.96875 174.381256103516 176.324996948242 180.487503051758 185 194.050003051758 202.4375 212.256256103516 222.074996948242 226.40625 227.893753051758 227.65625 227.362503051758 229.1875 230.78125 228.212493896484 222.912506103516 216.818756103516 210.837493896484 204.712493896484 196.868743896484 189 183.256256103516 182.787506103516 185.21875 189.681243896484 197.993743896484 207.231246948242 218.212493896484 229.837493896484 239.356246948242 243.431243896484 232.556243896484 222.806243896484 220.399993896484 226.03125 233.125 237.125 236.09375 231.487503051758 227.081253051758 223.0625 218.581253051758 214.012496948242 210.40625 206.106246948242 200.362503051758 194.087493896484 187.381256103516 183.1875 179.300003051758 
180.318756103516 180.46875 182.4375 185.118743896484 189.324996948242 198.1875 207.21875 215.693756103516 224.212493896484 226.337493896484 226.162506103516 224.112503051758 219.46875 222.893753051758 226.25 225.449996948242 221.875 217.074996948242 210.850006103516 203.831253051758 195.068756103516 186.574996948242 180.175003051758 180.112503051758 183.350006103516 187.556243896484 197.637496948242 208.712493896484 220.337493896484 233.506256103516 245.106246948242 251.675003051758 245.793746948242 241.181243896484 243.106246948242 250.15625 253.612503051758 250.449996948242 244.412506103516 237.087493896484 231.081253051758 225.631256103516 220.837493896484 216.59375 214.3125 209.793746948242 203.143753051758 194.743743896484 191.106246948242 186.018753051758 182.375 
189.393753051758 189.018753051758 189.9375 192.125 196.168746948242 203.137496948242 211.09375 218.175003051758 223.699996948242 226.137496948242 226.193756103516 224.806243896484 223.524993896484 225.125 225.774993896484 225.300003051758 223.043746948242 218 211.393753051758 203.612503051758 194.456253051758 184.618743896484 176.824996948242 176.300003051758 179.487503051758 186.875 197.231246948242 209.806243896484 221.987503051758 234.949996948242 246.149993896484 253.543746948242 253.100006103516 252.868743896484 255.975006103516 258.837493896484 259.681243896484 255.337493896484 247.993743896484 240.087493896484 233.356246948242 227.337493896484 222.662506103516 219.550003051758 216.918746948242 212.868759155273 204.831253051758 199.65625 194.875 191.762496948242 189.018753051758 
203.012496948242 202.21875 200.774993896484 201.399993896484 203.762496948242 209.649993896484 215.300003051758 220.725006103516 224.90625 227.181243896484 227.699996948242 228.068756103516 229.043746948242 229.59375 229.412506103516 227.806243896484 225.318756103516 219.856246948242 213.443756103516 205.125 194.875 183.318756103516 173.568756103516 171.456253051758 177.03125 186.100006103516 199 211.15625 223.837493896484 235.574996948242 246.087493896484 254.337493896484 256.649993896484 258.850006103516 262.168762207031 262.693756103516 261.631256103516 257.725006103516 249.081253051758 241.262496948242 234.456253051758 228.5 223.256256103516 220.25 219.774993896484 216.368743896484 212.21875 207.712493896484 202.237503051758 201.112503051758 199.381256103516 
214.868743896484 212.824996948242 210.456253051758 210.787506103516 211.493743896484 214.987503051758 219.431243896484 222.431243896484 225.862503051758 228.675003051758 230.337493896484 231.600006103516 233.543746948242 234.987503051758 234.03125 232.818756103516 229.90625 224.462493896484 217.449996948242 208.550003051758 197.518753051758 185.625 174.0625 170.806243896484 178.881256103516 188.868743896484 201.725006103516 214.256256103516 226.131256103516 237.268753051758 247.75 255.087493896484 258.40625 263.268737792969 265.493743896484 265.881256103516 264.693756103516 260.431243896484 252.612503051758 244.412506103516 237.018753051758 230.1875 224.118743896484 220.318756103516 222.143753051758 222.375 220.206253051758 217.6875 215.475006103516 211.506256103516 211.71875 
227.043746948242 223.018753051758 220.681243896484 219.743743896484 219.074996948242 220.324996948242 223.462493896484 226.324996948242 228.949996948242 231.824996948242 233.268753051758 235.162506103516 237.356246948242 239.131256103516 238.675003051758 237.793746948242 234.868743896484 230.462493896484 223.112503051758 214.643753051758 204.143753051758 192.475006103516 183.412506103516 181.449996948242 186.362503051758 195.087493896484 207.024993896484 219.149993896484 230.362503051758 240.912506103516 250.587493896484 258.512512207031 263.512512207031 266.512512207031 268.512512207031 268.96875 266.8125 263.931243896484 255.71875 246.881256103516 239.143753051758 232.306243896484 225.6875 222.225006103516 225.981246948242 227.731246948242 227.856246948242 227.762496948242 226.893753051758 223.431243896484 223.387496948242 
237.681243896484 233.106246948242 229.731246948242 227.987503051758 226.8125 226.649993896484 228.212493896484 229.725006103516 232.324996948242 235.056243896484 236.59375 238.675003051758 240.868743896484 243.9375 244.199996948242 244.399993896484 242.800003051758 237.649993896484 231.59375 222.962493896484 213.206253051758 202.100006103516 194.862503051758 193.981246948242 196.712493896484 203.118743896484 214.318756103516 225.599990844727 237.168746948242 246.856246948242 254.90625 262.975006103516 266.975006103516 269.943756103516 272.587493896484 272.106262207031 271.206237792969 268.837493896484 261.806243896484 251.856246948242 241.787506103516 234.006256103516 229.21875 228.068756103516 233.21875 235.649993896484 235.943756103516 238.662506103516 238.637496948242 237.337493896484 236.018753051758 
245.056243896484 239.662506103516 236.006256103516 233.362503051758 232.381256103516 231.71875 231.800003051758 232.4375 234.118743896484 236.918746948242 239.012496948242 242.375 245.631256103516 249.625 251.193756103516 251.175003051758 250.987503051758 248.143753051758 242.65625 233.699996948242 223.449996948242 213.606246948242 206.875 205.893753051758 207.806243896484 213.131256103516 223.0625 233.112503051758 243.637496948242 252.03125 260.493743896484 268.306243896484 271.875 275.537506103516 278.018737792969 278.862487792969 278.043762207031 277.3125 269.806243896484 260.662506103516 254.34375 248.918746948242 244.318756103516 244.487503051758 245.6875 250.5625 253.768753051758 256.506256103516 256.725006103516 256.006256103516 254.493743896484 
249.737503051758 244.712493896484 240.024993896484 237.537506103516 235.731246948242 235.112503051758 234.693756103516 235.024993896484 236.475006103516 238.631256103516 242.293746948242 247.006256103516 251.90625 255.493743896484 257.231262207031 258.925018310547 260.024993896484 258.318756103516 254.400009155273 245.375 234.793746948242 224.606246948242 217.481246948242 216.5625 218.274993896484 223.162490844727 231.90625 241.387496948242 250.899993896484 258.475006103516 266.237487792969 273.856262207031 278.918762207031 283.318756103516 286.737487792969 286.8125 287.25 288.137512207031 281.168762207031 272.262512207031 267.881256103516 265.75 262.912506103516 260.84375 262.037506103516 270.512512207031 275.375 278.231262207031 277.399993896484 274.3125 273.118743896484 
250.756256103516 246.606246948242 242.606246948242 240.5 238.393753051758 237.074996948242 236.693756103516 235.899993896484 237.175003051758 240.306243896484 244.118743896484 250.143753051758 256.424987792969 261.756256103516 264.300018310547 267.381256103516 267.149993896484 264.987487792969 261.012512207031 253.887496948242 244.212493896484 234.987503051758 227.287506103516 226.818756103516 228.962493896484 233.09375 240.756256103516 249.5 258.431243896484 266.268737792969 273.649993896484 280.524993896484 286.200012207031 291.006256103516 295.431243896484 296.587493896484 298.149993896484 299.037506103516 292.643737792969 287.943756103516 287.21875 286.28125 284.262512207031 283.606262207031 286.34375 297.862487792969 303.706237792969 304.456237792969 300.056243896484 294.950012207031 291.543762207031 
249.106246948242 246.043746948242 243.231246948242 241.0625 238.53125 237.212493896484 236 235.600006103516 237.643753051758 241.475006103516 247.324996948242 254.399993896484 263.056243896484 270.387512207031 273.600006103516 275.237487792969 274.737487792969 272.90625 267.743743896484 261.331237792969 253.268753051758 244.350006103516 237.131256103516 236.399993896484 238.625 242.487503051758 249.46875 258.393737792969 267 274 281.637512207031 288.081237792969 293.875 300.381256103516 306.4375 309.549987792969 311.71875 312.037506103516 307.762512207031 308.568756103516 309.950012207031 310.793762207031 312.043762207031 314.850006103516 323.96875 338.875 342.793762207031 336.868743896484 329.106262207031 321.887512207031 315.212493896484 
247.681243896484 244.725006103516 242.274993896484 240.818756103516 238.412506103516 236.40625 235.193756103516 235.056243896484 236.068756103516 240.40625 247.524993896484 257.868743896484 269.725006103516 278.549987792969 282.149993896484 283.59375 282.825012207031 280.125 274.90625 268.78125 260.737487792969 252.074996948242 245.712493896484 244.962493896484 247.25 250.90625 257.831237792969 266.037506103516 274.856262207031 282.418762207031 289.987487792969 296.668762207031 304.268737792969 311.487487792969 317.487487792969 322.043762207031 324.856262207031 326.4375 325.737487792969 328.493743896484 331.143737792969 334.8125 341.200012207031 347.743743896484 359.337493896484 372.881256103516 374.774993896484 366.381256103516 356.5625 347.200012207031 339.606262207031 
245.956253051758 244.131256103516 242.100006103516 239.762496948242 238.03125 236.0625 233.793746948242 232.8125 233.037506103516 237.056243896484 246.512496948242 261.34375 277.03125 288.075012207031 291.137512207031 292.012512207031 290.143737792969 286.443756103516 281.96875 275.350006103516 268.4375 259.59375 253.0625 251.84375 254.481246948242 257.524993896484 264.899993896484 273.537506103516 282.350006103516 290.356262207031 297.325012207031 305.643737792969 314.006256103516 322.643737792969 329.543762207031 333.762512207031 336.568756103516 341.975006103516 344.25 346.518768310547 350.875 355.4375 363.475006103516 372.456237792969 383.106262207031 391.5625 393.337493896484 388.59375 379.837493896484 370.756256103516 362.712493896484 
245.125 243.862503051758 241.699996948242 238.831253051758 236.462493896484 235.024993896484 232.518753051758 230.506256103516 229.625 233.224990844727 244.693756103516 262.5 281.25 294.274993896484 297.78125 298.631256103516 297.637512207031 293.587493896484 287.4375 281.756256103516 274.6875 267.131256103516 260.112487792969 259.262512207031 260.46875 263.15625 270.268737792969 279.806243896484 288.431243896484 296.200012207031 304.287506103516 313.087493896484 323.037506103516 332.825012207031 339.424987792969 342.84375 348.71875 352.418762207031 354.418762207031 358.681243896484 364.787506103516 369.049987792969 375.700012207031 385.8125 394.399993896484 400.462493896484 403.587493896484 402.643737792969 397.693756103516 390.450012207031 381.950012207031 
245.537506103516 244.34375 241.4375 239.899993896484 237.193756103516 235.525009155273 232.975006103516 230.206253051758 227.550003051758 225.987503051758 242.324996948242 267.431243896484 285.90625 297.475006103516 302.587493896484 303.9375 303.462493896484 299.262512207031 294.125 287.487487792969 280.049987792969 272.237487792969 265.674987792969 264.481262207031 264.993743896484 267.71875 274.731262207031 283.693756103516 293.087493896484 301.274993896484 309.943756103516 319.149993896484 330.931243896484 341.762512207031 350.049987792969 355.456237792969 359.168731689453 362.487487792969 364.912506103516 368.375 372.899993896484 378.243743896484 385.362487792969 394.825012207031 403.03125 408.131256103516 414.200012207031 415.6875 411.993743896484 407.149993896484 400.431243896484 
246.056243896484 245.074996948242 242.59375 240.743743896484 238.887496948242 237.368743896484 235.65625 233.793746948242 233.106246948242 230.381256103516 256.493743896484 283.125 295.600006103516 302.993743896484 307.693756103516 309.231262207031 307.5625 303.6875 297.518737792969 290.162506103516 283.125 275.149993896484 269.450012207031 267.931243896484 268.649993896484 271.262512207031 277.90625 287.106262207031 296.618743896484 306.21875 314.168762207031 324.162506103516 336.618743896484 349.012512207031 357.831237792969 363.868743896484 367.543762207031 371.056243896484 373.4375 375.862487792969 378.800018310547 384.362487792969 390.043762207031 397.837493896484 406.325012207031 414.112487792969 421.125 424.612487792969 423.193756103516 420.762512207031 414.743743896484 
247.756256103516 246.018753051758 243.5 242.875 241.149993896484 240.893753051758 241.731246948242 243.412506103516 248.824996948242 264.181243896484 294.15625 302.993743896484 306.862487792969 311.09375 314.306243896484 313.756256103516 311.856262207031 306.631256103516 299.0625 291.350006103516 283.131256103516 275.306243896484 270.837493896484 268.981262207031 269.681243896484 273.256256103516 279.649993896484 288.3125 297.768737792969 306.943756103516 316.306243896484 325.356262207031 336.362487792969 347.75 358.799987792969 364.28125 367.006256103516 371.200012207031 372.424987792969 372.043762207031 374.575012207031 378.193756103516 383.143737792969 389.331237792969 396.200012207031 403.674987792969 409.387512207031 411.793762207031 411.375 412.137512207031 407.5 
249.78125 247.737503051758 245.806243896484 244.662506103516 243.756256103516 245.206253051758 247.324996948242 252.9375 262.493743896484 279.287506103516 298.375 308.962493896484 315.181243896484 318.9375 320.5 319.806243896484 316.924987792969 310.412506103516 301.325012207031 293.075012207031 282.40625 274.225006103516 269.231262207031 267.712493896484 270.212493896484 274.006256103516 280.587493896484 288.912506103516 298.274993896484 307.149993896484 315.487487792969 326.262512207031 338.618743896484 348.46875 356.625 362 364.206237792969 366.568756103516 367.862487792969 366.131256103516 367.09375 370.075012207031 373.399993896484 376.681243896484 382.668762207031 389.293762207031 394.956237792969 399.075012207031 399.6875 401.956237792969 399.325012207031 
251.731246948242 249.137496948242 248.118743896484 246.768753051758 246.550003051758 247.768753051758 252.050003051758 259.8125 270.231262207031 285.068756103516 299.725006103516 310.006256103516 319.46875 324.524993896484 326.412506103516 326.106262207031 322.537506103516 315.631256103516 305.443756103516 293.643737792969 280.493743896484 270.637512207031 265.443756103516 265.512512207031 269.575012207031 274.256256103516 280.837493896484 289.625 298.231262207031 307.456237792969 317.368743896484 329.381256103516 339.774993896484 348.675018310547 354.368743896484 358.381256103516 360.71875 361.549987792969 362.28125 358.418762207031 358.475006103516 358.981262207031 359.768737792969 364.200012207031 369.606262207031 375.662506103516 380.756256103516 384.09375 387.649993896484 391.362487792969 391.643768310547 
252.818756103516 249.649993896484 248.34375 246.918746948242 246.806243896484 249.125 253.418746948242 261.356262207031 271.462493896484 284.337493896484 297.875 309.231262207031 318.868743896484 326.274993896484 328.931243896484 329.118743896484 326.71875 320.412506103516 309.9375 293.568756103516 275.875 262.606262207031 257.881256103516 259.931243896484 265.899993896484 272.381256103516 279.512512207031 287.693756103516 297.71875 307.71875 315.856262207031 328.78125 337.924987792969 346.46875 352.587493896484 353.325012207031 354.350006103516 355.024993896484 353.125 349.056243896484 346.8125 343.712493896484 342.631256103516 349.043762207031 354.787506103516 360.487487792969 364.856262207031 368.15625 372.643737792969 376.868743896484 379.887512207031 
253.681243896484 249.931243896484 248.143753051758 245.981246948242 246.012496948242 248.268753051758 252.78125 259.75 269.487487792969 281.568756103516 296.350006103516 307.943756103516 318.393737792969 326.512512207031 330.9375 332.931243896484 331.75 326.443756103516 315.887512207031 295.299987792969 271.431243896484 251.350006103516 248.912506103516 255.043746948242 263.112487792969 271.512512207031 278.793762207031 285.987487792969 295.75 306.46875 316.512512207031 325.893737792969 334.799987792969 341.893737792969 347.612487792969 351.212493896484 348.912506103516 346.9375 342.568756103516 338.612487792969 335.981262207031 332.893737792969 331.475006103516 334.981262207031 340.606262207031 345.0625 349.662506103516 352.899993896484 357.368743896484 362.375 367.625 
254.012496948242 250.012496948242 246.274993896484 244.024993896484 244.15625 245.893753051758 249.556243896484 256.387512207031 266.825012207031 278.28125 292.768737792969 306.700012207031 317.75 327.21875 334.206237792969 336.6875 335.75 330.912506103516 323.237487792969 301.506256103516 273.443756103516 249.431259155273 247.6875 253.649993896484 261.862518310547 270.912506103516 278.399993896484 285.674987792969 294.131256103516 304.637512207031 314.731262207031 324.9375 332.375 337.424987792969 342.399993896484 347.162506103516 343.962493896484 339.356262207031 334.181243896484 329.862487792969 326.46875 324.3125 323.481262207031 325.387512207031 328.756256103516 331.862487792969 335.993743896484 337.649993896484 339.806243896484 346.0625 354.368743896484 
254.862503051758 250.050003051758 244.65625 242.324996948242 241.412506103516 242.800003051758 245.225006103516 251.081253051758 261.59375 274.524993896484 289.450012207031 304.6875 317.112487792969 328.318756103516 335.475006103516 337.600006103516 336.693756103516 330.46875 321.100006103516 302.625 279.875 263.668762207031 256.368743896484 258.137512207031 264.65625 271.668731689453 278.737487792969 285.299987792969 293.46875 303.056243896484 312.5625 321.912506103516 328.462493896484 332.081237792969 334.9375 339.893737792969 336.943756103516 331.431243896484 326.71875 323.643768310547 320.068756103516 318.418762207031 317.350006103516 316.975006103516 319.568756103516 322.137512207031 323.774993896484 324.256256103516 323.362487792969 328.643737792969 339.337493896484 
